Assets/Resources/EldamarStudio/100 Horror LUTs Pack/LUTs/cube/Abyss LUT.cube
LUT_3D_SIZE 8
DOMAIN_MIN 0.000000 0.000000 0.000000
DOMAIN_MAX 0.903226 0.903226 0.903226
0.117647000 0.039216001 0.047059000
0.122327998 0.043895997 0.051739097
0.146615997 0.066666998 0.075268902
0.172042638 0.085768647 0.093611643
0.205186382 0.118279189 0.115875989
0.260341734 0.152687997 0.143073738
0.351549566 0.205186576 0.182669282
0.496141434 0.273497820 0.240859941
0.132953539 0.076407544 0.063124545
0.129791453 0.076407544 0.075648546
0.146616086 0.092093542 0.088172443
0.168501109 0.110056639 0.098292351
0.210499555 0.138646200 0.121821642
0.265654981 0.173560917 0.150411189
0.349146277 0.223909289 0.189879537
0.488677770 0.286401242 0.241113245
0.136495903 0.125996083 0.107274093
0.136369079 0.149272546 0.119924091
0.147375092 0.149652004 0.116002090
0.176344097 0.164073557 0.126122892
0.218596101 0.188741297 0.148007289
0.283997715 0.219987184 0.177735463
0.370272189 0.272486001 0.214421272
0.516761482 0.338140160 0.277925462
0.137254998 0.210246637 0.158001363
0.139152452 0.226059526 0.157115549
0.161922544 0.225553185 0.161796540
0.188868001 0.238836288 0.172675639
0.229854628 0.266666830 0.195066199
0.297533363 0.297786027 0.219607651
0.395446211 0.342694551 0.254143268
0.543074071 0.412776619 0.324351817
0.131815195 0.323466182 0.206704184
0.141302809 0.333586395 0.222643986
0.155218095 0.337508082 0.223150089
0.200506091 0.350790352 0.234534830
0.260721177 0.370272368 0.248956189
0.335357010 0.409487665 0.279063940
0.453130841 0.452498466 0.323339254
0.586716950 0.517014503 0.393674642
0.136622474 0.479443192 0.293611467
0.154079467 0.486148208 0.304237753
0.195825621 0.488930911 0.313092977
0.255408019 0.507020712 0.331056446
0.329031914 0.521821737 0.351423383
0.408855170 0.546110213 0.379506439
0.519417822 0.579127252 0.426944733
0.640101373 0.636306286 0.504490793
0.272106260 0.647564530 0.433523268
0.294370830 0.649841845 0.452751279
0.328779340 0.657052636 0.456925720
0.381530553 0.667172849 0.473877192
0.444149256 0.675901353 0.492093652
0.521442294 0.691587269 0.522580743
0.596584558 0.706388593 0.547880828
0.696394801 0.737001956 0.598861516
0.529032230 0.809613764 0.635926425
0.549652100 0.822264194 0.655787289
0.563820124 0.824035585 0.662871659
0.598861217 0.826185822 0.666919589
0.643137038 0.833396375 0.679443598
0.698418438 0.844149411 0.702466726
0.753700018 0.855028152 0.725743175
0.812397420 0.865907788 0.752435386
0.121569000 0.047059000 0.063503996
0.122327998 0.040733997 0.060721450
0.143832639 0.068564452 0.084629998
0.167362556 0.093611643 0.099936642
0.198608547 0.125743449 0.126881808
0.249841988 0.163693801 0.157115549
0.338519812 0.207842827 0.194560543
0.482352763 0.275395542 0.248450518
0.118785545 0.073244542 0.080328554
0.137634456 0.084250547 0.080328546
0.146995544 0.093611538 0.093231991
0.161796540 0.116761185 0.110056542
0.200252831 0.138266534 0.137128085
0.255407989 0.176217288 0.168121353
0.340038031 0.220366836 0.202782989
0.472233027 0.283744544 0.248450503
0.130170897 0.131562099 0.113978542
0.134471551 0.141429543 0.120303541
0.154079556 0.142947555 0.127767086
0.169639543 0.159772098 0.131941736
0.211132437 0.184819996 0.153447196
0.265021831 0.221252352 0.182416081
0.359898865 0.268943638 0.222770542
0.506894290 0.340417325 0.286021799
0.130929902 0.206198737 0.156230539
0.143959358 0.208601832 0.162175998
0.158760443 0.217963636 0.159646079
0.182922438 0.236052915 0.177355722
0.223529547 0.259076357 0.195319533
0.286780626 0.295129389 0.222390980
0.386337489 0.342821300 0.261732936
0.528779149 0.411511421 0.325363517
0.122707449 0.324225187 0.213156089
0.134851098 0.328020364 0.224921197
0.159519449 0.331182390 0.229475185
0.201391190 0.345351100 0.241239995
0.254522204 0.364073366 0.252119005
0.327767253 0.397723168 0.278558075
0.440227807 0.447817564 0.328779399
0.578367770 0.515496552 0.398734897
0.128652722 0.467299461 0.302846491
0.152181819 0.468058437 0.306009263
0.190259188 0.477039844 0.314231753
0.241745561 0.492852688 0.327134579
0.318406254 0.509298027 0.350664258
0.396584451 0.534724653 0.377482712
0.510562718 0.572042882 0.426438838
0.637571156 0.628842354 0.501201987
0.264642835 0.638456821 0.443137288
0.284123808 0.639595270 0.439974815
0.311954200 0.643643379 0.443896115
0.366350532 0.651866019 0.463504076
0.427703738 0.664895773 0.484756291
0.507779837 0.677419364 0.511068642
0.588235259 0.702214003 0.541302860
0.687412739 0.730297327 0.594813347
0.517267406 0.806831300 0.647438347
0.527387500 0.813409150 0.633016825
0.541808665 0.805692494 0.640859962
0.572801888 0.812523782 0.651992500
0.621505320 0.822390795 0.664895415
0.684629679 0.834155381 0.694243908
0.742694318 0.846553028 0.719291389
0.802276671 0.860594749 0.742315054
0.121569000 0.045414094 0.087793000
0.122707449 0.056040548 0.088931449
0.143453091 0.074510001 0.106641091
0.164958745 0.096774451 0.120303549
0.199114382 0.135610089 0.149651989
0.252624720 0.170398742 0.176976368
0.335863560 0.218469188 0.214547992
0.482985407 0.282605976 0.276533812
0.129411995 0.079949096 0.105881996
0.136495918 0.090954997 0.107779540
0.146236554 0.103478998 0.118785545
0.170145184 0.124225445 0.139532000
0.204301447 0.149652198 0.158380911
0.254901737 0.186464190 0.186464086
0.340544164 0.234155282 0.221125826
0.481846869 0.294750094 0.293738067
0.134092093 0.137128100 0.130044192
0.142820999 0.151676461 0.155344918
0.155218095 0.156736106 0.149651989
0.175585091 0.173940286 0.157495096
0.213915199 0.198988080 0.184945986
0.271094084 0.235041082 0.213535830
0.363946557 0.277799278 0.250601083
0.509044766 0.344718784 0.317267805
0.139278650 0.227957085 0.188108996
0.140417099 0.231119290 0.191650644
0.165085360 0.239721984 0.196711093
0.189373642 0.248703539 0.206071988
0.232384652 0.270588487 0.222896740
0.292726278 0.305755615 0.248956263
0.401518285 0.350284725 0.290828824
0.535609961 0.417077839 0.354585558
0.128652900 0.331309199 0.242758080
0.137254804 0.340038061 0.251865745
0.162302002 0.343833089 0.259329259
0.199747190 0.356736034 0.261985838
0.259329289 0.376723439 0.282859057
0.335483909 0.406071961 0.306262076
0.446932346 0.455787301 0.355471194
0.584566712 0.523845792 0.426692039
0.147881091 0.486400962 0.343706369
0.163567379 0.487918973 0.344212532
0.199493974 0.495762259 0.351676077
0.257432163 0.504617095 0.363314360
0.333839089 0.521947980 0.377356172
0.407843262 0.542694449 0.398355365
0.512207210 0.584187388 0.451106787
0.642125368 0.638203502 0.521694958
0.284756273 0.643516660 0.468184829
0.300695539 0.651739597 0.475268573
0.335483640 0.656420052 0.484630197
0.384060860 0.664642751 0.491966903
0.445161343 0.676027775 0.512966514
0.514990568 0.686148286 0.532574177
0.598228693 0.701834202 0.564579368
0.697279930 0.735483706 0.608981788
0.531056166 0.812650323 0.655154586
0.546236455 0.815180242 0.657558620
0.566097200 0.818342745 0.665654421
0.596204937 0.824161947 0.676154315
0.641366243 0.831246018 0.689816535
0.692726076 0.840101361 0.710562885
0.747121930 0.851739228 0.728526235
0.817457557 0.862997770 0.757242441
0.121569000 0.057178997 0.123339638
0.125869542 0.061480448 0.127640903
0.146236449 0.083491646 0.138266742
0.159140006 0.098671995 0.141302645
0.197849557 0.134724990 0.175078720
0.249462634 0.168753743 0.207083821
0.339784980 0.216445342 0.250094652
0.485768408 0.285009444 0.317393988
0.130550444 0.090449445 0.125996187
0.131309360 0.095509186 0.131562188
0.143832639 0.099810541 0.140543744
0.164579093 0.124098636 0.158886999
0.198229104 0.147627845 0.182542995
0.253257662 0.183554724 0.208222374
0.343200624 0.234534815 0.256673187
0.479696393 0.294370353 0.318405628
0.130929992 0.141682193 0.159266546
0.143959358 0.151929095 0.163946733
0.155218005 0.158128008 0.181277737
0.175964639 0.173814207 0.186717525
0.211005732 0.202783197 0.214168623
0.272486061 0.234155461 0.245540634
0.366729915 0.288931251 0.289310545
0.509297848 0.354585737 0.352434903
0.131055996 0.220366642 0.203542277
0.134851098 0.225806728 0.217330739
0.155597642 0.241492629 0.224668175
0.188868001 0.259076297 0.238329917
0.224667996 0.277040064 0.256040454
0.291081488 0.307653278 0.282985657
0.394307554 0.355597913 0.323592633
0.533712804 0.420240462 0.387349933
0.124351643 0.341049731 0.276534170
0.131309450 0.345603913 0.288298249
0.164199650 0.351928920 0.287413180
0.203542188 0.363187671 0.296774179
0.261859834 0.380012840 0.316634804
0.333712906 0.413788944 0.343326926
0.448829830 0.459202915 0.387982011
0.581530809 0.522960186 0.453130603
0.145477474 0.477039814 0.363946736
0.163820535 0.487666249 0.370525092
0.203415379 0.490069479 0.378368020
0.254016459 0.504111469 0.387349755
0.328526199 0.522201121 0.406578094
0.408728808 0.545730352 0.434028983
0.515369892 0.582542658 0.478684217
0.645414293 0.639342189 0.546362758
0.279063880 0.644781947 0.487918884
0.298545271 0.644655287 0.492979378
0.323592395 0.644275486 0.495635718
0.378747195 0.653130531 0.510309815
0.437570989 0.666792989 0.526375651
0.513219535 0.682479322 0.552308798
0.594433904 0.703605175 0.576976538
0.693484902 0.738646209 0.628083587
0.524098754 0.806704581 0.665781200
0.532574177 0.810120225 0.659582555
0.548387110 0.809487641 0.672359228
0.581024587 0.815686226 0.680834770
0.625426948 0.823908806 0.689942718
0.682985485 0.833523035 0.713219583
0.744338632 0.851107001 0.737507701
0.809740603 0.865654409 0.767488897
0.123086803 0.074510001 0.173181191
0.127387643 0.079190098 0.176723644
0.143453285 0.088551894 0.181783900
0.165844351 0.110056639 0.186084554
0.194307387 0.137887195 0.210626185
0.250600994 0.175331980 0.249842182
0.344338983 0.220872998 0.294876754
0.492346227 0.285262793 0.372422606
0.130170792 0.103858545 0.173055202
0.138393357 0.107020542 0.186717018
0.146236554 0.118785448 0.187602639
0.166603461 0.134471655 0.198229089
0.197469980 0.153194442 0.211891338
0.250601113 0.191524446 0.249715388
0.343706548 0.239721805 0.304111511
0.487286299 0.298165649 0.365591347
0.136622190 0.155092001 0.207590178
0.132194653 0.162175998 0.213662446
0.154585913 0.169260010 0.219481274
0.171283737 0.184187293 0.223655745
0.207590178 0.207590207 0.246805996
0.271347642 0.237697721 0.286780477
0.372675538 0.288931072 0.332068264
0.516887963 0.355850816 0.399367392
0.125996456 0.229095638 0.246426433
0.130929917 0.237318188 0.252624750
0.151296794 0.250601083 0.267172992
0.185705185 0.267046094 0.283870637
0.231372640 0.287286282 0.305502981
0.303225845 0.320936263 0.332700372
0.405692935 0.365085185 0.377988458
0.545224547 0.426565439 0.439089179
0.115243196 0.341556013 0.319544196
0.131055996 0.350158185 0.325616628
0.156736091 0.364326298 0.338393301
0.211132437 0.386590838 0.353573740
0.274889380 0.407337338 0.379886389
0.348766744 0.421758652 0.397849143
0.457052648 0.466793209 0.437065482
0.587982118 0.526881814 0.496015191
0.149145931 0.489183843 0.412903190
0.169386625 0.499557346 0.415939361
0.210879013 0.506641328 0.425300360
0.266539901 0.520050347 0.439848125
0.338646442 0.538013697 0.456672966
0.418974996 0.556862473 0.478431284
0.527640581 0.596078455 0.523466110
0.647185266 0.645793915 0.582289934
0.301075280 0.647817731 0.526375294
0.304870546 0.654902101 0.530803263
0.333206564 0.660468221 0.536622524
0.380139291 0.661859453 0.547375202
0.446046740 0.676027834 0.565464556
0.518153071 0.691334724 0.583048999
0.602023721 0.707273483 0.607716560
0.704870164 0.746489525 0.654901862
0.516255200 0.810373187 0.689436734
0.524984121 0.815559387 0.683238387
0.542947412 0.815559387 0.693358481
0.582542479 0.823023260 0.700189412
0.632004738 0.829221785 0.713092983
0.687412858 0.840480685 0.730044007
0.753067613 0.851486564 0.756483316
0.817836523 0.864515781 0.778873920
0.115622737 0.091967255 0.238583460
0.127514258 0.097785987 0.246046916
0.145604357 0.109297730 0.254395992
0.167994648 0.124478087 0.252751470
0.205692455 0.153953254 0.276660532
0.254522502 0.180012465 0.295635730
0.346742272 0.226945281 0.348893255
0.496774018 0.293105781 0.429980785
0.120050907 0.117394179 0.235420465
0.130929798 0.122959986 0.249588981
0.143073633 0.132700726 0.250348091
0.166856289 0.145983741 0.259709179
0.205945462 0.166350633 0.275901616
0.250600994 0.194560736 0.299810261
0.344592035 0.243896246 0.354080021
0.491713852 0.303352505 0.426818341
0.117140912 0.174699187 0.273497850
0.126628742 0.180012479 0.269449830
0.143832833 0.182416186 0.279190481
0.175205544 0.192915738 0.286401093
0.214548081 0.216571838 0.302593440
0.268817127 0.247565001 0.332321197
0.370018840 0.295256078 0.384060830
0.522580564 0.357621610 0.456925690
0.111322269 0.244022459 0.310057014
0.120303720 0.253257632 0.314611286
0.141555831 0.260594577 0.326249361
0.184187084 0.273118377 0.333333373
0.227704272 0.293105811 0.348640025
0.299936742 0.321948111 0.378747463
0.405186653 0.365085185 0.423656106
0.544718266 0.435420662 0.492220134
0.097153746 0.350664198 0.375838190
0.106388450 0.358001113 0.376090825
0.144971207 0.371790200 0.391777039
0.203542084 0.389120549 0.406957418
0.272359163 0.413788795 0.425806671
0.359139621 0.439974666 0.456673115
0.464010388 0.476407021 0.492725909
0.592156649 0.538646102 0.545350790
0.142567724 0.495129704 0.456040710
0.164452925 0.503225625 0.471853256
0.203668728 0.511827826 0.475268483
0.272865474 0.531562328 0.498671561
0.351676136 0.553194165 0.525363684
0.436053216 0.573561192 0.544085860
0.545477748 0.602277219 0.569512963
0.652498484 0.645920575 0.619860709
0.296647727 0.654269099 0.567362428
0.299683630 0.654901981 0.572549164
0.339532137 0.659329653 0.577229381
0.389373630 0.671473920 0.593042016
0.449462205 0.686021328 0.610499799
0.527007997 0.697027445 0.621631563
0.603288829 0.715749264 0.646679580
0.714990139 0.749778330 0.692599475
0.527134597 0.808348954 0.713598907
0.533965647 0.812270522 0.715243459
0.549525559 0.817330718 0.721948385
0.580265522 0.821884871 0.724731147
0.619734406 0.829474628 0.728399754
0.679316700 0.840860248 0.753700376
0.745097637 0.856166899 0.775078893
0.817710400 0.872232795 0.803035736
0.089564003 0.116002284 0.359392554
0.103352264 0.118026547 0.361669868
0.131182998 0.127767086 0.363693744
0.174319640 0.146868929 0.371283889
0.223150089 0.172295988 0.388108730
0.286780447 0.200126439 0.401770800
0.371410251 0.239468277 0.433523268
0.504238009 0.299304098 0.497026920
0.086021550 0.137381256 0.347375274
0.104617007 0.140796855 0.359139562
0.125742912 0.151676446 0.362302363
0.167615280 0.168121263 0.369006902
0.221125826 0.186717436 0.385452002
0.289310724 0.217330545 0.405818880
0.366476834 0.253636986 0.430613399
0.498924881 0.311574936 0.495509356
0.074256912 0.194307387 0.376344383
0.090449199 0.195066288 0.381657094
0.122453995 0.205945671 0.380265355
0.171283737 0.216445342 0.392789483
0.233269989 0.238836080 0.409993649
0.301201671 0.267046094 0.431246161
0.388614863 0.303858161 0.463251382
0.521442115 0.364325970 0.519544423
0.031499445 0.275774986 0.419481277
0.057558272 0.275268912 0.410752535
0.110309847 0.281847000 0.420872748
0.170398638 0.295508891 0.430233806
0.244275898 0.315496475 0.446805745
0.324984014 0.341176361 0.467931449
0.422896892 0.377356291 0.496900529
0.552308679 0.436306000 0.547880888
0.013029722 0.385072559 0.468817264
0.035926633 0.389247179 0.477672279
0.113978617 0.395446092 0.477419376
0.185705081 0.405313015 0.486527622
0.273877472 0.420493275 0.504111290
0.368121117 0.446299464 0.526122451
0.474256814 0.479190171 0.553700328
0.597596347 0.537507892 0.606957734
0.118911922 0.525490463 0.546615958
0.146742448 0.529538393 0.551928818
0.197975978 0.533712804 0.556482971
0.266793281 0.544718683 0.570272207
0.351296663 0.565085232 0.584566951
0.448323756 0.589120686 0.611132324
0.549398839 0.614041746 0.633523524
0.663124859 0.653889537 0.670082033
0.290701985 0.660341263 0.623402536
0.309677273 0.659076571 0.617457092
0.339278549 0.666540563 0.634408474
0.390385568 0.674383581 0.643643498
0.457684815 0.687792301 0.659456253
0.548513710 0.714863777 0.685136020
0.626312256 0.732574582 0.705755532
0.726502478 0.755977213 0.734471917
0.518911958 0.811258495 0.735230565
0.543327034 0.814800620 0.743706465
0.551802218 0.819102049 0.748260379
0.588614404 0.822896957 0.760404646
0.631752014 0.835546851 0.774066925
0.691461086 0.845414519 0.788108945
0.751169801 0.856925905 0.802656293
0.822390735 0.876660347 0.828842342
0.000000000 0.138645992 0.555091560
0.004553989 0.143200263 0.549399018
0.064010337 0.157748237 0.555218220
0.169892281 0.172169462 0.554838598
0.260468155 0.202024192 0.570145547
0.357748270 0.234408721 0.584313631
0.465274900 0.283111960 0.603921592
0.574699581 0.335104465 0.623023450
0.000000000 0.165970698 0.550664365
0.001265167 0.175079107 0.551802397
0.054269604 0.181151196 0.549019337
0.165212095 0.194813162 0.558380604
0.258444190 0.219607815 0.566730022
0.358507365 0.255028546 0.583301663
0.460594833 0.296774179 0.605819285
0.572042704 0.351802498 0.624920726
0.001265167 0.227704078 0.566223621
0.001897737 0.228715897 0.564578950
0.037065413 0.240101352 0.569386601
0.164958745 0.255534619 0.574825764
0.261353493 0.276281059 0.584187031
0.370398372 0.308538884 0.602656484
0.476027906 0.348513722 0.617710352
0.588614464 0.400126368 0.644402325
0.001265167 0.307020813 0.584187031
0.000000000 0.312966347 0.590385795
0.010120386 0.324731171 0.587602675
0.158760279 0.335989594 0.595192552
0.274003774 0.357115805 0.604301095
0.380392075 0.384566724 0.616951466
0.492599547 0.422517449 0.641745687
0.605060220 0.467805445 0.663757086
0.000000000 0.429222196 0.616065621
0.001138640 0.434028894 0.621631742
0.006831290 0.432764351 0.618469417
0.163820639 0.440733641 0.630107343
0.292852521 0.455914170 0.636305928
0.407590240 0.484756380 0.656293392
0.523213029 0.517773688 0.670588136
0.639215767 0.556609631 0.696900368
0.104997009 0.576723516 0.670208454
0.139279082 0.577988386 0.675142169
0.196331546 0.578621268 0.677925289
0.269829184 0.581277847 0.676027775
0.354459286 0.588361859 0.681467295
0.467805326 0.601391494 0.699683726
0.577988327 0.629980981 0.720935762
0.689057410 0.664389670 0.740796685
0.341049612 0.705756068 0.729158759
0.351676047 0.708665490 0.728779197
0.380392253 0.710815847 0.728779376
0.423908979 0.718026280 0.737128258
0.482605845 0.718405783 0.739911199
0.560278475 0.728779316 0.761163890
0.646679282 0.745730579 0.781530738
0.747754276 0.777482450 0.797090471
0.546110153 0.829348624 0.803162396
0.555597782 0.830233872 0.801897526
0.573687255 0.830866575 0.802023590
0.598608196 0.836052954 0.806957185
0.643390417 0.844655454 0.815812767
0.704743743 0.856672764 0.829348624
0.776217461 0.870715022 0.848576963
0.855660558 0.886780679 0.884250641
