Assets/Resources/EldamarStudio/100 Horror LUTs Pack/LUTs/cube/Abyss LUT.cube
DOMAIN_MIN 0 0 0
DOMAIN_MAX 1 1 1
LUT_3D_SIZE 32
0.117647000 0.039216001 0.047059000
0.114610612 0.036179613 0.044022612
0.118026547 0.039595000 0.047437999
0.121569000 0.043136999 0.050980002
0.122327998 0.043895997 0.051739097
0.128399998 0.049968001 0.057811871
0.131941676 0.053510323 0.061353676
0.138266698 0.059835702 0.067678705
0.146615997 0.066666998 0.075268902
0.152687997 0.066667005 0.078304522
0.158760011 0.072485998 0.081340872
0.164831996 0.078557998 0.086401001
0.172042638 0.085768647 0.093611643
0.180645034 0.094623998 0.101707973
0.183681414 0.100695997 0.098671585
0.191524193 0.109171189 0.105249800
0.205186382 0.118279189 0.115875989
0.221505567 0.127387568 0.126122579
0.230613977 0.136495978 0.129158974
0.242505014 0.142821014 0.137760654
0.260341734 0.152687997 0.143073738
0.280581981 0.164832264 0.150158122
0.299177468 0.177103460 0.165211990
0.326501906 0.192283094 0.177356005
0.351549566 0.205186576 0.182669282
0.378621310 0.217330977 0.189879984
0.409993976 0.230993062 0.202530071
0.446425974 0.252245426 0.217710435
0.496141434 0.273497820 0.240859941
0.547754526 0.296520919 0.266919583
0.600253105 0.321694791 0.296900928
0.654901981 0.349020004 0.333332986
0.117647000 0.042251613 0.050094616
0.117647000 0.039216001 0.044022612
0.121062383 0.042631388 0.049588773
0.124604613 0.046173386 0.054016385
0.125743151 0.047311932 0.054775383
0.134471998 0.056040771 0.060847484
0.135483995 0.057052772 0.064389929
0.141303092 0.062871672 0.069070384
0.148893297 0.070461705 0.075268902
0.152687997 0.072739005 0.078304522
0.158760011 0.078557998 0.078431003
0.166856259 0.084629998 0.083365127
0.175079033 0.091840640 0.090575740
0.183428392 0.100442968 0.099177644
0.183681414 0.103731602 0.101707973
0.189120993 0.109803602 0.105882384
0.200632572 0.119797379 0.112839997
0.216698572 0.129791379 0.121315569
0.230613977 0.136495993 0.129158974
0.245287642 0.153953016 0.134977996
0.261480093 0.159139737 0.143833116
0.281594127 0.167868391 0.153194264
0.302087367 0.180012599 0.168121114
0.326501906 0.192283094 0.177356005
0.351549566 0.205186576 0.187223285
0.380012631 0.218722656 0.194560662
0.413029730 0.234029457 0.205566332
0.449462354 0.255281806 0.220746055
0.488551170 0.273877352 0.238583252
0.540417373 0.294750154 0.260341555
0.595066547 0.317773342 0.287792772
0.651865602 0.342947215 0.324225366
0.117647000 0.049588773 0.053130776
0.117647000 0.048703384 0.051359773
0.119797774 0.049968775 0.051739547
0.123339772 0.056040771 0.058317609
0.124857768 0.057811771 0.058823548
0.135736927 0.061606932 0.059582770
0.139405221 0.065275222 0.063124545
0.142694637 0.068564221 0.071094222
0.149778903 0.075648099 0.077419326
0.152814522 0.078684486 0.080455296
0.160910785 0.082479775 0.080581777
0.166982770 0.088551775 0.084629774
0.174825996 0.094623774 0.090702228
0.182669222 0.102467000 0.098545000
0.186464220 0.107400350 0.103478640
0.195572764 0.114990540 0.106767997
0.206198573 0.121062540 0.114358187
0.218848810 0.131941974 0.121695183
0.227957219 0.141050026 0.130803198
0.245287642 0.153953016 0.137128219
0.260467738 0.166476741 0.145097956
0.279443353 0.172043130 0.153194219
0.300569236 0.183175266 0.164705500
0.320809782 0.197343558 0.173813909
0.347248554 0.211637795 0.185072511
0.378494620 0.223782554 0.196963876
0.413409054 0.238204062 0.209108353
0.448197067 0.256167412 0.225933075
0.491587549 0.279063940 0.237317860
0.539911091 0.304364353 0.267931789
0.593674958 0.328526348 0.292346716
0.648829758 0.354079545 0.323719233
0.122706994 0.061227158 0.057431996
0.117647000 0.059961997 0.059961997
0.122327775 0.062112771 0.060847610
0.124099001 0.063883997 0.063883997
0.123719454 0.069955997 0.066540159
0.131435841 0.071727000 0.064389937
0.139784679 0.074257001 0.067678839
0.143200248 0.077672161 0.071853317
0.150031924 0.082985260 0.082479320
0.154079691 0.086021647 0.086021647
0.160404712 0.089057706 0.087412998
0.166224003 0.094117828 0.087666161
0.173434645 0.101328477 0.094876513
0.180139154 0.107274026 0.101075001
0.188235164 0.112334155 0.107146993
0.199114442 0.120809630 0.110815801
0.208981812 0.129664987 0.116888188
0.223529145 0.136369571 0.124731421
0.228463158 0.147881180 0.132574052
0.246679321 0.158760011 0.140164167
0.261732906 0.167741910 0.148133904
0.278937310 0.178874031 0.157242030
0.300189644 0.188614845 0.163693503
0.319544822 0.202656910 0.172801897
0.344592273 0.217837021 0.184186980
0.372422606 0.231625319 0.198987812
0.412397116 0.244276062 0.212650165
0.448070586 0.259456426 0.227830708
0.489563257 0.281341106 0.240607306
0.542947471 0.306641191 0.261100233
0.594054341 0.337002039 0.299683839
0.644529045 0.364706010 0.325489998
0.132953539 0.076407544 0.063124545
0.121947996 0.073750705 0.069955543
0.124857768 0.074636318 0.071346998
0.129791453 0.076027997 0.071853161
0.129791453 0.076407544 0.075648546
0.126755059 0.082479544 0.075648546
0.136369094 0.086780764 0.081087999
0.142820716 0.089057833 0.084756710
0.146616086 0.092093542 0.088172443
0.155724481 0.095129929 0.094244450
0.159392670 0.098545127 0.097786129
0.162808269 0.103605084 0.097153708
0.168501109 0.110056639 0.098292351
0.177356452 0.119165033 0.106640995
0.189247444 0.122454412 0.112459995
0.201011986 0.130297288 0.116887800
0.210499555 0.138646200 0.121821642
0.218595579 0.148134023 0.130803421
0.230740398 0.157242432 0.133839056
0.250474840 0.166350201 0.142441362
0.265654981 0.173560917 0.150411189
0.280455589 0.181910411 0.159898862
0.301960945 0.197090045 0.169133008
0.323719352 0.209487826 0.178494453
0.349146277 0.223909289 0.189879537
0.377609164 0.237697989 0.203668326
0.406704605 0.250727534 0.221378997
0.449209303 0.265907884 0.227450997
0.488677770 0.286401242 0.241113245
0.538646221 0.308665484 0.261606485
0.593675077 0.333586186 0.287539154
0.636179924 0.363947004 0.323971987
0.129917935 0.091587931 0.066160932
0.126881540 0.091587931 0.078304939
0.130929768 0.091081865 0.078684166
0.134977832 0.090322770 0.076154158
0.132827058 0.088551544 0.075648546
0.132827058 0.091587931 0.084756933
0.142441645 0.100189611 0.092346609
0.146363154 0.101707771 0.094370708
0.145857096 0.101201840 0.093864903
0.149652481 0.104237549 0.097280070
0.155850992 0.110183060 0.103352062
0.161416933 0.115749508 0.104869999
0.169259995 0.120683223 0.106641062
0.180392057 0.125237033 0.112712994
0.186464056 0.134345397 0.112712994
0.195951864 0.142441794 0.120935798
0.205566198 0.148513675 0.124477997
0.216065913 0.154458985 0.128526032
0.233776003 0.166350037 0.139911056
0.248703435 0.175458416 0.148513362
0.261100829 0.182668924 0.151929006
0.273750991 0.189753190 0.157495052
0.292852551 0.200126439 0.169133008
0.320176989 0.215306848 0.181277812
0.344212621 0.229981273 0.192915931
0.374573290 0.243769988 0.203668609
0.409487903 0.256926000 0.215812996
0.446172923 0.275015503 0.233522996
0.483364671 0.295508891 0.244907975
0.525616586 0.314990461 0.264642447
0.571916640 0.335104525 0.288045526
0.611891091 0.357874990 0.311827987
0.126881674 0.114357993 0.084377319
0.128905922 0.109297998 0.083871000
0.132321313 0.113598995 0.091714002
0.135989830 0.113093153 0.089816481
0.134471551 0.110816091 0.087919317
0.140923321 0.113851927 0.094876938
0.140923321 0.114357993 0.096394993
0.151423380 0.120177023 0.102213606
0.153447226 0.120430216 0.102466770
0.156483173 0.123465836 0.105502844
0.162428677 0.129411310 0.111448318
0.168501183 0.131435320 0.115496576
0.174573317 0.136495963 0.116002642
0.183681279 0.140923604 0.119291641
0.192029998 0.145477414 0.123845637
0.200505808 0.156988993 0.126248837
0.211131990 0.163187861 0.132068187
0.223149806 0.166856304 0.134977892
0.241366342 0.175205335 0.145224661
0.256799698 0.187096357 0.152055681
0.271980047 0.199999735 0.164959058
0.283365309 0.207969308 0.169133499
0.298924804 0.215812489 0.176723301
0.326249242 0.230992913 0.188867494
0.355850875 0.243896559 0.201012254
0.386211276 0.260215282 0.213156298
0.423149854 0.275142401 0.224920988
0.461606622 0.291334629 0.243136972
0.505628943 0.309677124 0.258570313
0.549145579 0.330929488 0.281340688
0.598102331 0.356103778 0.307147264
0.645793915 0.387223631 0.330044001
0.130423695 0.122201003 0.097406998
0.130170673 0.124351695 0.099304311
0.132068276 0.130170703 0.099430703
0.135610282 0.133712694 0.105502702
0.133332998 0.131435990 0.103225991
0.138646230 0.133206770 0.104237996
0.145098001 0.135357410 0.108538993
0.145098001 0.133712709 0.106894284
0.154965296 0.136749089 0.110689186
0.160657525 0.139784932 0.114611186
0.164958715 0.144085690 0.118911989
0.171030790 0.147754416 0.119671255
0.179380283 0.148892775 0.123845994
0.186717317 0.154712319 0.125616968
0.195825294 0.160531282 0.133080274
0.204933524 0.167488694 0.135104194
0.217077911 0.178114891 0.141176194
0.229980811 0.182036683 0.145730570
0.247185230 0.188108712 0.154838964
0.264263362 0.196457714 0.159519300
0.279443711 0.208854735 0.169639736
0.295635998 0.224035114 0.180771858
0.309551001 0.232257709 0.184060499
0.335357636 0.245920330 0.194686726
0.363314539 0.258823574 0.208475560
0.393674940 0.272359639 0.217836976
0.430613130 0.290322691 0.230486989
0.471220613 0.306641430 0.248702973
0.512713432 0.324477971 0.270841241
0.560025036 0.346109867 0.289942652
0.608601868 0.369133264 0.319418073
0.661733270 0.405566275 0.344465435
0.136495903 0.125996083 0.107274093
0.137254789 0.132827386 0.111069001
0.131815001 0.142567992 0.110562898
0.137128085 0.148893103 0.114611089
0.136369079 0.149272546 0.119924091
0.135610089 0.149651989 0.114611097
0.140164226 0.149905235 0.117899999
0.146615997 0.151170388 0.119038478
0.147375092 0.149652004 0.116002090
0.159519106 0.152688384 0.122074872
0.164452776 0.156483322 0.125996128
0.169513091 0.160278365 0.127261162
0.176344097 0.164073557 0.126122892
0.187982097 0.166856200 0.131941929
0.196584418 0.174446508 0.140037671
0.207210809 0.181910187 0.143453091
0.218596101 0.188741297 0.148007289
0.235041454 0.197849512 0.157748073
0.250474155 0.204048023 0.166982964
0.266919613 0.210120216 0.170524836
0.283997715 0.219987184 0.177735463
0.300949097 0.231625304 0.187602952
0.319418073 0.246805653 0.191018075
0.343706727 0.259582698 0.200758904
0.370272189 0.272486001 0.214421272
0.402024031 0.286780745 0.226944968
0.432890266 0.301961005 0.234535053
0.474636018 0.319923997 0.252498060
0.516761482 0.338140160 0.277925462
0.559266329 0.360657483 0.300948828
0.611638248 0.387349635 0.326248795
0.660215080 0.414674073 0.353574008
0.133459508 0.159392491 0.128526479
0.145604283 0.159392506 0.125490099
0.135610417 0.164073005 0.118532225
0.134598166 0.166603163 0.118658841
0.151549473 0.164452940 0.129032478
0.145477489 0.167488545 0.129032478
0.142188177 0.162808001 0.131309167
0.146236226 0.162049249 0.131182700
0.153447092 0.164832413 0.128146872
0.156483486 0.167868018 0.125110492
0.165717602 0.173814267 0.131182522
0.172549024 0.179759979 0.137127995
0.178621486 0.185705498 0.140543520
0.184946477 0.191144988 0.141049549
0.191018477 0.191144988 0.144085944
0.204427809 0.198735297 0.149778500
0.217836991 0.206198975 0.157115698
0.232005060 0.213029921 0.166856483
0.253257543 0.222137541 0.179000482
0.265907526 0.228336722 0.182669356
0.282099992 0.238203973 0.187602967
0.301202118 0.249336109 0.193927988
0.322454453 0.258950412 0.200126469
0.346742511 0.274130046 0.212270483
0.373307794 0.289183766 0.226565272
0.407589793 0.305629313 0.240353972
0.448070645 0.323213398 0.252751052
0.481467783 0.338393033 0.267931432
0.528526485 0.356356651 0.291208118
0.571410596 0.379886121 0.312080920
0.618342757 0.408855051 0.335736662
0.681467533 0.441998482 0.371789992
0.127514005 0.169512868 0.126502126
0.139658034 0.175331876 0.135104477
0.141050041 0.175331876 0.127767086
0.134218872 0.179885864 0.121189028
0.141682461 0.181403995 0.125110999
0.143200129 0.176849931 0.135230988
0.152308777 0.182415873 0.140291005
0.154459029 0.182795584 0.140417159
0.160277992 0.185072869 0.138899222
0.165464610 0.185958266 0.140164375
0.168500990 0.188993871 0.142947733
0.173561126 0.193042397 0.142947480
0.181024998 0.198229000 0.146362871
0.190892041 0.204048038 0.150410876
0.199620873 0.206704870 0.156103417
0.208096057 0.213915050 0.161542982
0.222264320 0.224541515 0.170651376
0.236432552 0.233396858 0.179886296
0.253131002 0.240227789 0.185198992
0.266034007 0.249336094 0.188994348
0.283870727 0.257432133 0.193928003
0.305123359 0.268564254 0.201012135
0.328526497 0.279570341 0.209234864
0.355597883 0.289183944 0.221378878
0.384440422 0.302086860 0.233522862
0.413788676 0.315243304 0.246679336
0.449209124 0.331942081 0.259835720
0.485009432 0.356736273 0.277419299
0.523718894 0.377229542 0.303225636
0.569765806 0.395698816 0.322454154
0.613282800 0.419607580 0.343959421
0.664896011 0.448956013 0.378367990
0.131562248 0.186717242 0.141682506
0.137633994 0.194813505 0.144718647
0.132953525 0.198608235 0.140923485
0.134977907 0.199873403 0.138140246
0.137634456 0.203668505 0.137381539
0.140670061 0.197596505 0.141303256
0.149272382 0.201644495 0.148387253
0.158127740 0.202782780 0.151170254
0.161543101 0.205060080 0.148513421
0.166350275 0.206325248 0.149019480
0.173561126 0.211258620 0.154079601
0.178621262 0.212270513 0.157115996
0.182796001 0.216445252 0.156356603
0.193168998 0.222517252 0.161543041
0.204048157 0.227324396 0.167615503
0.213156447 0.235167697 0.175711259
0.226818249 0.241239697 0.183301449
0.241872132 0.251233667 0.193042561
0.255661279 0.258697003 0.196078554
0.272106260 0.265528083 0.199114352
0.286147982 0.274636477 0.204047993
0.308159232 0.283744395 0.209108114
0.332447737 0.294876993 0.216192499
0.357874930 0.305882365 0.226439267
0.387476563 0.319291502 0.244655490
0.419228613 0.334218472 0.254016519
0.452751309 0.348640144 0.267426074
0.493737847 0.371410668 0.290196240
0.528779268 0.391397774 0.308286041
0.571789622 0.410879374 0.332068443
0.616445184 0.430866480 0.352182209
0.660847723 0.457052261 0.384440005
0.137254998 0.210246637 0.158001363
0.139152259 0.215939388 0.158001363
0.137127995 0.220746517 0.156103879
0.131562158 0.223782152 0.152181983
0.139152452 0.226059526 0.157115549
0.140670061 0.220746636 0.154079944
0.147627965 0.222517639 0.157495350
0.155091643 0.227071568 0.160278350
0.161922544 0.225553185 0.161796540
0.165717840 0.228589475 0.159898803
0.172296226 0.233396649 0.164452642
0.178241983 0.236559272 0.168500900
0.188868001 0.238836288 0.172675639
0.195699036 0.245161250 0.175711244
0.208728641 0.252118647 0.180898175
0.218469441 0.258317441 0.188235477
0.229854628 0.266666830 0.195066199
0.248703197 0.270968020 0.203541994
0.262365967 0.280075669 0.207084313
0.280076027 0.287539303 0.213535935
0.297533363 0.297786027 0.219607651
0.315749615 0.307906270 0.227703899
0.340290606 0.317267627 0.231499255
0.366603434 0.329411656 0.241619542
0.395446211 0.342694551 0.254143268
0.426059604 0.358127892 0.271853626
0.460974127 0.375837833 0.279949635
0.505882025 0.393421888 0.305376410
0.543074071 0.412776619 0.324351817
0.584693372 0.433270037 0.344212800
0.629348457 0.454143226 0.370778203
0.671853304 0.478684306 0.401897281
0.136748999 0.237318069 0.161543041
0.136748999 0.237318069 0.162049040
0.138646260 0.239974767 0.163946778
0.141429171 0.242757872 0.166729882
0.144971490 0.245287538 0.169512585
0.141935095 0.242251933 0.166476980
0.145983607 0.242252067 0.168247730
0.152561963 0.245035067 0.170398027
0.158633903 0.250095010 0.171410143
0.167741507 0.253130615 0.177482933
0.171789899 0.256419927 0.180645153
0.175332218 0.259456277 0.183934256
0.183555022 0.263631016 0.187602997
0.201265037 0.269703001 0.193928018
0.216445401 0.278810591 0.196963638
0.227324799 0.283111840 0.201897606
0.237950996 0.288931191 0.206451803
0.251739532 0.298292398 0.210626066
0.272991955 0.307400048 0.216698080
0.291714013 0.316002399 0.228083670
0.310183436 0.328905761 0.238583326
0.330424041 0.342821062 0.247944236
0.354838520 0.355091542 0.259835958
0.385072827 0.367362052 0.271726966
0.415686518 0.379759580 0.280329019
0.446552962 0.393548667 0.290069640
0.478684127 0.408729047 0.306262016
0.521188855 0.423908621 0.324478000
0.560278356 0.443642855 0.344591796
0.604048312 0.466666400 0.367615402
0.651360154 0.492093623 0.396331549
0.693865001 0.519418061 0.435800016
0.130677000 0.261606812 0.170651406
0.130677000 0.261606812 0.176723406
0.130677000 0.268058032 0.177229404
0.131309420 0.272105962 0.177861989
0.133460000 0.272738397 0.178873956
0.144971475 0.272611916 0.181657344
0.144465417 0.277166605 0.181151405
0.152308583 0.278684795 0.186717108
0.160151586 0.279949814 0.191650391
0.161669537 0.280455738 0.192662537
0.173687741 0.286401212 0.195825428
0.181910142 0.289816529 0.200885400
0.190891862 0.293990970 0.204047978
0.204301417 0.300062954 0.206072032
0.216445401 0.306134969 0.215180397
0.231625795 0.310436219 0.215812817
0.244022995 0.314990401 0.218595788
0.257431984 0.322959960 0.223529130
0.276027560 0.334724426 0.234914839
0.297279954 0.338266760 0.243769467
0.317899704 0.350158125 0.255408049
0.339531809 0.363314539 0.263883680
0.363946885 0.373308301 0.268943578
0.391271323 0.388487905 0.275015593
0.423782259 0.403035671 0.291461140
0.457937866 0.418975323 0.302972704
0.493611455 0.436053455 0.315875709
0.533332825 0.451233745 0.339658380
0.565211594 0.463757217 0.352561384
0.601011932 0.484882772 0.373687387
0.643516719 0.510942161 0.402403533
0.690828562 0.540670395 0.441872001
0.131815195 0.293105781 0.186969981
0.122201197 0.290701985 0.193042591
0.130803198 0.295002967 0.192662820
0.135610357 0.301327944 0.198734954
0.138266981 0.302087039 0.202530041
0.138267010 0.300062776 0.193421930
0.149904996 0.305123419 0.203541979
0.149904996 0.307906777 0.201897696
0.159013003 0.308665693 0.207210600
0.165591002 0.310309976 0.210499600
0.174825937 0.316128969 0.211005658
0.184946448 0.318152964 0.214041531
0.195192814 0.320809424 0.217456996
0.207590237 0.325363547 0.217963055
0.221884981 0.329284787 0.224921212
0.236432791 0.335357398 0.229221985
0.251613200 0.339911580 0.230740175
0.265907764 0.347248554 0.235041007
0.284123808 0.359392613 0.245414108
0.302719384 0.370398164 0.254775435
0.327767223 0.379127264 0.263883531
0.353067607 0.391777456 0.276534140
0.380265474 0.400885493 0.285389066
0.407589912 0.411511689 0.293737769
0.434914857 0.426691860 0.306641042
0.470841229 0.441872239 0.324731320
0.507779837 0.458570838 0.337887317
0.543453217 0.473751217 0.356482863
0.577355623 0.493484944 0.374952555
0.618342757 0.510942161 0.397722930
0.653763592 0.534597993 0.426818520
0.690195978 0.561922789 0.464768767
0.131815195 0.323466182 0.206704184
0.122707188 0.324983984 0.214294761
0.124731198 0.325363368 0.212397411
0.133080035 0.330170542 0.210626185
0.141302809 0.333586395 0.222643986
0.139784798 0.333965629 0.213156253
0.144339010 0.333965629 0.217710182
0.152941003 0.336748987 0.224667892
0.155218095 0.337508082 0.223150089
0.166603208 0.340543896 0.228462979
0.178874061 0.344971180 0.228715986
0.187982053 0.348513365 0.229221925
0.200506091 0.350790352 0.234534830
0.213662222 0.354206204 0.235673368
0.228842601 0.357242137 0.239215821
0.242504790 0.362681806 0.245920569
0.260721177 0.370272368 0.248956189
0.276533961 0.376344353 0.253257573
0.294750005 0.386717409 0.262365401
0.312966406 0.397343189 0.269955546
0.335357010 0.409487665 0.279063940
0.362681925 0.420620054 0.288172066
0.392535985 0.429727703 0.302213788
0.421252102 0.438836098 0.312713504
0.453130841 0.452498466 0.323339254
0.481847286 0.469070166 0.341302633
0.521442354 0.483365059 0.359139860
0.557874799 0.496521413 0.374319732
0.586716950 0.517014503 0.393674642
0.622896552 0.535230517 0.414421141
0.667932034 0.559139550 0.447438568
0.694750190 0.584693372 0.484503388
0.127514422 0.352688104 0.227324143
0.123972408 0.358760118 0.235799953
0.126502424 0.359898537 0.235420555
0.130676836 0.360531151 0.231878549
0.134471551 0.363947064 0.232637554
0.140796572 0.370019138 0.233143538
0.144338906 0.368500799 0.235673562
0.149651989 0.367741704 0.240101278
0.156483084 0.368500620 0.243770048
0.165591493 0.371537030 0.246805668
0.179886296 0.375205249 0.246932149
0.192283303 0.378241390 0.248829544
0.204806864 0.382416099 0.250980198
0.222517565 0.388235122 0.259835541
0.237318397 0.391271532 0.260594547
0.251992553 0.396711111 0.266540349
0.267425776 0.403036147 0.272612363
0.287412971 0.410879523 0.275648147
0.305629015 0.416951537 0.284756541
0.325743288 0.425806373 0.291081578
0.346489549 0.436179459 0.298418730
0.372422278 0.447311997 0.308159441
0.399746627 0.456419647 0.317267060
0.429601371 0.465528041 0.328905791
0.463251144 0.479822814 0.341302842
0.496900737 0.495129526 0.354079217
0.528273523 0.513345718 0.375837713
0.570525229 0.522833586 0.391397566
0.598987937 0.541935325 0.412523329
0.630360305 0.560278296 0.434408277
0.667425573 0.577988744 0.458443761
0.703858376 0.608349562 0.497913003
0.118406028 0.389120996 0.245540962
0.124478027 0.395192981 0.251612961
0.129538029 0.394813240 0.253637016
0.133080035 0.393295020 0.253131002
0.134471565 0.394307137 0.253890008
0.143579930 0.400379926 0.259961993
0.147375301 0.398861676 0.255407989
0.153700262 0.399114698 0.255281687
0.162555113 0.401897877 0.259076983
0.171663508 0.404933512 0.265022486
0.183681026 0.410879046 0.265148968
0.198102325 0.414674282 0.271220714
0.213915288 0.418848991 0.277292639
0.231625989 0.424668014 0.281087995
0.243769988 0.427704394 0.287159979
0.263377815 0.433143973 0.290322781
0.280835181 0.437697768 0.293864787
0.296521395 0.441239625 0.296900570
0.311701030 0.444276005 0.299936980
0.338267088 0.453131378 0.306262016
0.359140009 0.462239206 0.312334001
0.381910264 0.471600205 0.320683032
0.411891460 0.480708510 0.332447529
0.439215899 0.489816904 0.341555893
0.469070554 0.505756021 0.360025316
0.499936968 0.520936012 0.376090974
0.531309187 0.534598172 0.391018152
0.567741930 0.552814901 0.415306926
0.602023840 0.570271969 0.438835949
0.636432409 0.588741422 0.462871403
0.673750579 0.607590616 0.487792581
0.712966025 0.629602015 0.516129076
0.117647000 0.433902383 0.269323021
0.126502350 0.437191725 0.272612393
0.132574350 0.438962728 0.276534170
0.137381196 0.439089268 0.278431565
0.139658093 0.440227896 0.279949367
0.146363288 0.439089268 0.281214386
0.158001363 0.442631721 0.287286371
0.165085718 0.443390399 0.283871084
0.174952731 0.447185367 0.286148250
0.186084867 0.452245265 0.294244021
0.206451714 0.455408126 0.291714370
0.218595713 0.461480111 0.295762360
0.234155655 0.466413736 0.302972734
0.251866370 0.471979737 0.307906359
0.264010370 0.472485781 0.313978344
0.285768360 0.475522220 0.317647189
0.307400197 0.479696542 0.323719174
0.326375544 0.483997315 0.329917520
0.345856786 0.491334736 0.335104704
0.361037076 0.497153759 0.338140398
0.390259475 0.504364371 0.342315108
0.415053874 0.514610887 0.351549715
0.443516850 0.527134717 0.367362231
0.470841289 0.533586323 0.381783634
0.504996955 0.544971406 0.397722721
0.534977973 0.560784042 0.418469042
0.563440740 0.574825823 0.435799897
0.593042195 0.590765238 0.455534637
0.624162018 0.606325209 0.477166533
0.657431901 0.622643888 0.499557227
0.693737924 0.639848411 0.526375890
0.733206332 0.659203053 0.559393108
0.136622474 0.479443192 0.293611467
0.136243120 0.484376848 0.300442874
0.145097986 0.481467456 0.305376530
0.149905160 0.483997464 0.303352594
0.154079467 0.486148208 0.304237753
0.163187847 0.480075806 0.307273716
0.168627739 0.487792790 0.310436457
0.185705438 0.485895038 0.314863741
0.195825621 0.488930911 0.313092977
0.206830993 0.495003223 0.318785250
0.223908857 0.501960576 0.321947873
0.240986720 0.503225744 0.324984461
0.255408019 0.507020712 0.331056446
0.273371696 0.511321723 0.336622477
0.287159979 0.512966454 0.339405477
0.303225696 0.517267525 0.346868813
0.329031914 0.521821737 0.351423383
0.349145889 0.525869489 0.358886629
0.366603464 0.533712685 0.363693893
0.389879823 0.538140476 0.370778114
0.408855170 0.546110213 0.379506439
0.437191695 0.552182198 0.382542849
0.463756979 0.564326465 0.396204948
0.492852658 0.570398450 0.411385387
0.519417822 0.579127252 0.426944733
