Assets/Resources/EldamarStudio/100 Horror LUTs Pack/LUTs/cube/Abyss LUT.cube
LUT_3D_SIZE 5
DOMAIN_MIN 0.000000 0.000000 0.000000
DOMAIN_MAX 0.903226 0.903226 0.903226
0.117647000 0.039216001 0.047059000
0.138266698 0.059835702 0.067678705
0.183681414 0.100695997 0.098671585
0.280581981 0.164832264 0.150158122
0.496141434 0.273497820 0.240859941
0.130423695 0.122201003 0.097406998
0.145098001 0.133712709 0.106894284
0.195825294 0.160531282 0.133080274
0.295635998 0.224035114 0.180771858
0.512713432 0.324477971 0.270841241
0.130677000 0.261606812 0.170651406
0.152308583 0.278684795 0.186717108
0.216445401 0.306134969 0.215180397
0.339531809 0.363314539 0.263883680
0.565211594 0.463757217 0.352561384
0.163947120 0.523972273 0.321948230
0.204933822 0.532447875 0.341176540
0.312839806 0.550790668 0.370019108
0.457432240 0.587603092 0.420999378
0.651486456 0.662618816 0.528020203
0.529032230 0.809613764 0.635926425
0.559013247 0.821505547 0.657558560
0.617710412 0.828589201 0.674510062
0.710309684 0.847438455 0.708538711
0.812397420 0.865907788 0.752435386
0.123845711 0.043136999 0.081720419
0.136621997 0.065401994 0.092219986
0.180139109 0.108918272 0.127893686
0.274383128 0.179506868 0.186337993
0.483238459 0.278051943 0.268184662
0.128778994 0.119670987 0.114104696
0.146109700 0.137001708 0.131435990
0.190258995 0.165464982 0.155977115
0.278684407 0.224668115 0.208981708
0.501960754 0.332321376 0.300063342
0.133333415 0.264895797 0.200758994
0.150284573 0.282605797 0.213536099
0.214168116 0.304490685 0.233522981
0.334977627 0.363314360 0.276660413
0.565591455 0.468058318 0.386717200
0.166350245 0.517773390 0.353573531
0.207590237 0.525363803 0.360783935
0.309297919 0.545224547 0.382795662
0.448576957 0.577861965 0.433775842
0.651992321 0.660974205 0.537128150
0.528272986 0.809361279 0.649082541
0.546362877 0.809993446 0.656293511
0.603415549 0.818848968 0.670588195
0.699810147 0.839342356 0.706514597
0.810120285 0.861226916 0.750664115
0.124857575 0.066034414 0.147122413
0.134977698 0.081720419 0.150031701
0.177861989 0.113092579 0.173940822
0.271220684 0.185705408 0.235167697
0.484883010 0.283238381 0.335610360
0.130043998 0.133332998 0.172548994
0.147754416 0.140543997 0.181783810
0.185958281 0.171283990 0.202023998
0.282606006 0.234787822 0.264516115
0.507400513 0.337887108 0.369006783
0.118912004 0.274003386 0.244528994
0.146742702 0.291334689 0.268437684
0.216445401 0.327640384 0.307399958
0.348766237 0.377735525 0.348007798
0.565211773 0.477545768 0.446806043
0.170524716 0.525869250 0.413030118
0.208096415 0.531688869 0.417204410
0.312713236 0.548386931 0.443769693
0.455028385 0.585958242 0.487918854
0.656419933 0.671726584 0.579253495
0.511827588 0.806325138 0.683617949
0.529285133 0.807969451 0.670082033
0.599367559 0.817330778 0.690069377
0.698671639 0.839341879 0.724730968
0.811764836 0.863883376 0.772548974
0.115622997 0.099051133 0.265908122
0.135989577 0.109550700 0.273371428
0.185705408 0.139658540 0.284882694
0.275775135 0.196204990 0.319924235
0.496773988 0.294117659 0.447184920
0.112080708 0.162808418 0.282859147
0.139531866 0.171283990 0.292346388
0.193168864 0.199493974 0.314610839
0.287539721 0.245287821 0.351296842
0.520809352 0.347754657 0.466793299
0.084250592 0.308032393 0.351802588
0.126122996 0.318912089 0.374825984
0.219101399 0.348260671 0.402909786
0.354585797 0.396331400 0.441239536
0.576723337 0.485641927 0.533712804
0.168880254 0.537634254 0.496521235
0.220619842 0.554838717 0.513472617
0.336622089 0.580392122 0.548007309
0.488678247 0.616065979 0.587603092
0.667931616 0.676280797 0.649209380
0.528905392 0.810878932 0.721947789
0.550537467 0.820366859 0.732068121
0.606198490 0.829854608 0.739026010
0.696774244 0.845667601 0.766856492
0.820240438 0.870461583 0.803794563
0.000000000 0.138645992 0.555091560
0.034914635 0.153446943 0.553700209
0.210625976 0.187096819 0.561543226
0.384566903 0.244781792 0.586084723
0.574699581 0.335104465 0.623023450
0.000000000 0.212017789 0.557368696
0.016318925 0.217583522 0.567109227
0.219481274 0.248576969 0.581151009
0.392409682 0.302972645 0.602909327
0.587096572 0.388994485 0.643137455
0.000000000 0.365718216 0.594812989
0.002909714 0.369639367 0.602656484
0.223782629 0.393801630 0.620240390
0.426692039 0.446552932 0.647058785
0.623529136 0.516255140 0.677040040
0.175838068 0.607843220 0.684882760
0.226944879 0.612776935 0.690828621
0.345604062 0.616824627 0.694750190
0.508791924 0.638330102 0.714611113
0.702719748 0.694244087 0.753194094
0.546110153 0.829348624 0.803162396
0.565338254 0.830866516 0.798987687
0.621125817 0.837064803 0.813662529
0.721441865 0.858950078 0.832637429
0.855660558 0.886780679 0.884250641
