Assets/Resources/EldamarStudio/100 Horror LUTs Pack/LUTs/cube/Aerrax LUT.cube
LUT_3D_SIZE 5
DOMAIN_MIN 0.000000 0.000000 0.000000
DOMAIN_MAX 0.903226 0.903226 0.903226
0.027450999 0.047059000 0.129411995
0.092219993 0.059456002 0.137887001
0.234155819 0.054901998 0.133965582
0.400252998 0.077546127 0.140164137
0.641113639 0.138645992 0.151676163
0.040227704 0.114737704 0.134977713
0.103605285 0.110183701 0.133332998
0.220366985 0.127514407 0.137254581
0.387855828 0.156989247 0.149652004
0.637824237 0.223402843 0.146363169
0.071979985 0.226945400 0.137254998
0.126249403 0.230234399 0.141176000
0.222390816 0.237444401 0.147754833
0.367615402 0.275648117 0.149020001
0.625426590 0.377482206 0.137887418
0.000000000 0.447565258 0.142820761
0.091334991 0.456672817 0.134598002
0.256293565 0.457432240 0.133586287
0.394434005 0.476913244 0.130423859
0.618216455 0.560404778 0.102846310
0.000000000 0.803162396 0.094496779
0.004554165 0.811132252 0.092978895
0.168880627 0.812397420 0.101707362
0.450474530 0.820240438 0.105249651
0.684503555 0.820240378 0.128652751
0.029728293 0.072865292 0.169006705
0.105629697 0.062112994 0.167995006
0.203415394 0.077166416 0.170651406
0.345730543 0.105249584 0.192536280
0.599999607 0.116002291 0.208222881
0.061479993 0.108538993 0.160152003
0.106261700 0.114104696 0.165085688
0.188361406 0.128146574 0.170271710
0.334598124 0.150790274 0.180771708
0.599620461 0.204427525 0.206957534
0.101960577 0.209614113 0.179759994
0.135357410 0.214547396 0.174825877
0.211258397 0.215179980 0.176850110
0.346362740 0.253510267 0.190006122
0.598987877 0.360151678 0.199114531
0.020999458 0.436685532 0.183048576
0.114863992 0.430866390 0.188235149
0.241619125 0.438076943 0.182036698
0.381024569 0.447565258 0.183048993
0.607210577 0.546995640 0.184693262
0.000000000 0.796457648 0.211764663
0.003288997 0.797090471 0.205945656
0.183680907 0.799367189 0.209234908
0.444022775 0.812144101 0.215686232
0.682479382 0.817330837 0.232637420
0.084377408 0.066666998 0.289057791
0.163188115 0.068943709 0.270714402
0.255787373 0.082353003 0.263504416
0.354838967 0.106894128 0.263251275
0.597343147 0.117647000 0.323212773
0.105629280 0.143200412 0.247817561
0.151043832 0.141556114 0.243895993
0.225300685 0.143200412 0.236053407
0.339531809 0.156989411 0.250474393
0.580392063 0.196837410 0.315243810
0.122959986 0.219733983 0.239341974
0.158886567 0.225933105 0.235673711
0.249841824 0.249841809 0.251106977
0.354838967 0.269829124 0.266793400
0.583048880 0.344845027 0.313346237
0.062745333 0.410246253 0.271979570
0.135357454 0.413535655 0.278304696
0.251106977 0.427197814 0.281214416
0.375078708 0.438709378 0.285515696
0.595066309 0.532953739 0.322580367
0.000000000 0.775837719 0.360657871
0.002277292 0.782163084 0.380898029
0.220240578 0.783681393 0.384819597
0.448703289 0.792789578 0.389120728
0.678683996 0.805186152 0.408602238
0.145098001 0.080455258 0.540670335
0.222644120 0.086274996 0.529917479
0.344718367 0.090195999 0.508032978
0.462112397 0.102972873 0.479949385
0.605565906 0.114104852 0.490196198
0.131688714 0.177861989 0.496900558
0.201391414 0.179506272 0.491334707
0.325110376 0.180138856 0.479949534
0.440860420 0.181530535 0.457052529
0.594054580 0.197469994 0.481847107
0.095762007 0.314610809 0.454016685
0.173813999 0.312713414 0.453004539
0.291967273 0.307147115 0.444275826
0.406198859 0.313345820 0.434788108
0.598102450 0.338267207 0.483997345
0.000000000 0.462239116 0.434914351
0.087919042 0.465780824 0.434408665
0.247691542 0.465148270 0.439974517
0.418975115 0.507400393 0.472106367
0.616951406 0.563314080 0.528020203
0.000000000 0.772042751 0.546489596
0.003036115 0.774825692 0.552561462
0.156736150 0.778115094 0.556356609
0.464389771 0.782163143 0.575205445
0.674509525 0.795572519 0.585073054
0.049336050 0.172928780 0.863250911
0.187855870 0.174193621 0.857431650
0.358253986 0.184060365 0.854775131
0.530297279 0.198481783 0.846046746
0.712966442 0.228083432 0.834661603
0.013409209 0.269323468 0.847058594
0.171283826 0.268690646 0.853510499
0.344592243 0.278178185 0.842504799
0.520935953 0.289310634 0.838456750
0.705882609 0.301834166 0.824288607
0.028463205 0.450854003 0.836685836
0.161416918 0.451612592 0.828715622
0.335610390 0.455534428 0.824921012
0.510183215 0.460720718 0.824161530
0.697406590 0.463377565 0.813788533
0.005566139 0.627703786 0.804933727
0.075142324 0.630360484 0.820999444
0.318532467 0.634281874 0.809614122
0.510689080 0.645034611 0.807210565
0.687033594 0.645414114 0.796584249
0.000000000 0.811132252 0.803288579
0.002023991 0.808602214 0.803541899
0.270967782 0.807842970 0.802656114
0.508412123 0.816065729 0.800379395
0.757874548 0.842504561 0.817710400
