Assets/Resources/EldamarStudio/100 Horror LUTs Pack/LUTs/cube/Aerrax LUT.cube
LUT_3D_SIZE 8
DOMAIN_MIN 0.000000 0.000000 0.000000
DOMAIN_MAX 0.903226 0.903226 0.903226
0.027450999 0.047059000 0.129411995
0.033270452 0.059203450 0.129411995
0.111195087 0.055661093 0.134092093
0.188361645 0.049335998 0.140037641
0.278810978 0.052498192 0.134851187
0.373940706 0.068437733 0.141176000
0.483871281 0.100948699 0.141809002
0.641113639 0.138645992 0.151676163
0.042378001 0.072485544 0.140416995
0.049335994 0.068564542 0.140037537
0.117520191 0.083112001 0.139658004
0.190765530 0.081467286 0.138014004
0.276660383 0.087286539 0.136116356
0.367741913 0.109297730 0.144971475
0.481214553 0.134598285 0.147375286
0.637444675 0.172928646 0.149525747
0.046299905 0.125363901 0.135737002
0.073244646 0.128905535 0.138393447
0.112713084 0.125363901 0.134850994
0.177861989 0.129284993 0.135230541
0.256040275 0.145730197 0.138013899
0.360278457 0.166350350 0.147881359
0.477545649 0.200379387 0.151423201
0.629980683 0.243390068 0.145098001
0.058823999 0.184440643 0.142820999
0.078684643 0.190765530 0.133965999
0.128526002 0.186338082 0.142694190
0.179379985 0.191145003 0.141176000
0.251106739 0.200506091 0.152688369
0.342567712 0.230613545 0.151043743
0.464895844 0.270334899 0.146868929
0.627703607 0.329538256 0.141176000
0.076913200 0.282732397 0.152308807
0.092472993 0.280708551 0.146995440
0.140797094 0.278052062 0.149778903
0.201264992 0.280329198 0.149778813
0.261606187 0.284250200 0.149904996
0.338646710 0.298671931 0.151928991
0.457938075 0.355218381 0.141176000
0.626944780 0.421505213 0.130803362
0.018216275 0.405060202 0.148892999
0.052371629 0.410879463 0.144718453
0.137887463 0.412903190 0.138899103
0.212776735 0.413662106 0.140164360
0.290069431 0.420240253 0.143327266
0.364073455 0.432384729 0.135483742
0.461985976 0.452371538 0.130803257
0.618216515 0.531056404 0.107400179
0.002277288 0.601771116 0.092220016
0.001897740 0.601518095 0.098924465
0.000000007 0.604933858 0.097659819
0.170145363 0.601771116 0.096774004
0.289057374 0.609740853 0.097659811
0.389879763 0.613029540 0.086021721
0.496268272 0.627577841 0.084377006
0.627071142 0.650221229 0.074636087
0.000000000 0.803162396 0.094496779
0.003542452 0.809360981 0.090955235
0.005060156 0.809108317 0.093737878
0.035167735 0.811258793 0.094497114
0.265275359 0.813788414 0.096900590
0.416824698 0.817710400 0.107526951
0.551676214 0.821125984 0.121568479
0.684503555 0.820240378 0.128652751
0.039216001 0.066287450 0.146236554
0.052877549 0.059203450 0.145857006
0.116002195 0.060341902 0.149019912
0.170398638 0.075268902 0.153700009
0.236938536 0.075648546 0.157622010
0.335104376 0.087033994 0.159519255
0.459329724 0.102592997 0.175205737
0.621378541 0.127513975 0.178241536
0.032891002 0.079949096 0.141935095
0.053636547 0.076407544 0.137634456
0.088424996 0.081087641 0.143453196
0.162555635 0.088931344 0.149399459
0.234914377 0.103605188 0.154838651
0.333586186 0.117140733 0.164199740
0.455281705 0.133206800 0.170145094
0.618848562 0.163693994 0.175205827
0.064642541 0.116002195 0.150917456
0.081087641 0.119544551 0.151802450
0.107653543 0.117520094 0.150917456
0.156609997 0.125743449 0.151676357
0.233396366 0.140291005 0.157242358
0.332447708 0.160531282 0.162681639
0.446932465 0.190638840 0.168247834
0.621632040 0.230866641 0.171157733
0.082352906 0.176217183 0.159645647
0.091208443 0.175837740 0.152814895
0.124857642 0.174193546 0.158760458
0.168753639 0.176976264 0.153194457
0.239595175 0.191144988 0.162302092
0.324604541 0.217204437 0.163061187
0.450853825 0.263757199 0.170019001
0.615053833 0.319671005 0.167868286
0.089057550 0.270335197 0.167615354
0.103099450 0.269070655 0.164705917
0.145730197 0.269070655 0.165085450
0.198229000 0.265401483 0.162302092
0.253763199 0.273244977 0.166603357
0.327766836 0.286527395 0.163820297
0.446426481 0.341935188 0.161669925
0.614927053 0.415179998 0.159140006
0.033776347 0.394307464 0.165591002
0.072106361 0.391397476 0.158127561
0.139278650 0.396837473 0.159266204
0.204933643 0.401897609 0.154838651
0.282732368 0.404174924 0.162934557
0.354206204 0.414294899 0.161290467
0.452877820 0.438583285 0.149019808
0.608981550 0.525363803 0.144844979
0.002277288 0.589373529 0.135989815
0.004174544 0.593295515 0.129285291
0.001138553 0.597090483 0.129538000
0.167615354 0.596963942 0.128399551
0.282099962 0.605186522 0.132827103
0.386337817 0.610752344 0.129538000
0.498166025 0.619354784 0.131815299
0.621505439 0.648829758 0.121062532
0.001644716 0.801644266 0.136495814
0.000758999 0.808095872 0.139911458
0.002277284 0.804933369 0.143580332
0.036938757 0.806831002 0.145603806
0.269070029 0.808222651 0.147248611
0.412523448 0.812144160 0.155597687
0.548513472 0.816318870 0.162428960
0.680455387 0.823529601 0.176849976
0.028968997 0.070588000 0.182669088
0.069323443 0.066287450 0.179127455
0.126122996 0.067425899 0.175585002
0.177102998 0.072865002 0.176470995
0.243643284 0.085515901 0.185072899
0.321188986 0.100695640 0.197343454
0.436938584 0.109803997 0.206198901
0.593927562 0.114484094 0.217837006
0.066287450 0.091713995 0.183934450
0.083112001 0.088931441 0.174446538
0.114358000 0.091713995 0.170904085
0.160151631 0.094876900 0.170145184
0.227577642 0.107779637 0.188741446
0.314990282 0.123845801 0.194054544
0.426944852 0.135230646 0.206072003
0.592030346 0.151549548 0.220114082
0.070588000 0.121442094 0.165464908
0.087792903 0.121821545 0.160658091
0.122960091 0.129285082 0.177988991
0.162555635 0.136748731 0.173308089
0.228842288 0.142568097 0.185831994
0.307779998 0.161416993 0.190386087
0.425933063 0.180898100 0.205186397
0.592536569 0.222391084 0.221378833
0.094117999 0.171916544 0.183048546
0.108538635 0.173560739 0.172801733
0.141809091 0.181783900 0.185831994
0.179000542 0.179379985 0.183048546
0.227071285 0.190765634 0.187349796
0.311575204 0.213029891 0.188867986
0.432510912 0.251233280 0.198228791
0.593801439 0.305882275 0.214294642
0.104996808 0.262492001 0.184946179
0.125743344 0.252878010 0.194433898
0.151169986 0.260847270 0.188108891
0.203668281 0.256419808 0.190132633
0.246679276 0.262365282 0.195192993
0.316508383 0.280581802 0.192030191
0.435294271 0.333459556 0.201644719
0.597596467 0.406072170 0.207337365
0.062239282 0.384313464 0.194180846
0.094370812 0.378494829 0.196710989
0.152561367 0.385072559 0.195066378
0.207716808 0.388994336 0.197722912
0.280708551 0.394053996 0.194813550
0.349905372 0.401518285 0.197216749
0.440987051 0.427703887 0.195572555
0.603668392 0.513851702 0.206198901
0.004680709 0.577482641 0.192157000
0.002277191 0.577988565 0.187729359
0.011385212 0.584566772 0.193042397
0.164832011 0.586464286 0.196331441
0.283112109 0.589752913 0.192915902
0.382036746 0.595066130 0.193042353
0.488425285 0.607969880 0.195951909
0.609867394 0.640227497 0.191018283
0.003289108 0.793421805 0.237571016
0.001138547 0.796331286 0.226312593
0.006578154 0.794813573 0.229474902
0.035294194 0.804933548 0.226312608
0.270714790 0.801770568 0.235546991
0.414168179 0.807084084 0.238203526
0.541429400 0.812776864 0.244149268
0.683238566 0.814294696 0.257431954
0.046679281 0.063883640 0.243263632
0.093485534 0.060341898 0.233016819
0.151929095 0.065021999 0.230739728
0.200126648 0.076786995 0.230360284
0.249083191 0.083871193 0.219101638
0.326248825 0.097785987 0.225553468
0.436812282 0.110942356 0.248829931
0.592409611 0.118912168 0.285515636
0.078557640 0.099936545 0.217837095
0.105755992 0.103858352 0.217837095
0.145224541 0.101454541 0.211511999
0.195825279 0.101454645 0.214674085
0.227071270 0.108918086 0.206199005
0.319544375 0.120683186 0.226818442
0.423023283 0.139911339 0.250727177
0.588614881 0.152814716 0.281467557
0.093232095 0.140543744 0.214674294
0.111954182 0.133839190 0.209108189
0.146489292 0.140670449 0.206072092
0.180012375 0.142947555 0.203288749
0.233016729 0.145730376 0.212017640
0.312080801 0.161669731 0.226439089
0.419101924 0.188741103 0.248197183
0.578874052 0.212397099 0.276533991
0.104237996 0.183301985 0.208475992
0.120682992 0.180898175 0.210499540
0.150790647 0.188361645 0.206830993
0.198481634 0.201264992 0.214674279
0.250221550 0.205565825 0.226438999
0.313851982 0.226312280 0.234914377
0.422264189 0.255154997 0.252877980
0.582542658 0.296900809 0.276407480
0.120303541 0.248703539 0.224920988
0.135989740 0.252878070 0.218596086
0.167615086 0.261606276 0.222264543
0.217457637 0.268943816 0.230360195
0.261226743 0.271979839 0.233396366
0.323466003 0.291334182 0.239847988
0.426185817 0.329538196 0.251612991
0.583301663 0.390765011 0.275901318
0.093864627 0.369765699 0.244402289
0.119670913 0.372042984 0.242125079
0.167235896 0.376470357 0.246046990
0.221505627 0.381151378 0.246805891
0.281720519 0.382163048 0.246806100
0.342947483 0.393674463 0.245540723
0.436685562 0.425173968 0.252624840
0.594939828 0.505123377 0.281593800
0.004427648 0.563693941 0.264009982
0.006704646 0.564832568 0.265528291
0.019734453 0.566350579 0.260214835
0.165717706 0.571537197 0.267425925
0.279696196 0.575837970 0.271220714
0.376090914 0.585199058 0.268058181
0.476154208 0.596204877 0.271473557
0.608475447 0.632258236 0.284883052
0.006957990 0.779633045 0.320303619
0.005945550 0.784186959 0.323719114
0.005060353 0.784819663 0.325743288
0.074889347 0.788614452 0.326755226
0.281467468 0.791271091 0.332068205
0.411132067 0.798861265 0.329285145
0.544085860 0.800885320 0.338393420
0.673118412 0.811385214 0.345857054
0.110436186 0.070588000 0.336116195
0.144086003 0.074510001 0.336369544
0.191903993 0.076786898 0.325869381
0.250474185 0.082353003 0.310942382
0.303858161 0.089310989 0.299937189
0.342694432 0.102972731 0.291334182
0.443137467 0.114611000 0.313219398
0.599873245 0.118785642 0.365211815
0.112586990 0.116887994 0.316382200
0.146616191 0.114863738 0.318785399
0.189626992 0.114357993 0.305376172
0.237318188 0.117140830 0.301707923
0.289816350 0.120303638 0.297027171
0.336748987 0.123719178 0.278431624
0.436053365 0.139911443 0.304617167
0.593548119 0.151929274 0.364199698
0.119924091 0.167615280 0.285009295
0.141049996 0.168880552 0.287918836
0.177102998 0.165338188 0.283618182
0.225173831 0.167994648 0.279949546
0.267805248 0.171663195 0.275774986
0.321315616 0.167615205 0.273750812
0.427324563 0.189500198 0.305250078
0.579885781 0.213662177 0.360784143
0.122201189 0.218848646 0.286780179
0.146616101 0.218089834 0.277672529
0.179000556 0.221252441 0.271727085
0.228842378 0.220366836 0.274889380
0.271727145 0.222770631 0.274383634
0.322959900 0.230613545 0.277672619
0.427071720 0.258443981 0.310309827
0.582036793 0.291967273 0.355218023
0.127893806 0.277925372 0.278178185
0.140670344 0.282352835 0.276154637
0.178621203 0.280329198 0.278810978
0.231119186 0.284629822 0.280455172
0.289057195 0.311701179 0.291460991
0.356736124 0.320556819 0.306261957
0.446299732 0.348260581 0.324984163
0.582542658 0.397343546 0.360404819
0.113472261 0.369765699 0.296900988
0.126249269 0.372928709 0.292472899
0.171157807 0.374067247 0.297153741
0.225047201 0.380771697 0.301581293
0.294876546 0.404301107 0.313978374
0.361923158 0.419228196 0.323466182
0.454395831 0.442504913 0.335736752
0.596204877 0.506767929 0.369006783
0.006325195 0.557748139 0.345857382
0.004174641 0.559519470 0.348387092
0.015559828 0.564832270 0.346742570
0.158886820 0.565338135 0.345224470
0.281973481 0.575964391 0.352182150
0.376470447 0.579000831 0.355724186
0.474130541 0.589879632 0.362302482
0.612144351 0.632637322 0.386337727
0.004301164 0.777735412 0.409613967
0.001138640 0.778747737 0.408855140
0.000000000 0.780139089 0.417836845
0.132320866 0.778621018 0.428715885
0.294750154 0.780898213 0.435167462
0.419101804 0.790259421 0.436812282
0.540417194 0.792156875 0.437064886
0.675015509 0.802656591 0.456167132
0.145098001 0.078431003 0.489057451
0.177861989 0.082226478 0.488678008
0.234281987 0.084250741 0.482605815
0.294876724 0.087413348 0.465275198
0.363820642 0.094117999 0.452751189
0.426691979 0.099936739 0.432384700
0.485262245 0.113345549 0.420240164
0.604553759 0.117647000 0.463630587
0.139152259 0.123339534 0.467425704
0.168753922 0.126249284 0.469702661
0.221631899 0.128020361 0.457432002
0.284250468 0.127261534 0.445667088
0.348766714 0.127261534 0.432384819
0.414041460 0.136242807 0.420113653
0.474003732 0.142314553 0.412776709
0.603668213 0.150031641 0.458950192
0.132953733 0.191018194 0.446046442
0.157115549 0.194307297 0.441366285
0.203668386 0.193422094 0.428842455
0.271347493 0.190765455 0.423149943
0.335483938 0.191145003 0.413156360
0.402909636 0.191397831 0.409234464
0.461480200 0.197090343 0.403036058
0.589247465 0.212903082 0.456799537
0.113472261 0.263757288 0.409487814
0.147122353 0.258697122 0.407969922
0.191904098 0.259076476 0.404427528
0.253763288 0.260341644 0.398987949
0.313345820 0.260721296 0.399493992
0.381657183 0.261480272 0.391271472
0.447691351 0.264642656 0.391524106
0.593927622 0.297027290 0.456546366
0.100442633 0.336495668 0.402782947
0.124604456 0.337254554 0.400759101
0.178874001 0.338266969 0.397090107
0.248197541 0.336242706 0.396078467
0.310183197 0.342441618 0.393295199
0.373813719 0.342821181 0.395319462
0.450221479 0.346362919 0.401897609
0.601391494 0.395192564 0.456293344
0.046552811 0.418722481 0.391397476
0.090322644 0.419354677 0.397469848
0.154206023 0.420999467 0.394433528
0.226439267 0.419101715 0.398482084
0.296900809 0.428083658 0.406704932
0.389626712 0.459835708 0.428589731
0.481467515 0.483744234 0.450853527
0.608855128 0.524351537 0.489816546
0.001644712 0.554712117 0.431625694
0.001138547 0.551170051 0.426565558
0.015433436 0.555218160 0.436685622
0.140797004 0.559772193 0.439215690
0.268817395 0.573940575 0.439848453
0.389753193 0.595572293 0.468184978
0.496774018 0.612144530 0.479696453
0.620872796 0.644528747 0.508538783
0.000000000 0.774572730 0.519924223
0.001518192 0.774193525 0.522580624
0.001517991 0.775331795 0.518912077
0.030487264 0.775205255 0.521568477
0.284250617 0.778114855 0.523213148
0.430740297 0.780392170 0.544845223
0.548640311 0.786337435 0.551170051
0.672738552 0.795066297 0.558507085
0.129411995 0.104870282 0.684123516
0.174826264 0.104617253 0.680708289
0.243896306 0.105629183 0.677292824
0.321188986 0.106008634 0.670588195
0.401770890 0.110183381 0.653510630
0.482859015 0.116255730 0.644908547
0.566223860 0.116635278 0.628589511
0.647311807 0.128020152 0.615813017
0.123971999 0.148387119 0.658443868
0.160025299 0.151549548 0.666540265
0.236432746 0.146363184 0.667172730
0.309044838 0.151422933 0.655281544
0.395951837 0.152308822 0.644781530
0.480835170 0.155344546 0.637823939
0.559013247 0.159139827 0.622137666
0.646426320 0.164705545 0.612523496
0.087286904 0.226438895 0.651360035
0.137887269 0.225173652 0.645414114
0.215686187 0.222137988 0.642757773
0.297406822 0.226565644 0.638709843
0.382036537 0.227071285 0.629221916
0.464768887 0.226945192 0.620999217
0.546489418 0.234029070 0.612776637
0.632005274 0.232005015 0.604554057
0.032511160 0.314610958 0.620746255
0.099936903 0.309550643 0.618595898
0.186590806 0.310562879 0.617457509
0.274130285 0.311195344 0.612903535
0.358254135 0.314104915 0.611131966
0.444275737 0.315749615 0.600885510
0.532700896 0.319671214 0.595572472
0.624161959 0.319797724 0.596457720
0.000000000 0.408602178 0.615180254
0.023655735 0.410626113 0.607084095
0.150031909 0.409361273 0.609614134
0.247944638 0.407463759 0.602150559
0.336875290 0.406072468 0.592283249
0.427451164 0.406072468 0.588234842
0.515116930 0.409993470 0.584439874
0.614674091 0.412776619 0.594307303
0.000000000 0.507652998 0.599873364
0.005313189 0.509677291 0.603921533
0.055028453 0.507652998 0.594813406
0.200758904 0.506893992 0.592536390
0.309044719 0.509044707 0.589626968
0.414547741 0.517647207 0.591650844
0.505755544 0.518912435 0.583428264
0.615180254 0.528779328 0.599367559
0.004933716 0.611890793 0.598482132
0.000000000 0.611131787 0.597216964
0.000000000 0.607336819 0.592283249
0.133839369 0.607969522 0.591777205
0.278431475 0.612776577 0.587602735
0.405819237 0.623276293 0.595825315
0.532827258 0.654395878 0.627577841
0.655407727 0.677798510 0.643516660
0.003542456 0.765844166 0.646931887
0.001138544 0.769006968 0.640100896
0.002909558 0.765717566 0.640607238
0.006830994 0.772042990 0.641239524
0.254016250 0.773434401 0.640101135
0.411511540 0.781277776 0.644655168
0.571537197 0.796078563 0.669828951
0.697280288 0.805186391 0.681846738
0.049336050 0.172928780 0.863250911
0.116887897 0.171916336 0.862365305
0.210626274 0.175458789 0.858190775
0.304490834 0.176723585 0.856799603
0.406704187 0.181024417 0.852877617
0.502213895 0.194433719 0.845540822
0.606831074 0.211511612 0.839215755
0.712966442 0.228083432 0.834661603
0.039595027 0.211385161 0.855787158
0.111574724 0.211764619 0.852877617
0.209740847 0.210373044 0.852877617
0.304111302 0.217583686 0.851739347
0.402783185 0.229854524 0.849336028
0.507400751 0.237064883 0.843516827
0.606198251 0.247691527 0.837318003
0.705882430 0.258949876 0.829348564
0.006325193 0.292093903 0.847311735
0.094623566 0.291334897 0.849082887
0.192283258 0.291460991 0.846932352
0.293231815 0.295635551 0.843516707
0.395192832 0.297280252 0.838962555
0.496647388 0.311574906 0.835167348
0.599873424 0.318279743 0.833143473
0.705882370 0.323339880 0.826059520
0.003542165 0.394687086 0.831878603
0.082859002 0.393042386 0.837444544
0.188867897 0.396963894 0.834661782
0.287665814 0.397343248 0.834787786
0.391777486 0.405186594 0.831245959
0.489816606 0.407590330 0.823782444
0.588867724 0.415686071 0.820113957
0.699051261 0.416192412 0.815053582
0.011132134 0.502592981 0.822643578
0.076027751 0.503099322 0.830233872
0.185831875 0.506261706 0.819481194
0.285768569 0.506514668 0.815433383
0.380392164 0.508158982 0.815939605
0.482858539 0.512080967 0.812017560
0.585578620 0.511574686 0.810246766
0.694749713 0.515116990 0.809360981
0.000000000 0.601644516 0.809487820
0.002783166 0.603415728 0.816951454
0.130297005 0.603795290 0.814168036
0.261227161 0.609614015 0.814041913
0.379759610 0.616192400 0.812017679
0.485894620 0.617457509 0.805945396
0.584946215 0.615559757 0.801264822
0.688804507 0.618089616 0.797343314
0.000379544 0.704111338 0.821631551
0.001897740 0.704111338 0.817457497
0.056166932 0.701834142 0.802656353
0.233902708 0.708412468 0.809234381
0.364705682 0.710815668 0.808095872
0.481720209 0.717140615 0.801011860
0.597849190 0.723086655 0.798734546
0.705249429 0.728020191 0.800126433
0.000000000 0.811132252 0.803288579
0.002277285 0.806957841 0.808095813
0.005313100 0.807843208 0.798734844
0.174446285 0.812270641 0.806198776
0.343580127 0.807842731 0.796710730
0.476786554 0.813282669 0.798861325
0.612270355 0.820872784 0.802656412
0.757874548 0.842504561 0.817710400
