Assets/Resources/EldamarStudio/100 Horror LUTs Pack/LUTs/cube/Aerrax LUT.cube
DOMAIN_MIN 0 0 0
DOMAIN_MAX 1 1 1
LUT_3D_SIZE 32
0.027450999 0.047059000 0.129411995
0.024414614 0.050094616 0.129411995
0.025679775 0.053130776 0.127261221
0.028716162 0.056167159 0.126755163
0.033270452 0.059203450 0.129411995
0.048450064 0.062239062 0.129411995
0.071220644 0.062744997 0.137001678
0.092219993 0.059456002 0.137887001
0.111195087 0.055661093 0.134092093
0.132447496 0.058697481 0.137128487
0.144971743 0.053004261 0.137254998
0.165211976 0.048956260 0.139278740
0.188361645 0.049335998 0.140037641
0.209867075 0.054901998 0.137001961
0.234155819 0.054901998 0.133965582
0.256040782 0.052498195 0.133332998
0.278810978 0.052498192 0.134851187
0.302466542 0.056166988 0.136622429
0.323718995 0.062238999 0.133586049
0.347754717 0.062744997 0.138898998
0.373940706 0.068437733 0.141176000
0.400252998 0.077546127 0.140164137
0.424667507 0.086527988 0.137254998
0.451992720 0.092600003 0.137254998
0.483871281 0.100948699 0.141809002
0.518659294 0.108664989 0.143706322
0.556104124 0.116255060 0.142188132
0.598608851 0.131435424 0.148260891
0.641113639 0.138645992 0.151676163
0.687160313 0.148260415 0.152941003
0.735737145 0.159519374 0.155597597
0.784313977 0.168626994 0.164706007
0.027450999 0.053130999 0.126375601
0.030487388 0.050094616 0.132447615
0.025300227 0.055281550 0.128146619
0.032004934 0.055408064 0.126755163
0.044275999 0.053510323 0.130171001
0.051486447 0.059203450 0.135483995
0.069196388 0.062239058 0.130423993
0.094117306 0.061100710 0.140291080
0.114231095 0.057938386 0.141682684
0.126375496 0.058697484 0.131056488
0.144718751 0.058823999 0.137002006
0.167236239 0.057052772 0.139278740
0.191398039 0.056167386 0.138898998
0.212397397 0.057938386 0.134471640
0.231119424 0.057938386 0.137001976
0.253004402 0.060341574 0.136369392
0.275774986 0.060088385 0.134851202
0.300063342 0.062871568 0.135483593
0.323718995 0.071347393 0.139658049
0.350537360 0.077419393 0.147754356
0.371284068 0.079823129 0.142694399
0.395193130 0.085642383 0.139152244
0.421884865 0.092599988 0.140417129
0.455028325 0.098672003 0.143326998
0.486906886 0.109297991 0.143326998
0.521694958 0.117773369 0.146489680
0.559139788 0.124351442 0.147754714
0.601644456 0.134471819 0.151296511
0.644149244 0.144339219 0.149399459
0.684882700 0.156103507 0.149905384
0.730549932 0.167741820 0.150790766
0.781277597 0.174699768 0.155597612
0.029601775 0.057052772 0.123339772
0.032637615 0.054016389 0.129411772
0.031373002 0.055281550 0.131182775
0.030360548 0.058823999 0.131435603
0.045414545 0.055661000 0.133586228
0.060341772 0.059962098 0.125490233
0.074383542 0.065654680 0.136495993
0.092599541 0.065401711 0.132068276
0.116128765 0.063124999 0.141176552
0.129411489 0.063124999 0.134345502
0.145097956 0.065275222 0.135230988
0.165338472 0.067299478 0.135230735
0.190132856 0.067425996 0.138013646
0.211638302 0.067172967 0.135483772
0.233649760 0.065275222 0.136622414
0.254269570 0.069829188 0.139405221
0.275521934 0.068310998 0.137887418
0.297280401 0.069576144 0.136116192
0.317014247 0.080202743 0.140670002
0.344086140 0.084377006 0.140923351
0.367615521 0.090448998 0.144338995
0.390132993 0.093738355 0.137254998
0.418975204 0.098798476 0.139152259
0.454395920 0.106894232 0.142188132
0.485642046 0.113219768 0.147248775
0.520430088 0.122580759 0.148640096
0.557368875 0.129664764 0.150664285
0.598228872 0.140417442 0.150411323
0.645034552 0.151676059 0.154585838
0.687539339 0.166097626 0.155091763
0.730929494 0.178114921 0.153700247
0.782542765 0.182922229 0.152941003
0.035167839 0.062618837 0.127893835
0.030613454 0.060847610 0.126375824
0.036938611 0.060847610 0.130676836
0.036432996 0.061353996 0.133206829
0.042884544 0.061733447 0.140796542
0.060594935 0.064769059 0.127008155
0.079317316 0.070335001 0.129032150
0.097406827 0.074003711 0.138140276
0.115623027 0.071727000 0.135862991
0.133839175 0.071727000 0.138393328
0.147880867 0.073371291 0.137254998
0.168374419 0.073877096 0.136495903
0.189626813 0.078052126 0.136875167
0.210626170 0.078305162 0.139278993
0.232890651 0.076280907 0.137254998
0.257305622 0.076660156 0.138393357
0.274763167 0.081720158 0.138393030
0.297280520 0.078178152 0.135989830
0.314990401 0.089057781 0.138393044
0.340037912 0.094117641 0.139658198
0.364832759 0.097786158 0.141050160
0.388109148 0.103858158 0.139025897
0.418216169 0.107273988 0.138646349
0.452371985 0.115243264 0.141682267
0.484250396 0.123339571 0.145730570
0.518659294 0.131941989 0.147881329
0.555091977 0.138013989 0.151423007
0.593801260 0.148639992 0.150664300
0.641239762 0.160784289 0.151803002
0.686274171 0.175205231 0.153573766
0.731435597 0.188994437 0.157494992
0.783048809 0.192030162 0.152941003
0.042378001 0.072485544 0.140416995
0.029474707 0.072106093 0.130549997
0.035040770 0.071726546 0.129790992
0.045920160 0.071220703 0.135862991
0.049335994 0.068564542 0.140037537
0.058444381 0.071600154 0.137001932
0.077293314 0.077166095 0.134724677
0.097786278 0.080834709 0.135483548
0.117520191 0.083112001 0.139658004
0.135736972 0.083112001 0.139658004
0.148513541 0.083871000 0.137887329
0.168753952 0.082605839 0.137254998
0.190765530 0.081467286 0.138014004
0.212017938 0.087539993 0.143832967
0.230360433 0.087792993 0.138140455
0.255407780 0.086527735 0.137634456
0.276660383 0.087286539 0.136116356
0.291208446 0.092978984 0.133332998
0.318532914 0.099051006 0.133333012
0.343833029 0.105123095 0.139278546
0.367741913 0.109297730 0.144971475
0.393042594 0.113345996 0.147754833
0.420493454 0.119671009 0.141935095
0.450854242 0.126249090 0.144718453
0.481214553 0.134598285 0.147375286
0.516128957 0.143959537 0.148387328
0.554332972 0.155850545 0.145350993
0.590764940 0.161922544 0.151422992
0.637444675 0.172928646 0.149525747
0.683238447 0.186843827 0.148007795
0.728399277 0.199240610 0.146489531
0.780012548 0.202277005 0.152561545
0.036306001 0.087665930 0.134344995
0.039342389 0.084630318 0.140416995
0.043643095 0.082100101 0.134850994
0.053763159 0.082100101 0.135862991
0.061479993 0.083744928 0.140037552
0.067552000 0.083744928 0.130929932
0.084250703 0.089310870 0.132953674
0.101328284 0.090449162 0.131688714
0.116761193 0.089184001 0.130170837
0.129664972 0.089184001 0.127514005
0.144971862 0.095002994 0.133332998
0.165717915 0.098039255 0.135863319
0.185452059 0.096647866 0.134977996
0.199873164 0.093612000 0.131688952
0.221125528 0.099684000 0.134724587
0.244275659 0.104743995 0.138646051
0.269070387 0.106261931 0.139152259
0.290702403 0.107906349 0.136116371
0.312460124 0.111195005 0.133333012
0.342567861 0.117267713 0.141682357
0.366223723 0.121442124 0.146489680
0.390006185 0.125489995 0.149020001
0.417457074 0.131815016 0.148007870
0.447817892 0.143959805 0.148007870
0.478178620 0.152814582 0.148513943
0.514105260 0.159139678 0.150411323
0.554080009 0.165211931 0.150917009
0.584692955 0.177102923 0.145350993
0.629095435 0.185831755 0.143453166
0.676913381 0.198988169 0.147501335
0.725363672 0.212397248 0.151043624
0.776976943 0.220492989 0.149525940
0.035294000 0.102846317 0.133332998
0.038330387 0.099810064 0.134344995
0.047817998 0.098924674 0.138266772
0.058570322 0.097532995 0.134598151
0.069323093 0.098545223 0.136495546
0.079696633 0.096395001 0.135989934
0.090828642 0.096395001 0.131941676
0.104111284 0.099178001 0.131688714
0.118279189 0.099304318 0.131688893
0.133965984 0.102846324 0.135736510
0.151549548 0.108665317 0.136369005
0.166729927 0.108665064 0.136369258
0.187223285 0.110689320 0.137254998
0.202656642 0.109551027 0.134724960
0.221631721 0.113346316 0.137760580
0.245287910 0.114611320 0.135989800
0.266540319 0.118912123 0.138646320
0.288804650 0.121188991 0.137887418
0.311954051 0.126122355 0.138646036
0.341555744 0.131941393 0.139152035
0.366223723 0.136116415 0.148260415
0.388488233 0.140164316 0.151549682
0.414547801 0.146489307 0.151549682
0.447311819 0.158633485 0.151549682
0.482226551 0.166224241 0.151549682
0.515876293 0.175078943 0.148766696
0.556104124 0.181910127 0.148387060
0.594560623 0.194054633 0.148387328
0.635673761 0.203541815 0.144971490
0.682985604 0.216192171 0.143706322
0.731562436 0.231372595 0.148766607
0.781530976 0.243769646 0.149020001
0.040227704 0.114737704 0.134977713
0.039974675 0.116635017 0.128399715
0.049462706 0.115749404 0.138772771
0.060341544 0.114484243 0.138014004
0.071346998 0.113725245 0.134218708
0.080961451 0.110689633 0.133459941
0.098039284 0.111827992 0.138013676
0.103605285 0.110183701 0.133332998
0.114990190 0.110183701 0.131056279
0.133206978 0.114484712 0.137507513
0.151423007 0.120556697 0.139531717
0.167615250 0.120556444 0.137507543
0.183933988 0.120935701 0.136748925
0.202150643 0.124478020 0.137001961
0.220366985 0.127514407 0.137254581
0.240101188 0.129791290 0.138772801
0.267425954 0.129791290 0.138772801
0.286780566 0.134598136 0.139531851
0.310056746 0.142694414 0.142567754
0.338266730 0.145477414 0.144465417
0.364579439 0.152940720 0.143579736
0.387855828 0.156989247 0.149652004
0.413029969 0.163187876 0.149904996
0.444908202 0.173813701 0.152941003
0.480581850 0.183048561 0.151296720
0.514231563 0.190512657 0.151296720
0.550664365 0.200126410 0.146236658
0.592030466 0.212270871 0.146995738
0.637824237 0.223402843 0.146363169
0.683870912 0.232763872 0.146742716
0.733333349 0.247944281 0.146742716
0.782669246 0.263124704 0.149020001
0.046299905 0.125363901 0.135737002
0.045540612 0.131436080 0.128146991
0.051739547 0.132448003 0.132954001
0.064895935 0.131941915 0.144086003
0.073244646 0.128905535 0.138393447
0.078937188 0.125869840 0.132700890
0.095382415 0.127134681 0.138519868
0.108918190 0.126881704 0.137887001
0.112713084 0.125363901 0.134850994
0.130929872 0.125363916 0.134850994
0.146110103 0.130424008 0.136242867
0.162302151 0.131182835 0.137507826
0.177861989 0.129284993 0.135230541
0.196584061 0.135357052 0.138013899
0.215812817 0.138899505 0.135483578
0.233270079 0.142694399 0.135736808
0.256040275 0.145730197 0.138013899
0.287666023 0.145730197 0.141682088
0.309551001 0.157368958 0.144844964
0.334851354 0.160658091 0.147122264
0.360278457 0.166350350 0.147881359
0.384061128 0.173687264 0.145098001
0.411638469 0.180012986 0.144845009
0.442631096 0.189753205 0.148387015
0.477545649 0.200379387 0.151423201
0.512713194 0.208728671 0.148260906
0.544592083 0.218343005 0.147754848
0.584060490 0.230486989 0.144718453
0.629980683 0.243390068 0.145098001
0.679316282 0.253763318 0.146110117
0.726501644 0.266160667 0.147501811
0.778114915 0.281341076 0.147501811
0.043263517 0.140543520 0.129665002
0.049335521 0.146616295 0.135737002
0.055028554 0.146236733 0.136748999
0.066414006 0.144592017 0.140037999
0.082353033 0.144085944 0.144465446
0.085389413 0.141049564 0.141429052
0.096141972 0.140543535 0.145857140
0.110310182 0.139025718 0.142188549
0.124857873 0.137507915 0.134850994
0.140037477 0.140543535 0.140922993
0.146616250 0.143453404 0.138013870
0.159266204 0.144592017 0.141303003
0.174446151 0.143326849 0.143579841
0.190512061 0.141429067 0.141049519
0.214800805 0.147501841 0.141049519
0.231625780 0.153447494 0.138519794
0.251486480 0.159392983 0.137254998
0.278557628 0.163946986 0.138646469
0.314990491 0.163947001 0.144718483
0.336875379 0.172802374 0.145098001
0.360278457 0.181530759 0.147122249
0.383555144 0.188614637 0.147881359
0.405566454 0.192157000 0.144845009
0.438962907 0.204301029 0.138772994
0.474510044 0.218595773 0.146868989
0.510942459 0.229348481 0.150031537
0.547627747 0.236559004 0.144718453
0.587096810 0.248703003 0.141682059
0.629222095 0.263503820 0.143959343
0.677292526 0.275015712 0.145098001
0.726122141 0.287666082 0.144338906
0.769006491 0.308665484 0.141429037
0.048955999 0.149904877 0.138140127
0.055028740 0.155976906 0.144212872
0.065401740 0.157748133 0.145983875
0.072991997 0.155471161 0.143453553
0.083112001 0.154585883 0.142188132
0.088678062 0.159139812 0.141682059
0.096774451 0.156103432 0.136115998
0.111827992 0.155723870 0.140670255
0.126755223 0.154712006 0.139911085
0.137634397 0.155597389 0.143832862
0.149904862 0.155723870 0.141176000
0.160025120 0.158760265 0.144212633
0.174319640 0.158507228 0.144592226
0.189247057 0.155976906 0.137760878
0.202909827 0.159392834 0.132447869
0.227197975 0.170271993 0.142061859
0.249968320 0.175838187 0.141555816
0.275015563 0.179886296 0.140796691
0.300063103 0.182163015 0.144592002
0.325363874 0.187729001 0.147881359
0.348639965 0.196710870 0.148007870
0.375964642 0.205818996 0.149020001
0.405186951 0.212776855 0.147881359
0.435800046 0.219354883 0.144591987
0.469196975 0.231498867 0.143074006
0.506388605 0.244655326 0.145730317
0.545856953 0.255787730 0.142694190
0.590132415 0.272738725 0.144465417
0.626944721 0.284882694 0.149398863
0.676027417 0.299810052 0.150916994
0.726122141 0.312966466 0.149146020
0.768626988 0.330170870 0.144085869
0.055028513 0.165085509 0.143200263
0.055028517 0.173181251 0.135104269
0.069449738 0.174952254 0.140923485
0.075268902 0.173687413 0.139658645
0.080961555 0.170651704 0.136622265
0.095256254 0.171790004 0.143200263
0.097786322 0.172295928 0.138140261
0.111827992 0.169259965 0.137001544
0.128526002 0.169639409 0.141935095
0.138899237 0.170904249 0.144971490
0.150917262 0.168880507 0.146236643
0.163061261 0.172928512 0.141176000
0.177482247 0.173687607 0.143833131
0.193548024 0.171157286 0.137507960
0.207463562 0.174193665 0.136748731
0.227197975 0.180392250 0.145098239
0.248450369 0.187982053 0.148134261
0.273624241 0.192283303 0.145224512
0.296267986 0.198102310 0.146869227
0.318279475 0.205945522 0.149905100
0.344465464 0.210119769 0.149146482
0.367868125 0.219987243 0.149020001
0.397343457 0.230107725 0.148766980
0.431499004 0.238076985 0.143832833
0.468184829 0.250727236 0.149145991
0.502972960 0.264262915 0.146363020
0.542314887 0.277546048 0.142694205
0.586337388 0.294244230 0.142694190
0.627956569 0.307147235 0.144338742
0.669702530 0.321062416 0.146868750
0.722706735 0.334471852 0.148639962
0.768626988 0.347375244 0.147122264
0.058823999 0.184440643 0.142820999
0.060341608 0.190132901 0.134471610
0.068943642 0.193927646 0.134345278
0.080581807 0.193801150 0.136622161
0.078684643 0.190765530 0.133965999
0.096141934 0.187729344 0.143074006
0.104237996 0.187223285 0.141176358
0.111827992 0.187855706 0.138899282
0.128526002 0.186338082 0.142694190
0.140670016 0.189373806 0.146110132
0.153953105 0.187729508 0.145730585
0.167235985 0.187349975 0.146110132
0.179379985 0.191145003 0.141176000
0.197343037 0.188361645 0.138899416
0.212523401 0.190512404 0.142820865
0.231372431 0.194813639 0.148513600
0.251106739 0.200506091 0.152688369
0.270588487 0.204174280 0.148513928
0.294876665 0.212776616 0.149020001
0.317520380 0.221885011 0.150664285
0.342567712 0.230613545 0.151043743
0.369892120 0.235673413 0.148007870
0.391776979 0.247565120 0.147754848
0.426185817 0.256672740 0.142694190
0.464895844 0.270334899 0.146868929
0.505249977 0.285515308 0.149019375
0.541682124 0.301201642 0.143959358
0.582921863 0.317014426 0.141555548
0.627703607 0.329538256 0.141176000
0.673117876 0.343453437 0.140037641
0.719544709 0.357748240 0.141808629
0.770904303 0.367109627 0.147881359
0.059835996 0.205693036 0.137254998
0.067931615 0.205945998 0.140290618
0.076786749 0.207843259 0.144971490
0.084377132 0.209614038 0.148007870
0.087792963 0.209234580 0.145351037
0.093864970 0.206198975 0.145351037
0.104997031 0.205693036 0.142567679
0.117141023 0.207590356 0.141176000
0.129791036 0.209867135 0.142441154
0.141935050 0.212903529 0.148513928
0.155976906 0.213283002 0.143706322
0.170651287 0.211511776 0.143200263
0.185705036 0.209867075 0.144465417
0.198102072 0.210120037 0.141682059
0.213282436 0.210120037 0.147754833
0.230360553 0.211764812 0.149020001
0.248323992 0.216066033 0.147501811
0.268058091 0.221632019 0.145730570
0.292346925 0.227704048 0.148766965
0.316129059 0.237318352 0.149020001
0.342314750 0.248323992 0.149020001
0.369892120 0.258950144 0.148260906
0.397342980 0.268311501 0.145477518
0.427703798 0.277672172 0.142694131
0.464895844 0.291587293 0.145983532
0.504996955 0.306767672 0.146236658
0.547248125 0.322454035 0.140923038
0.583680868 0.340670019 0.140923038
0.630233586 0.353826642 0.140923038
0.679063320 0.367742181 0.139658198
0.727134347 0.382290035 0.138772950
0.775712013 0.394434035 0.144844964
0.071979985 0.226945400 0.137254998
0.068943597 0.229981020 0.140290618
0.074889004 0.230233967 0.141176000
0.085388750 0.230866402 0.144971490
0.096900567 0.230486944 0.148387417
0.102972567 0.227451339 0.148387417
0.114105210 0.226945400 0.143326774
0.126249403 0.230234399 0.141176000
0.139911413 0.232637823 0.141935095
0.157115415 0.228083894 0.145477548
0.160531282 0.231119528 0.148640454
0.170145676 0.231498986 0.145730570
0.186211407 0.232005045 0.146236643
0.207210451 0.234408781 0.147754833
0.222390816 0.237444401 0.147754833
0.235167399 0.232637405 0.149020001
0.250094771 0.233017176 0.147501811
0.268437535 0.236053407 0.145730570
0.295382529 0.236812443 0.148766965
0.314105272 0.254016429 0.149020001
0.339279145 0.266539961 0.149020001
0.367615402 0.275648117 0.149020001
0.397342980 0.280455500 0.148513898
0.427703798 0.295635909 0.151549518
0.464895844 0.311827809 0.151043415
0.501581609 0.328020036 0.148133919
0.538899481 0.343706369 0.140670061
0.583680868 0.361922383 0.137887418
0.625426590 0.377482206 0.137887418
0.674509525 0.392030150 0.139658183
0.722833574 0.407210559 0.140543580
0.766603589 0.421758413 0.141808584
0.076913193 0.255407989 0.149272799
0.071473613 0.251233399 0.145098224
0.081340775 0.254269570 0.148133829
0.085641801 0.254522592 0.145856813
0.095509000 0.253384054 0.146616191
0.109676994 0.246299922 0.146616191
0.113598838 0.255407989 0.148766965
0.124098904 0.253763705 0.145983607
0.137002006 0.256040782 0.145983607
0.155218005 0.253257811 0.147375301
0.168500870 0.255913913 0.148007870
0.179633260 0.254902065 0.149020001
0.191777632 0.253383964 0.146363169
0.211511850 0.253890008 0.147122189
0.226692215 0.256926179 0.151423201
0.241871983 0.259961784 0.151423201
0.254016370 0.255407989 0.152941391
0.268943787 0.256673217 0.151676223
0.290955007 0.258444011 0.151170149
0.314737707 0.267931819 0.146616191
0.338646710 0.280455530 0.150411189
0.366982996 0.292093575 0.150411338
0.397216499 0.299810290 0.148766980
0.425300598 0.314990699 0.144971296
0.457938075 0.332447767 0.145730197
0.498545468 0.349272430 0.145730197
0.537002027 0.364958763 0.140670061
0.582542419 0.383174777 0.137634456
0.625426590 0.398734599 0.130044192
0.671473324 0.417456925 0.133586168
0.718912005 0.433016986 0.134598017
0.759899020 0.446679592 0.131562009
0.076913200 0.282732397 0.152308807
0.079949185 0.276660383 0.149272814
0.075268783 0.278557956 0.148134232
0.089184001 0.281594038 0.152435005
0.092472993 0.280708551 0.146995440
0.110688999 0.271600455 0.143579811
0.116255321 0.275648177 0.147628322
0.130170882 0.281087697 0.150537804
0.140797094 0.278052062 0.149778903
0.158253998 0.277293175 0.149020001
0.173560873 0.277166307 0.147501811
0.182669252 0.282226473 0.147501811
0.201264992 0.280329198 0.149778813
0.217330858 0.277672350 0.147627994
0.231246397 0.278178394 0.148640007
0.244908378 0.278178573 0.151423201
0.261606187 0.284250200 0.149904996
0.274383366 0.281214595 0.152308807
0.291714013 0.282479435 0.150158033
0.313978523 0.288045347 0.151929185
0.338646710 0.298671931 0.151928991
0.365971118 0.308792174 0.153953001
0.395951658 0.321062684 0.150411323
0.426059514 0.336243093 0.145730570
0.457938075 0.355218381 0.141176000
0.489943147 0.373434365 0.137001693
0.532447994 0.389247328 0.136116132
0.577988625 0.407463551 0.133080259
0.626944780 0.421505213 0.130803362
0.665401340 0.440227538 0.124478169
0.718405783 0.459708959 0.131435573
0.762934983 0.472486198 0.128525987
0.072612427 0.305755973 0.145730570
0.084756427 0.302846521 0.146995559
0.081593998 0.303478956 0.145098001
0.079569995 0.308918387 0.146363005
0.091713995 0.310436100 0.152435005
0.109424002 0.301328480 0.144591630
0.116255321 0.302972794 0.146869063
0.128273264 0.304364115 0.149399295
0.152814895 0.303605050 0.151549533
0.167994529 0.300569445 0.148513913
0.182542443 0.299430639 0.146110132
0.192789242 0.302593231 0.145098001
0.201264992 0.308285981 0.146110013
0.224794030 0.308792055 0.151929051
0.237318248 0.306894273 0.146995574
0.251359969 0.303225756 0.146869242
0.267172545 0.303731918 0.146869242
0.283491135 0.311574578 0.145730570
0.298671573 0.308538944 0.145730585
0.318785369 0.310436189 0.152182370
0.340037882 0.318532467 0.156862855
0.365338534 0.329411954 0.157495022
0.392662883 0.341935456 0.151296511
0.425047338 0.358127862 0.147248760
0.459076285 0.375964820 0.143200442
0.493611306 0.398355514 0.136369124
0.525996149 0.416065603 0.128779426
0.571410656 0.434155852 0.125869542
0.623023570 0.448324114 0.125616685
0.668437719 0.465148717 0.123972453
0.708791733 0.485262573 0.121695384
0.772548974 0.500442982 0.130803019
0.063504003 0.323972046 0.148766965
0.075648010 0.333080411 0.154838949
0.077039786 0.332321227 0.149652183
0.079569973 0.333839059 0.145098001
0.091713972 0.337760568 0.146362990
0.103857979 0.328652978 0.152434990
0.113978311 0.332194984 0.152181953
0.124224998 0.334724963 0.149399027
0.141176149 0.333965898 0.145603999
0.167994514 0.330929518 0.145477518
0.180265740 0.336622030 0.145351037
0.196710959 0.337887019 0.145098001
0.211384997 0.338646054 0.145098001
0.224794030 0.339152128 0.145857036
0.239974409 0.345224887 0.148893416
0.259708822 0.340923339 0.146363154
0.280202180 0.336622268 0.143832847
0.298671544 0.335863411 0.142694205
0.307779968 0.338899016 0.148766950
0.325742960 0.338646054 0.148766950
0.342314720 0.344591767 0.149526000
0.362302154 0.352941066 0.148766845
0.389626503 0.360151529 0.145224497
0.416950941 0.381403923 0.136116087
0.451612592 0.395319611 0.134345055
0.490575254 0.416571945 0.131056011
0.532068133 0.443390071 0.125743032
0.574572861 0.458570421 0.125743017
0.619987488 0.476660669 0.117520176
0.668058276 0.494370908 0.112966299
0.717141092 0.512840033 0.112334013
0.772548974 0.530803084 0.118658990
0.043263629 0.364452720 0.146236643
0.052624986 0.365211755 0.149526000
0.060467981 0.370019138 0.151297003
0.065654635 0.369513094 0.146616191
0.078178175 0.372169524 0.145098001
0.092725985 0.372675300 0.146362990
0.109929986 0.366097391 0.144844681
0.128020048 0.371157378 0.144591644
0.143959448 0.372675478 0.143073738
0.159139857 0.369639605 0.145098001
0.183048382 0.369766086 0.145098001
0.197216898 0.373813808 0.145098001
0.211258650 0.375711381 0.145098001
0.222264349 0.377609044 0.145351037
0.239974409 0.381150842 0.148387417
0.262365580 0.380012810 0.149020001
0.282479346 0.377356082 0.147881359
0.301834136 0.376850128 0.146110147
0.317394346 0.379885763 0.145730585
0.334851354 0.385705441 0.143453285
0.353067338 0.385705441 0.151043758
0.372169256 0.391145080 0.151549876
0.397849351 0.397343576 0.144845009
0.427830607 0.407969266 0.138393447
0.457431704 0.426944941 0.131562352
0.494243950 0.441493034 0.127767369
0.534345448 0.463883698 0.122201286
0.572296202 0.485894799 0.119923994
0.617457151 0.503732026 0.117267162
0.662998199 0.521948338 0.111954235
0.710563123 0.541935563 0.109803997
0.761416972 0.563947082 0.112080991
0.018216275 0.405060202 0.148892999
0.025426921 0.403162450 0.146236658
0.024794541 0.407210469 0.141429529
0.035926539 0.410246879 0.145224690
0.052371629 0.410879463 0.144718453
0.078178197 0.412397265 0.143200263
0.092093751 0.413535446 0.138772681
0.113598742 0.409108162 0.140670002
0.137887463 0.412903190 0.138899103
0.152688503 0.411005944 0.137381494
0.170651272 0.414674461 0.143200263
0.196457997 0.412903190 0.141303003
0.212776735 0.413662106 0.140164360
0.225933060 0.414927453 0.139658302
0.250727445 0.416318774 0.142694682
0.264262825 0.420240253 0.143327266
0.290069431 0.420240253 0.143327266
0.307526559 0.421252310 0.142062277
0.321948200 0.424288213 0.137761042
0.342061996 0.430107445 0.138519645
0.364073455 0.432384729 0.135483742
0.381277621 0.431372851 0.142568141
0.403036207 0.434535474 0.135736778
0.431625813 0.438330323 0.134977996
0.461985976 0.452371538 0.130803257
