Assets/Resources/EldamarStudio/100 Horror LUTs Pack/LUTs/cube/Akinod LUT.cube
LUT_3D_SIZE 5
DOMAIN_MIN 0.000000 0.000000 0.000000
DOMAIN_MAX 0.903226 0.903226 0.903226
0.000000000 0.000000000 0.000000000
0.069702692 0.026818417 0.015053997
0.310689390 0.000000000 0.011765000
0.657432258 0.005819002 0.001012128
0.989753127 0.010625975 0.022517797
0.001644708 0.149778396 0.000000000
0.067046285 0.153067395 0.006198711
0.305123091 0.200126395 0.004554003
0.654775620 0.222390980 0.000000000
0.989879608 0.243010685 0.030360634
0.003289416 0.376091212 0.004554423
0.004933705 0.380645216 0.000000000
0.296394378 0.385199368 0.000000000
0.667931497 0.428716093 0.002277288
0.987855375 0.466919810 0.046932179
0.032258231 0.654396117 0.005819002
0.227450639 0.655028522 0.001264999
0.496015191 0.659582317 0.003289416
0.758380353 0.664136350 0.002909872
0.993674815 0.697786272 0.141555741
0.544465601 0.921947777 0.289689720
0.604680419 0.922959924 0.306135386
0.712839723 0.925237238 0.319924384
0.860467792 0.921947777 0.339784682
0.997469962 0.921947777 0.365464568
0.000000000 0.040860288 0.096521109
0.081846975 0.030360295 0.103731692
0.265907675 0.059582822 0.124351390
0.560657680 0.123213284 0.169006705
0.972801864 0.124857657 0.214294523
0.000000000 0.130170405 0.089310691
0.063504398 0.148513392 0.097153693
0.233902514 0.188361809 0.125616819
0.568247795 0.236432686 0.165464982
0.978620887 0.261733353 0.214674205
0.003289416 0.338772804 0.128526121
0.019734401 0.343706518 0.132827401
0.257179201 0.355471104 0.134092405
0.608855426 0.412649989 0.172675401
0.983175039 0.474889606 0.233902514
0.056420177 0.634155333 0.178241700
0.246805921 0.631246269 0.188108519
0.479822874 0.637065053 0.185578525
0.730044246 0.641619265 0.191144660
0.987982213 0.695509195 0.278305024
0.583428264 0.914863944 0.389626980
0.624288142 0.916761637 0.393547982
0.728273273 0.914737582 0.398861200
0.864768922 0.917773485 0.424035281
0.993295252 0.919038534 0.449082822
0.000000000 0.047059000 0.346615821
0.118405983 0.033396829 0.337760687
0.298924387 0.087665990 0.308032393
0.577735484 0.135610282 0.336242646
0.962049186 0.182669207 0.411385387
0.002277292 0.199747115 0.294623703
0.089943111 0.200758979 0.284756690
0.259329677 0.209614113 0.272738397
0.550664365 0.249462292 0.323466092
0.947374880 0.314737380 0.415053934
0.000000000 0.349905193 0.270082384
0.087159805 0.352182090 0.272359133
0.344845176 0.409360975 0.326375395
0.595698833 0.427071780 0.353573650
0.952181756 0.504364371 0.435041219
0.220619947 0.609867096 0.366982669
0.312334061 0.614800870 0.369892091
0.495635509 0.617710531 0.375458807
0.713346124 0.626945138 0.393801242
0.973940492 0.702466667 0.486021370
0.662112594 0.899051189 0.564579189
0.687539577 0.901707351 0.562302351
0.765211582 0.903731585 0.575837731
0.875521779 0.907653570 0.591777325
0.991777360 0.910183787 0.612523556
0.002023998 0.125616997 0.633776248
0.172169223 0.136116400 0.645414412
0.442630917 0.144212127 0.618090272
0.699683368 0.140291125 0.595572352
0.974699259 0.211638033 0.623782337
0.000000000 0.276281118 0.611132562
0.188867941 0.283491701 0.600379646
0.440733761 0.282859117 0.589374065
0.683997512 0.276660562 0.569765866
0.965717733 0.334471613 0.627324402
0.135990053 0.458823681 0.566097558
0.274762809 0.461100399 0.561669767
0.476786911 0.461479962 0.559645772
0.680202842 0.458823681 0.550537348
0.951802611 0.535863340 0.630233943
0.325363606 0.635673285 0.562302411
0.410625964 0.635420561 0.568754196
0.586843789 0.646426082 0.580518365
0.802403271 0.692599237 0.638709426
0.961796343 0.738393247 0.683618248
0.709044755 0.897533059 0.719164908
0.738393426 0.897153318 0.725110471
0.803288937 0.898797989 0.735863268
0.887792647 0.900821865 0.743706167
0.971790016 0.913852096 0.765338659
0.234914541 0.298544914 0.918152928
0.364452869 0.298165500 0.916761637
0.583554626 0.312966436 0.913599014
0.808981657 0.337254584 0.905123413
0.993674815 0.394307226 0.905123413
0.360404968 0.415812671 0.905629218
0.445919991 0.412017286 0.908032715
0.625806332 0.425047457 0.907020986
0.826944947 0.445160985 0.899936557
0.991144836 0.479190409 0.896647573
0.587349594 0.613030016 0.882732630
0.621505082 0.617204309 0.889437199
0.720303178 0.616951048 0.888804197
0.850474060 0.627451003 0.889436722
0.987855494 0.637950838 0.880328715
0.683364749 0.763314068 0.894370437
0.715496182 0.767868042 0.885262311
0.788361907 0.776344240 0.882858574
0.880834937 0.783807755 0.880328596
0.980644941 0.791397572 0.888551295
0.757368565 0.912839949 0.889436781
0.777735651 0.909297764 0.898039162
0.831751823 0.908918619 0.895382345
0.905250132 0.914231598 0.897533000
0.972675800 0.934977591 0.919417739
