Assets/Resources/EldamarStudio/100 Horror LUTs Pack/LUTs/cube/Akinod LUT.cube
DOMAIN_MIN 0 0 0
DOMAIN_MAX 1 1 1
LUT_3D_SIZE 32
0.000000000 0.000000000 0.000000000
0.003036387 0.000000000 0.000000000
0.001771226 0.002150774 0.000000000
0.001265161 0.002656839 0.000000000
0.006578546 0.001517999 0.001138547
0.027830934 0.013661998 0.010246934
0.046552997 0.020746000 0.011765000
0.069702692 0.026818417 0.015053997
0.099304192 0.029095905 0.018090002
0.135737002 0.019987507 0.012018005
0.172169745 0.005060132 0.020493127
0.204553977 0.002024256 0.019481003
0.238329917 0.002783356 0.014547646
0.277293026 0.000000000 0.011765000
0.310689390 0.000000000 0.011765000
0.353700399 0.000000000 0.006958005
0.399241179 0.001518192 0.002403808
0.446046680 0.005186992 0.000000000
0.497659951 0.011259001 0.000000000
0.546489775 0.011765000 0.000000000
0.600759208 0.009867260 0.000000000
0.657432258 0.005819002 0.001012128
0.712333977 0.000000000 0.003922000
0.773054838 0.000000000 0.003922000
0.826944828 0.002277288 0.001644712
0.881340981 0.002530328 0.000000000
0.935484111 0.000000000 0.000506064
0.971916854 0.000000000 0.003542448
0.989753127 0.010625975 0.022517797
0.997849226 0.042251542 0.057938088
1.000000000 0.086907163 0.096394576
1.000000000 0.129411995 0.117647000
0.000000000 0.000000000 0.000000000
0.000000000 0.000000000 0.006072000
0.000885613 0.000000000 0.001771000
0.005059999 0.000885613 0.001265161
0.014927158 0.001897547 0.004174837
0.030866547 0.016698387 0.013282547
0.049589254 0.018722387 0.012270937
0.076028079 0.022137677 0.015053997
0.106135480 0.024541324 0.019608000
0.135736987 0.019987512 0.018090002
0.169259861 0.016698128 0.020746130
0.207590356 0.010120260 0.023529001
0.243263751 0.009994000 0.018342648
0.280328691 0.009361355 0.011005969
0.313725770 0.012143999 0.002656613
0.351929158 0.021758605 0.005060418
0.397722960 0.028842576 0.003922000
0.445414096 0.035546992 0.004301377
0.494623572 0.041619007 0.009108379
0.551802695 0.047691710 0.000759028
0.601138473 0.044402294 0.001897740
0.656419873 0.036179524 0.002024259
0.715369582 0.023656279 0.000885613
0.776091218 0.009108387 0.000885613
0.829981208 0.002277103 0.000885613
0.880202651 0.000885613 0.001391672
0.929918110 0.002530062 0.004048386
0.968880475 0.015180387 0.009614449
0.992030382 0.036432341 0.025932964
0.997343183 0.062491965 0.046805777
0.997849226 0.101201944 0.081340775
1.000000000 0.141555995 0.117647000
0.002150774 0.000000000 0.000000000
0.002150774 0.000000000 0.001771000
0.000000000 0.002150774 0.007843000
0.006325160 0.002150774 0.001771000
0.019354772 0.003668773 0.003289225
0.032763936 0.017077934 0.014168063
0.052624866 0.028209999 0.013156323
0.075774923 0.029854707 0.015053997
0.107400417 0.033649545 0.018848903
0.136116505 0.034788258 0.017457226
0.169259861 0.033902675 0.016065905
0.206704751 0.032890547 0.019101515
0.240480989 0.034535415 0.016951002
0.272865057 0.038077548 0.009614226
0.308159441 0.043010898 0.006198590
0.352814764 0.046805602 0.000253030
0.395319551 0.058950379 0.001771226
0.444528848 0.068058312 0.001771226
0.496141791 0.074130319 0.004807224
0.548766315 0.073750712 0.003415639
0.602656424 0.074130744 0.000000000
0.654522359 0.068311065 0.001771226
0.713978231 0.056799527 0.000126512
0.772675574 0.045667637 0.002150774
0.826565266 0.035041261 0.004300999
0.876786768 0.030107545 0.001518010
0.925869644 0.031625606 0.002783225
0.971916378 0.043516979 0.008855220
0.991144776 0.062365495 0.027703963
1.000000000 0.093737885 0.056546345
0.996457815 0.125743344 0.080581732
0.995698988 0.160151765 0.115496226
0.002656839 0.008855159 0.000000000
0.003922000 0.010120321 0.001265161
0.001771226 0.012270772 0.003036161
0.006325160 0.015307158 0.010373000
0.021125998 0.015686609 0.003542000
0.033269998 0.025173996 0.008601999
0.055534318 0.038583159 0.013156323
0.078810856 0.047058705 0.015053997
0.106135257 0.050095096 0.017330905
0.135989979 0.055661164 0.013282516
0.169259861 0.058444161 0.012776872
0.205439582 0.060974158 0.012523902
0.242631465 0.062112801 0.012144163
0.268564105 0.070968129 0.006325129
0.306008935 0.078051992 0.005313001
0.346995413 0.085515670 0.003036004
0.394054383 0.086780377 0.000000000
0.441492915 0.097659983 0.000000000
0.496141821 0.103731990 0.000000000
0.550537586 0.103984959 0.000000000
0.600885212 0.100948736 0.000000000
0.653510273 0.097913124 0.001012128
0.710815847 0.092093460 0.001138649
0.767362714 0.084123902 0.001897743
0.824288428 0.078810871 0.003668708
0.873244286 0.072612315 0.005060010
0.921315193 0.073118255 0.000000000
0.971410275 0.080708437 0.004553993
0.991144836 0.099051118 0.026438795
0.998734832 0.119038343 0.051486343
0.999620438 0.151043579 0.087033562
0.994686961 0.177608997 0.112460159
0.000000000 0.032005090 0.000000000
0.003415838 0.035041384 0.004174837
0.002150774 0.037318323 0.004681000
0.004427614 0.040733706 0.007716838
0.019228451 0.043390546 0.014927001
0.031372450 0.046426158 0.002783001
0.056925870 0.058064412 0.007969772
0.082605861 0.068690546 0.013915449
0.108412549 0.075142093 0.016571905
0.135736957 0.078178488 0.007463518
0.169259861 0.084124096 0.009614323
0.202782944 0.090575546 0.011006001
0.239595175 0.095509186 0.009108454
0.273244560 0.099051580 0.004048452
0.312587112 0.108159207 0.001391583
0.350790501 0.118912153 0.000379548
0.391397566 0.124604903 0.000000000
0.438077092 0.122707084 0.000000000
0.492725998 0.128779083 0.000000000
0.549019575 0.131688893 0.000000000
0.601770878 0.131309345 0.000000000
0.653130829 0.128652662 0.001391579
0.707906067 0.125617027 0.004174971
0.762808621 0.119797282 0.001138644
0.820873022 0.118658639 0.000000000
0.875015616 0.117267221 0.000000000
0.920176625 0.115243569 0.000000000
0.965717733 0.118279181 0.000000000
0.986211240 0.135736436 0.023149783
0.994307339 0.153826267 0.049841829
0.996584058 0.169639140 0.074889563
0.999620438 0.190891549 0.108286001
0.000000000 0.068437867 0.000000000
0.006072000 0.071473479 0.012143999
0.005186839 0.070208773 0.012017838
0.002150774 0.071979865 0.012017838
0.004048064 0.076786935 0.014927001
0.016192064 0.076786935 0.008855000
0.046047028 0.079823188 0.011890998
0.073497921 0.088172153 0.011891067
0.100063153 0.097532935 0.007843068
0.132700577 0.108538479 0.001391517
0.168753788 0.114484742 0.001012001
0.194560245 0.122580603 0.003542323
0.227450997 0.128905565 0.003795356
0.270208925 0.132447958 0.001012065
0.306640893 0.141556352 0.007084059
0.350790501 0.148260802 0.004427808
0.393295288 0.155344933 0.001897743
0.437571108 0.158633873 0.000000000
0.486653984 0.159139872 0.000000000
0.535736799 0.159645870 0.000000000
0.589626491 0.160151929 0.000000000
0.645287573 0.159645870 0.002023998
0.704870403 0.159013420 0.007210584
0.762555659 0.155977026 0.004174966
0.815180302 0.156989157 0.001138647
0.866919339 0.156736135 0.000000000
0.913978159 0.154711992 0.000000000
0.956609368 0.157748342 0.000000000
0.986210883 0.166097611 0.018595794
0.997343302 0.182542741 0.047944129
0.998608351 0.198481843 0.075395256
0.996584058 0.212143928 0.096142001
0.000000000 0.112460315 0.000000000
0.001012001 0.110436574 0.002024001
0.004933775 0.115622967 0.007716776
0.003922000 0.114990637 0.006705001
0.003289321 0.117394090 0.008096324
0.011132322 0.115243316 0.006325323
0.043516960 0.115243316 0.007843001
0.071979985 0.121568695 0.010626001
0.098545089 0.129158735 0.007084097
0.131941512 0.135989979 0.002783321
0.168247730 0.149904728 0.000000000
0.202656239 0.153953239 0.000000000
0.231625274 0.160910636 0.003668675
0.271979719 0.165338352 0.005059999
0.306134969 0.169892728 0.006577994
0.352182209 0.179000512 0.005439809
0.394813508 0.185199380 0.003922000
0.439468682 0.190006644 0.003162737
0.493738323 0.190006658 0.005059997
0.544844747 0.195066646 0.002530322
0.597216964 0.191271648 0.000632582
0.650853753 0.191018507 0.000000000
0.706767678 0.192536324 0.002783001
0.762049735 0.191903740 0.002150581
0.822011590 0.191144645 0.001391678
0.874383271 0.193928003 0.001391672
0.922074616 0.194686964 0.003036257
0.960530818 0.199747086 0.005059999
0.987223148 0.205566138 0.021126118
0.998608351 0.214674518 0.047691230
1.000000000 0.230613604 0.081214175
0.998608351 0.246046633 0.109297998
0.001644708 0.149778396 0.000000000
0.000000000 0.150031775 0.000000000
0.000506066 0.153447390 0.005439771
0.002277292 0.156989396 0.003415836
0.002277292 0.156609848 0.003036291
0.005819295 0.153573453 0.005566289
0.033902936 0.156356394 0.003162680
0.067046285 0.153067395 0.006198711
0.094370484 0.161416695 0.006198711
0.128652513 0.165338486 0.004048482
0.161669746 0.175078824 0.001012129
0.197722957 0.183807671 0.001644708
0.232257992 0.189120755 0.001644708
0.268943757 0.195698693 0.005945679
0.305123091 0.200126395 0.004554003
0.347248495 0.204680592 0.003795100
0.397343844 0.212270394 0.002277292
0.439215809 0.218342975 0.002277292
0.493864983 0.220367000 0.004301035
0.549272418 0.220999703 0.005060352
0.601138234 0.224414989 0.002024260
0.654775620 0.222390980 0.000000000
0.706767678 0.225932688 0.000126512
0.764452875 0.225932688 0.001644708
0.822011590 0.227577403 0.000000000
0.874383271 0.228969067 0.000000000
0.924225330 0.231499404 0.003795355
0.964072943 0.235294387 0.009108253
0.989879608 0.243010685 0.030360634
1.000000000 0.250853896 0.052371908
1.000000000 0.262618661 0.080075577
1.000000000 0.280834705 0.112713292
0.003922001 0.181657180 0.000759096
0.000885613 0.186211571 0.000000000
0.000000000 0.187603086 0.004174680
0.000759096 0.193422183 0.008728935
0.000379548 0.193422183 0.000379548
0.000000000 0.190765336 0.005313002
0.019987550 0.192283094 0.002783001
0.053384081 0.192536190 0.001644708
0.084503196 0.188741088 0.003162904
0.120935991 0.194813088 0.003162903
0.152308643 0.200126201 0.001012129
0.187476501 0.206198514 0.001265161
0.225427285 0.212650448 0.003162904
0.261859983 0.221758127 0.003162904
0.300822288 0.228336185 0.000632584
0.343453586 0.232005000 0.000000001
0.389753461 0.237318084 0.000000001
0.440101594 0.242757663 0.000000000
0.488551974 0.248703197 0.000000003
0.544718504 0.248703450 0.002024261
0.600885212 0.249462545 0.002024260
0.653257251 0.251233190 0.000000000
0.705123365 0.257305175 0.000252992
0.765211821 0.258570194 0.003921806
0.823655844 0.260847449 0.002403808
0.875142157 0.263883680 0.000000000
0.917141080 0.266920060 0.000000000
0.962175488 0.267173082 0.008349348
0.989879608 0.275901318 0.036432683
0.998481989 0.285009384 0.060468026
0.999240935 0.295256168 0.088424675
0.999240935 0.313472182 0.109677091
0.003922002 0.218089983 0.003795484
0.000885613 0.227198377 0.000759097
0.000000000 0.223150209 0.000000001
0.001265160 0.222264677 0.001644677
0.003415934 0.229854986 0.003415935
0.000379549 0.229854986 0.000379552
0.007590321 0.224667817 0.000253001
0.035673909 0.220746219 0.001644707
0.075395569 0.219101876 0.003162903
0.108791992 0.222137481 0.000126516
0.142314866 0.225300372 0.000126516
0.179633275 0.230486974 0.000000002
0.220114276 0.236559018 0.000126519
0.261859983 0.243010536 0.000126518
0.298291981 0.252118945 0.000126516
0.342061907 0.256293803 0.000000002
0.388994366 0.262365788 0.000000005
0.437065214 0.270082086 0.000000006
0.482606471 0.273118466 0.000000000
0.536622763 0.279064000 0.000000000
0.595192969 0.282859266 0.000126516
0.653510273 0.283871353 0.000000000
0.708159029 0.281594008 0.000252992
0.765844226 0.287665993 0.006325000
0.823655844 0.291208267 0.005439807
0.875774622 0.294244319 0.002403811
0.920176744 0.297280103 0.000000000
0.959645808 0.300316483 0.000000003
0.988741279 0.311195493 0.034914270
0.996457994 0.321442187 0.061479915
0.993295372 0.331435978 0.086148039
0.996204555 0.343832999 0.124857478
0.006831129 0.242883980 0.003922000
0.000885613 0.246173397 0.000885613
0.000000000 0.255281776 0.002150774
0.000000000 0.250727594 0.001644709
0.001012129 0.250348002 0.001771129
0.000506065 0.260468006 0.006325063
0.007590321 0.250348002 0.000759000
0.026565697 0.250094712 0.000000000
0.063504219 0.250853956 0.001771225
0.105502635 0.249589115 0.003036385
0.141808867 0.246805742 0.000000000
0.173181504 0.253890127 0.004047996
0.211132407 0.260847718 0.004680645
0.253637195 0.267172784 0.002656839
0.295382857 0.276281148 0.000000000
0.339025646 0.280581951 0.004806995
0.387602717 0.286654174 0.008854996
0.437571108 0.295762151 0.009740591
0.485389084 0.303351969 0.002909868
0.542062223 0.309171706 0.000126514
0.594940186 0.313345999 0.000000000
0.651612997 0.316382140 0.000000000
0.708285511 0.317267746 0.000126512
0.765970707 0.317773759 0.003415873
0.819101810 0.323845744 0.002656583
0.871347249 0.327514172 0.001012129
0.918911994 0.330549955 0.001011999
0.965591311 0.333586305 0.005818998
0.989120781 0.341935694 0.032384615
1.000000000 0.350284725 0.064010017
0.995319426 0.358254492 0.087412961
0.990258992 0.368374735 0.116761133
0.003795004 0.277292758 0.001897744
0.001771000 0.278304905 0.000885613
0.000000000 0.279570043 0.000126518
0.000000000 0.284883261 0.001897744
0.000000000 0.278810948 0.000379548
0.000000000 0.282732248 0.004807259
0.001518069 0.284756511 0.002783001
0.017204445 0.280834794 0.000000000
0.050600938 0.285009235 0.000000000
0.099936515 0.283238471 0.001771228
0.134724483 0.280202627 0.003036386
0.175205246 0.281214237 0.002024256
0.206704661 0.289183974 0.005819260
0.246806055 0.295002997 0.003922000
0.291081548 0.300569385 0.002656840
0.335990041 0.306894451 0.000758999
0.383048624 0.311448246 0.003795004
0.434155673 0.319417953 0.007590008
0.484124273 0.327134281 0.002656712
0.541049838 0.333459973 0.003162899
0.594939947 0.339532256 0.000126516
0.648577094 0.343706489 0.000000000
0.706261754 0.347754747 0.000000000
0.763947010 0.349651992 0.001138648
0.817077577 0.352182269 0.001644712
0.871473730 0.356862932 0.000000000
0.919924080 0.359898686 0.001518063
0.962428868 0.362934679 0.009108249
0.991144776 0.373307794 0.036432356
0.998228788 0.378874183 0.059709139
0.997975767 0.387349844 0.088045567
0.992282987 0.398735255 0.115749255
0.000000000 0.311068982 0.002276998
0.000000000 0.311068982 0.000000000
0.001138644 0.313345999 0.000000000
0.001138644 0.313345999 0.000000000
0.001138644 0.313345999 0.000000000
0.001138644 0.311068714 0.002277291
0.000000000 0.311954319 0.001391678
0.003542061 0.314990550 0.000000000
0.037697736 0.317267269 0.000000000
0.094623640 0.317267269 0.000000002
0.133459508 0.314357877 0.002909871
0.169512495 0.316508651 0.002783356
0.210878924 0.318405926 0.002783356
0.244782031 0.323971927 0.002783356
0.288551360 0.326122701 0.002783356
0.335230738 0.331562281 0.001518196
0.382289708 0.339911282 0.000000000
0.432764024 0.345983267 0.000632578
0.485389292 0.352055252 0.001138649
0.541429400 0.358127713 0.005060355
0.597596169 0.364199996 0.002024260
0.653257370 0.371284127 0.000000000
0.710942447 0.377482623 0.000000000
0.766603708 0.381530374 0.000000000
0.819734573 0.384566575 0.000000000
0.870714605 0.388741314 0.000000000
0.925363719 0.391777724 0.001011999
0.962428868 0.394813478 0.009487798
0.988614798 0.403541893 0.040607229
0.999367416 0.412649840 0.071853034
0.997216642 0.418342859 0.090955213
0.997216642 0.433270276 0.123339638
0.000253032 0.336622089 0.007590032
0.000253032 0.336116076 0.001771000
0.002403741 0.340417087 0.000000000
0.003668968 0.344212055 0.000253032
0.003668968 0.344465107 0.000000000
0.003668968 0.344465107 0.000000000
0.001897677 0.344465107 0.000000000
0.000253032 0.345350772 0.000000000
0.018216375 0.347628057 0.000000000
0.091081969 0.347628057 0.000000002
0.137760863 0.345224172 0.002656839
0.176470280 0.348007560 0.001897744
0.211890921 0.351550013 0.000000000
0.250854045 0.351803035 0.000000000
0.290322393 0.351803035 0.000000000
0.336242616 0.356610030 0.000000000
0.385072351 0.364959031 0.000253032
0.435799688 0.375838041 0.000885544
0.493484974 0.381910026 0.003921942
0.548892736 0.387982041 0.008982006
0.605186164 0.394307107 0.006325296
0.664136410 0.401391149 0.000000000
0.727513969 0.410373002 0.000000000
0.779253721 0.416445017 0.000000000
0.830866814 0.420999348 0.000000000
0.880329251 0.425427049 0.000000000
0.927894056 0.430487096 0.001771030
0.967362404 0.433523446 0.007843024
0.990891755 0.438963026 0.042631399
1.000000000 0.447311848 0.081594072
0.999746978 0.456546217 0.116761610
0.999746978 0.468690991 0.138014033
0.003289416 0.376091212 0.004554423
0.003289416 0.370019227 0.001518035
0.005439642 0.373814225 0.000000000
0.004680578 0.378621072 0.001265161
0.000632584 0.381024331 0.002909868
0.000632584 0.383934200 0.000000000
0.005692583 0.383934200 0.000000000
0.004933705 0.380645216 0.000000000
0.020746695 0.377988815 0.000000000
0.091081969 0.377988815 0.000000000
0.137760863 0.380897939 0.000000000
0.185325488 0.382669061 0.000632584
0.226185679 0.384060740 0.000000000
0.262998015 0.382162988 0.000000000
0.296394378 0.385199368 0.000000000
0.335863382 0.390006363 0.000000000
0.383301586 0.394560575 0.001518192
0.436179250 0.400126785 0.003921831
0.496521354 0.406198800 0.006957543
0.556989133 0.412270814 0.004427932
0.612649858 0.420240551 0.005187006
0.667931497 0.428716093 0.002277288
0.724478364 0.437697381 0.000000000
0.779127240 0.443769395 0.000000000
0.830866814 0.454395980 0.000000000
0.876913607 0.461859792 0.000000000
0.919291615 0.466413736 0.002530062
0.964325964 0.463883400 0.016951403
0.987855375 0.466919810 0.046932179
0.998481810 0.477672577 0.081593700
0.999114394 0.488045633 0.116255373
0.996710598 0.492978990 0.147122413
0.006325191 0.415559769 0.006325191
0.001518196 0.409487784 0.005692609
0.001518196 0.412017763 0.000505996
0.003036004 0.416824937 0.000000000
0.000000000 0.418342859 0.001518196
0.000000000 0.413282722 0.000506065
0.005059999 0.416192591 0.000000000
0.006198711 0.417836875 0.000000000
0.022138184 0.415559769 0.000000000
0.093611680 0.415559769 0.000000001
0.152182460 0.416065723 0.002403804
0.191650584 0.417077601 0.000379548
0.236432269 0.418595791 0.000000000
0.275901049 0.417077601 0.000253032
0.315749168 0.417963207 0.002403804
0.351549387 0.418595761 0.000000000
0.387982160 0.423149973 0.000000000
0.437444240 0.427451193 0.001518196
0.501707911 0.435293972 0.002783036
0.555218518 0.443769813 0.002656548
0.615939260 0.451739550 0.001518196
0.670588195 0.458823651 0.002530324
0.724098980 0.465148270 0.002277292
0.783301830 0.473497570 0.000000000
0.835673809 0.477292866 0.000000000
0.885895312 0.489057750 0.002782990
0.927387834 0.496647716 0.007843122
0.965338230 0.497406334 0.024921235
0.982415795 0.504490614 0.053636767
0.996584177 0.507526994 0.090575553
0.999114394 0.519291759 0.123466179
0.996078014 0.526881576 0.153826997
0.004807003 0.450474381 0.004807003
0.001771000 0.451992571 0.004807003
0.004554189 0.446932375 0.005060193
0.003289028 0.453004390 0.000253031
0.002656546 0.455534607 0.001138547
0.001518192 0.448703259 0.004554189
0.002024002 0.446679503 0.003035997
0.018342700 0.451233655 0.001518192
0.033523269 0.452751279 0.000759096
0.105629191 0.451992184 0.000000001
0.160784289 0.451992184 0.001391678
0.208349168 0.455028564 0.001897744
0.248197109 0.453889936 0.000000000
0.290575445 0.454016387 0.000253032
0.330550194 0.456546366 0.003289416
0.371283978 0.453510374 0.001518196
0.409234554 0.456546366 0.000000000
0.444528490 0.458950162 0.000000000
0.504237950 0.465401411 0.000000000
0.558633924 0.472991556 0.000000000
0.615939617 0.480581760 0.000000000
0.677672267 0.489690155 0.001012128
0.731435835 0.493990868 0.003922000
0.789374053 0.503099263 0.002277288
0.841745853 0.509171426 0.000000000
0.887792587 0.513599157 0.000000000
0.933965921 0.524478197 0.009361063
0.968374431 0.528525949 0.030613689
0.987729192 0.536875188 0.062492128
0.993548214 0.540923417 0.098165363
1.000000000 0.545730770 0.132321373
0.997596204 0.557242393 0.158380806
0.000000001 0.483365119 0.000632576
0.000000000 0.490575910 0.000000000
0.004554207 0.489310741 0.001518198
0.009867423 0.483997554 0.003289416
0.006831037 0.489690065 0.000632576
0.003795361 0.487159759 0.008981942
0.001391694 0.485388845 0.007969689
0.023655809 0.485389113 0.005566135
0.060973976 0.489816606 0.003795480
0.130803183 0.486780196 0.000759092
0.180897832 0.486021101 0.000000001
0.224161610 0.490069479 0.000632576
0.267172456 0.493358880 0.000000000
0.311954588 0.490575522 0.000000000
0.348387331 0.495888531 0.002656840
0.389627099 0.493611515 0.002150772
0.429348707 0.491714120 0.000000000
0.469449639 0.496521115 0.000000001
0.511954546 0.496521115 0.000000001
0.562428713 0.501454532 0.000000001
0.619607925 0.508159161 0.000000000
0.679443717 0.515875697 0.000379552
0.742694080 0.524731100 0.003415936
0.796837628 0.532827437 0.003922000
0.846932530 0.539658546 0.002277288
0.892599583 0.546995521 0.001897571
0.930550158 0.554079652 0.005945568
0.966729879 0.560404718 0.033143420
0.990512192 0.567235947 0.067805186
1.000000000 0.571663558 0.107273683
1.000000000 0.574320138 0.142061725
1.000000000 0.583428502 0.163314149
0.000000003 0.525869966 0.003668965
0.000000001 0.525869966 0.000632580
0.000000000 0.528779209 0.000000002
0.002024191 0.527007997 0.001518197
0.003795417 0.523086548 0.003668971
0.000759039 0.526122928 0.003668965
0.000253097 0.528652668 0.001897685
0.037824176 0.527893722 0.000506007
0.103352383 0.526375949 0.001012128
0.170272440 0.526249468 0.003795484
0.222643822 0.523213089 0.000759101
0.263883471 0.526502013 0.002024256
0.303099275 0.530297041 0.002530321
0.345351070 0.530044019 0.000000000
0.381783813 0.530044019 0.000000000
0.423023611 0.530550003 0.002656834
0.460974216 0.528526247 0.002150774
0.496774107 0.526881993 0.000000001
0.539279044 0.526881993 0.000000003
0.579000413 0.529664636 0.000000003
0.629221976 0.536748767 0.000000002
0.684377313 0.546616018 0.000000000
0.739658475 0.558127522 0.000379544
0.791271687 0.561163902 0.003415933
0.840860486 0.566983044 0.003921999
0.888045549 0.575838029 0.006451966
0.930550158 0.587476134 0.015053988
0.960910857 0.599620879 0.039341971
0.986463964 0.600632966 0.071853481
0.998102248 0.603162766 0.112587079
1.000000000 0.607716560 0.151423171
1.000000000 0.616824985 0.175458968
0.002783357 0.568374753 0.001138643
0.000000001 0.571157396 0.000885612
0.000000000 0.571157396 0.002150774
0.000000000 0.574825764 0.004048196
0.001897642 0.574825704 0.005945648
0.006072068 0.570651352 0.001138644
0.066287279 0.568627715 0.011258640
0.101960868 0.571157396 0.004554015
0.161543399 0.571916461 0.000759096
0.218216717 0.573940754 0.003795484
0.262112945 0.573814273 0.003795486
0.303605080 0.574825823 0.000759101
0.341176301 0.575584769 0.001138643
0.381783783 0.572042823 0.000000000
0.420746177 0.569513083 0.000000000
0.459582776 0.574320078 0.000000000
0.497153938 0.576596856 0.001138643
0.532447815 0.576723337 0.000000001
0.574952722 0.576723337 0.000000003
0.620240152 0.576723337 0.002783357
0.661606252 0.574066758 0.000885617
0.712713540 0.580771565 0.000000000
0.766856730 0.594686687 0.000000000
0.810500085 0.605692267 0.000379547
0.855281889 0.611005962 0.003415931
0.897280276 0.614295065 0.015053960
0.936622202 0.620367050 0.034029074
0.969260216 0.630233884 0.065148354
0.988994300 0.634408891 0.100062981
0.995319366 0.639848650 0.131815389
0.996204972 0.645794094 0.169639543
1.000000000 0.653004706 0.201518372
0.003922000 0.610879481 0.003794996
0.000885613 0.617710114 0.000000000
0.001897740 0.616698205 0.000253034
0.022138059 0.616698205 0.003289421
0.038709737 0.620746195 0.005945744
0.067551903 0.617710173 0.002909741
0.110309720 0.612270832 0.002530005
0.166729838 0.612523735 0.011385005
0.218089744 0.615559578 0.003036094
0.267425925 0.618595958 0.003795484
0.302719712 0.618722498 0.003922000
0.343074173 0.618848920 0.001897744
0.380644828 0.621884525 0.000000000
0.420113802 0.618089497 0.000253032
0.459582597 0.613409102 0.001897740
0.495256096 0.615686476 0.001897740
0.534724891 0.618722498 0.000379548
0.570145428 0.621378601 0.000000000
0.611385465 0.622643471 0.000000002
0.649082839 0.620746195 0.000885617
0.694623232 0.622643471 0.003922000
0.734092116 0.618595481 0.000885612
0.782163441 0.628842235 0.000000000
0.826439083 0.635673463 0.000000000
0.865148842 0.645161331 0.006072285
