Assets/Resources/EldamarStudio/100 Horror LUTs Pack/LUTs/cube/Akinod LUT.cube
LUT_3D_SIZE 8
DOMAIN_MIN 0.000000 0.000000 0.000000
DOMAIN_MAX 0.903226 0.903226 0.903226
0.000000000 0.000000000 0.000000000
0.006578546 0.001517999 0.001138547
0.099304192 0.029095905 0.018090002
0.238329917 0.002783356 0.014547646
0.399241179 0.001518192 0.002403808
0.600759208 0.009867260 0.000000000
0.826944828 0.002277288 0.001644712
0.989753127 0.010625975 0.022517797
0.000000000 0.032005090 0.000000000
0.019228451 0.043390546 0.014927001
0.108412549 0.075142093 0.016571905
0.239595175 0.095509186 0.009108454
0.391397566 0.124604903 0.000000000
0.601770878 0.131309345 0.000000000
0.820873022 0.118658639 0.000000000
0.986211240 0.135736436 0.023149783
0.003922001 0.181657180 0.000759096
0.000379548 0.193422183 0.000379548
0.084503196 0.188741088 0.003162904
0.225427285 0.212650448 0.003162904
0.389753461 0.237318084 0.000000001
0.600885212 0.249462545 0.002024260
0.823655844 0.260847449 0.002403808
0.989879608 0.275901318 0.036432683
0.000000000 0.311068982 0.002276998
0.001138644 0.313345999 0.000000000
0.037697736 0.317267269 0.000000000
0.210878924 0.318405926 0.002783356
0.382289708 0.339911282 0.000000000
0.597596169 0.364199996 0.002024260
0.819734573 0.384566575 0.000000000
0.988614798 0.403541893 0.040607229
0.004807003 0.450474381 0.004807003
0.002656546 0.455534607 0.001138547
0.033523269 0.452751279 0.000759096
0.248197109 0.453889936 0.000000000
0.409234554 0.456546366 0.000000000
0.615939617 0.480581760 0.000000000
0.841745853 0.509171426 0.000000000
0.987729192 0.536875188 0.062492128
0.003922000 0.610879481 0.003794996
0.038709737 0.620746195 0.005945744
0.218089744 0.615559578 0.003036094
0.380644828 0.621884525 0.000000000
0.534724891 0.618722498 0.000379548
0.694623232 0.622643471 0.003922000
0.865148842 0.645161331 0.006072285
0.992409945 0.666666567 0.119797334
0.277545512 0.781910300 0.048829541
0.332447827 0.782163262 0.044022828
0.413282722 0.785705566 0.051612917
0.530550539 0.781404197 0.060088478
0.648197591 0.784060657 0.070587918
0.780645013 0.779632986 0.086400829
0.891714275 0.784819603 0.098797828
0.987476408 0.792536259 0.193547875
0.544465601 0.921947777 0.289689720
0.576343954 0.924857318 0.301454395
0.616571605 0.922706902 0.306641370
0.676786959 0.927387595 0.311827749
0.751170099 0.924604654 0.317267537
0.838456690 0.921947777 0.335483372
0.920556426 0.926881373 0.346110016
0.997469962 0.921947777 0.365464568
0.010626453 0.013282998 0.022643998
0.013282998 0.012903451 0.015180546
0.105249636 0.023149550 0.037065547
0.207083821 0.040733900 0.054395642
0.342062265 0.070461892 0.063757353
0.542314887 0.084250547 0.083997734
0.781910062 0.047311813 0.101581082
0.986970067 0.067046180 0.134218529
0.000000000 0.039089095 0.026185548
0.006957997 0.047311638 0.015559996
0.091208450 0.072359540 0.045034546
0.193422079 0.103731535 0.048956450
0.338140398 0.131562084 0.063757353
0.539405465 0.148893103 0.080202356
0.774573267 0.145098090 0.094370544
0.980518520 0.155977204 0.123845518
0.000758999 0.149904743 0.041872550
0.000379548 0.155851096 0.039848093
0.071980096 0.154585630 0.048576996
0.187855989 0.189879641 0.049335998
0.342821240 0.225173727 0.059456095
0.543959618 0.249082997 0.075901188
0.788993835 0.262112647 0.101201832
0.982921839 0.279190540 0.133712798
0.005566002 0.279822737 0.037318084
0.000000000 0.286274642 0.044908546
0.037697736 0.281467617 0.042125184
0.177861825 0.286906928 0.040101446
0.347375274 0.324984252 0.054269642
0.555471063 0.355218112 0.069955826
0.798481822 0.377861917 0.089057378
0.982542336 0.405565977 0.135610238
0.002783356 0.432384580 0.058317449
0.001518192 0.437444627 0.058696900
0.040101103 0.429601729 0.060594544
0.234914824 0.436685830 0.063757449
0.383301556 0.438583165 0.055154644
0.589500368 0.465528011 0.069196738
0.819734275 0.504870474 0.088931181
0.985831439 0.533459604 0.153700039
0.004048004 0.598861456 0.071473636
0.048577018 0.598987937 0.071094088
0.205565929 0.601391613 0.074256897
0.360910743 0.605439663 0.070968084
0.521568656 0.606831431 0.075395539
0.668564379 0.605439663 0.071727082
0.851233542 0.631625891 0.106008783
0.988614798 0.663377464 0.183934122
0.290448904 0.772422552 0.129285067
0.333206832 0.775331855 0.142694369
0.418595940 0.771916270 0.142947286
0.520935833 0.775079131 0.142188296
0.642504930 0.773054600 0.145224288
0.772169709 0.771157265 0.162175834
0.891587257 0.775711417 0.176470190
0.992030382 0.788867652 0.242377967
0.552055597 0.922580779 0.314737588
0.571537018 0.918785810 0.315749645
0.612523854 0.914357960 0.327514112
0.676660240 0.914484382 0.331182688
0.751675844 0.918658972 0.344465315
0.837191522 0.918026805 0.362428486
0.917773545 0.917141020 0.379633397
0.991650939 0.921062469 0.398102313
0.000000000 0.044654995 0.128400102
0.013282999 0.042378001 0.131941631
0.119797193 0.023529002 0.137887195
0.209867284 0.046932187 0.142568097
0.337508082 0.087666094 0.159772292
0.510563195 0.122201085 0.183681354
0.727008104 0.129411802 0.211132079
0.967994571 0.147880882 0.246932328
0.000000000 0.079063997 0.109930642
0.018342642 0.085389003 0.114737548
0.094370551 0.090069994 0.112333640
0.184060991 0.117140733 0.130423635
0.314737439 0.151549548 0.161416993
0.493611902 0.181783989 0.185325637
0.733839214 0.185831800 0.210626200
0.963314176 0.200758919 0.245793775
0.000000000 0.158254102 0.113599092
0.000758999 0.166097105 0.124225453
0.090829000 0.187982187 0.125996098
0.166223735 0.202529743 0.140543744
0.310816169 0.228716195 0.163693905
0.501707435 0.260974199 0.186717451
0.746742606 0.273498088 0.205060288
0.974066734 0.299430817 0.245287910
0.002783356 0.278052002 0.138140440
0.000379548 0.280455291 0.144971102
0.061606284 0.284756631 0.150790647
0.172802284 0.286274552 0.143200383
0.322833717 0.317141175 0.163187742
0.523339510 0.350031465 0.190638825
0.767994761 0.382289588 0.214927346
0.967868149 0.411764711 0.254269391
0.006325001 0.413535446 0.172296003
0.003162905 0.419861078 0.165970996
0.087160274 0.419102162 0.173055097
0.228969172 0.417836845 0.172548935
0.362175733 0.423023164 0.169007182
0.560151875 0.455028355 0.187729180
0.800885499 0.494876564 0.217457280
0.979885876 0.534471989 0.271473557
0.030866724 0.587349534 0.208349198
0.095635466 0.586590648 0.199999824
0.238456905 0.586211205 0.203035831
0.368121564 0.590891838 0.201897472
0.508159280 0.590132713 0.205945477
0.658949852 0.593548417 0.209360927
0.842378199 0.630866766 0.237317920
0.987476110 0.666160583 0.303099006
0.337001711 0.762175739 0.256546170
0.375078917 0.765211821 0.262112826
0.446299821 0.765338242 0.261227250
0.542188466 0.767615557 0.267046094
0.656799614 0.765338302 0.271473467
0.769892633 0.766476870 0.279822856
0.884503305 0.772422552 0.288551539
0.989120781 0.788867533 0.347627997
0.599620402 0.913345933 0.417963237
0.621125817 0.916002631 0.423782587
0.654648960 0.913472474 0.424667925
0.700822115 0.919417977 0.427830309
0.770271778 0.916002572 0.432005018
0.847564697 0.915243626 0.445540577
0.919670761 0.919038355 0.462112576
0.991017997 0.921821773 0.472612292
0.000000000 0.038709641 0.269196272
0.007210638 0.026691999 0.262871265
0.140797094 0.018975640 0.259962171
0.229348272 0.052245282 0.247817636
0.341682822 0.095003441 0.248956189
0.510942459 0.126502350 0.272485882
0.739152133 0.132194638 0.307273626
0.957115591 0.178114951 0.351676285
0.003162904 0.094497092 0.237444818
0.007337448 0.102846436 0.236685827
0.114990190 0.114990279 0.231625259
0.202656269 0.120809630 0.222643718
0.320809335 0.153447181 0.234408617
0.493358731 0.180898279 0.263377815
0.730044067 0.195572451 0.309677422
0.944465458 0.231499150 0.354332715
0.000000001 0.196837738 0.225427285
0.005439901 0.201138288 0.227071270
0.095382996 0.207083732 0.214421183
0.181783721 0.211764634 0.210878819
0.305502832 0.237318188 0.235293910
0.485515207 0.266287297 0.268817037
0.721441805 0.291840851 0.313852191
0.945350528 0.332953930 0.366856545
0.002783356 0.280328989 0.213662282
0.001138547 0.285009414 0.222264379
0.088045381 0.292852372 0.222643912
0.226692274 0.329158932 0.251233280
0.331688553 0.332827210 0.257937908
0.507147133 0.357495099 0.281720281
0.742567837 0.384060651 0.322454274
0.951929033 0.433143407 0.375585258
0.000000000 0.406071931 0.249842003
0.019228376 0.411511719 0.248071089
0.149778351 0.418216318 0.267425746
0.260341376 0.419734389 0.267678380
0.371031225 0.427956820 0.271727085
0.553573370 0.457052708 0.295256376
0.776091099 0.498418808 0.331056386
0.970272005 0.547501445 0.395445883
0.119418174 0.571157098 0.299683362
0.182416290 0.570271969 0.309171349
0.271979988 0.570777655 0.307147413
0.386084735 0.571157038 0.306388617
0.506388307 0.577103257 0.312713712
0.637950659 0.581404269 0.318152905
0.825300634 0.619101822 0.356862634
0.976849794 0.666413426 0.420493305
0.386970103 0.751170278 0.376849920
0.412144095 0.752308905 0.376596898
0.470714569 0.749145985 0.373054832
0.558254123 0.750664175 0.380898267
0.660215139 0.751802862 0.385705382
0.767742038 0.755471349 0.392662823
0.875015855 0.762428939 0.404427558
0.982289612 0.786337852 0.460847259
0.638330221 0.905249953 0.501201570
0.650601029 0.900695622 0.508538961
0.680455327 0.909804046 0.514990389
0.730044246 0.908538818 0.517647088
0.784187198 0.911574781 0.531562030
0.854522526 0.907526970 0.536116242
0.923845470 0.910056949 0.550158024
0.988361835 0.919417739 0.570145607
0.007843000 0.052498192 0.428463191
0.010120191 0.051106732 0.426818460
0.159772098 0.072738998 0.412903309
0.282985628 0.091587998 0.395951807
0.394433558 0.114358187 0.375964373
0.529791236 0.130929798 0.373814136
0.763060987 0.133332998 0.418722272
0.965464950 0.188994333 0.465401530
0.000000000 0.144971088 0.400632828
0.006578352 0.143706530 0.391271651
0.147501528 0.152308539 0.390891999
0.263124377 0.163693890 0.369639367
0.377356350 0.172675535 0.360531032
0.518153250 0.188867807 0.373181641
0.749272525 0.196331561 0.412144214
0.954079568 0.237318173 0.465654641
0.000000000 0.246679291 0.352435380
0.011638094 0.249588639 0.359519392
0.136749178 0.254648983 0.353194296
0.249335617 0.253383845 0.348892897
0.347375184 0.256926090 0.337508082
0.507779658 0.271473765 0.363187641
0.743453622 0.292220324 0.418216199
0.951296329 0.340670109 0.471726894
0.003542452 0.334092438 0.345603824
0.009867184 0.334851444 0.349778533
0.153953180 0.340290815 0.351802289
0.258443892 0.348892897 0.341682822
0.362175584 0.348892927 0.344086021
0.523212790 0.370525092 0.373308271
0.747374952 0.399746925 0.426185876
0.942947388 0.456419945 0.483997196
0.000000000 0.418216377 0.333459556
0.056293551 0.425679833 0.345351189
0.188994363 0.428463191 0.348387301
0.321568370 0.446046740 0.362934798
0.488298357 0.484882981 0.411891162
0.604554057 0.486780643 0.414673924
0.788488388 0.513725460 0.450980455
0.947754800 0.573813856 0.516381800
0.187729642 0.570145309 0.396710932
0.226944730 0.570145309 0.398481995
0.319544554 0.574826360 0.404300988
0.437318355 0.587096930 0.420493186
0.550537407 0.588488162 0.428210169
0.666792691 0.590891957 0.436812192
0.831372559 0.629348636 0.476280898
0.966097593 0.682605743 0.543073893
0.445287883 0.744844615 0.490069747
0.474003553 0.743832946 0.488930792
0.529538453 0.744212270 0.491714269
0.595825195 0.740164459 0.495003194
0.682479441 0.747248292 0.498671442
0.774193466 0.747627795 0.507906377
0.870967627 0.757368743 0.524225354
0.976976514 0.789121091 0.576596856
0.683870554 0.902213573 0.613408804
0.695635676 0.900189638 0.611385286
0.719291627 0.899936676 0.615812957
0.758886576 0.900695741 0.617963195
0.803415775 0.906135261 0.629348814
0.859456062 0.904237509 0.628842533
0.926375628 0.907653451 0.645287931
0.990891755 0.913978577 0.651865959
0.000000000 0.107400730 0.591271460
0.013409540 0.110689536 0.597343624
0.202023819 0.123212732 0.591524184
0.347248346 0.133079991 0.575079203
0.498039097 0.135483801 0.558507204
0.633902431 0.135230735 0.545983195
0.782289565 0.141176000 0.546995699
0.974952340 0.205312937 0.588361681
0.004807003 0.185958341 0.573181629
0.011132444 0.188614801 0.563440681
0.198482260 0.192915827 0.567109168
0.339405358 0.196458280 0.550664008
0.473244846 0.198482022 0.540037811
0.616951346 0.198608547 0.530423701
0.770651460 0.195825100 0.531183064
0.962555051 0.249462336 0.587096632
0.002277095 0.291967183 0.550664186
0.052498098 0.294623643 0.544718444
0.204048008 0.293864727 0.539658070
0.340923548 0.294749796 0.535357594
0.474003851 0.294497192 0.524351537
0.602783203 0.293358833 0.517394245
0.766223907 0.297659814 0.533839405
0.958633780 0.353953004 0.596204937
0.039089091 0.391018003 0.517520308
0.120809540 0.395066530 0.518912375
0.242884368 0.393295139 0.507779658
0.351549625 0.391144723 0.505502582
0.471853107 0.393042445 0.505882204
0.595699072 0.390259087 0.501707554
0.767741859 0.403921366 0.530929983
0.957621753 0.470082223 0.598228931
0.128273189 0.488172114 0.516255915
0.192156926 0.488172114 0.506515145
0.292725831 0.489816844 0.509045005
0.407336920 0.493358463 0.504870474
0.528020501 0.502719641 0.519038439
0.640480399 0.498798162 0.518785715
0.803036034 0.530423939 0.555597901
0.946995676 0.592282951 0.614927173
0.249462441 0.591144443 0.516761482
0.301074922 0.590385735 0.514863729
0.380012393 0.593168736 0.514863789
0.481087714 0.601391494 0.530929446
0.612776637 0.615053713 0.549525678
0.753826737 0.650094450 0.587096453
0.847691298 0.665401697 0.609614253
0.959266365 0.707273543 0.650727451
0.471600294 0.738140106 0.590891778
0.490702093 0.744844615 0.584187269
0.550537646 0.741176188 0.585072815
0.629095554 0.743579745 0.601517975
0.716255665 0.750411153 0.613029480
0.797596455 0.758633852 0.623149693
0.875395358 0.759392798 0.632890463
0.964832306 0.803921402 0.686021268
0.704996705 0.895002902 0.693358481
0.714990139 0.893232107 0.697659314
0.738646328 0.894370615 0.705123484
0.777356267 0.894623339 0.708791673
0.821884632 0.899683774 0.713725090
0.868817508 0.899809778 0.716381609
0.924731016 0.905629516 0.734724998
0.972548902 0.911068678 0.744845271
0.003289004 0.188488275 0.776976585
0.086653933 0.190512538 0.773054600
0.272106260 0.191777274 0.764579356
0.426818192 0.197975993 0.762934804
0.585452378 0.196331277 0.752688229
0.730550468 0.188741297 0.743959248
0.863883555 0.197596252 0.722707510
0.981277525 0.227197617 0.730423987
0.013156092 0.247058541 0.758633852
0.130550191 0.249335825 0.758633554
0.282732666 0.249335825 0.754459262
0.428336293 0.251233578 0.746362746
0.585073054 0.249968812 0.742314637
0.725996494 0.251107067 0.734598517
0.858443856 0.250853866 0.728526294
0.971663654 0.272612512 0.716887772
0.141555905 0.350158095 0.736242712
0.214294717 0.351549387 0.743453562
0.322074562 0.351549357 0.734345257
0.453636855 0.350790471 0.737760782
0.593168795 0.349146187 0.730676651
0.728526115 0.347501457 0.723971963
0.849715531 0.351296544 0.716381729
0.965844631 0.369133502 0.715243280
0.266413838 0.460341573 0.723086536
0.309298009 0.463504255 0.714737475
0.387476236 0.460721105 0.714484155
0.497027159 0.457558632 0.710942268
0.617330670 0.458697259 0.712460458
0.737887323 0.457938194 0.707779527
0.849335909 0.457052559 0.699810565
0.959898651 0.483871043 0.715370059
0.366097212 0.559898436 0.710815668
0.402150542 0.565211773 0.714231551
0.470461667 0.564579368 0.707020700
0.557115734 0.569259644 0.700443029
0.648703516 0.566856444 0.699177504
0.752941310 0.564452648 0.697912812
0.849841774 0.569133580 0.699177504
0.959139645 0.603036046 0.725363433
0.465654731 0.669702768 0.708665252
0.491840541 0.667046010 0.715496719
0.544085979 0.665275097 0.710056782
0.620367050 0.668437958 0.711574912
0.709803939 0.675142467 0.710309505
0.785705507 0.679443002 0.706261516
0.869576514 0.683364987 0.717900038
0.959898651 0.721568882 0.752941310
0.550410867 0.764579535 0.709930241
0.567488790 0.759013236 0.709171295
0.610372901 0.759013236 0.712460339
0.671726584 0.760151863 0.719418049
0.748134255 0.763693750 0.719038367
0.824668050 0.774699271 0.734977782
0.907400250 0.808349550 0.767488837
0.963061213 0.827830255 0.793548346
0.710815847 0.895003021 0.785452247
0.724478245 0.897279739 0.784060657
0.744465292 0.897027075 0.786717355
0.782416224 0.894623578 0.785705268
0.834535241 0.895888746 0.798987865
0.880455673 0.900695503 0.809487760
0.927513778 0.907273889 0.816698432
0.972296298 0.912839949 0.828083038
0.234914541 0.298544914 0.918152928
0.288424939 0.297153622 0.915496767
0.392789543 0.299177706 0.920050502
0.519165277 0.306261778 0.917267561
0.652245522 0.315749407 0.907400429
0.778115153 0.331182569 0.907653451
0.902973056 0.355597407 0.908665299
0.993674815 0.394307226 0.905123413
0.281087637 0.340417147 0.917267323
0.326881647 0.342947155 0.916382074
0.409613818 0.347628087 0.909044743
0.534345329 0.352941066 0.911195338
0.658317327 0.361669838 0.909298062
0.786337495 0.377102852 0.906388402
0.900569260 0.397217125 0.897533059
0.994939983 0.424541414 0.899177551
0.387223482 0.443896055 0.904870152
0.425680041 0.441619247 0.910942554
0.488931030 0.439341962 0.908286035
0.584819317 0.445540756 0.903225720
0.686147988 0.453763604 0.898418427
0.801391423 0.463883638 0.899683714
0.900442421 0.482985437 0.895003021
0.989626765 0.498418599 0.894623578
0.512839973 0.554459274 0.893358767
0.540164351 0.554711998 0.892473042
0.583807826 0.558380961 0.892219961
0.648450077 0.560910940 0.896394730
0.735483885 0.568500817 0.891840577
0.823655844 0.566856146 0.889563620
0.909045041 0.577482581 0.890702248
0.986337721 0.588741064 0.887033224
0.609613895 0.662239015 0.880708456
0.632131577 0.664895594 0.888171911
0.670967638 0.665907979 0.885641873
0.715369880 0.665781140 0.886527598
0.778367817 0.668564141 0.888804555
0.842884362 0.672864974 0.884376764
0.914484322 0.675268769 0.881214559
0.986084461 0.680581748 0.880328596
0.671726525 0.746362567 0.894117475
0.681467235 0.747627735 0.888804555
0.719291568 0.747121632 0.887033343
0.761543274 0.753826737 0.886021495
0.812776744 0.760025322 0.882605970
0.862618685 0.762555361 0.880834818
0.918911755 0.766603529 0.877546072
0.980644941 0.771663368 0.883997440
0.714990437 0.828968942 0.890448809
0.729158580 0.829601526 0.888804793
0.753447115 0.826059043 0.888551235
0.787855625 0.832257748 0.890322387
0.834788024 0.834914684 0.882226348
0.878178418 0.840101361 0.884630024
0.922074497 0.846552789 0.891714036
0.976976514 0.852245212 0.889563560
0.757368565 0.912839949 0.889436781
0.766097426 0.910942793 0.890195787
0.778494596 0.911574781 0.902340353
0.814547539 0.911574781 0.893484592
0.850853622 0.906261802 0.890448987
0.890828490 0.913472533 0.894496977
0.931436002 0.920682907 0.902087033
0.972675800 0.934977591 0.919417739
