Assets/Resources/EldamarStudio/100 Horror LUTs Pack/LUTs/cube/Alymurh LUT.cube
DOMAIN_MIN 0 0 0
DOMAIN_MAX 1 1 1
LUT_3D_SIZE 32
0.031373002 0.058823999 0.121569000
0.034408614 0.058823999 0.121569000
0.048197545 0.063124999 0.123719223
0.068944000 0.065401837 0.125489995
0.093232095 0.063883543 0.125869542
0.117520869 0.072991937 0.128905937
0.146869004 0.079570003 0.129411995
0.173940405 0.085641995 0.131056279
0.198229000 0.091714002 0.134850994
0.222517014 0.097786009 0.140922993
0.243895859 0.109677002 0.138266876
0.263124496 0.117773511 0.139278740
0.283618003 0.123845994 0.141176000
0.307906061 0.130170956 0.141429037
0.332194805 0.139278576 0.144465417
0.354079783 0.148386806 0.149904996
0.378368199 0.157495201 0.154459193
0.405692548 0.167235985 0.156863004
0.433017015 0.179380015 0.156863004
0.454775393 0.185957998 0.159645647
0.483617753 0.197722733 0.158886746
0.516002297 0.209867001 0.160910994
0.546362996 0.216318488 0.172801986
0.576723814 0.231498897 0.178874001
0.611638546 0.244401991 0.182669282
0.649462581 0.255154639 0.187096983
0.688425124 0.264768988 0.192662939
0.724857867 0.276912987 0.195698544
0.766603589 0.299683630 0.204047829
0.807337105 0.322201163 0.218469396
0.845920205 0.343453586 0.234914973
0.882353008 0.364706010 0.247059003
0.031373002 0.058823999 0.127640992
0.040480614 0.064895995 0.121569000
0.058570549 0.069196999 0.117267452
0.076027997 0.077798992 0.123971939
0.093991093 0.083997384 0.134218842
0.123592868 0.085135937 0.131941557
0.150411323 0.091714002 0.129917935
0.173687384 0.097785994 0.134345278
0.195951700 0.103099093 0.137128100
0.222517014 0.106894389 0.131815374
0.240986735 0.115876257 0.140796512
0.266160637 0.123845771 0.140290618
0.286274642 0.129917994 0.142314643
0.304870397 0.136495993 0.144718394
0.329158396 0.148386970 0.150537416
0.351043373 0.155091390 0.148766801
0.378368169 0.163567185 0.152941376
0.408096343 0.173307970 0.157495424
0.433017015 0.185452014 0.159898624
0.460341364 0.197596714 0.159898624
0.483997464 0.204174772 0.164579004
0.513978481 0.213915259 0.165970609
0.546489477 0.222264007 0.169765621
0.579759479 0.234535292 0.175838381
0.614674211 0.247438386 0.179633081
0.651106954 0.260974050 0.182669282
0.688425124 0.274383456 0.186590940
0.724857867 0.289057761 0.189626545
0.763946772 0.303857893 0.200632662
0.800758719 0.325236768 0.208349362
0.839468420 0.345603794 0.224162191
0.882353008 0.364706010 0.247059003
0.037824225 0.082479775 0.129411995
0.053384162 0.079949766 0.129791215
0.066793315 0.083871000 0.123719223
0.088551767 0.087412998 0.120176770
0.103984773 0.096394546 0.131562233
0.130803093 0.105249770 0.133839056
0.152182326 0.106008776 0.132953539
0.179506704 0.110436484 0.129917935
0.198481858 0.115243450 0.135483667
0.220240280 0.118279479 0.131941706
0.243136957 0.124984093 0.138140127
0.263377458 0.134092480 0.141176000
0.288171887 0.141429648 0.142314643
0.305882275 0.148513779 0.144844964
0.328272969 0.156862766 0.145224229
0.354458779 0.166350543 0.150537804
0.375711173 0.173940361 0.152055994
0.404680580 0.183048576 0.156863004
0.428969055 0.193674788 0.158380821
0.460341364 0.203668714 0.162934780
0.485768467 0.212017998 0.162934780
0.512080967 0.219102129 0.168500766
0.544465244 0.228336528 0.171283752
0.579885960 0.240480810 0.181404039
0.615559578 0.252624989 0.185199469
0.650600612 0.264768958 0.185452089
0.686780453 0.279190302 0.187982291
0.724857867 0.294370651 0.194307312
0.761796534 0.309550881 0.201011881
0.803036034 0.330044150 0.214927405
0.839342117 0.351676136 0.225679964
0.882353008 0.371157795 0.249209225
0.055787321 0.108286157 0.129411995
0.067678928 0.106008999 0.132447615
0.085009769 0.105123386 0.127767161
0.101454988 0.109424159 0.130549997
0.119291537 0.109044708 0.130170539
0.140923157 0.118912093 0.133586168
0.161416650 0.125237003 0.134598166
0.179506704 0.126881704 0.135483548
0.205313101 0.129918098 0.133965924
0.221505493 0.132953838 0.137001678
0.242883980 0.137634158 0.137887150
0.263883412 0.144465253 0.142441168
0.286274165 0.152434990 0.142441168
0.307906061 0.161416873 0.145098001
0.330170542 0.168501005 0.143073753
0.356229961 0.175711632 0.148513600
0.379253179 0.184819967 0.152055994
0.402403116 0.193295151 0.158127993
0.427956998 0.201770976 0.159393013
0.458064377 0.210879356 0.164958999
0.485768467 0.219355151 0.165970847
0.513093114 0.226439029 0.166982979
0.543959200 0.235673845 0.172675505
0.580392003 0.247818172 0.181404173
0.614294708 0.261226982 0.187982291
0.648070633 0.272106111 0.192030489
0.683491170 0.283744216 0.188488171
0.724478304 0.297406584 0.193801448
0.761290610 0.313851833 0.206578165
0.797470152 0.331815392 0.215433016
0.842631578 0.356103957 0.233270019
0.883618176 0.377735853 0.252245158
0.083871000 0.124225549 0.128652990
0.088425383 0.128020152 0.132827163
0.099936992 0.128526092 0.127261236
0.118532538 0.129917532 0.127893835
0.135989547 0.135610089 0.140796542
0.151169941 0.132574484 0.137760937
0.171030864 0.139278769 0.137634456
0.188614696 0.144718260 0.138519824
0.205313101 0.147754550 0.141555548
0.226565495 0.150790945 0.144591942
0.245667085 0.154585674 0.140038013
0.264263034 0.158886552 0.141303003
0.284377009 0.164958537 0.144718453
0.308159083 0.171030536 0.145224512
0.332194805 0.180012405 0.145477548
0.358886778 0.187096536 0.151929259
0.382036537 0.193927750 0.156863004
0.401644111 0.203162536 0.157748446
0.432004958 0.209234565 0.163820475
0.459582359 0.218089908 0.170272008
0.485768467 0.226818725 0.170651257
0.512334108 0.235547423 0.169259578
0.545603991 0.244781539 0.172548950
0.581530809 0.256926239 0.176091358
0.614168465 0.270967782 0.181404456
0.645287931 0.283364654 0.186717436
0.676660120 0.293232083 0.192662999
0.722201228 0.302340448 0.186590999
0.760152042 0.318279535 0.202909797
0.795952141 0.336875409 0.216698289
0.832384646 0.356483519 0.229854181
0.883997917 0.380771548 0.254143000
0.096014999 0.145477936 0.122580998
0.111195385 0.154585540 0.134725004
0.113598995 0.154079705 0.130297169
0.125490159 0.151549712 0.130044058
0.145097926 0.150790483 0.140796542
0.157241940 0.153826877 0.137760937
0.174952641 0.158380941 0.139784679
0.190385938 0.161669880 0.139025778
0.205313101 0.162934840 0.138519838
0.226565495 0.165970549 0.141555548
0.250727743 0.174825937 0.144591928
0.271980137 0.176849931 0.144086003
0.292726278 0.180138931 0.143959358
0.314231068 0.186210930 0.142188117
0.332447827 0.192282930 0.148260891
0.358886778 0.201264799 0.150917143
0.383175194 0.206831127 0.154965252
0.403921485 0.212776914 0.157495424
0.425932974 0.224414945 0.160784081
0.453510374 0.233270288 0.169639423
0.482732475 0.240480930 0.170651257
0.511069119 0.247058988 0.168626994
0.539532006 0.253889918 0.169512555
0.569892824 0.266033947 0.178620964
0.605818987 0.278178632 0.184440061
0.641239464 0.289437175 0.187729061
0.676154077 0.299557060 0.190259129
0.710056365 0.314484447 0.198734999
0.750284553 0.323592842 0.205945820
0.791018367 0.341303080 0.215306982
0.829348564 0.362049580 0.226312518
0.865781128 0.383807927 0.248071000
0.128399640 0.181910321 0.134218678
0.128399387 0.180897936 0.133712992
0.139278769 0.183554322 0.139405221
0.146742478 0.182163000 0.135609999
0.164326310 0.180771321 0.141555548
0.176470324 0.181656942 0.142820939
0.183554322 0.184693322 0.142315000
0.203415379 0.187476322 0.143706322
0.218975097 0.188994318 0.143074095
0.236685500 0.193801165 0.146110162
0.263377428 0.195066199 0.149145871
0.281593919 0.200126588 0.150158003
0.301834315 0.202909634 0.150158003
0.323086351 0.208728597 0.149019361
0.343579829 0.212523311 0.152814835
0.361796618 0.218595922 0.154080003
0.390259326 0.226059631 0.158507317
0.415180147 0.230740309 0.161923006
0.438330323 0.239089340 0.163061380
0.462618351 0.253510684 0.169133365
0.495635450 0.260721326 0.174446732
0.526249111 0.265781194 0.175711632
0.553573489 0.270588011 0.178747639
0.581530452 0.282732636 0.180645227
0.618722498 0.297153324 0.187476322
0.656799257 0.308159322 0.193548307
0.693864405 0.317267388 0.196837321
0.727260709 0.328399748 0.203921452
0.760910749 0.345856816 0.213029817
0.802150667 0.360278398 0.229222164
0.844655454 0.381657273 0.240860298
0.882985651 0.404554009 0.257178992
0.145098001 0.208222702 0.142820716
0.151929021 0.205186307 0.143074080
0.155850470 0.207589701 0.144338921
0.167488858 0.202529699 0.144844860
0.181151152 0.202909246 0.144085869
0.189499989 0.209234402 0.144591942
0.199873418 0.206831023 0.141809002
0.215812400 0.209866986 0.143453285
0.234028786 0.210626081 0.144971475
0.247438207 0.215812698 0.148893490
0.269322872 0.219354704 0.153573841
0.290195942 0.219734251 0.154585719
0.306514680 0.222770631 0.152308717
0.327261031 0.228589654 0.152055681
0.348513395 0.234408274 0.157874703
0.372295886 0.238203600 0.156863004
0.393548667 0.244275987 0.159898996
0.421758264 0.250980556 0.165338427
0.445034981 0.258064717 0.166350305
0.470967710 0.267552376 0.168627292
0.501201451 0.278684705 0.176091015
0.534598112 0.285768569 0.180139273
0.562175512 0.290322214 0.185958281
0.592536271 0.300948799 0.185958281
0.627324104 0.310436398 0.188868001
0.662618577 0.325616360 0.194939986
0.700822115 0.336242765 0.202023998
0.735357106 0.347628146 0.210372984
0.770398438 0.359772384 0.220746517
0.809108317 0.376343668 0.228716165
0.850727558 0.395445853 0.251739591
0.892473280 0.418974996 0.267678708
0.152688190 0.224921092 0.145098001
0.165591478 0.222643793 0.148134395
0.173561007 0.225300074 0.151170224
0.183428153 0.227577180 0.152435064
0.196711004 0.216192186 0.149399444
0.199367151 0.228716031 0.146363154
0.209993735 0.227704093 0.142315090
0.226438984 0.226565361 0.141935468
0.248450086 0.229601189 0.144212186
0.257558495 0.232637584 0.150284961
0.274636090 0.238583073 0.155597910
0.293611497 0.240607083 0.157621905
0.311827987 0.240986630 0.157621995
0.330044061 0.244275987 0.151802957
0.350790501 0.252877653 0.158886582
0.376849890 0.257937819 0.160657704
0.401138306 0.262492180 0.162176087
0.427324623 0.269196570 0.166350529
0.449083090 0.278304964 0.169133127
0.475142360 0.284630001 0.170904085
0.504743755 0.291840643 0.173560828
0.536875188 0.301708043 0.181657091
0.564579070 0.310689181 0.187602580
0.598608732 0.319164991 0.188235000
0.632005036 0.326755196 0.190512285
0.666413307 0.337001652 0.194180891
0.698292196 0.351676106 0.201770976
0.734977901 0.366603523 0.214167982
0.769892454 0.377229840 0.227830648
0.809867203 0.391397923 0.235673875
0.849968672 0.409866750 0.250221580
0.889437139 0.431119174 0.277545989
0.183048978 0.246173486 0.145098001
0.189120963 0.246173501 0.148134395
0.193421721 0.248197198 0.151170224
0.201644167 0.251359642 0.152941003
0.214927003 0.252624959 0.152435064
0.214927003 0.246552989 0.149399459
0.225174144 0.246426493 0.148893490
0.238962770 0.247817785 0.151929483
0.254522085 0.250853568 0.156356975
0.269702494 0.253889978 0.156356961
0.284629852 0.259835482 0.159519121
0.303984761 0.261859477 0.160657525
0.323971987 0.261859477 0.161796167
0.342188060 0.262492001 0.163946971
0.360404819 0.268564016 0.160910591
0.385958284 0.274762481 0.165591002
0.408728480 0.280708402 0.171283886
0.430360228 0.287413388 0.175458908
0.463757455 0.296520978 0.172422528
0.488298506 0.302845985 0.177988499
0.514610708 0.308917999 0.178115219
0.543200254 0.317140788 0.178621471
0.573687494 0.328905970 0.184566960
0.610120296 0.334977955 0.187602580
0.639595270 0.343453765 0.190512300
0.670082092 0.355218261 0.193548337
0.704364181 0.369892120 0.198734596
0.743833244 0.382036895 0.213914961
0.775205433 0.394307464 0.231625646
0.812902868 0.411638170 0.240733773
0.852751315 0.434408545 0.253636688
0.886401474 0.461479992 0.289689988
0.198861867 0.255787849 0.150916994
0.199114874 0.261606872 0.151043519
0.209487870 0.268058091 0.158380896
0.217330903 0.270082027 0.156609878
0.227324739 0.270588398 0.150790885
0.227324739 0.277166724 0.155344933
0.239974409 0.271094084 0.154839009
0.250853807 0.268690705 0.156483293
0.263503939 0.269196659 0.159772128
0.278684348 0.272232473 0.159772128
0.293864727 0.269449860 0.159772128
0.311068833 0.275521874 0.162808269
0.330297291 0.279569864 0.162555233
0.348766774 0.283617884 0.162302136
0.369639695 0.289689839 0.167235583
0.390259653 0.298165649 0.171410605
0.418089867 0.304743737 0.171410352
0.442504406 0.310183585 0.171916410
0.466793060 0.314737767 0.175711900
0.491840839 0.323845387 0.175458863
0.518026590 0.331941605 0.181277871
0.547374964 0.338013887 0.182289988
0.579506516 0.344465852 0.184440479
0.607589960 0.356103867 0.187476099
0.644022703 0.364453167 0.199620277
0.676027656 0.373561174 0.205186680
0.709424198 0.385704935 0.210246816
0.744086266 0.400252879 0.225427181
0.775584936 0.415053815 0.235293880
0.811258554 0.427450836 0.250980318
0.848197460 0.445287585 0.261226833
0.877546132 0.468564004 0.281467140
0.216065988 0.283111989 0.156989008
0.220113993 0.283112258 0.156989008
0.222644255 0.287286490 0.159392774
0.230993092 0.292599261 0.163440838
0.239342272 0.290322542 0.155471280
0.247564971 0.292852938 0.159898996
0.256167173 0.295382619 0.158886746
0.268058211 0.290954977 0.160531461
0.277925491 0.290196240 0.162808269
0.291840732 0.294497013 0.162808269
0.307021111 0.293738127 0.166856259
0.322200954 0.292726249 0.164831996
0.341555655 0.298798263 0.170145378
0.360151798 0.304617286 0.170904249
0.376091391 0.308918476 0.173434243
0.403415531 0.319418043 0.173434600
0.423150122 0.325490057 0.177988797
0.450221211 0.331056118 0.174699247
0.472864985 0.335484236 0.177988678
0.496900737 0.344085902 0.180518985
0.523086727 0.347501248 0.182416260
0.549399197 0.356230140 0.186337739
0.579506755 0.361543477 0.186590731
0.606831193 0.371790260 0.191524088
0.640986860 0.383681297 0.197596535
0.678810894 0.392789662 0.209993571
0.712966383 0.402403504 0.215812862
0.744845271 0.416065693 0.229475439
0.781657219 0.431246072 0.239342138
0.812017620 0.444655210 0.251992166
0.848956585 0.459455848 0.268058181
0.878557980 0.480708241 0.282479525
0.235420644 0.311574638 0.160784006
0.239215642 0.309677392 0.160784006
0.243137404 0.310942531 0.162934780
0.248450488 0.312713295 0.165717840
0.251486182 0.313092738 0.163440555
0.263630569 0.311574906 0.166476935
0.272612333 0.312460303 0.163314328
0.285136074 0.315622717 0.164705724
0.295003563 0.313345999 0.168500990
0.307147622 0.318659008 0.169259995
0.321062863 0.318911999 0.169386357
0.336243004 0.320050627 0.170524731
0.353699923 0.322327644 0.169765636
0.374952316 0.328146666 0.178114995
0.389753491 0.331183046 0.178114995
0.411764622 0.339152634 0.177988797
0.437191397 0.346742451 0.177988797
0.457305551 0.351043224 0.181024581
0.482099652 0.357621908 0.181530640
0.507526696 0.366476923 0.186590701
0.533712745 0.374446273 0.189626902
0.562049270 0.375458419 0.192662776
0.586717486 0.384440273 0.192915767
0.614041924 0.394560546 0.197975650
0.647059202 0.405945629 0.205186561
0.682606280 0.416698277 0.210373312
0.720050693 0.425806701 0.219987124
0.749778867 0.437318265 0.232131884
0.785831749 0.452119082 0.246173427
0.824541330 0.466666609 0.259961814
0.853131175 0.482352853 0.277798831
0.885768652 0.503858268 0.296521634
0.255914003 0.328020066 0.161290005
0.256420016 0.328526050 0.162302062
0.258823812 0.329411805 0.162175745
0.264389873 0.332448065 0.166476905
0.271726578 0.332321525 0.169512540
0.274762958 0.335357130 0.172548935
0.281847030 0.335357040 0.168248042
0.293232054 0.338899106 0.167741969
0.309930205 0.343453109 0.173560992
0.322074950 0.343453109 0.179632992
0.334219009 0.343706071 0.172422156
0.348893255 0.345477283 0.169133052
0.365591615 0.349399060 0.170018673
0.386591017 0.355471045 0.173054993
0.407843411 0.358507425 0.173054993
0.426945031 0.363693982 0.175711766
0.447185218 0.368753880 0.178494796
0.469449550 0.372801632 0.181783542
0.496773988 0.381909996 0.184819937
0.523592353 0.390512377 0.192662656
0.550916791 0.401518017 0.197975740
0.579506278 0.411132157 0.201265097
0.609740496 0.414421529 0.204301476
0.637064874 0.426439077 0.207337141
0.668943763 0.438330024 0.214927241
0.702087641 0.449335694 0.222264349
0.734725058 0.458191097 0.227071121
0.762049437 0.467299461 0.239215881
0.794686794 0.481720775 0.258570760
0.831372261 0.497153789 0.277545959
0.869829178 0.514231265 0.298039168
0.894118011 0.538520038 0.322327971
0.268058002 0.358380824 0.167361990
0.274129987 0.364452809 0.179506764
0.278937519 0.356356800 0.163314283
0.285642236 0.358760536 0.162428916
0.292472929 0.368501246 0.175585285
0.283871323 0.365717888 0.178620934
0.304617405 0.361163825 0.176597312
0.313599110 0.364579529 0.171283990
0.322074831 0.370778233 0.170018673
0.334218949 0.370778233 0.173560992
0.346363008 0.373687327 0.179632992
0.364579231 0.374066800 0.176470667
0.381150961 0.375838041 0.175205827
0.395698637 0.379759818 0.176091373
0.413915396 0.385831803 0.179126993
0.435167789 0.388867587 0.183933988
0.458823591 0.395572156 0.186337575
0.484250367 0.402782798 0.188234985
0.508917928 0.409234375 0.193927541
0.530676365 0.412776768 0.194180578
0.556989193 0.422770381 0.197975740
0.586337924 0.433902532 0.202023998
0.618848920 0.441745907 0.207337096
0.646173298 0.450854301 0.210373491
0.678051710 0.460594505 0.217963114
0.710056841 0.471726716 0.229854226
0.741050124 0.482226789 0.242504478
0.771157861 0.488551825 0.257431865
0.803795159 0.502972543 0.269575953
0.828336358 0.519923925 0.283617973
0.857811391 0.536622405 0.302340358
0.894118011 0.553700387 0.331435561
0.285009593 0.393548608 0.168626994
0.286274582 0.394813597 0.175964773
0.298797816 0.394433826 0.181657225
0.304364353 0.389373928 0.168500945
0.310056806 0.398102790 0.176470995
0.307020903 0.397090673 0.177482858
0.316128969 0.396331608 0.175458506
0.330550015 0.393548608 0.179000884
0.337381274 0.398861706 0.178241596
0.351169974 0.400505990 0.179633290
0.363314599 0.401011914 0.178368002
0.377482325 0.404048055 0.182416260
0.395698607 0.404427588 0.183554992
0.409613878 0.405945778 0.186084986
0.427830607 0.407716751 0.186970383
0.446046770 0.416192591 0.185198992
0.464263171 0.419228196 0.192789197
0.488678128 0.425932765 0.194813237
0.516508639 0.432004780 0.195572019
0.540417135 0.440101147 0.200885609
0.567362249 0.448829770 0.206577852
0.595193088 0.458949775 0.211637989
0.625679970 0.466666490 0.217583507
0.655281663 0.475774884 0.220619902
0.684882760 0.482605994 0.228210285
0.716761291 0.492978752 0.241492569
0.746616006 0.504111290 0.257684857
0.775079072 0.510183811 0.272865236
0.805692732 0.529032528 0.282985568
0.833775878 0.545983374 0.300442755
0.858570218 0.563314378 0.318912327
0.896521211 0.578494787 0.347754598
0.306261986 0.422391176 0.173181191
0.307780176 0.426945001 0.179253578
0.309424400 0.424794614 0.180139408
0.328399509 0.421758205 0.184440181
0.331688851 0.423908979 0.181783989
0.328273177 0.423908979 0.179506987
0.335357189 0.426945001 0.181530863
0.344212174 0.426945001 0.177482694
0.353320360 0.426945001 0.184313998
0.369259864 0.429221720 0.184313998
0.383048922 0.429348201 0.185958326
0.395699114 0.431372464 0.185452253
0.410879016 0.434408844 0.187349990
0.426312387 0.434788376 0.192409962
0.444528818 0.434788376 0.193674803
0.462745339 0.440480977 0.194307387
0.480961382 0.448071182 0.194307387
0.499304324 0.451739371 0.202783182
0.529665172 0.457811385 0.202403426
0.549905002 0.465148538 0.204680711
0.577988446 0.474636376 0.212650239
0.607337117 0.484756380 0.220746249
0.634535015 0.490828365 0.226944849
0.662112832 0.498545080 0.232763901
0.692472935 0.506894350 0.240354285
0.722833276 0.514357746 0.249462664
0.752688050 0.527387321 0.267805248
0.780012429 0.537508070 0.285009623
0.808475435 0.550790966 0.297912598
0.839848280 0.568753958 0.314104974
0.865907371 0.585199237 0.334472001
0.901075006 0.599747181 0.359898984
0.329917550 0.446173519 0.182921976
0.332953960 0.454016328 0.188361570
0.332953781 0.455154896 0.187349766
0.338140309 0.452118963 0.186843991
0.359392971 0.450600654 0.192157000
0.351043612 0.451359689 0.186590984
0.354585558 0.454522133 0.189374000
0.361922532 0.457305133 0.190132990
0.369133145 0.457937717 0.186843976
0.387349933 0.457937717 0.186843976
0.402024269 0.457937717 0.190765426
0.415812969 0.459961802 0.194054574
0.429095596 0.463630617 0.194686994
0.444275975 0.466413975 0.195192993
0.462112546 0.466413975 0.198608145
0.480329007 0.469955981 0.202276781
0.498545557 0.474130541 0.204048172
0.516129136 0.480202556 0.207716972
0.546489954 0.486274540 0.213788986
0.565464795 0.492979139 0.214294985
0.589500010 0.499683708 0.219354823
0.617583692 0.508412540 0.228083253
0.644908071 0.514611065 0.234282494
0.669702828 0.521189153 0.243390247
0.699177563 0.529538214 0.252498269
0.727640271 0.539911449 0.263504207
0.756989121 0.549525142 0.273624480
0.784187019 0.567488849 0.294623822
0.812143803 0.578368366 0.311195254
0.842377961 0.591018438 0.329917312
0.872359574 0.605312765 0.350916743
0.902719617 0.617457569 0.369133562
0.351170003 0.479570031 0.195066020
0.354206383 0.482606411 0.198102415
0.357242227 0.483997941 0.194939986
0.362302125 0.482479811 0.191651031
0.371537030 0.480961531 0.192157030
0.371537030 0.490069896 0.192157015
0.375837982 0.488298625 0.191651031
0.385198981 0.487665981 0.192157030
0.396078110 0.488425076 0.193169013
0.405565977 0.491334975 0.198988020
0.417962998 0.491334975 0.196078166
0.432384312 0.493358701 0.199873567
0.447311670 0.497533053 0.204301357
0.462492049 0.502846062 0.207337037
0.477672428 0.502846062 0.213409007
0.495509028 0.502846062 0.219227970
0.513725460 0.501834273 0.220493212
0.531309545 0.501455009 0.219861016
0.546490073 0.507526994 0.225933030
0.574067414 0.516382396 0.226439029
0.600379646 0.521442235 0.230234027
0.625933111 0.527008176 0.237571120
0.647944570 0.535863519 0.246426538
0.675268948 0.544971943 0.255534917
0.706894279 0.553826690 0.264642686
0.734471619 0.565717697 0.277925372
0.756989121 0.579886019 0.294876903
0.781277835 0.592029989 0.310056537
0.811131895 0.604680717 0.328399718
0.841239333 0.618343234 0.348134130
0.868311226 0.632637978 0.369386554
0.887540042 0.644782066 0.390386015
0.377988368 0.521315753 0.207210720
0.378241420 0.521568775 0.207463756
0.385578811 0.522454381 0.210499585
0.391144753 0.522454381 0.210120171
0.397975922 0.521315753 0.210879356
0.400379747 0.523213327 0.206072375
0.402909428 0.527261078 0.208602041
0.412017792 0.526375413 0.207210720
0.424162060 0.527134478 0.207590371
0.435294241 0.530170858 0.213662356
0.444529086 0.533080757 0.219354853
0.456673056 0.533080757 0.218342721
0.473371357 0.535357475 0.221758664
0.491840750 0.539531767 0.224541724
0.507021129 0.542062104 0.225553706
0.527008533 0.544465303 0.234028906
0.544085920 0.546362936 0.237444371
0.561669588 0.546489775 0.236938596
0.581151009 0.548260808 0.240860388
0.601897418 0.557116091 0.246932372
0.623529553 0.562429011 0.252625108
0.648197472 0.567488909 0.260594606
0.673244894 0.576723754 0.269702524
0.700569272 0.588488281 0.278810918
0.723339617 0.595319390 0.290196031
0.750537634 0.602529764 0.301201701
0.773687720 0.612523496 0.317141443
0.797975898 0.622390747 0.336875588
0.822264612 0.631878555 0.357368857
0.852371633 0.643896341 0.375711679
0.884503186 0.658950210 0.398608536
0.914105058 0.674889743 0.425553739
0.403415471 0.556230426 0.221252739
0.403415471 0.556230426 0.219354987
0.411764503 0.561922729 0.225300699
0.415812880 0.559392750 0.227071464
0.419607908 0.558886707 0.228336722
0.422643930 0.561922729 0.222264737
0.433270156 0.558760107 0.227577403
0.436306179 0.561796188 0.232257709
0.447691739 0.563567221 0.229981080
0.459835738 0.567741930 0.232637718
0.470967829 0.568880558 0.233016998
0.485894978 0.569892704 0.238835976
0.496900618 0.572169721 0.238835976
0.514357984 0.575458467 0.241113275
0.527893662 0.575205386 0.242757991
0.547881067 0.578241706 0.248070925
0.567615628 0.582795441 0.254142940
0.583807468 0.585578740 0.254522473
0.603794694 0.585578740 0.256293714
0.623149812 0.592030346 0.267805487
0.646299481 0.599240959 0.273877472
0.664516270 0.601264715 0.279949725
0.688931227 0.607716501 0.286527455
0.712713659 0.618089795 0.297406614
0.737381279 0.625679731 0.308791727
