Assets/Resources/EldamarStudio/100 Horror LUTs Pack/LUTs/cube/Alymurh LUT.cube
LUT_3D_SIZE 5
DOMAIN_MIN 0.000000 0.000000 0.000000
DOMAIN_MAX 0.903226 0.903226 0.903226
0.031373002 0.058823999 0.121569000
0.173940405 0.085641995 0.131056279
0.332194805 0.139278576 0.144465417
0.516002297 0.209867001 0.160910994
0.766603589 0.299683630 0.204047829
0.145098001 0.208222702 0.142820716
0.215812400 0.209866986 0.143453285
0.348513395 0.234408274 0.157874703
0.534598112 0.285768569 0.180139273
0.770398438 0.359772384 0.220746517
0.268058002 0.358380824 0.167361990
0.313599110 0.364579529 0.171283990
0.413915396 0.385831803 0.179126993
0.586337924 0.433902532 0.202023998
0.803795159 0.502972543 0.269575953
0.429728240 0.587603092 0.238457114
0.466666698 0.595192850 0.252498239
0.547754347 0.607842922 0.263377547
0.680708289 0.633649290 0.304237962
0.841872096 0.683997273 0.397217214
0.677672446 0.839594781 0.498544902
0.701581359 0.844655514 0.525616407
0.748766363 0.851359785 0.547754169
0.829474926 0.861480117 0.586590707
0.912839949 0.874889433 0.622770429
0.061479993 0.074510001 0.153953284
0.166476682 0.098418698 0.152687699
0.315875977 0.165464565 0.172928274
0.499304116 0.228463128 0.199114129
0.751802683 0.311701655 0.241365969
0.163820699 0.192915976 0.155598000
0.227577403 0.210879117 0.171916410
0.341050088 0.238709807 0.181404278
0.517014563 0.289057583 0.199999839
0.759013236 0.369259655 0.250474572
0.283744425 0.357368678 0.200000003
0.324983984 0.361290097 0.204680413
0.414927125 0.383554637 0.205945402
0.578114927 0.427703798 0.235420823
0.794560254 0.506894350 0.301581353
0.434787840 0.585072517 0.265528262
0.475775123 0.591271281 0.275142521
0.550411105 0.604680598 0.292852551
0.671979666 0.623276234 0.325237244
0.841998756 0.683744192 0.418089807
0.672106326 0.833775938 0.529032290
0.691208124 0.838076890 0.528272986
0.743579805 0.844908237 0.554965138
0.824035287 0.856293499 0.587096393
0.913598716 0.876280785 0.643643260
0.132700577 0.097406581 0.217710406
0.204300702 0.124857992 0.208222717
0.318406403 0.173940822 0.214420989
0.509171546 0.234408870 0.252118677
0.749525607 0.321821660 0.316002369
0.203921586 0.214421406 0.215686426
0.253004402 0.221631989 0.216698289
0.351802826 0.243517116 0.225553408
0.526122689 0.293231875 0.266160548
0.764579177 0.380012363 0.331309259
0.308664978 0.360278398 0.251106977
0.342567980 0.374320120 0.261227131
0.441998810 0.402150393 0.274635971
0.588614702 0.438836366 0.299556971
0.791904092 0.518659234 0.383427769
0.454775572 0.583301425 0.344085813
0.478937328 0.591144860 0.342694432
0.557748258 0.604174852 0.363693953
0.680075943 0.628716111 0.397722989
0.842631340 0.692852497 0.486527503
0.670967817 0.837064743 0.559898615
0.688298523 0.837318063 0.573434293
0.740923226 0.842884243 0.595445573
0.817457020 0.856293440 0.626691997
0.911448598 0.881593704 0.685768425
0.225553259 0.152055874 0.336496145
0.277292997 0.165717706 0.338520139
0.383301646 0.203289419 0.336875230
0.526881397 0.249082997 0.360025108
0.764958918 0.332320809 0.435041070
0.265401989 0.249082983 0.341808677
0.307906419 0.254648715 0.338013828
0.408095956 0.271347374 0.345983267
0.545097947 0.302466720 0.361417115
0.771157265 0.391777188 0.452498496
0.344845265 0.393295109 0.367995113
0.383807838 0.402150393 0.375458658
0.476027817 0.420493394 0.395066410
0.610499561 0.449968249 0.416698247
0.794560432 0.528146744 0.496141672
0.477672130 0.599367440 0.462998241
0.504491091 0.607463360 0.468944013
0.585578561 0.627071381 0.490196139
0.696521282 0.654269397 0.520050287
0.853637040 0.698165774 0.581783950
0.682479501 0.835673809 0.649842024
0.700821877 0.843516767 0.665907621
0.739911437 0.850094616 0.672865331
0.816192031 0.858317673 0.695761919
0.919417918 0.880581796 0.742947578
0.300821990 0.206704661 0.628209591
0.360278398 0.218468979 0.621631682
0.490575612 0.243263990 0.625553429
0.648829818 0.294370800 0.630107462
0.822896600 0.373054624 0.650474370
0.316508651 0.291081637 0.626185536
0.374319702 0.300569355 0.622264445
0.495382518 0.319797367 0.625806332
0.661859632 0.359519094 0.636938453
0.826438725 0.431119800 0.655281484
0.382542402 0.459202796 0.634661376
0.422138095 0.458190918 0.632384300
0.529664755 0.475522041 0.641113460
0.678937256 0.509297907 0.659582436
0.841746032 0.554711819 0.677798748
0.522833645 0.661606312 0.687033534
0.545857131 0.663883805 0.683997273
0.611132383 0.669070065 0.689183891
0.725237191 0.682479084 0.703858018
0.860214889 0.721062481 0.735357583
0.692093611 0.851486623 0.759898603
0.704364359 0.852751434 0.774825752
0.750158191 0.862618387 0.786969960
0.828589618 0.873371303 0.814674377
0.919291615 0.901201785 0.860847414
