Assets/Resources/EldamarStudio/100 Horror LUTs Pack/LUTs/cube/Alymurh LUT.cube
LUT_3D_SIZE 8
DOMAIN_MIN 0.000000 0.000000 0.000000
DOMAIN_MAX 0.903226 0.903226 0.903226
0.031373002 0.058823999 0.121569000
0.093232095 0.063883543 0.125869542
0.198229000 0.091714002 0.134850994
0.283618003 0.123845994 0.141176000
0.378368199 0.157495201 0.154459193
0.483617753 0.197722733 0.158886746
0.611638546 0.244401991 0.182669282
0.766603589 0.299683630 0.204047829
0.083871000 0.124225549 0.128652990
0.135989547 0.135610089 0.140796542
0.205313101 0.147754550 0.141555548
0.284377009 0.164958537 0.144718453
0.382036537 0.193927750 0.156863004
0.485768467 0.226818725 0.170651257
0.614168465 0.270967782 0.181404456
0.760152042 0.318279535 0.202909797
0.152688190 0.224921092 0.145098001
0.196711004 0.216192186 0.149399444
0.248450086 0.229601189 0.144212186
0.311827987 0.240986630 0.157621995
0.401138306 0.262492180 0.162176087
0.504743755 0.291840643 0.173560828
0.632005036 0.326755196 0.190512285
0.769892454 0.377229840 0.227830648
0.235420644 0.311574638 0.160784006
0.251486182 0.313092738 0.163440555
0.295003563 0.313345999 0.168500990
0.353699923 0.322327644 0.169765636
0.437191397 0.346742451 0.177988797
0.533712745 0.374446273 0.189626902
0.647059202 0.405945629 0.205186561
0.785831749 0.452119082 0.246173427
0.306261986 0.422391176 0.173181191
0.331688851 0.423908979 0.181783989
0.353320360 0.426945001 0.184313998
0.410879016 0.434408844 0.187349990
0.480961382 0.448071182 0.194307387
0.577988446 0.474636376 0.212650239
0.692472935 0.506894350 0.240354285
0.808475435 0.550790966 0.297912598
0.403415471 0.556230426 0.221252739
0.419607908 0.558886707 0.228336722
0.447691739 0.563567221 0.229981080
0.496900618 0.572169721 0.238835976
0.567615628 0.582795441 0.254142940
0.646299481 0.599240959 0.273877472
0.737381279 0.625679731 0.308791727
0.834787846 0.658443809 0.375205815
0.516887963 0.695003271 0.317520559
0.533080101 0.699557304 0.325743109
0.560657740 0.700948715 0.333839536
0.605439544 0.711322308 0.348892987
0.653130651 0.711322308 0.360531449
0.713725269 0.724730968 0.385578752
0.780265570 0.734851301 0.413282841
0.868184626 0.757495582 0.472738802
0.677672446 0.839594781 0.498544902
0.694370270 0.846553087 0.525237083
0.707906604 0.847438455 0.528146684
0.734471619 0.850094616 0.538899601
0.768374443 0.852877975 0.556609452
0.815812767 0.857937932 0.580771446
0.865022004 0.868437767 0.598987997
0.912839949 0.874889433 0.622770429
0.040354453 0.070588000 0.148640454
0.093991086 0.074889451 0.134471551
0.185705096 0.103858449 0.146616101
0.265528291 0.138646185 0.154459104
0.358001381 0.173181370 0.158760548
0.464389622 0.213915199 0.176850453
0.598228812 0.250727296 0.188614547
0.753067493 0.300316155 0.218216538
0.085768543 0.120683096 0.139152557
0.137887090 0.125743553 0.149399459
0.191524640 0.149652094 0.150537997
0.269070625 0.172042638 0.152056009
0.359139830 0.198608652 0.167362362
0.464516073 0.233143553 0.177609444
0.597469807 0.271094292 0.192283243
0.743073583 0.318406105 0.224035367
0.166097090 0.206831098 0.158760548
0.190765545 0.213535652 0.155217990
0.231119290 0.222137734 0.158381000
0.302087545 0.234661728 0.162681654
0.386590838 0.261226803 0.171283633
0.489057630 0.289057314 0.186717004
0.620620012 0.327514201 0.195066199
0.763187766 0.378241450 0.234029248
0.234155372 0.301960737 0.161796540
0.255787551 0.302340299 0.167741895
0.285895079 0.307400525 0.171663180
0.340290904 0.315623283 0.173181280
0.427324712 0.335989982 0.190891549
0.520809472 0.363440871 0.197216839
0.640480578 0.406325161 0.218469098
0.777482390 0.454142928 0.259076536
0.317394197 0.411385208 0.189879730
0.324351370 0.418343186 0.186211556
0.360025525 0.422643721 0.195192903
0.406578273 0.427704096 0.196331561
0.476407379 0.438583374 0.201897547
0.570272326 0.466413945 0.225680187
0.684756517 0.505249977 0.249841899
0.802782595 0.550284564 0.305629343
0.398987830 0.548640013 0.224794269
0.418469220 0.546995699 0.226818725
0.443643123 0.552561700 0.239215627
0.492978901 0.561163902 0.245034978
0.555344462 0.572549045 0.257685184
0.632890701 0.587476492 0.273497760
0.727008283 0.616825044 0.320936173
0.833523035 0.659076750 0.387476385
0.512460709 0.689689815 0.321315378
0.530676603 0.694370508 0.334724575
0.555218041 0.693991303 0.337760866
0.595951736 0.700569272 0.347501189
0.646932244 0.708918393 0.362934738
0.705755770 0.715496659 0.388741553
0.784187555 0.734851301 0.421252072
0.861100674 0.759266198 0.484629780
0.666793048 0.839721620 0.502467036
0.678051651 0.832890391 0.510056674
0.690575600 0.835041344 0.515749156
0.722201228 0.837823868 0.526628494
0.759898782 0.845540941 0.541049778
0.808349371 0.850727499 0.568248034
0.860215247 0.860974193 0.599493802
0.913852036 0.874004066 0.642125309
0.072106004 0.075268902 0.163061097
0.116002098 0.086654447 0.158001453
0.198355094 0.112081096 0.169386089
0.275901198 0.145350650 0.171663180
0.365212083 0.186590895 0.188235193
0.469955474 0.223402992 0.200126529
0.598355353 0.260847479 0.215433180
0.752308786 0.314484715 0.248703331
0.117140643 0.135989636 0.152435452
0.163947016 0.146615997 0.168627098
0.208096564 0.159140006 0.166603550
0.284882724 0.180645436 0.174825996
0.372675508 0.215939358 0.193928003
0.473877281 0.248450294 0.200632483
0.605059981 0.280455500 0.219355091
0.747627735 0.333965510 0.248703539
0.187349990 0.219481096 0.165464908
0.215685993 0.230487108 0.191018462
0.259456009 0.235926986 0.179506987
0.313472182 0.247691199 0.186590910
0.395699084 0.269576073 0.195951894
0.501580954 0.298924744 0.210120097
0.624161661 0.336748779 0.228716195
0.765085459 0.386464000 0.260847658
0.259835541 0.314610630 0.190132648
0.273118556 0.325743347 0.194434002
0.311574757 0.325237095 0.200252637
0.357242167 0.329918087 0.200252742
0.432005048 0.348640174 0.212776646
0.529411495 0.372422636 0.222137630
0.647817671 0.409993708 0.244781643
0.775711417 0.459835708 0.285135925
0.337128073 0.417584002 0.214674279
0.348766178 0.425047547 0.219101727
0.371410370 0.428589284 0.220999286
0.417584181 0.434029073 0.224921092
0.487413079 0.445034981 0.230360270
0.576090932 0.472738743 0.251106918
0.690955162 0.508412361 0.280328959
0.800252855 0.560025394 0.337128311
0.425426960 0.559013069 0.264010012
0.431372762 0.564452887 0.264262915
0.460088730 0.561669528 0.262998074
0.506009102 0.568754137 0.274889290
0.567109406 0.578115284 0.290195793
0.634788156 0.590638578 0.303732097
0.735736549 0.625174224 0.349398941
0.833649576 0.665022433 0.410752594
0.530044436 0.691840351 0.346616089
0.543326497 0.700062990 0.362428784
0.569513261 0.705123186 0.368627459
0.607084274 0.707020938 0.382669359
0.656420052 0.711448312 0.395066351
0.712966383 0.719165266 0.411511630
0.782669365 0.735610366 0.446932375
0.859329343 0.760531306 0.501201987
0.680708528 0.839594781 0.542188525
0.689057827 0.837950468 0.537128627
0.705629528 0.840859950 0.543453395
0.732194543 0.846173644 0.557874918
0.768880367 0.852118909 0.569006741
0.812144160 0.858317673 0.593674779
0.862365544 0.863756895 0.615053713
0.914357960 0.874762774 0.647438347
0.107147284 0.088551998 0.196711004
0.142441183 0.098292351 0.192789286
0.210373551 0.119417638 0.191144988
0.276913643 0.149652004 0.205060363
0.364959180 0.186084554 0.214674294
0.467172831 0.223276466 0.228083283
0.598228574 0.263503909 0.246047005
0.753446937 0.320683002 0.283238649
0.155471548 0.147248283 0.191144988
0.178494290 0.151549652 0.197090641
0.217710197 0.164453089 0.195572555
0.284629822 0.180518553 0.196204647
0.366097540 0.217077911 0.211511984
0.469449818 0.241619438 0.225173831
0.603795350 0.285136014 0.249335632
0.750031471 0.333459646 0.291460812
0.201391280 0.222517192 0.204554096
0.220366731 0.230234087 0.196078643
0.265907735 0.242884099 0.214041993
0.318405837 0.249842182 0.207969725
0.397090256 0.273371279 0.223276183
0.496521354 0.301201850 0.238836169
0.625300050 0.341935337 0.266666651
0.764579296 0.392789334 0.308918417
0.260088295 0.309424281 0.211891651
0.278052092 0.311321735 0.216571644
0.317267388 0.327007830 0.225300640
0.371157289 0.339152277 0.232637286
0.440101266 0.351676285 0.241999090
0.528146744 0.379127204 0.258064508
0.647058904 0.416571558 0.291587919
0.778747261 0.469323277 0.329158813
0.335357189 0.418342978 0.257178992
0.354838371 0.424920827 0.253383726
0.383048385 0.429601759 0.255281299
0.428083628 0.435420394 0.261606455
0.494370461 0.447564840 0.265907645
0.582795560 0.473877370 0.291713744
0.685768723 0.513851941 0.322200924
0.801391423 0.563820124 0.375964791
0.422897100 0.552941263 0.302087367
0.436558902 0.553573549 0.299177974
0.467931718 0.558380485 0.303225636
0.509424627 0.567741871 0.315117031
0.570651829 0.575711548 0.330550194
0.639848411 0.591777146 0.343580276
0.731815279 0.625047386 0.386590540
0.833269835 0.667425573 0.449335545
0.530423939 0.696268260 0.394813210
0.543832898 0.691461086 0.397849292
0.566097319 0.694243968 0.395698756
0.604427576 0.701834261 0.411131889
0.653510153 0.711701512 0.428083539
0.712840080 0.721821666 0.445793658
0.783048630 0.733206570 0.474509895
0.864515960 0.764958858 0.533712506
0.673497796 0.834028780 0.554459035
0.685894787 0.836811841 0.552561462
0.697659671 0.839974821 0.562302053
0.726755381 0.841745496 0.576091051
0.763187706 0.844781935 0.587476075
0.809614122 0.853889823 0.602403641
0.860973954 0.861353576 0.632764041
0.909803927 0.878810823 0.669829011
0.162934989 0.115243189 0.242251992
0.187349901 0.123466350 0.237191647
0.237444982 0.141808987 0.238203898
0.301328450 0.167362452 0.238962799
0.372928381 0.194307387 0.246806189
0.477672458 0.226438984 0.266160637
0.609993815 0.264769077 0.299936801
0.754711747 0.327134639 0.343832970
0.187223092 0.166983008 0.232257828
0.209361210 0.173687354 0.238077357
0.251613110 0.185831904 0.240986541
0.309930652 0.196331650 0.241872445
0.377355844 0.219860539 0.247311547
0.477798998 0.251106918 0.271853387
0.608981788 0.286274701 0.300695896
0.751423001 0.340544164 0.340670288
0.240607083 0.239089087 0.246173188
0.251233459 0.247311637 0.242125079
0.286906987 0.251739293 0.248450294
0.337381542 0.258190811 0.251613200
0.402024090 0.277419090 0.260088176
0.503352523 0.304364443 0.283491373
0.631372452 0.343959361 0.319544375
0.768500686 0.395445973 0.369765967
0.282605827 0.319671065 0.258190811
0.306894541 0.325616658 0.266413867
0.341302723 0.335357308 0.274257094
0.392536163 0.344338834 0.280834824
0.460341632 0.361543626 0.284250170
0.546616375 0.386211187 0.308032632
0.656293452 0.423782289 0.345224559
0.780391991 0.474889278 0.389879644
0.342441380 0.422391206 0.288172156
0.362934887 0.433016837 0.303352177
0.397343397 0.441999197 0.307906270
0.453637183 0.457558364 0.321568519
0.523466229 0.467678577 0.335231155
0.591018081 0.488551646 0.345856905
0.694117248 0.517014265 0.379759669
0.806071937 0.563946664 0.430613339
0.441365927 0.560910463 0.354712397
0.452878177 0.564452887 0.364073247
0.478684396 0.570398271 0.366856724
0.524604738 0.576723397 0.371916264
0.580897868 0.587981999 0.389247388
0.650727510 0.605312765 0.402023911
0.740417242 0.632890642 0.445540458
0.836053252 0.671094239 0.494117349
0.545224309 0.693990946 0.448576838
0.556483090 0.698165476 0.447564751
0.579000354 0.701960683 0.458823442
0.607210398 0.706641316 0.463504434
0.657305241 0.713725209 0.474383354
0.716129065 0.724224985 0.493105650
0.780265570 0.734598458 0.517394245
0.864136696 0.770904362 0.572422266
0.666793168 0.838582933 0.588488579
0.683997214 0.837824225 0.598355234
0.699177802 0.842378378 0.592915952
0.726249158 0.844275892 0.606577814
0.762808204 0.849842012 0.618848741
0.811891258 0.858823597 0.636685550
0.859582543 0.866919696 0.663124442
0.914484620 0.876533806 0.694496930
0.211384982 0.142947733 0.309171468
0.232257918 0.149652004 0.311068714
0.276027828 0.170019001 0.311448365
0.335989982 0.188361734 0.314357817
0.404427916 0.211258546 0.316255450
0.485388964 0.236938730 0.328652471
0.615559578 0.273371279 0.363567322
0.764452696 0.330802798 0.416824818
0.228589267 0.182163343 0.300569385
0.247058719 0.189879537 0.305249989
0.283744723 0.200632289 0.303605258
0.339405626 0.215053558 0.304870635
0.413029730 0.231878370 0.313598931
0.491714239 0.253763288 0.323972374
0.615433455 0.290954798 0.358380556
0.752814651 0.348007619 0.416065872
0.269955754 0.261985838 0.312713742
0.284250498 0.267552525 0.316129178
0.318026483 0.266287088 0.313725382
0.364958972 0.276154548 0.319797635
0.437824190 0.291081637 0.324857473
0.517267823 0.306261986 0.340164721
0.636812389 0.347754359 0.381404191
0.769133389 0.405439526 0.429474890
0.313219458 0.340670288 0.323719352
0.328273267 0.342188269 0.336116135
0.355976939 0.348007739 0.335230827
0.407716483 0.353194386 0.343706459
0.472485721 0.369259924 0.348513693
0.553573489 0.386464119 0.366603225
0.662998080 0.424794614 0.407716572
0.784313798 0.483111858 0.455787182
0.360025167 0.437824190 0.366982907
0.383681357 0.437697560 0.365717888
0.411385179 0.451107085 0.371790141
0.464136839 0.460088640 0.378747672
0.527514100 0.478937626 0.392030269
0.606198490 0.495382726 0.415686250
0.702593446 0.528399706 0.449715018
0.807084143 0.572422206 0.496394753
0.448323727 0.561922729 0.416445166
0.459835470 0.566603184 0.415559441
0.491334468 0.573561192 0.435294390
0.536495566 0.586590528 0.441366374
0.598861754 0.605186760 0.465781450
0.660088718 0.614800453 0.477545470
0.747501493 0.637191713 0.510309577
0.843010664 0.672106564 0.549652457
0.544718564 0.696014822 0.502846241
0.560405016 0.700568974 0.503984571
0.586211205 0.701960623 0.512713373
0.619987190 0.713346064 0.531941712
0.662998021 0.722327352 0.544844806
0.722707033 0.730170727 0.554965496
0.788488090 0.743453264 0.576091051
0.871473789 0.777482450 0.630739808
0.680202484 0.833649576 0.640227497
0.684376776 0.838962436 0.640607297
0.698038816 0.838456750 0.648450255
0.721062660 0.844022632 0.651106536
0.756609857 0.849968612 0.659329534
0.803288877 0.854016602 0.674762607
0.858317673 0.868058205 0.701581180
0.923212767 0.879569888 0.733333528
0.256166995 0.173181564 0.440733850
0.278178304 0.179127246 0.438710004
0.328273386 0.190512285 0.440607548
0.395192623 0.202909574 0.440227926
0.470588267 0.225680187 0.443010569
0.554711998 0.251233459 0.447312027
0.649841845 0.281973302 0.462618530
0.767488837 0.333585978 0.496267945
0.268058002 0.208601832 0.433649540
0.290449262 0.219228253 0.424161553
0.330297530 0.222643986 0.430613458
0.396331280 0.233902827 0.431625515
0.472612143 0.251865804 0.440733761
0.555597723 0.277419299 0.445540786
0.651865959 0.302719831 0.461733252
0.765591204 0.357368827 0.504617393
0.296267986 0.276534081 0.435926646
0.313092649 0.287666202 0.440606892
0.355724365 0.286780268 0.442378551
0.411891192 0.296141982 0.443769842
0.488804370 0.310309917 0.449209452
0.570904493 0.327387482 0.460215271
0.667931676 0.355471164 0.473371446
0.775458574 0.407843173 0.510183334
0.332953990 0.364958972 0.452498257
0.345856637 0.367109627 0.450727463
0.380771577 0.368880272 0.451866090
0.439468563 0.376217633 0.453763545
0.516508818 0.391524285 0.469070017
0.595446110 0.405818909 0.476154178
0.686148286 0.434029192 0.496900558
0.790765285 0.488931000 0.537887454
0.382289380 0.469829202 0.476533741
0.400758952 0.476027936 0.482985526
0.433269978 0.477798909 0.484503239
0.479443192 0.480202287 0.489689827
0.549146414 0.492726386 0.500316381
0.626692057 0.510562837 0.509930253
0.711954474 0.532447696 0.532827258
0.815180182 0.578494728 0.575711370
0.467805177 0.590512276 0.529411733
0.478431553 0.591903925 0.530170739
0.502213776 0.598102570 0.530170679
0.548892856 0.602530122 0.537761033
0.608728468 0.615306973 0.551170468
0.674257040 0.628463209 0.567236006
0.754964948 0.648703337 0.590764999
0.840733528 0.682605743 0.627324343
0.557748258 0.701834559 0.586717129
0.561163962 0.706388593 0.583554864
0.585831642 0.710436463 0.583934367
0.621125877 0.716381907 0.596584558
0.671347380 0.727640510 0.613029838
0.735231042 0.748134017 0.636053085
0.799873471 0.757368565 0.657684863
0.875775039 0.785958111 0.690575242
0.683238149 0.831751823 0.690828323
0.690069497 0.837571323 0.695762038
0.705755711 0.839089036 0.700822294
0.730296969 0.843390286 0.708791852
0.766856194 0.857684851 0.723339736
0.809867442 0.862745225 0.734851360
0.856419921 0.869449854 0.752055585
0.916508496 0.888045788 0.783174992
0.300821990 0.206704661 0.628209591
0.324478000 0.208349273 0.621631682
0.376470745 0.220493242 0.622390807
0.447311789 0.233775824 0.628336370
0.530044317 0.258064806 0.624288559
0.622011244 0.284250557 0.627071440
0.723972082 0.329537988 0.641872406
0.822896600 0.373054624 0.650474370
0.307273984 0.241239682 0.624034941
0.329158783 0.239342541 0.615433156
0.376850277 0.249462232 0.617710412
0.449841797 0.261986017 0.621884763
0.531182706 0.285009474 0.629095554
0.628083348 0.312713623 0.632637322
0.723592520 0.350284517 0.640354156
0.822390854 0.397343636 0.650094867
0.323845893 0.311575055 0.626691461
0.345983505 0.309424162 0.626438797
0.393548101 0.321062654 0.619734466
0.460594445 0.330170631 0.623655677
0.539658308 0.346362978 0.625932753
0.639595211 0.371410728 0.637697697
0.732068360 0.404301196 0.644022763
0.827956617 0.445034891 0.655534446
0.356610000 0.401518255 0.631245911
0.376091063 0.403036028 0.628336549
0.414041817 0.407843441 0.628589153
0.485262603 0.419228286 0.631372571
0.565464675 0.434155822 0.638709724
0.647691488 0.452877998 0.645667553
0.743073881 0.481973618 0.655154586
0.830360413 0.517014802 0.664516091
0.413535655 0.513093174 0.644149542
0.428083390 0.513725340 0.646173239
0.452751368 0.515623033 0.645287812
0.507273614 0.518785536 0.644908369
0.585072875 0.531688690 0.646805763
0.666160703 0.548134387 0.663756967
0.753447354 0.570904195 0.674762607
0.843643606 0.597975791 0.690954804
0.498798460 0.630486846 0.677419245
0.506641209 0.636812270 0.681087792
0.527134597 0.639595151 0.675395489
0.569765866 0.638709605 0.679443479
0.624794543 0.641492605 0.685641766
0.695635557 0.651865780 0.689942837
0.775837839 0.669576466 0.707020998
0.855913877 0.694496870 0.723719299
0.588108957 0.753953040 0.716634929
0.599999964 0.748766243 0.715875626
0.614421368 0.749145806 0.720050573
0.647817731 0.756609857 0.721821368
0.691334367 0.755977213 0.730676830
0.752435267 0.765338480 0.741049945
0.808728278 0.777103007 0.751296401
0.885009527 0.797469616 0.778114796
0.692093611 0.851486623 0.759898603
0.690954864 0.857305467 0.773054838
0.708665490 0.852751434 0.772801816
0.733459771 0.859329641 0.783175230
0.769512773 0.860847414 0.790006399
0.817710519 0.872359455 0.809614003
0.868564069 0.883744359 0.825806141
0.919291615 0.901201785 0.860847414
