Assets/Resources/EldamarStudio/100 Horror LUTs Pack/LUTs/cube/Amnesia LUT.cube
LUT_3D_SIZE 8
DOMAIN_MIN 0.000000 0.000000 0.000000
DOMAIN_MAX 0.903226 0.903226 0.903226
0.047059000 0.000000000 0.000000000
0.067805447 0.004301451 0.007843000
0.108159095 0.012523904 0.021125998
0.153067634 0.023023643 0.025806289
0.211511806 0.051613189 0.053130992
0.287792742 0.084123738 0.078304999
0.397596270 0.124478281 0.104237705
0.571916580 0.167488977 0.143959656
0.061606452 0.036812000 0.012523999
0.075268999 0.033650000 0.022770001
0.115243092 0.045414094 0.027830549
0.159013182 0.064642541 0.041872449
0.217077896 0.086527541 0.060847547
0.291334301 0.113219351 0.082985476
0.397975802 0.151423022 0.111701541
0.572042704 0.190891683 0.146869242
0.085515901 0.106514998 0.051612996
0.095256448 0.100190096 0.049335998
0.119924091 0.111195087 0.051612996
0.164958745 0.119417638 0.062619001
0.222390994 0.142567903 0.085389197
0.302214086 0.165971100 0.104111090
0.415559560 0.205945671 0.132447794
0.601517618 0.254016429 0.162681967
0.103605002 0.174952641 0.085768647
0.107020639 0.184820086 0.081720643
0.135230646 0.190638721 0.096394897
0.179380000 0.197343275 0.098671995
0.238456830 0.220493644 0.111574829
0.318532348 0.244275987 0.135483995
0.440354556 0.286021650 0.154838577
0.620493591 0.343832910 0.193295255
0.094750188 0.284250200 0.130676985
0.105376445 0.290828615 0.133965984
0.146489084 0.292726368 0.135483995
0.199620187 0.298671752 0.144212380
0.267678559 0.311448365 0.157242388
0.354964912 0.342441618 0.169512734
0.489816517 0.394433767 0.195698902
0.665274799 0.455914199 0.234788358
0.068817265 0.438330472 0.172295988
0.098545261 0.442251474 0.178873733
0.163314462 0.444781810 0.187855989
0.241872281 0.457811445 0.199620470
0.326628715 0.474636197 0.207589984
0.422390968 0.491081715 0.233016729
0.552688003 0.528779328 0.249841720
0.718659282 0.589120805 0.310309529
0.102466546 0.644908547 0.263630271
0.144971356 0.647944093 0.266034305
0.219481364 0.651106834 0.282985479
0.317647189 0.657179177 0.287792534
0.413535744 0.667046428 0.307273746
0.521948218 0.679190099 0.329412013
0.636052847 0.695256591 0.374952525
0.765970767 0.728779554 0.432890505
0.386843324 0.838456750 0.476786405
0.404806912 0.841998875 0.485894531
0.442631125 0.841872454 0.482732117
0.506261766 0.846299767 0.503984749
0.574446440 0.850600600 0.528020382
0.667425454 0.859961689 0.556989312
0.750411034 0.870461762 0.585451901
0.841239393 0.877672434 0.629854202
0.058823999 0.000000000 0.028589547
0.067425996 0.000758999 0.025806095
0.104617454 0.016824547 0.037950549
0.148007289 0.037950546 0.058696996
0.204806834 0.062239446 0.077925347
0.285768479 0.097406536 0.106894538
0.388108552 0.126754984 0.129538253
0.570271850 0.164073139 0.165211692
0.059203450 0.040734001 0.030487094
0.080328546 0.041492999 0.046173096
0.109297641 0.053636644 0.054016192
0.148766279 0.066919543 0.069323443
0.206830993 0.091713995 0.090449445
0.283870727 0.120556280 0.115243092
0.395572126 0.146869034 0.135484010
0.570777833 0.192536071 0.166983008
0.082732551 0.099431098 0.064516544
0.096394993 0.109297641 0.080708094
0.120303541 0.104490638 0.077925548
0.159772187 0.120935827 0.084882744
0.219228193 0.143326998 0.103731729
0.297912538 0.164705634 0.124478184
0.411511838 0.204301387 0.153447181
0.594054103 0.254269540 0.184186891
0.088931449 0.178873926 0.107653543
0.104617447 0.184440628 0.107273996
0.137507632 0.186717525 0.114358090
0.175458282 0.195698991 0.120682992
0.234534830 0.215686545 0.127134547
0.313472539 0.243517086 0.146868929
0.444022834 0.286021620 0.170651376
0.629222035 0.343579888 0.211258560
0.090195999 0.282226533 0.144465551
0.106894352 0.288551629 0.145224631
0.145224646 0.293231815 0.149019733
0.200506091 0.302214205 0.160910636
0.257178754 0.315875828 0.173181176
0.351423353 0.342821181 0.182036743
0.489057451 0.392789453 0.212144181
0.671726465 0.455407828 0.254016340
0.056799717 0.437191725 0.194181189
0.094244197 0.440480649 0.198355719
0.155344635 0.440860212 0.200379372
0.233522996 0.455534548 0.210626289
0.322454363 0.470714718 0.220872983
0.420113683 0.483491659 0.236812010
0.550790727 0.526375890 0.263757288
0.717141151 0.588235199 0.333586544
0.095129542 0.641366124 0.290196002
0.139911532 0.646299839 0.287286520
0.217710555 0.650727272 0.291967005
0.315370202 0.659076691 0.306135207
0.418595940 0.667299151 0.328526199
0.525616705 0.679316521 0.350031555
0.643136799 0.704870284 0.389627010
0.768500566 0.732068419 0.445160985
0.385198712 0.836306036 0.480834663
0.398861170 0.839468896 0.496773928
0.445920467 0.839215815 0.505882084
0.502593100 0.842757881 0.517267466
0.581530750 0.851612747 0.535357237
0.668311119 0.856040478 0.562428713
0.754079401 0.863757014 0.595951676
0.844528556 0.875395238 0.635673344
0.055661093 0.003922001 0.078305095
0.068184994 0.011385452 0.080708101
0.111322001 0.021126000 0.093231998
0.153194353 0.047817901 0.101075090
0.202024087 0.069702998 0.116634890
0.283364981 0.101454735 0.141050100
0.396078467 0.129285097 0.172169283
0.573307514 0.149525568 0.208475798
0.063503996 0.040734001 0.081467092
0.081087641 0.052498098 0.085009553
0.109677091 0.057558548 0.093990996
0.156736091 0.076407447 0.113219447
0.213156089 0.095888637 0.126881897
0.283111960 0.124478184 0.144845083
0.394054323 0.153574005 0.179253384
0.579253435 0.181530356 0.218722224
0.076154098 0.107274093 0.100189999
0.088931449 0.106514998 0.105249643
0.129285082 0.122960091 0.126122996
0.169260100 0.130803093 0.126502454
0.223150089 0.148007289 0.146489277
0.297532976 0.174952745 0.165591434
0.413915277 0.200379387 0.191903993
0.599746883 0.243137240 0.230486900
0.095256351 0.188361645 0.140164196
0.103858449 0.188361749 0.144086093
0.143832639 0.197722629 0.155471534
0.185325548 0.202403635 0.161417097
0.240481094 0.218848646 0.169512749
0.320050359 0.246679276 0.191524431
0.447564542 0.286147743 0.211764753
0.629981160 0.336116195 0.252498537
0.093485005 0.292852283 0.184819892
0.108538546 0.292852283 0.187602639
0.145730197 0.296774298 0.190259293
0.199746981 0.303732097 0.192663088
0.264642566 0.318659186 0.205945283
0.352941275 0.345983565 0.225932822
0.492220372 0.393674672 0.253763169
0.672991753 0.456925929 0.293358654
0.039468888 0.445414364 0.240607083
0.082985461 0.444528461 0.243769720
0.153574005 0.451612860 0.239974722
0.233775914 0.458191007 0.252498627
0.325490385 0.473118007 0.259962171
0.417836547 0.489184469 0.273118466
0.551170170 0.530676544 0.307653368
0.718532503 0.592283189 0.367235899
0.082352728 0.643263638 0.318279654
0.133586541 0.644655108 0.328652978
0.215306938 0.652118921 0.339531541
0.314610898 0.660341501 0.344592124
0.416824728 0.662997961 0.361290574
0.525616646 0.678304851 0.388235271
0.640100896 0.697533488 0.417330831
0.767868340 0.733206868 0.480202287
0.396457940 0.839595377 0.511321723
0.412017822 0.841493011 0.518026590
0.447944283 0.839848459 0.534598231
0.511321664 0.845034599 0.543073952
0.584819555 0.850221217 0.560910463
0.663630307 0.856040478 0.579380155
0.753826559 0.864642620 0.611005425
0.843263626 0.878937602 0.651359856
0.058823999 0.006198998 0.139025643
0.076027900 0.016065547 0.137761086
0.110436089 0.028589645 0.140543729
0.157494992 0.046552639 0.148007289
0.208348989 0.072359443 0.170271829
0.281593740 0.103731737 0.198102474
0.394813210 0.125489995 0.234914556
0.579759598 0.142314643 0.281087995
0.069703095 0.056040451 0.140417635
0.077545896 0.061480351 0.138393179
0.116761193 0.065401636 0.150284186
0.153447181 0.076660283 0.154585734
0.211005732 0.099810444 0.171410188
0.285009265 0.125743344 0.199620366
0.399873435 0.152435258 0.236432657
0.581404090 0.168880254 0.286147922
0.083871000 0.110815734 0.159392729
0.090069897 0.120176733 0.163946718
0.132068530 0.121694833 0.175458178
0.169639647 0.133080095 0.178873733
0.222011641 0.153067753 0.194560632
0.299810290 0.174193636 0.218342990
0.425174028 0.202909291 0.251359880
0.605059862 0.223529443 0.295003355
0.090195999 0.183934286 0.188994616
0.100316100 0.192663074 0.187476531
0.140290990 0.202024087 0.202529728
0.185579002 0.222011641 0.218089640
0.245161191 0.231372729 0.220746174
0.321189076 0.250980616 0.239215627
0.458823502 0.286527306 0.277040005
0.640480459 0.330929637 0.319038421
0.085515901 0.294117540 0.242504820
0.098039098 0.295129359 0.245540738
0.144591659 0.305376291 0.242758095
0.200506076 0.316255480 0.250980645
0.270082355 0.323972166 0.260721266
0.367109239 0.354585379 0.279190630
0.501960874 0.394433767 0.309550732
0.676280618 0.451866150 0.359139562
0.013662009 0.443390191 0.292346627
0.047944464 0.444908202 0.295003384
0.136369094 0.452751279 0.296268016
0.226565525 0.461353838 0.305629641
0.322074652 0.480202019 0.321442127
0.427956849 0.495509475 0.340038002
0.555850387 0.535736680 0.367362291
0.721695065 0.594054401 0.422264308
0.056799468 0.642631292 0.385958195
0.111701377 0.650474250 0.384946346
0.204048038 0.649968207 0.397723198
0.307020843 0.661100507 0.404427528
0.415180266 0.670588195 0.419987470
0.525616646 0.685009539 0.442125082
0.639974594 0.702593207 0.471853167
0.775964558 0.736748636 0.539025664
0.395825356 0.835673392 0.557874441
0.409487605 0.837191522 0.559519112
0.453763366 0.840101063 0.575964510
0.510056794 0.845287919 0.581024706
0.587729216 0.846805751 0.592283189
0.665654600 0.855534434 0.616318464
0.753194153 0.865148783 0.648070693
0.846805692 0.879443526 0.685009181
0.057937995 0.021125805 0.214548185
0.076786898 0.027830547 0.218848735
0.115875997 0.037571099 0.223909184
0.165717840 0.059962351 0.223150000
0.220872998 0.082985193 0.237191558
0.289689988 0.108791992 0.261480182
0.403162539 0.128526196 0.301328450
0.582922399 0.141049802 0.368880153
0.069829196 0.068437733 0.224414736
0.090954997 0.073750995 0.222770646
0.122201189 0.080328546 0.225932732
0.168500990 0.090449437 0.232257828
0.224920988 0.108412541 0.244402379
0.289816290 0.130803093 0.261859506
0.410879463 0.151676357 0.312460184
0.591650605 0.168880254 0.375837892
0.078431189 0.130044192 0.238077179
0.088931344 0.130423650 0.236052841
0.130043983 0.137128294 0.237950265
0.169892192 0.145730302 0.246299833
0.230993077 0.156609997 0.256799370
0.307779998 0.176217377 0.277545929
0.432764173 0.204554185 0.320809543
0.614674330 0.223909080 0.383808017
0.082859159 0.204047635 0.265022010
0.093738355 0.211891636 0.262998253
0.132953644 0.213789091 0.269829512
0.189627096 0.220746174 0.277925193
0.246553183 0.236812010 0.286021799
0.335736662 0.254522294 0.309930295
0.467425913 0.280202359 0.354079813
0.647817552 0.320429802 0.399620801
0.066919811 0.295762360 0.298165560
0.094497450 0.307526827 0.307273716
0.137255013 0.309297949 0.307779968
0.200126633 0.326122731 0.319797814
0.290322572 0.353067547 0.349146187
0.385072440 0.367109358 0.359771907
0.518026650 0.397596657 0.388867438
0.695382595 0.449842006 0.438582987
0.000379548 0.449715018 0.369133413
0.024541276 0.451612651 0.372928828
0.121694997 0.458570540 0.371790260
0.214421183 0.474256635 0.386211127
0.323972374 0.492852926 0.400126368
0.435420722 0.508412004 0.416065902
0.574067235 0.542947233 0.448830009
0.728779316 0.596457720 0.504364192
0.036432739 0.651992440 0.460088462
0.078051642 0.649209082 0.463504225
0.190638736 0.657558560 0.473497540
0.299304098 0.666287541 0.481720120
0.416698456 0.674636483 0.495256364
0.528652787 0.687033057 0.516255736
0.646173298 0.702213585 0.539025962
0.777482331 0.743832648 0.597090721
0.386843324 0.834787786 0.612776577
0.405059934 0.838582993 0.611764789
0.444528580 0.838330269 0.620619655
0.510183275 0.843896270 0.627324581
0.583681047 0.847564578 0.643263578
0.671853065 0.859582245 0.663124621
0.758127630 0.867425740 0.686147809
0.849715173 0.878937602 0.717900157
0.039469007 0.035294000 0.326755226
0.073750809 0.039468542 0.329538465
0.123339638 0.055661097 0.335989714
0.185325727 0.068944000 0.341555834
0.247058719 0.089690447 0.347880930
0.322707206 0.111574732 0.358001202
0.413156271 0.135863259 0.385325998
0.598608255 0.141176000 0.464263201
0.050601013 0.082352810 0.333712906
0.075395003 0.086021282 0.331941664
0.123086810 0.090449348 0.334471703
0.183934376 0.102213636 0.338772655
0.244908363 0.115876094 0.345603824
0.322833717 0.135863349 0.363440901
0.414674282 0.152308643 0.391777337
0.607716441 0.170524538 0.467299253
0.038583271 0.144086093 0.351170450
0.070841007 0.151549742 0.346109897
0.118785456 0.154333100 0.350284696
0.184313729 0.156609908 0.349652439
0.253636986 0.170778006 0.364326119
0.330550194 0.185958356 0.377988428
0.434535205 0.205186576 0.410879463
0.622264326 0.228210017 0.487539440
0.017331174 0.228589281 0.362934530
0.045161285 0.225806624 0.365717888
0.113978714 0.229348376 0.372549057
0.185199544 0.239974722 0.384313434
0.269323260 0.248197362 0.393168986
0.350158215 0.263377637 0.408222705
0.476913065 0.285388917 0.438962549
0.660214782 0.326755106 0.514357984
0.002403808 0.333079934 0.404427439
0.014927269 0.331688464 0.407969922
0.099177718 0.338519752 0.416318625
0.186717451 0.341682613 0.421758562
0.289943129 0.356230378 0.437824130
0.392789453 0.375331908 0.457432121
0.530044019 0.400759369 0.487539440
0.698418736 0.450727433 0.546489656
0.000000000 0.465654463 0.452118725
0.003542452 0.463124663 0.461227030
0.087918997 0.469449461 0.465148747
0.201644540 0.483238220 0.482099563
0.328272939 0.503605008 0.496268481
0.459709227 0.538140178 0.532321453
0.599493980 0.560531497 0.554585755
0.746615708 0.598735034 0.591397643
0.026312526 0.649841845 0.554585695
0.070082001 0.650600731 0.556483448
0.181404278 0.656799555 0.562681675
0.300189972 0.670462012 0.573687792
0.418722391 0.682732522 0.588741243
0.538266778 0.700695872 0.605059803
0.651486337 0.714863539 0.621505260
0.789120674 0.752941251 0.666286945
0.386843532 0.833902478 0.674256623
0.406704634 0.838330269 0.678937256
0.439848274 0.839848459 0.685515463
0.502973020 0.845540881 0.689563453
0.582163095 0.850853860 0.701581120
0.666793227 0.863124609 0.712586701
0.759266138 0.869702756 0.735357046
0.857558310 0.881593764 0.768374085
0.000000000 0.051612996 0.511574566
0.011764561 0.054522451 0.516381800
0.112081096 0.060341999 0.510942519
0.205819279 0.070588000 0.520556450
0.300569385 0.082353003 0.523213029
0.388361722 0.100948557 0.529538214
0.498165816 0.117647000 0.549145877
0.617330670 0.140290707 0.576976597
0.000000000 0.093738258 0.508538842
0.004933716 0.092472993 0.511827826
0.107273653 0.100316092 0.515622616
0.203162432 0.110183448 0.519544542
0.300695896 0.116381831 0.530803204
0.394560099 0.132068366 0.536495626
0.498545259 0.151170000 0.555091560
0.628842592 0.169639245 0.582416058
0.003289004 0.160404906 0.523719251
0.003542452 0.160910830 0.521694899
0.081087813 0.166097105 0.530423641
0.192536473 0.174699187 0.526502550
0.300569355 0.182542995 0.537381411
0.397723019 0.195445836 0.548893154
0.507653534 0.212270901 0.562428832
0.639595091 0.231752276 0.592283487
0.005060354 0.248956278 0.537507892
0.001138644 0.248956278 0.542947531
0.014295088 0.255281389 0.539279163
0.179379985 0.260214925 0.547501802
0.299304008 0.268058002 0.560404539
0.413029552 0.284123898 0.570019007
0.531815529 0.303352654 0.586590946
0.676786840 0.332953632 0.621631980
0.004554189 0.371790349 0.571789801
0.001517999 0.372928649 0.571030855
0.001518195 0.374067068 0.571789801
0.143706545 0.375458628 0.585705161
0.294876367 0.384440184 0.589373589
0.431119561 0.398734897 0.608981729
0.557748139 0.419354856 0.620619774
0.701581240 0.457178980 0.652245224
0.000000000 0.520050704 0.617204309
0.001517999 0.524098933 0.616065621
0.009614456 0.518912375 0.621505558
0.185452014 0.522833705 0.625553548
0.329158455 0.532321334 0.629854262
0.468437701 0.541935503 0.642757535
0.605059803 0.567235768 0.662365556
0.750284612 0.606198609 0.695888519
0.066033803 0.674636245 0.671979785
0.095635459 0.668437541 0.664642572
0.190512285 0.676154256 0.670841277
0.305123478 0.679063916 0.677925587
0.426059663 0.695002913 0.689689815
0.552435040 0.712207317 0.706514955
0.682479262 0.740670264 0.739025474
0.803668499 0.761416674 0.757115841
0.389752895 0.840860009 0.746868610
0.408728659 0.839341938 0.752940893
0.449461997 0.843137324 0.759392619
0.507273674 0.847691417 0.762681842
0.580897927 0.854902029 0.773307860
0.674256742 0.865781188 0.786590755
0.768627167 0.872106135 0.801644504
0.862112522 0.891334593 0.821758330
0.000000000 0.056293666 0.745856524
0.005819156 0.049462389 0.742315054
0.076787114 0.060974080 0.745856524
0.233396426 0.068057984 0.750917196
0.359013170 0.075900987 0.755218029
0.476027697 0.097280234 0.756483436
0.601770937 0.127261251 0.765085101
0.724984407 0.165211603 0.772042751
0.002530012 0.109550983 0.752687812
0.001644715 0.104364231 0.747121692
0.051865749 0.103099257 0.746489346
0.231752172 0.111701161 0.750411153
0.360278010 0.124351367 0.754079401
0.483997375 0.141808897 0.763440371
0.603921831 0.169386238 0.769639134
0.730929554 0.210246459 0.777355671
0.004427750 0.188488066 0.756483197
0.002656736 0.184313625 0.747628093
0.001518005 0.184060991 0.751423180
0.208349109 0.192156732 0.753953218
0.344592124 0.204933658 0.755850613
0.479949176 0.221758336 0.765464544
0.604807079 0.245540753 0.770524979
0.734851480 0.283744633 0.785072565
0.000000000 0.284756273 0.753320396
0.001265167 0.287665814 0.757115483
0.000379550 0.291587621 0.762049317
0.180897906 0.298924446 0.769133210
0.340796828 0.312333763 0.766982794
0.482732326 0.326122522 0.773307562
0.615812480 0.355091631 0.784313560
0.748513341 0.390512258 0.792030275
0.004301164 0.423908830 0.769765735
0.004554283 0.421125829 0.779000461
0.004301255 0.415053725 0.773687422
0.119038545 0.420493275 0.775584817
0.338899374 0.432005167 0.779886425
0.486148179 0.454016477 0.789626837
0.630993187 0.477925330 0.796204805
0.756862760 0.508792162 0.804048002
0.000000000 0.578621268 0.787729561
0.001265167 0.578367949 0.791018426
0.060215123 0.579253435 0.795192897
0.224161610 0.579127014 0.797849357
0.368753940 0.579126775 0.796078444
0.517520487 0.593422174 0.804174542
0.654522657 0.616698265 0.812649965
0.782795489 0.634788096 0.824541450
0.220746353 0.729917943 0.823023319
0.246678963 0.730297506 0.819101870
0.302846074 0.728652596 0.824035406
0.396078140 0.734471679 0.823782563
0.490069717 0.739152431 0.836179614
0.592915952 0.744718254 0.834787905
0.705502987 0.755218029 0.841619313
0.827956736 0.777862310 0.858949900
0.458949804 0.860720634 0.854269564
0.455281615 0.861353576 0.862238824
0.487666160 0.860594571 0.852877617
0.544212222 0.861353636 0.859708786
0.607210398 0.864769101 0.862365603
0.692979038 0.873624504 0.871094584
0.780265629 0.883491635 0.881341040
0.883111537 0.899809718 0.893358767
