Assets/Resources/EldamarStudio/100 Horror LUTs Pack/LUTs/cube/Amnesia LUT.cube
LUT_3D_SIZE 5
DOMAIN_MIN 0.000000 0.000000 0.000000
DOMAIN_MAX 0.903226 0.903226 0.903226
0.047059000 0.000000000 0.000000000
0.096773989 0.011765000 0.017330708
0.185704991 0.037950993 0.037950993
0.310056984 0.092219993 0.084376998
0.571916580 0.167488977 0.143959656
0.079443701 0.086021699 0.035673700
0.113092996 0.094497278 0.042504996
0.194560274 0.117394112 0.069955997
0.325743258 0.161922693 0.103351988
0.593927562 0.234534934 0.156356826
0.094750419 0.226312816 0.110562563
0.125869289 0.232511118 0.111194983
0.219101399 0.252498806 0.132827401
0.364073515 0.300948799 0.155977279
0.643263817 0.396457791 0.206704825
0.059708871 0.483871102 0.189500123
0.156989411 0.493358672 0.199493989
0.295762390 0.512966216 0.213535711
0.475016266 0.542694330 0.248197123
0.731056333 0.622517169 0.334598035
0.386843324 0.838456750 0.476786405
0.431246042 0.842125475 0.485515416
0.538772821 0.848324001 0.516634762
0.687666059 0.860720634 0.559772372
0.841239393 0.877672434 0.629854202
0.057179291 0.003922000 0.067678705
0.096141987 0.017330708 0.074256696
0.177861989 0.054016694 0.095508985
0.308412552 0.103984997 0.136748984
0.571283579 0.155597836 0.197849691
0.076154292 0.086021699 0.087286703
0.114104696 0.101707697 0.105629697
0.188361406 0.119038403 0.120682694
0.317267239 0.169386402 0.152435243
0.588361502 0.228968978 0.211258650
0.094117582 0.229222119 0.156989411
0.132067993 0.237444818 0.159266114
0.214168102 0.254775494 0.167742118
0.364452958 0.300316393 0.203415409
0.646173298 0.395445913 0.259076566
0.025300428 0.489690125 0.236558944
0.139405400 0.494623810 0.238456532
0.291587532 0.510056973 0.262365401
0.470208377 0.539785206 0.291840404
0.733712852 0.622390985 0.379380077
0.392409712 0.838836312 0.503731668
0.432257891 0.839848459 0.522960067
0.547375202 0.846046686 0.543833077
0.690954804 0.858064175 0.579380155
0.842251480 0.879696488 0.647311568
0.062112574 0.011765000 0.175964400
0.103984989 0.034029417 0.177229822
0.185072407 0.064769410 0.191017985
0.303605378 0.110815868 0.235546976
0.581151247 0.144465417 0.321821809
0.076407172 0.104617409 0.193928108
0.112460412 0.113472693 0.193928123
0.192282990 0.130170822 0.211258397
0.319923818 0.169386417 0.245920405
0.595825434 0.209234402 0.334345400
0.090195999 0.238076970 0.249209404
0.129791275 0.246932104 0.245287821
0.234155819 0.279949784 0.279317200
0.379127115 0.308159351 0.303225666
0.663504243 0.381404221 0.368374348
0.001012128 0.492979109 0.343453377
0.096394442 0.500822544 0.355218232
0.282985568 0.519797385 0.368627101
0.476027966 0.548892856 0.397469968
0.736875296 0.634914517 0.485642016
0.389373332 0.837824166 0.593548119
0.432384223 0.843137145 0.590006292
0.542061508 0.844402134 0.610499918
0.691967130 0.860088408 0.645161390
0.849082708 0.880328596 0.704237521
0.026312876 0.038330127 0.365212262
0.109171569 0.054648709 0.372928232
0.223782241 0.081087999 0.379506677
0.361163974 0.116634876 0.397470117
0.603162706 0.139911160 0.491334826
0.018089587 0.128905833 0.376470536
0.100568995 0.139658689 0.384693235
0.223023400 0.154332832 0.390639096
0.367995113 0.178873688 0.413155973
0.624035239 0.211258397 0.506767511
0.002656582 0.283238798 0.424667656
0.060594570 0.282859087 0.425680101
0.232511267 0.297659814 0.440986812
0.409361094 0.324098527 0.464895368
0.679190159 0.381151080 0.545983374
0.000000000 0.515243411 0.499683350
0.024162140 0.519797504 0.513219416
0.270967811 0.539405406 0.533459961
0.513346076 0.590765297 0.582922280
0.758254051 0.639468789 0.631878436
0.387096524 0.838456750 0.693485200
0.437318087 0.841113329 0.697659969
0.539025664 0.849588990 0.713725150
0.691587389 0.865654767 0.739404917
0.857305229 0.882858574 0.779506564
0.000000000 0.056293666 0.745856524
0.025933273 0.060214985 0.745856524
0.298418790 0.069323152 0.749778509
0.507400095 0.102845967 0.754965425
0.724984407 0.165211603 0.772042751
0.002656833 0.166223809 0.754712224
0.002277292 0.162555695 0.752688110
0.286907077 0.174699560 0.750410974
0.512333989 0.204553932 0.764452696
0.731562197 0.258697182 0.779506445
0.001265006 0.351423204 0.757495463
0.000632584 0.342188388 0.770018995
0.253257364 0.359898627 0.772549033
0.516381741 0.392663032 0.787096441
0.752435267 0.443136990 0.797470033
0.001012128 0.617584109 0.791777432
0.068058334 0.616698325 0.801770866
0.330296993 0.617584109 0.800758958
0.566350341 0.638203919 0.815306664
0.792156637 0.671220601 0.838203907
0.458949804 0.860720634 0.854269564
0.481087834 0.861100495 0.859202862
0.571031213 0.864642560 0.862112641
0.715243578 0.876407623 0.869829416
0.883111537 0.899809718 0.893358767
