Assets/Resources/EldamarStudio/100 Horror LUTs Pack/LUTs/cube/Amnesia LUT.cube
DOMAIN_MIN 0 0 0
DOMAIN_MAX 1 1 1
LUT_3D_SIZE 32
0.047059000 0.000000000 0.000000000
0.053130999 0.000000000 0.000000000
0.059202999 0.000000000 0.002150774
0.064010158 0.001265161 0.005186839
0.067805447 0.004301451 0.007843000
0.076913066 0.007337064 0.007843000
0.086021319 0.010373322 0.012902999
0.096773989 0.011765000 0.017330708
0.108159095 0.012523904 0.021125998
0.117267489 0.015559518 0.027197996
0.132194862 0.018595871 0.021632001
0.141303003 0.019608000 0.021631740
0.153067634 0.023023643 0.025806289
0.173560992 0.031879000 0.031879000
0.185704991 0.037950993 0.037950993
0.197849602 0.044022996 0.044022996
0.211511806 0.051613189 0.053130992
0.227956548 0.060721405 0.064009987
0.249208987 0.069829039 0.070082009
0.267678708 0.076154009 0.073371358
0.287792742 0.084123738 0.078304999
0.310056984 0.092219993 0.084376998
0.334597975 0.098671496 0.090575501
0.364958823 0.113851905 0.099683911
0.397596270 0.124478281 0.104237705
0.433775961 0.133586302 0.110056661
0.474763125 0.143200129 0.119670995
0.523339808 0.155344889 0.131814986
0.571916580 0.167488977 0.143959656
0.622264564 0.181404173 0.157874733
0.676534176 0.196584597 0.170398206
0.737254977 0.211765006 0.176470995
0.053130999 0.000000000 0.000000000
0.053130999 0.000000000 0.000000000
0.059202999 0.004300999 0.004300999
0.065274999 0.006072000 0.006957613
0.069702610 0.006957613 0.007843000
0.070841067 0.007337064 0.007843000
0.085009322 0.010373322 0.012902999
0.098418698 0.013409289 0.018974997
0.110436387 0.016318612 0.022643613
0.117267489 0.021631518 0.024161613
0.132194862 0.024667870 0.024414612
0.143327251 0.027704258 0.022643613
0.153826743 0.029854741 0.025806289
0.170524657 0.035420612 0.032131970
0.182669371 0.047058605 0.040986605
0.197217181 0.050727420 0.047058612
0.213029996 0.057685189 0.053130999
0.230992943 0.066793405 0.060974382
0.252245396 0.075901046 0.067046404
0.265148431 0.087792717 0.078684390
0.284756333 0.092473038 0.082479738
0.308032721 0.099304125 0.086401254
0.334597975 0.107653365 0.090701982
0.364958823 0.119923905 0.102719516
0.397596270 0.132826999 0.109550610
0.433775961 0.142694280 0.116128653
0.474257052 0.151296392 0.124730989
0.520303428 0.158380508 0.131814986
0.566224039 0.173181430 0.146615803
0.621505320 0.185704961 0.150284857
0.679569781 0.199620202 0.160531357
0.740290642 0.214800611 0.179506615
0.054901998 0.006451774 0.002150774
0.057052772 0.008601999 0.004300999
0.061353773 0.006451773 0.004300999
0.067425773 0.009993774 0.009108162
0.073118225 0.010373225 0.010373225
0.074889004 0.012143999 0.012143999
0.081088088 0.018975321 0.012902999
0.096268050 0.022011708 0.015686000
0.111448318 0.024288548 0.020746000
0.121694997 0.027577553 0.023529002
0.132194862 0.030739870 0.027830549
0.147375256 0.037824251 0.029854288
0.156736344 0.041113354 0.032257773
0.169386029 0.044402063 0.038077258
0.179633051 0.052751537 0.043390345
0.196331799 0.059835579 0.047943994
0.213029996 0.064389773 0.055534188
0.230613559 0.072865568 0.062239219
0.248830006 0.081973597 0.068311237
0.268184781 0.091713950 0.075648233
0.287918776 0.100063220 0.083997704
0.309424132 0.106388256 0.087286867
0.334724486 0.116508767 0.090575501
0.367109597 0.124604769 0.100695774
0.395446032 0.132447764 0.108285762
0.433017045 0.144591764 0.117140748
0.473751128 0.154964998 0.127008066
0.517647147 0.164325997 0.134724766
0.569639444 0.176217586 0.144465581
0.629348457 0.191397950 0.159645513
0.688551545 0.204806909 0.165970802
0.745477557 0.219986990 0.188994005
0.057431996 0.019354999 0.006452000
0.055408064 0.021125773 0.004427614
0.061859839 0.021125773 0.006578161
0.069196999 0.018090161 0.012902999
0.074889451 0.018469613 0.014421388
0.077925064 0.021505225 0.013915226
0.087286487 0.027071480 0.016951161
0.097027279 0.032890547 0.019481160
0.110689089 0.036685839 0.019481160
0.124857478 0.037697840 0.024541166
0.132953703 0.039342128 0.029348742
0.146110088 0.046426252 0.034661900
0.161290467 0.052118998 0.038836159
0.170904160 0.055534191 0.044655126
0.181024402 0.062618829 0.047691256
0.197343588 0.068690993 0.053257350
0.211764827 0.074762993 0.053004190
0.230613381 0.080834992 0.062744983
0.247058839 0.089310817 0.070082009
0.267805219 0.098418817 0.076154009
0.289689988 0.104363993 0.082226478
0.313978255 0.111448124 0.088298991
0.335736632 0.123339824 0.091967143
0.366856545 0.131688833 0.102213912
0.398229122 0.140291154 0.106514998
0.431246281 0.146616146 0.115369976
0.473751128 0.158254221 0.125996053
0.516255856 0.169639304 0.133586451
0.570651412 0.183048487 0.147754818
0.625300467 0.195699170 0.157874733
0.693358541 0.212650582 0.173054591
0.746489644 0.228589326 0.193548009
0.061606452 0.036812000 0.012523999
0.055154711 0.037571095 0.003795161
0.058190770 0.037191547 0.003668773
0.066919610 0.036685709 0.011385385
0.075268999 0.033650000 0.022770001
0.078304611 0.036685612 0.013662389
0.091081321 0.040480867 0.017584000
0.103857994 0.043137383 0.023276545
0.115243092 0.045414094 0.027830549
0.124351479 0.051486097 0.027830550
0.131688550 0.052877549 0.031119872
0.143832803 0.058570251 0.036559448
0.159013182 0.064642541 0.041872449
0.173940539 0.064895570 0.047944512
0.186084539 0.073750958 0.051106673
0.201897591 0.080075994 0.057811350
0.217077896 0.086527541 0.060847547
0.228336096 0.092599541 0.058190979
0.249588534 0.098671563 0.070335008
0.270461380 0.107526906 0.076913103
0.291334301 0.113219351 0.082985476
0.313219249 0.118279122 0.089057989
0.338013977 0.127514005 0.095129989
0.366097480 0.139658108 0.106767997
0.397975802 0.151423022 0.111701541
0.433396429 0.161163986 0.115369976
0.474889576 0.168121517 0.127514049
0.517394304 0.177229896 0.130550444
0.572042704 0.190891683 0.146869242
0.626312196 0.204300866 0.161796302
0.677799106 0.219102040 0.173434138
0.741555572 0.240354449 0.188614547
0.052498065 0.048955999 0.018595999
0.064642839 0.055028770 0.012523999
0.066793092 0.053637095 0.014547934
0.072106004 0.053637095 0.022643998
0.078304611 0.054902382 0.031878386
0.081340998 0.051865995 0.016698001
0.091966935 0.059962250 0.022770384
0.101327993 0.063124932 0.028083708
0.109171093 0.062112868 0.030866936
0.118279487 0.057558876 0.030866940
0.133206859 0.066539995 0.036685932
0.146869197 0.072105929 0.044275735
0.162049577 0.077545643 0.049462065
0.176976934 0.080075964 0.050980128
0.189120933 0.083112344 0.057052895
0.198861748 0.087160125 0.057811871
0.215560183 0.093738191 0.062365934
0.234155849 0.101707928 0.067046344
0.252624929 0.107779950 0.076407015
0.271093935 0.116635300 0.082985714
0.289816469 0.123845927 0.089057863
0.309551060 0.130423725 0.095129997
0.331941992 0.139658004 0.101201996
0.368374825 0.151802808 0.107273996
0.401012182 0.161669567 0.121189274
0.434408545 0.171283722 0.125490263
0.472359210 0.180391997 0.128020063
0.526501894 0.192409515 0.142694443
0.574319601 0.201517895 0.143074006
0.633269489 0.213408887 0.155471250
0.690954804 0.228209645 0.171410531
0.744591951 0.249462053 0.191650942
0.066160642 0.066160642 0.024667999
0.068184778 0.067172773 0.023655996
0.076028004 0.068944000 0.021884996
0.079443485 0.068817161 0.025933161
0.084250644 0.071473673 0.033143774
0.089437254 0.070588067 0.030866386
0.100063317 0.075142637 0.030866642
0.108918317 0.079317316 0.036685608
0.115749411 0.080076218 0.040480677
0.124857806 0.079316996 0.044022679
0.134724542 0.080202445 0.047311999
0.145856932 0.087286316 0.053383991
0.161163971 0.093358316 0.059708960
0.177735955 0.097786024 0.061100643
0.192156672 0.100822411 0.062618829
0.204301283 0.106261991 0.066287190
0.216572195 0.109424509 0.069449678
0.235167980 0.115876310 0.074889250
0.253384024 0.121948332 0.080202371
0.274130344 0.130803034 0.089057714
0.298039049 0.139911413 0.093232259
0.320177257 0.146615997 0.098671675
0.343074292 0.154332340 0.104996689
0.369892478 0.166477129 0.115876324
0.404047936 0.178621307 0.121948317
0.443010628 0.187982306 0.133586302
0.482985377 0.197090581 0.136116058
0.531561852 0.207210302 0.143200427
0.585958242 0.219228461 0.152688324
0.639848173 0.231878370 0.161543503
0.700316191 0.245666906 0.177609295
0.755217969 0.263630331 0.197217003
0.079443701 0.086021699 0.035673700
0.074510001 0.086021699 0.032384705
0.082099997 0.087665990 0.035673700
0.086907156 0.083871156 0.035673700
0.090322994 0.086147860 0.038330443
0.096395001 0.089942701 0.041366059
0.104237996 0.090069644 0.039468609
0.113092996 0.094497278 0.042504996
0.119924091 0.094497278 0.047058802
0.129032478 0.096647508 0.054016419
0.138140127 0.098418698 0.055534579
0.150537252 0.100821987 0.057305705
0.159645647 0.105755635 0.063377701
0.176597312 0.111574732 0.067172997
0.194560274 0.117394112 0.069955997
0.205692604 0.122833692 0.074003898
0.223908991 0.127387509 0.077039897
0.238836423 0.131056443 0.082985409
0.255028725 0.137128711 0.087033682
0.276028097 0.144339070 0.092346653
0.299430728 0.151802436 0.099304251
0.325743258 0.161922693 0.103351988
0.350284964 0.169512689 0.109677009
0.377609015 0.181657091 0.121821798
0.410372972 0.190512687 0.127767280
0.447943985 0.204047993 0.133839265
0.493738115 0.214168414 0.142188132
0.540417135 0.224414945 0.146363169
0.593927562 0.234534934 0.156356826
0.643769801 0.250095129 0.169007182
0.701454997 0.266160369 0.183301970
0.759139717 0.282099694 0.200000003
0.085515901 0.106514998 0.051612996
0.080202617 0.106514998 0.044782095
0.080834910 0.107147418 0.045035001
0.091461159 0.108918257 0.048576999
0.095256448 0.100190096 0.049335998
0.101707906 0.107400253 0.052751161
0.109298088 0.107906319 0.048197098
0.113092996 0.108159475 0.047817707
0.119924091 0.111195087 0.051612996
0.129032478 0.111195087 0.060721386
0.138899222 0.113345861 0.060341999
0.152055353 0.116381928 0.061859999
0.164958745 0.119417638 0.062619001
0.174320087 0.122454025 0.068691000
0.194054410 0.130550414 0.074763000
0.208728805 0.137254998 0.080076091
0.222390994 0.142567903 0.085389197
0.246679142 0.146236092 0.088425420
0.259329975 0.152308851 0.094370916
0.279823363 0.159140021 0.099177748
0.302214086 0.165971100 0.104111090
0.325743258 0.174067095 0.109424196
0.350411475 0.185958087 0.115622669
0.381404102 0.196837097 0.127134711
0.415559560 0.205945671 0.132447794
0.457052380 0.216192380 0.136875078
0.499557227 0.230866209 0.143959090
0.547627926 0.243010983 0.150537789
0.601517618 0.254016429 0.162681967
0.652371645 0.266160399 0.174320087
0.702213764 0.285895169 0.188615069
0.759899020 0.304111183 0.200759098
0.082479522 0.124731012 0.069829002
0.088551521 0.124731012 0.060721390
0.083238229 0.122580789 0.056040719
0.083870843 0.123592988 0.054649007
0.095256448 0.127514496 0.055408008
0.104364067 0.121442497 0.061480004
0.115876161 0.123592660 0.057305492
0.119544774 0.126375720 0.057811491
0.119924106 0.129411876 0.063757002
0.129032493 0.132447496 0.069829009
0.141049996 0.132447496 0.067299396
0.155091748 0.134598270 0.070461996
0.167995140 0.137634337 0.074004009
0.177356482 0.140670046 0.074763007
0.189500481 0.143706426 0.080835007
0.209234789 0.149399012 0.084503815
0.225427002 0.155471012 0.089184485
0.240607142 0.161416501 0.094497427
0.264895976 0.167488515 0.097533055
0.285895377 0.176343888 0.106261887
0.307147741 0.185325742 0.113219485
0.328526616 0.195319504 0.118279621
0.350411475 0.207210496 0.121695451
0.383807898 0.213282496 0.130803064
0.417077750 0.224162072 0.135483801
0.458949953 0.237444788 0.139911473
0.508665621 0.252118617 0.146995485
0.551170349 0.264263391 0.159139484
0.604553998 0.279064298 0.173687324
0.657432020 0.290449232 0.183427975
0.711448669 0.304364204 0.191650733
0.772042990 0.328399986 0.203795493
0.085262865 0.137127995 0.073497869
0.085515864 0.140037864 0.070208512
0.089437097 0.142188638 0.065401904
0.089689873 0.141935870 0.067425705
0.098545127 0.143959865 0.072738543
0.110183060 0.142947868 0.076280870
0.111700997 0.141935870 0.072232865
0.120682955 0.144592017 0.072738871
0.127261087 0.147628099 0.077292867
0.140670478 0.150664270 0.079063877
0.146869004 0.150790751 0.082226738
0.159012973 0.154838741 0.081214868
0.169892415 0.157621875 0.084377222
0.177735955 0.158886701 0.086147994
0.192536116 0.161922410 0.086906999
0.209487721 0.167362601 0.092978999
0.230234176 0.174952552 0.098039120
0.247185439 0.182415858 0.104743689
0.264642984 0.188487887 0.112333901
0.286148369 0.197343230 0.112586871
0.307400733 0.206451610 0.121315733
0.331689000 0.214547858 0.126375869
0.358886600 0.222770378 0.127640992
0.386717021 0.231625736 0.133965969
0.424667954 0.239974439 0.140796870
0.463504136 0.252877772 0.147248656
0.510057092 0.267551988 0.155344814
0.557368875 0.279696763 0.165084988
0.613156438 0.291840851 0.169259831
0.666286945 0.310310185 0.185198933
0.715243340 0.326628715 0.198481590
0.763820112 0.346868992 0.212650120
0.096394733 0.153320506 0.078557998
0.086274996 0.158380643 0.077545866
0.092473224 0.159392759 0.082606018
0.096773997 0.162429154 0.074510083
0.102845997 0.162808701 0.077166259
0.111700997 0.161163986 0.081846938
0.119797252 0.165211976 0.085388988
0.123086251 0.165211976 0.084250703
0.131815076 0.167868346 0.087666161
0.144465491 0.170904741 0.086401001
0.150916994 0.171031252 0.089310862
0.163061261 0.173054978 0.090322994
0.176343903 0.176849991 0.092599995
0.185326025 0.177355990 0.096521221
0.196964070 0.182162821 0.098291993
0.214547604 0.191650853 0.099050984
0.231246173 0.197723240 0.106641188
0.251486570 0.204427496 0.111954249
0.269450009 0.207716525 0.116887979
0.288172096 0.216571867 0.123719253
0.313219428 0.223782510 0.127514243
0.335736960 0.231752247 0.133459985
0.364073247 0.238203749 0.133586466
0.393295437 0.251107156 0.137760743
0.431752086 0.262239218 0.145857006
0.472612172 0.274130166 0.154711962
0.516129017 0.288804501 0.164452806
0.564706087 0.300948888 0.173560783
0.611132443 0.317140967 0.183427826
0.668817103 0.331056148 0.191777408
0.720050156 0.350917161 0.210373104
0.764831960 0.369133502 0.227830499
0.103605002 0.174952641 0.085768647
0.094117738 0.178747624 0.085768647
0.093864866 0.181657284 0.089943126
0.101707645 0.181783795 0.095762484
0.107020639 0.184820086 0.081720643
0.111574642 0.183301687 0.084756643
0.119038321 0.185578644 0.089690000
0.127640635 0.188361645 0.091840707
0.135230646 0.190638721 0.096394897
0.144718483 0.194434121 0.094876513
0.153193995 0.193421990 0.097659864
0.165338248 0.195446014 0.099810347
0.179380000 0.197343275 0.098671995
0.194307417 0.197596237 0.104237996
0.204301417 0.202782631 0.106388219
0.220619991 0.211385235 0.108158998
0.238456830 0.220493644 0.111574829
0.255534619 0.226565629 0.120050631
0.277292997 0.227577657 0.121062659
0.296900630 0.235926986 0.128273353
0.318532348 0.244275987 0.135483995
0.345856756 0.252372265 0.141555995
0.370777965 0.258823752 0.142061993
0.403162807 0.271979898 0.146109745
0.440354556 0.286021650 0.154838577
0.485136211 0.298418641 0.161922619
0.527134359 0.314105123 0.173560709
0.573814094 0.327514261 0.182669088
0.620493591 0.343832910 0.193295255
0.670714676 0.361416459 0.207716405
0.725742757 0.377482265 0.222517580
0.774319649 0.395698994 0.243770003
0.097786032 0.202024072 0.095382966
0.098292030 0.202024072 0.095635995
0.100442745 0.204174772 0.097280227
0.104237974 0.205945998 0.100063130
0.110563032 0.206578493 0.102973036
0.110563032 0.209614098 0.096901029
0.114610970 0.209614038 0.097659677
0.123339668 0.209867075 0.097659677
0.132954001 0.211891130 0.097406961
0.145098016 0.220999509 0.106514581
0.157242000 0.218975157 0.110056899
0.171410248 0.219987288 0.112839803
0.185199037 0.221885026 0.113598645
0.197849020 0.222138047 0.111575030
0.209993795 0.225173667 0.111575030
0.226439029 0.230107635 0.113472223
0.244908378 0.236432984 0.118279383
0.263883948 0.242504984 0.124099024
0.288172036 0.248577014 0.130171046
0.309930414 0.257432342 0.135737032
0.331688762 0.266540319 0.141809031
0.354965150 0.276660264 0.147627994
0.382416010 0.288804978 0.153826505
0.418595850 0.298039109 0.160025045
0.455534607 0.311448336 0.170398578
0.497027248 0.325996071 0.178874314
0.544592083 0.338393122 0.182416067
0.584060431 0.356609881 0.191524446
0.634155393 0.372169822 0.200632825
0.687033296 0.389120996 0.215053946
0.740417123 0.407337040 0.234914616
0.788994014 0.425553054 0.256167024
0.094750419 0.226312816 0.110562563
0.100822419 0.226312816 0.113598950
0.103478640 0.228463039 0.111701205
0.105249576 0.230233967 0.111194983
0.108032674 0.230992973 0.112586662
0.119671412 0.236938447 0.118153393
0.114610769 0.232384384 0.112080753
0.125869289 0.232511118 0.111194983
0.141555667 0.235673815 0.112080760
0.151170015 0.242251873 0.118659355
0.163313985 0.245540529 0.124857821
0.177482247 0.247311652 0.126249403
0.190385640 0.249209389 0.125743181
0.200885415 0.249462426 0.123719022
0.219101399 0.252498806 0.132827401
0.231246173 0.253131211 0.130423591
0.249209598 0.258950204 0.134724587
0.269196957 0.266792983 0.141935557
0.288172036 0.272864968 0.145351410
0.312460721 0.281720340 0.145857409
0.338014126 0.290828735 0.150917411
0.364073515 0.300948799 0.155977279
0.391524374 0.313092977 0.159898505
0.421885222 0.325236976 0.169006899
0.462618947 0.336748958 0.177482694
0.503858328 0.353700459 0.187223300
0.548133790 0.371031165 0.194054052
0.593168855 0.380897880 0.197596446
0.643263817 0.396457791 0.206704825
0.693105757 0.413409382 0.221125945
0.744718552 0.431625783 0.242884174
0.798102438 0.449841797 0.271347404
0.091714196 0.255407989 0.118532605
0.102593184 0.253004789 0.126375377
0.102213964 0.253004789 0.118658990
0.103478812 0.257052600 0.119923964
0.104617260 0.259709060 0.122580603
0.114737265 0.263756782 0.120556869
0.121315964 0.264515787 0.128526151
0.126754895 0.260088503 0.124098502
0.143453091 0.261606693 0.124098502
0.152561501 0.266033977 0.128526166
0.169386610 0.266792923 0.129791200
0.179506332 0.269829035 0.135863185
0.193927646 0.272865415 0.136622190
0.206072032 0.274383545 0.135357022
0.222137794 0.277419388 0.140164405
0.240353778 0.278051972 0.142061993
0.254016370 0.282606155 0.145098001
0.274130344 0.291081578 0.152308807
0.295888811 0.297153592 0.153573960
0.319670916 0.306008935 0.156230196
0.345856935 0.315116823 0.161922932
0.374193430 0.325237244 0.168500990
0.403288960 0.337508053 0.172928303
0.438203812 0.351928800 0.177482709
0.468564540 0.364073366 0.186590508
0.514737546 0.377609432 0.194307536
0.561289907 0.396331787 0.202909604
0.608728290 0.411132157 0.211638242
0.652371585 0.425553411 0.212776810
0.703984737 0.444275767 0.230739921
0.753194153 0.462239385 0.252877772
0.804807007 0.478937596 0.281720787
0.094750188 0.284250200 0.130676985
0.102339998 0.284250587 0.136748999
0.102213584 0.284882993 0.136875376
0.104237974 0.286148161 0.125996217
0.105376445 0.290828615 0.133965984
0.112207063 0.291587263 0.134724990
0.123339444 0.293611377 0.133712873
0.129791290 0.295003086 0.136242524
0.146489084 0.292726368 0.135483995
0.158633485 0.295003086 0.139278904
0.171916544 0.293611377 0.139405385
0.187096924 0.295635641 0.140417367
0.199620187 0.298671752 0.144212380
0.215180025 0.301708013 0.144212380
0.230360404 0.304743946 0.145983607
0.247944370 0.306894183 0.151170000
0.267678559 0.311448365 0.157242388
0.282858789 0.319291770 0.163820624
0.304490775 0.324478358 0.162934989
0.327261001 0.330297351 0.162681639
0.354964912 0.342441618 0.169512734
0.385325462 0.352561355 0.177608982
0.416698188 0.364706010 0.183807492
0.450347990 0.378494650 0.189626902
0.489816517 0.394433767 0.195698902
0.524351954 0.405186832 0.206198171
0.573434472 0.422644168 0.212523937
0.618975043 0.444908172 0.222644180
0.665274799 0.455914199 0.234788358
0.714610517 0.473118365 0.239848301
0.766223729 0.493485183 0.268563956
0.815433204 0.509297967 0.298418999
0.100063428 0.313472122 0.145098001
0.102466621 0.315875918 0.151929364
0.101581000 0.319544345 0.149020001
0.101201586 0.321315289 0.147754818
0.111068964 0.324351579 0.140164524
0.115116626 0.321821183 0.151549578
0.126375318 0.323845446 0.149145991
0.138519570 0.326249242 0.146615848
0.147121668 0.329158962 0.144591600
0.168374062 0.329158962 0.150664374
0.177988455 0.326881647 0.151549995
0.191144839 0.327893794 0.151549995
0.208096147 0.330930054 0.152814969
0.225806147 0.333965659 0.153320968
0.240606993 0.337001950 0.154079974
0.258823603 0.340037882 0.160025328
0.278558165 0.345477283 0.168753788
0.299810559 0.353320539 0.177735999
0.314990222 0.356356949 0.174699605
0.337001532 0.360025346 0.174193189
0.362681448 0.368121266 0.176217303
0.393801242 0.382922113 0.183680981
0.430233985 0.395066112 0.189753011
0.461606801 0.407210767 0.198355496
0.502719820 0.422644138 0.206451580
0.548007488 0.439848185 0.213408977
0.587476552 0.449462503 0.227071062
0.626944959 0.479063511 0.233776286
0.673118114 0.491334617 0.253131181
0.723339260 0.503858507 0.268058509
0.776470304 0.522707105 0.281973541
0.828083575 0.540923119 0.321441978
0.090955019 0.349905014 0.145098016
0.090955019 0.349905014 0.166350380
0.095508985 0.354459018 0.158128008
0.100568995 0.356483161 0.150284857
0.108032562 0.354712427 0.152308568
0.123212948 0.357748061 0.155344963
0.129790962 0.360278308 0.154079661
0.141555697 0.361670017 0.155724019
0.155977070 0.362681955 0.159518987
0.171410471 0.365591079 0.159772024
0.181024864 0.365591079 0.162934929
0.194181249 0.367362291 0.163694039
0.211638629 0.370398670 0.165971026
0.231878951 0.373434931 0.171537012
0.244022965 0.376470536 0.177609012
0.263630778 0.379506826 0.180771828
0.284630209 0.384060949 0.184313744
0.305882573 0.389753401 0.186843634
0.327135056 0.392789036 0.183808044
0.353447348 0.398608774 0.191903651
0.378367931 0.402530193 0.192409739
0.405186266 0.410626143 0.192409843
0.436306000 0.425426990 0.195825040
0.472738832 0.437570989 0.201897845
0.513219535 0.449715614 0.212776989
0.560151935 0.467931956 0.220240310
0.608729005 0.488931000 0.227071092
0.648197353 0.501075029 0.248323441
0.690322518 0.522706807 0.268310845
0.735104024 0.539152265 0.287792474
0.782289386 0.556356609 0.308538973
0.831119955 0.577355981 0.339658022
0.079063989 0.394687116 0.159013376
0.081846640 0.397469759 0.163567021
0.088298410 0.393168747 0.169765636
0.096268155 0.396710753 0.162934646
0.104617350 0.398608387 0.164452553
0.117393926 0.399240822 0.167488948
0.132574305 0.402277052 0.167995006
0.144339055 0.400379747 0.168501079
0.160278365 0.399620742 0.173434719
0.177482516 0.404680610 0.177482724
0.197975889 0.410373122 0.180391878
0.211132258 0.410373122 0.181404024
0.227450997 0.412650377 0.181404024
0.246805713 0.415433735 0.183681011
0.264010340 0.415939689 0.184693009
0.283365160 0.423782289 0.193168819
0.304617584 0.427577555 0.196964204
0.327134937 0.431752145 0.200000137
0.352688372 0.434787780 0.201264992
0.371157378 0.440607458 0.212144017
0.402277201 0.446679741 0.209867120
0.431246072 0.453637093 0.207084239
0.461606354 0.466919720 0.210372865
0.492726207 0.479063749 0.219101816
0.531435668 0.495762318 0.229728013
0.573434293 0.508918703 0.241872340
0.618848860 0.526122808 0.251107007
0.658317745 0.540544093 0.267804801
0.705755949 0.555344880 0.289057195
0.753826439 0.572801828 0.312080771
0.796963513 0.588867605 0.333206952
0.834155619 0.608222723 0.357874721
0.068817265 0.438330472 0.172295988
0.068058364 0.443263829 0.175332084
0.084882773 0.443643212 0.174319729
0.090195999 0.438836038 0.176849723
0.098545261 0.442251474 0.178873733
0.113725260 0.442251474 0.183427930
0.135990053 0.444781780 0.182036728
0.147881016 0.447817743 0.185325727
0.163314462 0.444781810 0.187855989
0.181530744 0.449715465 0.191650987
0.198861614 0.453890204 0.192915857
0.225553244 0.457811445 0.199620470
0.241872281 0.457811445 0.199620470
0.260341495 0.460341722 0.199367434
0.280202538 0.463630706 0.197722733
0.300822496 0.467046380 0.203035787
0.326628715 0.474636197 0.207589984
0.348387122 0.478684455 0.210246831
0.371916741 0.482985258 0.213282794
0.394686759 0.485009462 0.222770482
0.422390968 0.491081715 0.233016729
0.453763872 0.497153699 0.227957115
0.483364940 0.507400215 0.230992943
0.515496552 0.517773449 0.236558884
0.552688003 0.528779328 0.249841720
