Assets/Resources/EldamarStudio/100 Horror LUTs Pack/LUTs/cube/Anelde LUT.cube
LUT_3D_SIZE 8
DOMAIN_MIN 0.000000 0.000000 0.000000
DOMAIN_MAX 0.903226 0.903226 0.903226
0.058823999 0.058823999 0.027450999
0.098292544 0.062744997 0.024667548
0.236559182 0.048703101 0.031373002
0.382289290 0.024667645 0.018469356
0.522580564 0.047691189 0.007843000
0.679569721 0.072485738 0.004048004
0.835800529 0.121189274 0.010120288
0.982162774 0.167615786 0.056546628
0.097912997 0.110056639 0.028716456
0.137887090 0.112839997 0.022390550
0.244022727 0.116002098 0.027577909
0.371284187 0.121442191 0.006325098
0.517900169 0.130423725 0.000758999
0.669070482 0.153447285 0.000000000
0.818722546 0.176597103 0.012903257
0.972549081 0.216065973 0.053510342
0.232004985 0.240480989 0.003922000
0.257685184 0.257052183 0.000000000
0.290702105 0.229601189 0.000759096
0.379253358 0.221758187 0.001517998
0.511575103 0.234155387 0.000759097
0.667299509 0.261606574 0.003794997
0.829601288 0.279696405 0.018595703
0.974952340 0.305502981 0.066034153
0.329032272 0.363187641 0.000000000
0.359266520 0.362428635 0.001517999
0.397596747 0.358760267 0.002783356
0.424920917 0.338013649 0.001138644
0.521062374 0.340797007 0.011006001
0.667678833 0.359772116 0.009360998
0.821885169 0.384060651 0.028842628
0.974193215 0.406071901 0.096900798
0.459202975 0.499683350 0.000000000
0.483365178 0.508032799 0.000758999
0.517141163 0.498165548 0.000000000
0.566350460 0.502087176 0.010499546
0.598355591 0.478558183 0.000000000
0.679949284 0.476281196 0.028842285
0.839848280 0.501454949 0.063757181
0.979253590 0.521062374 0.129158795
0.607210457 0.658064485 0.001897740
0.620113909 0.668564022 0.000000000
0.656799674 0.665781498 0.000759096
0.703605473 0.668690860 0.004807100
0.750664353 0.669829488 0.000000000
0.793168724 0.642378449 0.048070718
0.863377750 0.620240450 0.130677015
0.983427942 0.641366303 0.204554349
0.738140285 0.805439293 0.088045537
0.743200719 0.807083964 0.099177375
0.775585294 0.806198359 0.108159438
0.814927280 0.811638534 0.122454174
0.865022361 0.812523723 0.139025539
0.904237568 0.799747050 0.172169551
0.934851229 0.771157563 0.215180248
0.979506850 0.748260558 0.271094263
0.859202802 0.931055963 0.369639218
0.864010274 0.934092343 0.389626652
0.883871078 0.933459640 0.391144663
0.918911755 0.927134633 0.399367213
0.960910678 0.929664671 0.409993559
0.993674815 0.930423558 0.428209871
0.993801296 0.924857318 0.455407828
0.998734832 0.882605970 0.482099354
0.070967548 0.067425996 0.050474547
0.102213547 0.063124545 0.046932094
0.224414632 0.059582904 0.062618993
0.330929637 0.089310899 0.072106197
0.469575912 0.111195087 0.077419095
0.626059353 0.131562084 0.093232095
0.801644266 0.153194249 0.105629094
0.962555468 0.192536071 0.137381539
0.084629998 0.098671995 0.052498098
0.121821538 0.106515095 0.057558548
0.211891547 0.122580536 0.062239446
0.322707266 0.133966088 0.070461899
0.460215002 0.154712349 0.078304999
0.620619714 0.177355826 0.095129736
0.784313977 0.195825100 0.100189805
0.950537145 0.225300252 0.125743344
0.182036728 0.212271094 0.054016195
0.216192201 0.218216553 0.059456091
0.255028635 0.203668296 0.062998548
0.342315167 0.209867090 0.075142086
0.475015700 0.237697631 0.083364740
0.633270085 0.259708941 0.089690544
0.804807186 0.288931102 0.114610836
0.959266305 0.312460452 0.139531612
0.301834643 0.331182480 0.056672834
0.327007920 0.340290934 0.059835542
0.366477191 0.336749196 0.060215089
0.397090375 0.321821302 0.075901188
0.486654013 0.325743169 0.091967545
0.639089406 0.353573531 0.096774451
0.801518142 0.381656826 0.109803826
0.950790465 0.406451464 0.146489531
0.444655538 0.482985526 0.054142904
0.456673175 0.488045275 0.040986639
0.491081387 0.480455637 0.048576996
0.538519919 0.489183843 0.051233448
0.569006920 0.467552185 0.084250361
0.656799793 0.463250995 0.112839997
0.821505308 0.496774197 0.127514184
0.965718031 0.520303249 0.180645168
0.583048940 0.643896461 0.042251632
0.596205294 0.645287752 0.044655439
0.634029031 0.652877808 0.049209435
0.685135841 0.649715245 0.056293726
0.736369491 0.652245581 0.068690814
0.768374443 0.626945019 0.122959822
0.844022751 0.614927292 0.172928527
0.973687828 0.640101373 0.239595413
0.721188962 0.789120555 0.155850351
0.726628542 0.787729263 0.157242343
0.752941072 0.787729263 0.145603746
0.798355341 0.792409956 0.160784289
0.847564936 0.790512562 0.172043011
0.886401296 0.786843479 0.194940016
0.920809567 0.761796296 0.235547110
0.968627572 0.737634122 0.289437175
0.837570846 0.922327340 0.386843473
0.857178807 0.919417977 0.384819210
0.865527868 0.915749550 0.383554459
0.900442660 0.917773366 0.386084586
0.943579853 0.918532431 0.406325012
0.985578597 0.923971951 0.429474860
0.997469962 0.914231658 0.456166655
0.998355269 0.882479370 0.488551408
0.083871000 0.071347095 0.143326998
0.126502544 0.068690546 0.153953552
0.233649909 0.068943895 0.150411099
0.345604092 0.089310996 0.143832654
0.464642555 0.120682992 0.145730197
0.611511707 0.162049279 0.170271739
0.770524800 0.208475798 0.212144375
0.950663745 0.243896335 0.234029174
0.119544551 0.125110447 0.119797193
0.158381015 0.138772994 0.130423650
0.217078105 0.142314643 0.135230646
0.330676973 0.155597553 0.133966088
0.455660939 0.184946090 0.159519449
0.597849369 0.217457533 0.186084747
0.768500566 0.237065241 0.207969829
0.935230672 0.271094114 0.231372640
0.137887180 0.222644001 0.123087004
0.177103102 0.236812115 0.132953539
0.260974169 0.239089102 0.153574005
0.340543747 0.240227744 0.154332995
0.459835351 0.259456187 0.179507002
0.615306616 0.280455202 0.191904098
0.782542527 0.308665186 0.212144196
0.952308595 0.343580008 0.248576924
0.270335078 0.349904746 0.148007289
0.310815662 0.348766267 0.170398548
0.357369065 0.347501636 0.167994753
0.388235569 0.335357279 0.167235658
0.479822844 0.344718277 0.180518731
0.625679731 0.366097540 0.194433823
0.791397810 0.398482263 0.216318741
0.944591880 0.430613458 0.259709179
0.409867287 0.483491272 0.185705096
0.432511300 0.488931298 0.181277648
0.473245114 0.484124094 0.184946194
0.518532336 0.486527473 0.176470637
0.560151517 0.468437463 0.192662895
0.650221467 0.475522101 0.209867194
0.809234738 0.505249858 0.235673383
0.962302446 0.535736740 0.283618003
0.572928429 0.654016674 0.209614456
0.584566534 0.652625144 0.212650537
0.614421368 0.653384268 0.207463473
0.671600223 0.653763652 0.212903187
0.728399754 0.652118921 0.219354928
0.755977392 0.632637739 0.243010730
0.839974463 0.626312673 0.275901526
0.967741549 0.653889775 0.344085634
0.699810088 0.796078265 0.280961573
0.716255307 0.801264822 0.287919104
0.749905288 0.798481941 0.295003265
0.789500117 0.801264882 0.301834553
0.839342237 0.801771045 0.304490983
0.882858872 0.797469974 0.314863801
0.918658972 0.763946712 0.341429442
0.973307908 0.750284791 0.391018212
0.840733707 0.928146720 0.475268751
0.843010783 0.929158509 0.482226133
0.868437707 0.924351811 0.485515356
0.900442600 0.924478054 0.497912943
0.943832874 0.923718870 0.500569522
0.980391979 0.928399801 0.513092756
0.998734832 0.920177162 0.536369383
0.997469962 0.888424933 0.563440561
0.122833282 0.057685357 0.273750544
0.165971085 0.057052188 0.271853000
0.234155372 0.086527549 0.258191168
0.329664260 0.099810347 0.245034978
0.468690723 0.121821634 0.242251635
0.607969761 0.151676357 0.250600994
0.782542586 0.178241640 0.279190361
0.935104370 0.255154759 0.330803216
0.156609893 0.139658526 0.235040918
0.183934286 0.152308539 0.234281838
0.232511088 0.153826550 0.236306161
0.319797724 0.160531089 0.228083730
0.445414364 0.176976264 0.234914377
0.591903746 0.204047829 0.243390173
0.760531545 0.229095832 0.282226622
0.914104700 0.301075220 0.333080292
0.162428632 0.235293821 0.247691631
0.197976172 0.235673383 0.244528726
0.276154548 0.240733832 0.236306280
0.335483849 0.248576835 0.231625274
0.452625155 0.268184632 0.248576626
0.597596288 0.293231934 0.273118287
0.758760273 0.341176659 0.318532288
0.925110638 0.383554637 0.367489010
0.190638632 0.333079904 0.196331277
0.222770542 0.335104376 0.205819279
0.288172185 0.343326837 0.227071375
0.380138904 0.354332626 0.261353284
0.465148360 0.360151649 0.264389277
0.602023780 0.383681178 0.293991029
0.764199853 0.415559560 0.324224889
0.921062589 0.455534250 0.367235720
0.334472179 0.471473396 0.239215627
0.371030837 0.480455756 0.258317292
0.421758622 0.480076194 0.281467646
0.487160176 0.474889040 0.284883082
0.535736561 0.469070196 0.293485165
0.634408534 0.485136032 0.314737469
0.796331108 0.520050406 0.351043642
0.935483575 0.562555194 0.400379688
0.517647088 0.633143723 0.329665005
0.534472048 0.635420859 0.330929577
0.569386542 0.639468789 0.331688643
0.627324462 0.640986681 0.336369365
0.692852795 0.649335682 0.340290636
0.737887323 0.632005334 0.357621640
0.822643757 0.636685610 0.392030388
0.955218136 0.672485769 0.449841827
0.661479950 0.794307292 0.393295527
0.682226360 0.787223339 0.407084107
0.702593327 0.785325587 0.401011884
0.747248530 0.786464274 0.403921485
0.810373127 0.786464274 0.411132097
0.857938170 0.791777074 0.424161643
0.888298631 0.766223788 0.440860212
0.954332352 0.758127689 0.481593877
0.815053940 0.919797838 0.563567042
0.822770357 0.916508496 0.560657859
0.837191582 0.919038653 0.556736052
0.869702399 0.920429945 0.562302113
0.913851976 0.921568632 0.574952602
0.961669505 0.922327459 0.592536092
0.993674815 0.921695113 0.604174376
0.996457815 0.899051130 0.634282231
0.175584987 0.079949193 0.431119174
0.206072196 0.089310996 0.419607848
0.271979898 0.109803811 0.412017465
0.341682166 0.136748642 0.388867825
0.468564183 0.148133993 0.383807391
0.618722498 0.154712260 0.381910145
0.784693241 0.187223285 0.395572364
0.943200409 0.253763586 0.430993199
0.199114189 0.165717736 0.388615102
0.228968903 0.176470712 0.392789185
0.277545989 0.182289645 0.385958552
0.345983535 0.188488454 0.373307824
0.450853735 0.199999914 0.363441080
0.606704831 0.206451640 0.371536940
0.775711477 0.233016923 0.380139112
0.926501751 0.282985628 0.423655987
0.227450997 0.252372116 0.377862066
0.268184900 0.269703031 0.381783903
0.313599110 0.270335168 0.368248105
0.358128101 0.280581981 0.365844280
0.458317369 0.276534110 0.359519273
0.602656901 0.297280550 0.367488921
0.775331855 0.330550283 0.403921455
0.925237060 0.391776979 0.453636914
0.210499644 0.367868543 0.372422636
0.246047080 0.373434633 0.375205278
0.312586993 0.369007200 0.373561263
0.399494082 0.383427918 0.377735615
0.485262841 0.386084497 0.376470476
0.612776697 0.410373181 0.394054174
0.766729832 0.449209630 0.436685473
0.906261504 0.506641448 0.503984630
0.254016399 0.480329186 0.327387571
0.288551986 0.483744621 0.334218711
0.343959391 0.489690006 0.341429263
0.434155494 0.505755663 0.378747642
0.544591963 0.517773569 0.433902383
0.638709784 0.520556808 0.436179578
0.781151175 0.548387051 0.472232580
0.920176983 0.591903806 0.528399646
0.402783096 0.650221467 0.365591258
0.432131648 0.648703277 0.382795542
0.493232042 0.648323834 0.416571558
0.583681285 0.653889775 0.463377804
0.664136767 0.654142976 0.471726716
0.717014313 0.648197234 0.479949176
0.811385095 0.661986351 0.519291580
0.937634170 0.698165417 0.572042704
0.616698205 0.789879560 0.504490972
0.629981101 0.792536139 0.513725281
0.670082211 0.792283356 0.538267016
0.711575150 0.793169022 0.535357118
0.778114974 0.793169022 0.540417373
0.838583052 0.797723234 0.549778342
0.875268579 0.777988613 0.555344462
0.944718480 0.782163203 0.595445991
0.788867593 0.922833800 0.658317685
0.795445800 0.923086464 0.658697128
0.814674258 0.921315610 0.661733150
0.845920324 0.925237000 0.664136648
0.887539506 0.924098670 0.669322968
0.939531922 0.926122487 0.674762905
0.978621006 0.926754773 0.692599714
0.993801355 0.909045160 0.706388593
0.215432987 0.111448735 0.600632191
0.246805787 0.119671181 0.595066369
0.313346088 0.139784828 0.593295455
0.386717260 0.156230345 0.580771446
0.474888921 0.181404248 0.559899032
0.618595481 0.180138990 0.559645414
0.789121032 0.196964025 0.553700209
0.943706334 0.268184632 0.556862712
0.234155282 0.191904083 0.569386184
0.258317292 0.194940090 0.566982746
0.315623105 0.202783093 0.570145369
0.389247239 0.214927435 0.552814364
0.470714658 0.226312265 0.542694390
0.610373020 0.221632004 0.540164471
0.771790028 0.236432374 0.538140178
0.932194889 0.291840643 0.542567492
0.280202329 0.297912717 0.552434802
0.302972883 0.304996639 0.555470943
0.342062086 0.301707715 0.557495117
0.406072021 0.306514740 0.546742320
0.476407111 0.313219368 0.541176379
0.616698265 0.314990103 0.536495984
0.779253483 0.336749107 0.548766732
0.934598565 0.399873614 0.566729724
0.266666740 0.372928649 0.542188287
0.298798412 0.371283919 0.548639953
0.360151380 0.387855619 0.535357296
0.433649361 0.408222646 0.529538333
0.501581132 0.414041549 0.535989642
0.613409162 0.416445374 0.530929983
0.769765854 0.443263799 0.540923476
0.913219452 0.505882204 0.588614762
0.222643986 0.532194912 0.538899183
0.266793340 0.532574177 0.546995580
0.342315018 0.528905809 0.538266718
0.438329995 0.522707105 0.545983315
0.551043749 0.546995819 0.561416686
0.654396176 0.551928937 0.568880260
0.778367817 0.583048761 0.587476134
0.907400131 0.629980862 0.641872346
0.324857473 0.655914187 0.493232489
0.351928830 0.657811463 0.502340257
0.409487575 0.656925857 0.509044826
0.486527711 0.667678714 0.526628435
0.597596526 0.678304672 0.575458646
0.713092983 0.683491766 0.622517407
0.804300785 0.698039472 0.637824178
0.925363481 0.728905618 0.687665880
0.481720120 0.799746573 0.522074759
0.503605306 0.799114466 0.532700658
0.558886647 0.798608184 0.554711878
0.636685550 0.794307411 0.604680240
0.728905857 0.796837270 0.653889954
0.806957781 0.796710849 0.664389729
0.849588752 0.791144550 0.669323444
0.926755071 0.803668499 0.706135154
0.724604726 0.924983859 0.685388923
0.742947340 0.927008092 0.712080896
0.766982794 0.925110698 0.718405902
0.809614182 0.921062708 0.744591951
0.856040776 0.922327518 0.758886814
0.907273650 0.923212945 0.756103694
0.954712093 0.930297017 0.769513011
0.985957921 0.911954761 0.781404257
0.257811278 0.159772292 0.784187555
0.288804531 0.167994827 0.782795548
0.346363008 0.180898279 0.778747380
0.427071303 0.194560632 0.773054838
0.517900050 0.219102174 0.760531247
0.618342757 0.242378235 0.750411034
0.795319557 0.239468262 0.745603561
0.943959296 0.279443443 0.724984050
0.266919255 0.223909095 0.757874727
0.296774507 0.228209808 0.768627286
0.350411087 0.236306250 0.759266436
0.425806522 0.247564897 0.751929402
0.510689437 0.261606455 0.746489644
0.614294529 0.281467527 0.741176069
0.782036722 0.275648296 0.736369550
0.923466027 0.306641281 0.716128826
0.313346118 0.332954109 0.753700197
0.334977627 0.340543628 0.753700256
0.386211395 0.343959361 0.748639941
0.450347871 0.346489817 0.748766661
0.533586264 0.359392554 0.744085789
0.627071440 0.374446571 0.738393426
0.789626777 0.368754208 0.739405513
0.926375628 0.408981800 0.726249218
0.336495847 0.425553620 0.740670502
0.369259953 0.440986663 0.738013625
0.426312417 0.454902202 0.735230565
0.485515565 0.458064556 0.732194841
0.558507383 0.467425436 0.726122856
0.637950778 0.472486049 0.724098742
0.780265570 0.476660520 0.726628840
0.914231300 0.514990449 0.716761291
0.328273386 0.546110153 0.741935551
0.361922979 0.551170051 0.738772869
0.426945210 0.545857191 0.739278734
0.508285940 0.560404718 0.734977841
0.600759327 0.585831404 0.727387607
0.663883865 0.593042433 0.730676532
0.779506445 0.598482072 0.726122618
0.905123174 0.631751895 0.740417302
0.312966555 0.720429957 0.739531815
0.351423025 0.720050454 0.745350838
0.416698277 0.713472486 0.742947042
0.510056973 0.711068809 0.750157773
0.617077410 0.704364359 0.746995747
0.719291270 0.716381729 0.761037111
0.808728278 0.725616455 0.759898543
0.914484322 0.753826439 0.773940563
0.426059544 0.813282847 0.673750520
0.454142988 0.806704521 0.670588553
0.497533381 0.804807305 0.677545846
0.565464914 0.803668618 0.691714227
0.647312045 0.806451559 0.714231491
0.739911437 0.815939307 0.745983481
0.833902597 0.823782265 0.788108587
0.914484382 0.829854250 0.812017322
0.627703905 0.927008331 0.712207258
0.637950599 0.939152241 0.727640748
0.667931795 0.930170357 0.736369312
0.726755142 0.932068050 0.760531187
0.791903734 0.929790795 0.794560373
0.868690729 0.929790795 0.837697327
0.927387476 0.928399801 0.847944319
0.958760202 0.925869823 0.857432067
0.320556819 0.239594772 0.928652763
0.342947662 0.245161176 0.924098790
0.390892059 0.257305533 0.928652763
0.466034442 0.272106439 0.923718929
0.550410807 0.294876635 0.918152928
0.648450732 0.326375663 0.913219750
0.756989241 0.358886898 0.914104819
0.931182802 0.378367603 0.903731763
0.333333045 0.285135865 0.925869584
0.354585350 0.294243872 0.912713766
0.401518077 0.302466333 0.914863706
0.472991467 0.318406135 0.914990366
0.554965019 0.332068175 0.913978577
0.650853693 0.358380556 0.907273769
0.756988943 0.385578632 0.896900296
0.924857497 0.398608476 0.895255923
0.389246941 0.403288901 0.913978755
0.407337159 0.406325340 0.913599014
0.445793986 0.409361154 0.909803808
0.509424388 0.418595761 0.909803987
0.583554864 0.435041040 0.908918619
0.673244774 0.450221360 0.904364109
0.768121243 0.476154149 0.900568843
0.923972070 0.487412810 0.896900654
0.472106248 0.526755214 0.902593136
0.486527503 0.529159009 0.901201606
0.516381800 0.533459663 0.902593434
0.560531020 0.539405286 0.900189936
0.627956927 0.547248304 0.897153556
0.690448880 0.557495058 0.893231988
0.773181498 0.569259763 0.892093301
0.922074676 0.571916223 0.890575349
0.469829053 0.592282951 0.907273591
0.493484885 0.605692983 0.908918321
0.543959498 0.621631742 0.898165703
0.618089557 0.654269218 0.897027016
0.673245013 0.659962058 0.890701950
0.730423689 0.666666687 0.892220020
0.799114406 0.673877180 0.889183939
0.918152988 0.679190159 0.891840637
0.496774018 0.737254560 0.908412337
0.517267585 0.734724522 0.907147288
0.563314199 0.735230803 0.902213752
0.627451181 0.732827246 0.903984547
0.700442910 0.741429031 0.893105388
0.778873980 0.770398378 0.899050891
0.824035406 0.776217401 0.897786021
0.920682907 0.776849747 0.897279739
0.486527413 0.872485757 0.896773994
0.513219416 0.872485816 0.900189936
0.551802278 0.863377452 0.896647632
0.615306735 0.861733258 0.901581407
0.688551366 0.855914056 0.894370317
0.768627286 0.845414221 0.894623578
0.852119088 0.851739526 0.895761967
0.919924021 0.857305229 0.899557292
0.616192579 0.945603609 0.851486564
0.630739570 0.946742654 0.848323703
0.656419814 0.943453550 0.854142547
0.705629230 0.943073928 0.860467970
0.758127570 0.938899636 0.868311286
0.818216264 0.938899636 0.883997440
0.884883106 0.940417230 0.904617071
0.944085836 0.945477784 0.924477756
