Assets/Resources/EldamarStudio/100 Horror LUTs Pack/LUTs/cube/Anelde LUT.cube
LUT_3D_SIZE 5
DOMAIN_MIN 0.000000 0.000000 0.000000
DOMAIN_MAX 0.903226 0.903226 0.903226
0.058823999 0.058823999 0.027450999
0.202403694 0.057811294 0.038203716
0.448576808 0.027450999 0.009108006
0.720050275 0.079570122 0.001012128
0.982162774 0.167615786 0.056546628
0.209234402 0.222264409 0.001644708
0.264136404 0.200758979 0.002277292
0.453130811 0.203035697 0.000000000
0.713852108 0.239341974 0.006831130
0.980771780 0.279696524 0.067551963
0.386464387 0.424415231 0.000000000
0.444402516 0.423782378 0.006577994
0.509424388 0.404807240 0.000632584
0.722327530 0.429348677 0.020998988
0.969639361 0.465654820 0.110056959
0.634535134 0.696521282 0.002909872
0.675521970 0.710815966 0.002277292
0.756989539 0.707906127 0.002277288
0.835673273 0.678810954 0.091587380
0.986970127 0.666666985 0.220746607
0.859202802 0.931055963 0.369639218
0.877545655 0.933712780 0.384060383
0.934850991 0.928399622 0.410752803
0.997722685 0.929411650 0.432005107
0.998734832 0.882605970 0.482099354
0.082353003 0.075142004 0.116761699
0.194939807 0.062112994 0.122327402
0.398608536 0.103352405 0.122959986
0.649715543 0.176217273 0.162934825
0.952181756 0.227956846 0.206451669
0.124224991 0.194560692 0.105629697
0.225300699 0.205692694 0.126249403
0.389500082 0.224668115 0.145224392
0.655028343 0.259961963 0.167109698
0.952814579 0.311954409 0.218469232
0.348513395 0.400885373 0.137634277
0.400252819 0.405819088 0.149146393
0.472485632 0.394686669 0.153699979
0.684123814 0.423149973 0.186084688
0.962302446 0.481973231 0.241492793
0.603035867 0.685388863 0.180012822
0.639721811 0.690322518 0.184440106
0.733839631 0.690955102 0.191524267
0.805059850 0.666792989 0.225553095
0.972295761 0.674889445 0.323592663
0.844528913 0.927134752 0.447184980
0.859076798 0.918026686 0.445287794
0.918279529 0.923213184 0.461353511
0.990765274 0.926881671 0.488045543
0.997722745 0.889183760 0.538646042
0.148387417 0.061479993 0.349145979
0.234408274 0.087286703 0.327893674
0.391650379 0.123592407 0.304743797
0.655281246 0.158001125 0.308791786
0.941682577 0.246679381 0.372169375
0.200000003 0.219355121 0.302340269
0.262492120 0.230739981 0.292220414
0.388993979 0.238962695 0.291334659
0.648703396 0.279569685 0.318153113
0.921695054 0.363693655 0.403921515
0.225553408 0.396837413 0.251739413
0.292852581 0.408349127 0.273371398
0.460341811 0.432258219 0.332194805
0.659203291 0.457811832 0.368627518
0.929158330 0.533712745 0.459329635
0.522201002 0.672612131 0.384313583
0.568247855 0.679696560 0.408981681
0.667552412 0.680708408 0.411005706
0.771537185 0.674256980 0.432005256
0.945098102 0.704237878 0.515116870
0.794307411 0.915243804 0.601770759
0.818216503 0.918279707 0.597470045
0.878052175 0.919924200 0.610878944
0.966982841 0.922833622 0.636812389
0.996204972 0.898924530 0.663883150
0.224541128 0.123592995 0.655281246
0.304997116 0.144844711 0.648703396
0.445667535 0.174952537 0.627577543
0.664136410 0.191271126 0.608222246
0.940670431 0.270714730 0.600379288
0.273876995 0.283744425 0.619987249
0.334724993 0.288298577 0.619228423
0.455154955 0.298165828 0.606324792
0.664515853 0.301834524 0.587349832
0.938646317 0.382163346 0.601391375
0.269955575 0.456166923 0.604427695
0.354079723 0.456799686 0.601391613
0.508791804 0.492472798 0.594560266
0.676913381 0.498671681 0.600505829
0.916761756 0.577861905 0.646552503
0.349146008 0.698418975 0.535737276
0.410246551 0.703226149 0.553573489
0.559139609 0.708159268 0.588614702
0.745477259 0.721948266 0.669070244
0.922580659 0.759519100 0.714484274
0.703605354 0.927514076 0.687665939
0.740164340 0.925869524 0.719417930
0.820240200 0.927766800 0.772296071
0.917646945 0.923465908 0.784187078
0.979379952 0.913978636 0.804680943
0.320556819 0.239594772 0.928652763
0.375458658 0.254016608 0.927387595
0.506894231 0.285388768 0.921442151
0.670967758 0.333206773 0.911195695
0.931182802 0.378367603 0.903731763
0.376849949 0.374952346 0.916761637
0.424541235 0.379759669 0.915116906
0.538266778 0.402403176 0.914484680
0.685136020 0.436053514 0.906388283
0.927513897 0.469196618 0.899177611
0.472992182 0.565211594 0.905882180
0.545097947 0.593674898 0.901075184
0.626565576 0.607716382 0.899177313
0.731815338 0.624035597 0.895888329
0.920682907 0.635167360 0.889310777
0.495255768 0.773181498 0.902340353
0.541302800 0.772928238 0.903731763
0.660974026 0.767741859 0.902466774
0.794560194 0.793927789 0.897533059
0.918658972 0.799114168 0.895509064
0.616192579 0.945603609 0.851486564
0.650853574 0.943453789 0.860973895
0.730550110 0.941555738 0.867172778
0.837950885 0.935610175 0.889057636
0.944085836 0.945477784 0.924477756
