Assets/Resources/EldamarStudio/100 Horror LUTs Pack/LUTs/cube/Anelde LUT.cube
DOMAIN_MIN 0 0 0
DOMAIN_MAX 1 1 1
LUT_3D_SIZE 32
0.058823999 0.058823999 0.027450999
0.061859611 0.052751228 0.024414614
0.064895771 0.053130776 0.021378774
0.075522155 0.057431996 0.020872839
0.098292544 0.062744997 0.024667548
0.131688923 0.062744997 0.033775933
0.167615637 0.062744997 0.040353999
0.202403694 0.057811294 0.038203716
0.236559182 0.048703101 0.031373002
0.272991985 0.039595477 0.031372998
0.312333852 0.030487129 0.028463129
0.347754240 0.025426744 0.023403004
0.382289290 0.024667645 0.018469356
0.418216079 0.027450999 0.015180000
0.448576808 0.027450999 0.009108006
0.486147791 0.037064992 0.007843000
0.522580564 0.047691189 0.007843000
0.558507502 0.056166992 0.007210585
0.604048014 0.062239006 0.004174971
0.641239703 0.068311006 0.006704647
0.679569721 0.072485738 0.004048004
0.720050275 0.079570122 0.001012128
0.762175500 0.094623983 0.004048480
0.795572698 0.106767997 0.007084098
0.835800529 0.121189274 0.010120288
0.875521958 0.132194981 0.014547991
0.911954105 0.138773069 0.021631999
0.948386848 0.147881448 0.033775985
0.982162774 0.167615786 0.056546628
0.997849226 0.183554962 0.077292942
1.000000000 0.200126573 0.099936560
1.000000000 0.227450997 0.133332998
0.055787612 0.055787612 0.024414614
0.061859611 0.058823999 0.036559388
0.067046002 0.054901998 0.024921000
0.084882930 0.057431996 0.022138000
0.114990547 0.063124545 0.026185839
0.137760922 0.065781385 0.024667546
0.166097313 0.070841387 0.041366253
0.209234700 0.066919677 0.041239683
0.249462485 0.059329484 0.035167709
0.279064000 0.054775864 0.037444990
0.309677750 0.051486515 0.022897132
0.348766625 0.050727643 0.023402739
0.383048683 0.050854161 0.022643613
0.414927423 0.051739775 0.020746000
0.442504823 0.051739775 0.009108006
0.477672607 0.056546770 0.012649995
0.518026710 0.064389773 0.010879003
0.557242513 0.072612368 0.006578009
0.597976029 0.083491392 0.001138581
0.637950361 0.086780742 0.000885614
0.674636066 0.090702035 0.001771000
0.712966383 0.096773997 0.000000000
0.753447354 0.109803624 0.001265118
0.795572698 0.121948384 0.010120485
0.831245959 0.129538372 0.013156095
0.870841205 0.142441645 0.020366948
0.909424424 0.153953329 0.030740384
0.948386848 0.163061053 0.042884372
0.984819591 0.169513270 0.055028360
0.995572388 0.190638930 0.074257009
0.995698988 0.208728582 0.096015342
1.000000000 0.227450997 0.127260998
0.065654770 0.067805000 0.019228000
0.069576003 0.064389609 0.024921000
0.075648546 0.069576226 0.032764226
0.086780541 0.065274999 0.025174161
0.117900088 0.068184547 0.029222228
0.148007706 0.074762933 0.026185840
0.172169313 0.073877230 0.025806094
0.201138392 0.079949647 0.034155451
0.245414421 0.076407447 0.029601321
0.276913524 0.076154478 0.032637704
0.309297979 0.073118672 0.022517357
0.343706727 0.072106540 0.017457226
0.380771637 0.072739124 0.018089646
0.412144303 0.071727000 0.017077776
0.441366404 0.071727000 0.012523786
0.480202585 0.078684762 0.006198770
0.518153191 0.083238572 0.007716583
0.559392929 0.088677987 0.003542000
0.598861814 0.097786009 0.000506000
0.634029150 0.105882354 0.000000000
0.673497438 0.110815987 0.000000000
0.709171116 0.115116768 0.000000000
0.746742427 0.124857277 0.000126512
0.793295801 0.134977818 0.005186906
0.833396733 0.144718781 0.009740708
0.869829059 0.150790766 0.015559663
0.908033133 0.163187996 0.028463289
0.945857167 0.173940301 0.045540988
0.984819591 0.186843663 0.064136751
1.000000000 0.199999943 0.076280735
0.996457994 0.219987214 0.097280405
1.000000000 0.233902767 0.127640769
0.080835164 0.087286159 0.020746322
0.083870769 0.083744161 0.017457226
0.092852548 0.085009322 0.022643838
0.101454988 0.088551320 0.026185840
0.119671091 0.082858771 0.029601775
0.150790870 0.088424936 0.029222228
0.178368166 0.089942999 0.026185839
0.207210392 0.090575255 0.026059322
0.239848271 0.094370931 0.023782227
0.276787132 0.096394673 0.024794480
0.307780027 0.094876863 0.018722130
0.339405507 0.096394993 0.013156001
0.376976639 0.097533636 0.012017647
0.410879046 0.094750293 0.008981969
0.443263829 0.093738161 0.007969839
0.480708569 0.099683799 0.005692843
0.519165218 0.105756119 0.002403808
0.558633566 0.110056728 0.000632576
0.598102629 0.116761170 0.001265160
0.634535432 0.123086520 0.000000000
0.670461893 0.131562307 0.000000000
0.709930301 0.136622176 0.001012128
0.743959188 0.142441154 0.001518153
0.787982464 0.150410905 0.005692904
0.828463256 0.158254445 0.008728707
0.869070351 0.167235985 0.014547661
0.904997110 0.174320132 0.023149999
0.940670729 0.186464310 0.040607266
0.981024802 0.199999958 0.061859637
1.000000000 0.214421108 0.082859121
1.000000000 0.230866134 0.099430732
1.000000000 0.243010834 0.129411995
0.097912997 0.110056639 0.028716456
0.101707704 0.110056639 0.019228227
0.111827873 0.112586863 0.018848550
0.126502082 0.114358090 0.023149550
0.137887090 0.112839997 0.022390550
0.156103879 0.109803610 0.028463325
0.180392325 0.111448318 0.028083678
0.210246697 0.113725379 0.027577614
0.244022727 0.116002098 0.027577909
0.283491939 0.112966478 0.018469516
0.312460870 0.112839997 0.015939130
0.340164691 0.116508543 0.010879005
0.371284187 0.121442191 0.006325098
0.409993559 0.124731548 0.003542452
0.446173251 0.122074679 0.000632584
0.482606053 0.125490084 0.000379548
0.517900169 0.130423725 0.000758999
0.551802516 0.134345502 0.000253028
0.591270983 0.143453136 0.003289417
0.631119549 0.147374898 0.001138643
0.669070482 0.153447285 0.000000000
0.705756128 0.160531417 0.001012128
0.745224476 0.163693547 0.003795488
0.781910241 0.169765547 0.009108455
0.818722546 0.176597103 0.012903257
0.857938290 0.183301851 0.018722115
0.898925066 0.192536131 0.028842546
0.932321429 0.204680890 0.034914542
0.972549081 0.216065973 0.053510342
0.994939983 0.227830514 0.075774834
1.000000000 0.239595070 0.100190029
1.000000000 0.251739085 0.127514452
0.128272995 0.143453807 0.007464068
0.137381375 0.143453807 0.016571680
0.141176641 0.147754803 0.013535774
0.152561873 0.150790870 0.015812937
0.168247864 0.149272770 0.019354936
0.174319863 0.137127995 0.013282936
0.190006316 0.136621937 0.019355064
0.213788703 0.135483712 0.018975293
0.242884189 0.134977773 0.015433230
0.274383545 0.137254477 0.006325520
0.310942799 0.137127995 0.008855131
0.341808975 0.139152259 0.004807005
0.372801989 0.142694578 0.001012001
0.406957924 0.145983934 0.000506065
0.437317878 0.152055919 0.000506065
0.473497659 0.151802868 0.002403804
0.509930432 0.155850857 0.004933740
0.545224547 0.161416918 0.005566008
0.579127014 0.167741910 0.000253033
0.621378779 0.174066857 0.000506064
0.661480308 0.177735671 0.000000000
0.698419154 0.181783795 0.001012128
0.733080506 0.184945926 0.003795488
0.772548914 0.191017941 0.000759096
0.811511874 0.201644510 0.003795354
0.851866305 0.208602250 0.009614244
0.892853081 0.213661999 0.020240191
0.926249444 0.222896874 0.037950929
0.959645808 0.229727983 0.051992740
0.983934164 0.238583207 0.069955885
0.994939983 0.248197526 0.090069644
1.000000000 0.257811874 0.112334065
0.173813641 0.192030311 0.001391678
0.185452357 0.189500645 0.002909615
0.192409962 0.191650867 0.007716776
0.198355794 0.193548471 0.005439840
0.211638406 0.190765545 0.006957680
0.219860643 0.178620771 0.005186679
0.225932628 0.169006959 0.006705002
0.239468724 0.165717959 0.009488002
0.262365729 0.163314536 0.008855226
0.290955335 0.166350156 0.006831160
0.319544733 0.171536639 0.004301452
0.353953242 0.167488635 0.003289067
0.385957956 0.170145318 0.000000000
0.419101745 0.174319997 0.000000000
0.449462295 0.175837994 0.000000000
0.479822904 0.181909993 0.002403804
0.514484465 0.185199380 0.003922000
0.551170111 0.191271633 0.004680747
0.590259314 0.197343662 0.000506000
0.629474759 0.203415647 0.000000000
0.670082211 0.207589895 0.003794996
0.711575091 0.211638257 0.006072127
0.751043499 0.216318950 0.008729007
0.785705566 0.222390965 0.003289418
0.825173914 0.226185665 0.009361025
0.866034269 0.234787986 0.018469328
0.907527089 0.238962382 0.030866383
0.942947745 0.244022772 0.047058880
0.971284091 0.258064628 0.065148480
0.988741338 0.265907824 0.078558087
0.995446026 0.276786983 0.101454876
0.994939983 0.289184004 0.132574320
0.209234402 0.222264409 0.001644708
0.218089759 0.222517371 0.000000000
0.229221985 0.227071643 0.000506066
0.231499135 0.230107248 0.002277292
0.240607545 0.227071539 0.000758999
0.254775465 0.216192245 0.003288997
0.258064389 0.209867015 0.000885614
0.264136404 0.200758979 0.002277292
0.274763018 0.193928078 0.004554385
0.295888811 0.193421930 0.009361221
0.323213160 0.194433689 0.003289163
0.354585558 0.198987693 0.001897744
0.386843562 0.195192695 0.000000000
0.419987053 0.200252697 0.000000000
0.453130811 0.203035697 0.000000000
0.483491600 0.204553694 0.000759096
0.516888022 0.212143898 0.002277292
0.552308381 0.218975559 0.002277292
0.594813287 0.226059705 0.000253032
0.631246090 0.230486989 0.000000000
0.672359228 0.236306369 0.003794996
0.713852108 0.239341974 0.006831130
0.759012997 0.244781971 0.008728995
0.793927968 0.250853986 0.008728995
0.831878543 0.254649103 0.014041699
0.869955599 0.259076416 0.023149660
0.910436332 0.265654474 0.036812063
0.945730448 0.270967841 0.049715437
0.980771780 0.279696524 0.067551963
0.995698988 0.289690167 0.087159708
1.000000000 0.300569564 0.105502851
0.995445967 0.315749407 0.143453285
0.232004985 0.240480989 0.003922000
0.241872087 0.244275898 0.000885613
0.249209091 0.249335960 0.000000001
0.258823335 0.255155116 0.000000000
0.257685184 0.257052183 0.000000000
0.277799010 0.248323932 0.005313001
0.279823095 0.244275868 0.004300999
0.283112109 0.238709584 0.001517998
0.290702105 0.229601189 0.000759096
0.296774119 0.220493585 0.009867481
0.318658978 0.215686232 0.003036130
0.346995324 0.217963189 0.000759096
0.379253358 0.221758187 0.001517998
0.409614086 0.222264186 0.001265031
0.445034683 0.228336185 0.000759097
0.478937596 0.231119186 0.000759096
0.511575103 0.234155387 0.000759097
0.549904644 0.241998613 0.000759097
0.592535973 0.250853956 0.000759096
0.628210127 0.255913854 0.002277094
0.667299509 0.261606574 0.003794997
0.708539248 0.265908062 0.006072035
0.753826618 0.269070178 0.003289417
0.790891826 0.275142193 0.008729004
0.829601288 0.279696405 0.018595703
0.866160274 0.284124106 0.029221660
0.903099000 0.290702194 0.040354058
0.937001407 0.299810529 0.050474435
0.974952340 0.305502981 0.066034153
0.994939923 0.313852072 0.086021163
1.000000000 0.321821570 0.112333752
1.000000000 0.337002009 0.145730197
0.250220984 0.276912987 0.003921998
0.271473378 0.282985777 0.000885613
0.277039498 0.284630448 0.000000002
0.282605827 0.285009980 0.000000002
0.294117957 0.284377366 0.000000000
0.306261957 0.278304607 0.000000000
0.303605527 0.274636358 0.005312996
0.304364502 0.269955993 0.007589996
0.311954498 0.262998402 0.006831094
0.324098498 0.253890008 0.003795482
0.333080351 0.244781643 0.001265129
0.351043761 0.244022757 0.002024256
0.376217753 0.246046990 0.004933837
0.406578481 0.246552989 0.007337031
0.436938435 0.252624959 0.004301426
0.474762887 0.258696944 0.003795485
0.510816157 0.262998164 0.003795486
0.546868980 0.266287416 0.003795489
0.592409492 0.269323051 0.003795486
0.632258117 0.278178424 0.009361483
0.673371434 0.287033737 0.009487743
0.713852227 0.292979509 0.005819005
0.750790954 0.293358982 0.000253034
0.790259421 0.299430996 0.003289424
0.829601288 0.305503011 0.015559698
0.864895284 0.311448514 0.030486649
0.897027075 0.318026602 0.046426058
0.936495423 0.327134937 0.067678422
0.973054588 0.330929667 0.080455646
0.991903543 0.341176182 0.098165676
0.997090161 0.355091453 0.124730781
1.000000000 0.367362022 0.163946971
0.268437743 0.295888752 0.001012129
0.283871114 0.299050927 0.000885613
0.298671722 0.305123121 0.004300999
0.305502892 0.305376291 0.003288999
0.314864308 0.304111421 0.000000000
0.319418013 0.305628985 0.000000000
0.329032302 0.302087188 0.000000000
0.331435859 0.300695866 0.002024001
0.339025855 0.296394765 0.002024001
0.351169884 0.287286371 0.001138613
0.348766714 0.278178751 0.001012129
0.359898835 0.271094084 0.002024256
0.379633278 0.269196630 0.003922000
0.406957984 0.267931879 0.005439871
0.442630976 0.274003893 0.010373421
0.470588386 0.280075878 0.004934004
0.512587368 0.286147863 0.008475802
0.553573787 0.291840553 0.011385134
0.592283010 0.299430788 0.006831123
0.626692116 0.308033109 0.001265126
0.665907681 0.315243751 0.008728866
0.707400382 0.319291741 0.010752871
0.747754633 0.317646980 0.008728870
0.787223101 0.323718965 0.008981904
0.826691985 0.332068264 0.014294995
0.864769161 0.338772863 0.026185852
0.899177849 0.344338953 0.040354125
0.936242402 0.348640293 0.059203301
0.970398486 0.355091870 0.080455661
0.992409825 0.361922920 0.100442924
0.998102248 0.372169763 0.124604441
0.997090161 0.380265743 0.155977130
0.296774238 0.328273237 0.000000000
0.309930354 0.331309348 0.002024256
0.316888243 0.332447737 0.002277259
0.327767402 0.334724575 0.004554098
0.337255269 0.331688792 0.000000000
0.345224589 0.331435829 0.000000000
0.349272311 0.329411566 0.000000000
0.360025406 0.328020245 0.001644708
0.368374497 0.328020245 0.001265160
0.380518496 0.322706997 0.000000000
0.384187102 0.315623105 0.000000000
0.383175254 0.306514978 0.000000000
0.395319253 0.300442517 0.001897744
0.415306747 0.296521217 0.002150776
0.439341933 0.297279954 0.006451998
0.482732117 0.307400525 0.011006001
0.511575103 0.310436517 0.004933999
0.554585874 0.314863920 0.009614265
0.591018319 0.321188927 0.006325258
0.626692116 0.328273088 0.006324992
0.661986470 0.335484207 0.007842992
0.700316250 0.342568129 0.013788740
0.740670204 0.343832761 0.013662260
0.780139208 0.348007530 0.011765000
0.821631849 0.352308273 0.020366991
0.861100674 0.361416638 0.029221976
0.898671806 0.368121237 0.043390118
0.936621964 0.372675419 0.064642876
0.972422183 0.378367960 0.081467785
0.991650939 0.384440422 0.097406954
1.000000000 0.392410249 0.120682970
0.998102248 0.398482263 0.146868750
0.329032272 0.363187641 0.000000000
0.337760627 0.361670017 0.001897743
0.343453407 0.363693982 0.002783356
0.350158125 0.365844458 0.004933837
0.359266520 0.362428635 0.001517999
0.370651633 0.358633906 0.000000000
0.376343966 0.357874960 0.000000000
0.383175075 0.358760267 0.000506064
0.397596747 0.358760267 0.002783356
0.410879254 0.358760267 0.000126517
0.418342650 0.355218261 0.001138644
0.422643930 0.347122014 0.000000000
0.424920917 0.338013649 0.001138644
0.436811894 0.332194686 0.001138644
0.450221032 0.329158515 0.003289416
0.481593579 0.332447588 0.008728996
0.521062374 0.340797007 0.011006001
0.553320527 0.342062145 0.006198999
0.590259314 0.345603943 0.006199002
0.627830744 0.352561265 0.010120289
0.667678833 0.359772116 0.009360998
0.705123723 0.364832759 0.017456997
0.741808772 0.373687387 0.018216023
0.781277716 0.378747553 0.018216543
0.821885169 0.384060651 0.028842628
0.861859620 0.386463940 0.040986620
0.900316179 0.394054264 0.053130761
0.938519716 0.398861289 0.074889518
0.974193215 0.406071901 0.096900798
0.991271198 0.413282394 0.109171599
0.997722983 0.420240581 0.126628816
0.997722983 0.426565647 0.151422918
0.359140009 0.391018093 0.000000000
0.362934649 0.382669449 0.000000000
0.365464836 0.382669270 0.000000000
0.372802049 0.386211097 0.002024000
0.384819567 0.390765101 0.007843032
0.393927962 0.384693086 0.001771032
0.399747074 0.385705352 0.000505999
0.408475786 0.390386015 0.000505999
0.418849140 0.394940019 0.000000000
0.440101504 0.394940019 0.000000002
0.450474203 0.395193040 0.002656839
0.457811564 0.389373839 0.001897744
0.463884026 0.380771428 0.001391612
0.469956040 0.371410102 0.003668968
0.479063630 0.368374497 0.003668968
0.497026831 0.365085274 0.007969964
0.521568358 0.365591019 0.011765000
0.553573549 0.372169167 0.012271000
0.593042016 0.378241956 0.012271006
0.633017123 0.386590689 0.017331004
0.675774753 0.395951807 0.014927262
0.719291329 0.403542131 0.011890996
0.758633971 0.406704992 0.023908505
0.797975957 0.415686131 0.030107778
0.837444842 0.424288332 0.045034986
0.875774980 0.429728031 0.060973980
0.911195159 0.429981083 0.073624127
0.944592297 0.429981083 0.085768886
0.977482736 0.437697858 0.112333938
0.992662966 0.446552813 0.131562233
0.992409945 0.455407649 0.146616176
0.992409945 0.464516044 0.176976994
0.386464387 0.424415231 0.000000000
0.398608387 0.424415231 0.000000000
0.398102552 0.428969026 0.000000000
0.405186802 0.431751937 0.000000000
0.421378791 0.430234194 0.002403554
0.433396310 0.424162209 0.010879410
0.432384700 0.420619905 0.007337088
0.444402516 0.423782378 0.006577994
0.457811803 0.428336382 0.005059995
0.461353868 0.428336382 0.000000000
0.479696363 0.431246251 0.000000000
0.489943057 0.427577794 0.000632584
0.497280389 0.422011584 0.002276998
0.503352404 0.416951239 0.006704578
0.509424388 0.404807240 0.000632584
0.520935833 0.399367809 0.000632584
0.536495566 0.393927842 0.006451779
0.559266150 0.394180536 0.013029992
0.596078455 0.405566335 0.018342994
0.641113520 0.408855051 0.018342994
0.681594133 0.418848872 0.021505257
0.722327530 0.429348677 0.020998988
0.761669576 0.437064946 0.023908505
0.798102438 0.443136960 0.033016905
0.837444842 0.447564691 0.046046853
0.876913607 0.453257382 0.063250966
0.913725436 0.457558483 0.080202125
0.941555858 0.460341811 0.097912878
0.969639361 0.465654820 0.110056959
0.991144776 0.472359389 0.133080393
0.997849405 0.479063779 0.155091986
0.995445609 0.485768378 0.183048993
0.425806582 0.460214972 0.000000000
0.435547382 0.462618768 0.000000000
0.434787840 0.462618768 0.004300999
0.437824279 0.469702601 0.002276996
0.451486588 0.469702750 0.000000000
0.455534607 0.463630766 0.003036134
0.469449908 0.469703078 0.006831487
0.474636585 0.461732984 0.003795101
0.491334766 0.461732775 0.003036004
0.497912794 0.461732775 0.000253001
0.508159578 0.464642674 0.002403804
0.522327602 0.465654790 0.004427544
0.530676782 0.460341781 0.002529998
0.537001789 0.455787599 0.003036004
0.545224607 0.447944582 0.001265006
0.551296592 0.440607607 0.000000000
0.560404599 0.434535205 0.000000000
0.574193358 0.429095179 0.008349175
0.601770997 0.432384729 0.021505192
0.639342248 0.440987051 0.022011193
0.682985663 0.445920408 0.025806673
0.722960114 0.456040651 0.030360609
0.762428463 0.465021789 0.033396594
0.801138639 0.471094370 0.040227704
0.835294127 0.472612381 0.051612787
0.874509811 0.478304893 0.068058319
0.913978398 0.485388786 0.086274609
0.948893189 0.490322441 0.104490876
0.976217568 0.491207987 0.119797774
0.991144776 0.500822425 0.142567694
1.000000000 0.507273972 0.164579391
0.998481810 0.511827767 0.184313998
0.459202975 0.499683350 0.000000000
0.472865582 0.499683768 0.004554189
0.474257022 0.502087176 0.002783195
0.473244578 0.503352344 0.005060034
0.483365178 0.508032799 0.000758999
0.483365178 0.503099203 0.003035997
0.496015489 0.505123317 0.001012130
0.506515145 0.507274151 0.002277292
0.517141163 0.498165548 0.000000000
0.527767241 0.498165548 0.000000002
0.540038049 0.501075029 0.002909871
0.554206192 0.502087176 0.007463933
0.566350460 0.502087176 0.010499546
0.573181570 0.496521205 0.005313027
0.581024826 0.489184380 0.001518192
0.586211205 0.486148357 0.001518192
0.598355591 0.478558183 0.000000000
0.605059981 0.471220583 0.001897570
0.622770190 0.465528339 0.017457206
0.644275725 0.466034532 0.025047192
0.679949284 0.476281196 0.028842285
0.723466158 0.482353181 0.035926931
0.763820171 0.490828365 0.042631499
0.801897705 0.496900797 0.050095189
0.839848280 0.501454949 0.063757181
0.870461643 0.504237950 0.075901166
0.909930110 0.511701167 0.093358859
0.950411081 0.515749216 0.110562973
0.979253590 0.521062374 0.129158795
0.995698988 0.525110424 0.150158286
0.999114394 0.535483956 0.179632947
0.998481810 0.539152145 0.194940180
0.485388696 0.539025545 0.000000000
0.503605306 0.537887454 0.008475809
0.508918524 0.538519919 0.006831424
0.511448503 0.540923297 0.002656839
0.517141104 0.543959558 0.000000000
0.517394125 0.541429162 0.005566008
0.527514279 0.540290713 0.002783002
0.539658487 0.539911211 0.000000000
0.547628105 0.537634492 0.001264990
0.553700089 0.537634492 0.001264992
0.566603422 0.539278805 0.002277294
0.583175123 0.540923119 0.007337419
0.599114239 0.540923119 0.010373373
0.611765027 0.540923119 0.013156017
0.619355142 0.532953978 0.005186853
0.621758342 0.530424118 0.003289424
0.630486906 0.525869906 0.002403808
0.646173537 0.516761541 0.000000003
0.655281186 0.504617512 0.009108416
0.664389491 0.497406960 0.022897007
0.684250295 0.498924971 0.031246001
0.718532383 0.508412540 0.037697557
0.763820529 0.514611065 0.047058929
0.800759256 0.521189153 0.057179324
0.838203728 0.525996149 0.072485998
0.875268638 0.533333123 0.089816555
0.903099120 0.539405107 0.103478633
0.945097864 0.539658129 0.118911996
0.976217389 0.546362936 0.139405355
0.993548214 0.553067565 0.161163792
0.999746978 0.559139550 0.186970562
0.996710598 0.565211535 0.214295000
0.518785954 0.566350043 0.000000000
0.537001967 0.572422802 0.006071994
0.542315006 0.573434949 0.003795030
0.544844985 0.573687911 0.000253032
0.550537586 0.574320436 0.000000000
0.553573966 0.577356100 0.000000003
0.556356668 0.574826300 0.000506006
0.566982746 0.575332224 0.000000004
0.581404090 0.577103019 0.001517997
0.596204996 0.577103019 0.007336995
0.602276981 0.574193895 0.001518001
0.615180254 0.575711668 0.004301028
0.629474998 0.577355981 0.005819035
0.642125130 0.577355981 0.001012002
0.660341859 0.577355981 0.001011998
0.660721183 0.574193835 0.000253032
0.664263189 0.568374813 0.000253032
0.673498034 0.559266448 0.000000003
0.679570079 0.550158024 0.000000018
0.688678384 0.540796697 0.020240396
0.699684024 0.533839107 0.031246008
0.719671309 0.532321215 0.037318029
0.751676559 0.535863519 0.044022568
0.791144967 0.544971943 0.059202980
0.825806320 0.546995997 0.073877349
0.863883317 0.553067982 0.092093684
0.903099120 0.563694000 0.112587057
0.933459878 0.569765985 0.133839428
0.970145583 0.572675824 0.154585809
0.991650939 0.576217771 0.174066961
1.000000000 0.580392003 0.196331248
0.999746978 0.586464047 0.226439044
0.568880439 0.615939140 0.000000000
0.570398450 0.616445184 0.000505997
0.577862203 0.622517347 0.002276996
0.581024706 0.623782396 0.000000000
0.587476313 0.623782396 0.000379548
0.595319748 0.624414802 0.002783357
0.600885749 0.624920726 0.005313034
0.607463777 0.622138143 0.002277007
0.621885180 0.622138083 0.000759096
0.641113579 0.622138083 0.004807351
0.650347769 0.622011662 0.002024001
0.658444047 0.625047743 0.004047996
0.669829428 0.627704144 0.006704646
0.680076063 0.627704144 0.002530325
0.690701842 0.627704144 0.000000001
0.708918631 0.627704144 0.000000000
0.716129124 0.622011542 0.000000000
0.725869715 0.612903178 0.001264993
0.731941760 0.603794754 0.005566014
0.740797102 0.600253105 0.013915366
0.746109962 0.589247465 0.046552714
0.760657728 0.581404150 0.064389631
0.788994730 0.579253376 0.074510060
0.815180302 0.585705698 0.092346638
0.845540643 0.594813466 0.107527010
0.877925038 0.596331358 0.121315710
0.914737165 0.601897418 0.137381434
0.947375238 0.607969403 0.154079810
0.977735341 0.611385226 0.183301985
0.992662668 0.614421606 0.203162685
0.998102248 0.620114088 0.227577284
1.000000000 0.629981101 0.263630390
0.607210457 0.658064485 0.001897740
0.607210457 0.658064485 0.000000000
0.611258507 0.664263189 0.000000000
0.614294887 0.669070005 0.000000000
0.620113909 0.668564022 0.000000000
0.629221916 0.664010167 0.001518195
0.635800481 0.671600163 0.004554421
0.645161450 0.668311179 0.004301036
0.656799674 0.665781498 0.000759096
0.676913440 0.665781498 0.003795482
0.686527610 0.663883686 0.001012129
0.695635736 0.666034460 0.002150740
0.703605473 0.668690860 0.004807100
0.712460816 0.668437719 0.002277292
0.724857748 0.671726704 0.002530324
0.735483527 0.669829488 0.000000000
0.750664353 0.669829488 0.000000000
0.761543453 0.662492216 0.000000007
0.767615497 0.654648960 0.003542029
0.780265808 0.649209082 0.027577350
0.793168724 0.642378449 0.048070718
0.796204627 0.629222333 0.080455251
0.815939486 0.620493174 0.094750479
0.834914744 0.619481564 0.114737734
0.863377750 0.620240450 0.130677015
