Assets/Resources/EldamarStudio/100 Horror LUTs Pack/LUTs/cube/Angerpuke LUT.cube
LUT_3D_SIZE 8
DOMAIN_MIN 0.000000 0.000000 0.000000
DOMAIN_MAX 0.903226 0.903226 0.903226
0.109803997 0.039216001 0.039216001
0.135230541 0.039216001 0.039974999
0.204554006 0.043136999 0.054901998
0.300442636 0.059455995 0.054901998
0.425174356 0.097786188 0.053130992
0.614547431 0.121441990 0.080328740
0.831498802 0.121569000 0.097659692
0.985957980 0.163693786 0.138772801
0.114863545 0.086148098 0.043136999
0.138772994 0.090449542 0.050221004
0.203795090 0.113219447 0.049841549
0.293485343 0.131182641 0.047817998
0.417836815 0.163314342 0.067805447
0.604174733 0.181404352 0.084756806
0.817583799 0.196710795 0.104111284
0.984313369 0.218848810 0.138772801
0.113724999 0.200506091 0.056419998
0.136748537 0.204806730 0.047311641
0.195952103 0.206072196 0.057937995
0.283238649 0.223276094 0.065022096
0.417330563 0.253004313 0.076027997
0.618848979 0.278811097 0.088425085
0.828589559 0.299304187 0.111195087
0.989879608 0.325869769 0.158886880
0.091334641 0.314990282 0.077292651
0.128905550 0.323592365 0.085895449
0.197470099 0.319544375 0.081087641
0.283111632 0.320682913 0.084629998
0.423908919 0.358253807 0.082985193
0.620873094 0.387982011 0.096774355
0.820872903 0.414927274 0.114990279
0.984819591 0.439342082 0.171916455
0.063630998 0.461353362 0.097153999
0.130044177 0.477799177 0.090449348
0.226312175 0.469829381 0.090069897
0.333712816 0.473370999 0.098039001
0.471094549 0.481594175 0.099557191
0.656925976 0.517393887 0.107400186
0.847564578 0.550664186 0.139152184
0.987602651 0.573814213 0.201518133
0.163693458 0.655914187 0.105628990
0.221884564 0.654396057 0.108918279
0.321062833 0.659835696 0.109171450
0.448450267 0.664642870 0.118532628
0.586464345 0.667805195 0.127134725
0.726375699 0.667678714 0.140543982
0.874636054 0.690195978 0.189879566
0.994939983 0.709171474 0.269576401
0.364199817 0.817204297 0.209993839
0.398355067 0.820746303 0.219607815
0.470208734 0.818595707 0.231878340
0.566350520 0.824035227 0.240354553
0.672738433 0.825047314 0.251486361
0.787855923 0.823150039 0.269955993
0.895635307 0.823402584 0.291334569
0.992030382 0.830107689 0.369766057
0.621758223 0.949398816 0.455660552
0.649715602 0.958506942 0.480581582
0.671726406 0.956609666 0.480202109
0.725110412 0.955723941 0.480202407
0.779886007 0.959645629 0.497533411
0.858064353 0.958506942 0.519797564
0.936622560 0.960784256 0.546868801
0.994939983 0.953320801 0.557748377
0.110562995 0.044275545 0.069702998
0.131688997 0.043136999 0.066160545
0.195952088 0.056799546 0.083364740
0.259708732 0.090069897 0.104996897
0.371536911 0.122960187 0.114737540
0.555091381 0.138393551 0.142694101
0.784566820 0.139278755 0.150663838
0.977862179 0.170904815 0.195572346
0.114484094 0.078304999 0.071600541
0.141935095 0.086907089 0.067678541
0.180266008 0.106514990 0.089310899
0.251486301 0.128020450 0.104237907
0.367615551 0.158633545 0.121062636
0.550664186 0.185325742 0.136242986
0.774067223 0.193168834 0.157115832
0.966983080 0.218089819 0.178873911
0.119165093 0.176976189 0.103099547
0.141555637 0.176217183 0.102213547
0.181404546 0.180898190 0.104237996
0.254142731 0.205945298 0.108412445
0.374067277 0.239595190 0.123719089
0.567742109 0.268690974 0.136242986
0.800252914 0.291334569 0.160025537
0.979632854 0.325743377 0.194813162
0.109044902 0.294749826 0.112587087
0.138013899 0.296394736 0.119417734
0.189879745 0.296267927 0.120176733
0.266160339 0.302593499 0.123719089
0.397469670 0.338267088 0.132321194
0.590386093 0.376976550 0.144465640
0.802403569 0.409108013 0.160784543
0.976217628 0.439342290 0.209487438
0.074256547 0.449588984 0.143706709
0.134345353 0.456167012 0.138393357
0.220872998 0.454143286 0.139911443
0.319670916 0.462112367 0.144212097
0.444149196 0.464389354 0.142947629
0.627703786 0.502719522 0.154332995
0.831751943 0.538519919 0.177229822
0.986084759 0.567109346 0.245414332
0.156103805 0.633523285 0.154585734
0.210373297 0.639721513 0.161163792
0.306135118 0.640607417 0.156103820
0.435546905 0.645667195 0.160531089
0.564705908 0.647691488 0.168248072
0.703478754 0.652751267 0.179000467
0.861733258 0.678810894 0.219861090
0.988614798 0.704996824 0.305376202
0.373181373 0.806831241 0.242884547
0.393548191 0.808855116 0.240607366
0.456546456 0.807210803 0.247944087
0.553826749 0.808349490 0.256040454
0.658317447 0.810752809 0.269576252
0.775838137 0.812017977 0.290954888
0.888171852 0.814168274 0.311321825
0.989500046 0.824667990 0.394433916
0.610246658 0.953320801 0.462998122
0.626818478 0.950411081 0.463630289
0.656420112 0.942314804 0.472865045
0.708032787 0.944718599 0.478431135
0.772296131 0.945224345 0.497785956
0.849841535 0.950284600 0.523086607
0.929158509 0.952435076 0.545857131
0.991397560 0.951043546 0.572168946
0.106641091 0.048576996 0.165338203
0.145477459 0.043895997 0.152056009
0.197596207 0.064262994 0.158381015
0.265275449 0.093611643 0.168501094
0.371284068 0.131688893 0.188109100
0.541303098 0.141935095 0.208855361
0.768754005 0.145983621 0.237950474
0.969765663 0.187602624 0.273877084
0.120303541 0.106261641 0.145350650
0.155344918 0.108538546 0.144591659
0.183428004 0.122707449 0.144591644
0.253131092 0.143453196 0.165338188
0.366223842 0.170145094 0.191018462
0.536495507 0.194054365 0.208602190
0.761543095 0.198355094 0.235293925
0.966603279 0.230107650 0.276154518
0.127007991 0.186590910 0.156863004
0.153700009 0.201138571 0.164199635
0.195952088 0.201391086 0.169260010
0.254269540 0.220619738 0.177482545
0.370398492 0.244402200 0.194307178
0.558633745 0.273877352 0.210626096
0.784566522 0.296901017 0.241113186
0.977608621 0.335104078 0.282858908
0.116887905 0.306388289 0.190891638
0.149399459 0.306767642 0.198355198
0.203415558 0.308665186 0.190765455
0.269450068 0.312966645 0.183681533
0.402782977 0.337508082 0.206072196
0.583807647 0.374320090 0.222264290
0.796963811 0.409108013 0.246046826
0.975331604 0.446552813 0.292852908
0.103478812 0.448956370 0.215559900
0.151676446 0.456293702 0.215053648
0.224668086 0.455914170 0.213156089
0.324098408 0.457052588 0.211511999
0.447058678 0.462998271 0.214801013
0.628589571 0.499683440 0.232257932
0.832005262 0.540417373 0.266919464
0.980518758 0.579127073 0.324857801
0.201644465 0.641619265 0.239215732
0.243643209 0.647817671 0.250474364
0.335230827 0.646679103 0.252245486
0.446173370 0.647817612 0.250600874
0.573940456 0.648197114 0.256419837
0.712713420 0.652877986 0.266919464
0.863377631 0.680708468 0.308159471
0.989879608 0.710563004 0.385072798
0.405566007 0.802150249 0.327640444
0.435294122 0.810499728 0.341935575
0.497786313 0.810120165 0.341808647
0.577862263 0.811764657 0.346995711
0.674130380 0.812650263 0.356609643
0.778368175 0.813662291 0.367995083
0.886148036 0.814800680 0.381657064
0.988867700 0.828463018 0.460215181
0.644275665 0.951928794 0.523845792
0.661100388 0.953320503 0.536369383
0.693358779 0.951043725 0.539152622
0.735483587 0.953067601 0.546742320
0.795192719 0.952561736 0.561416745
0.860468209 0.949905097 0.575458467
0.932447851 0.954079509 0.591903627
0.994686782 0.954332769 0.623655498
0.116508357 0.044908639 0.256293625
0.150917456 0.053131089 0.248830169
0.199367553 0.078684546 0.241366014
0.262365282 0.097026989 0.236052915
0.365211815 0.133206800 0.263124377
0.540037930 0.140670449 0.291081667
0.765970886 0.140037641 0.329664558
0.962681592 0.210626200 0.370018721
0.119544640 0.128399894 0.220493376
0.150411189 0.129917905 0.237950280
0.193422079 0.133459732 0.228968814
0.250980645 0.141302735 0.222643927
0.358380467 0.170398638 0.248830184
0.523845911 0.185325637 0.284503728
0.752308547 0.194307193 0.324604809
0.948893189 0.254395962 0.363440990
0.122201085 0.204301089 0.232384369
0.152814895 0.206198633 0.227577373
0.197849542 0.217330649 0.235167623
0.260341614 0.223529637 0.237950385
0.363820374 0.246299729 0.255914271
0.544718504 0.268184662 0.294370562
0.769260049 0.297153741 0.332194597
0.956989050 0.358760208 0.386590451
0.136621997 0.287665933 0.242251635
0.153320640 0.295508921 0.243010730
0.204301089 0.310816199 0.257178932
0.282099903 0.325236917 0.266919285
0.391018629 0.340544254 0.280202448
0.563820243 0.372675300 0.301707715
0.779506803 0.409361273 0.338266909
0.962302446 0.463883519 0.398608297
0.108538538 0.438203722 0.288425207
0.150031462 0.450221479 0.291208178
0.237191275 0.445793897 0.290828824
0.329285264 0.451360017 0.290828615
0.439595431 0.456040710 0.288804382
0.618216455 0.496774107 0.326122612
0.816065788 0.534851253 0.362808108
0.969259799 0.590006292 0.427197635
0.212776840 0.618090093 0.335357100
0.255913734 0.623149693 0.335736454
0.335610211 0.628336132 0.335357010
0.442251891 0.633017182 0.341808647
0.566603482 0.637824118 0.350664258
0.698418558 0.642631233 0.359139651
0.850727320 0.679063737 0.405439556
0.986590505 0.717014611 0.482226253
0.426691741 0.796584249 0.425679833
0.454775333 0.796963990 0.424667656
0.502593040 0.794180632 0.424035251
0.580012441 0.798228800 0.432005167
0.672106087 0.801011920 0.440354258
0.775331855 0.804554164 0.454522431
0.881594300 0.812270522 0.473876894
0.988867521 0.829727948 0.537128448
0.665781260 0.942314982 0.582922101
0.672232687 0.938519835 0.581910074
0.701454282 0.940670311 0.589120388
0.739784658 0.942947447 0.595951915
0.798608422 0.945351005 0.608475924
0.863504052 0.942694426 0.621505439
0.931309044 0.945477784 0.640607119
0.993674815 0.950663984 0.669702351
0.112839997 0.079064190 0.394940197
0.153320655 0.091714188 0.387097180
0.223403096 0.102593191 0.376091093
0.299304277 0.121821634 0.362682194
0.388361573 0.140290990 0.361164004
0.556483269 0.147501811 0.392410010
0.771789849 0.146616191 0.433017403
0.963820279 0.227956608 0.479443192
0.124351449 0.150537908 0.355344653
0.152435347 0.152056009 0.360531181
0.216319010 0.160657898 0.359266549
0.289563537 0.170904174 0.351043195
0.373181820 0.175964639 0.346742660
0.542188168 0.191271186 0.379379928
0.765464902 0.196710795 0.428083569
0.956356525 0.264515877 0.471220642
0.122454002 0.234282285 0.336875290
0.159266099 0.244655192 0.362935007
0.216319010 0.245288000 0.357369095
0.294244528 0.244022638 0.350663841
0.377356261 0.250727177 0.344592184
0.556483448 0.273750842 0.388867825
0.783807695 0.301454991 0.437824190
0.954459250 0.381403983 0.490069628
0.123213090 0.329411656 0.348892808
0.156356558 0.337761015 0.360404968
0.221632004 0.339911371 0.355597466
0.315875828 0.349399090 0.361416817
0.416698128 0.357115269 0.367615819
0.586464167 0.384060740 0.401897818
0.782795548 0.425427020 0.449209362
0.952055514 0.496395051 0.513345599
0.122833379 0.438709378 0.365718156
0.165211990 0.453257620 0.369259745
0.258444071 0.452751279 0.384693354
0.379380018 0.482226640 0.406957805
0.504237533 0.494244188 0.407969564
0.645920634 0.512586951 0.428336561
0.816318631 0.549019456 0.472232759
0.966476738 0.605819166 0.541176319
0.268058270 0.625933290 0.436306387
0.307273775 0.627830684 0.440986454
0.381783575 0.635673702 0.449588984
0.480708450 0.640101373 0.456293523
0.588487923 0.644781649 0.467552185
0.711195290 0.650600910 0.472991645
0.853889704 0.689690053 0.519924402
0.975711286 0.730423808 0.580645144
0.491587371 0.787349820 0.530170739
0.520809889 0.792915821 0.536369264
0.553573489 0.793674648 0.533965647
0.609867394 0.795951724 0.536369205
0.692220151 0.799873531 0.544085920
0.786084950 0.801138520 0.549145997
0.877292871 0.808475673 0.565338433
0.977229595 0.836179793 0.627450943
0.688677549 0.942820966 0.661859453
0.697786093 0.940037966 0.662112594
0.719417751 0.939658403 0.665781081
0.757368624 0.943959594 0.672865152
0.811638296 0.944845021 0.680581570
0.867805064 0.946362793 0.690828621
0.932574391 0.949525774 0.707906187
0.991271317 0.953446984 0.723087013
0.094371006 0.115369730 0.559519470
0.152814999 0.123339735 0.555344880
0.255660832 0.131182730 0.546616077
0.365844011 0.135104254 0.532953560
0.482099861 0.143959358 0.521315455
0.598481953 0.149146006 0.514611185
0.787602782 0.153826550 0.548134208
0.975078821 0.240860239 0.588361681
0.099430747 0.176091075 0.524098456
0.155092001 0.188235343 0.527134836
0.243390277 0.183681443 0.524984241
0.347754717 0.186717346 0.514863849
0.463377297 0.192409739 0.506261706
0.581530392 0.196331352 0.498039186
0.776470840 0.203542098 0.534345031
0.959645867 0.280961335 0.581657469
0.105376013 0.275522172 0.509804130
0.157748356 0.271093905 0.517520189
0.246932432 0.279317081 0.516255558
0.352434993 0.274383426 0.505123198
0.470967650 0.278051913 0.505249739
0.597470045 0.279190361 0.499683738
0.793548226 0.308412373 0.549399018
0.962302446 0.389373809 0.598861337
0.116255544 0.372295856 0.503226101
0.169766083 0.380645216 0.503605425
0.257558614 0.379127115 0.500695646
0.361922622 0.381024629 0.496647835
0.479949564 0.385072738 0.502972662
0.612270832 0.386210978 0.503479004
0.794560432 0.430360436 0.546236753
0.957242429 0.510310113 0.613156021
0.161796004 0.486907393 0.511321902
0.213535815 0.500695825 0.513725400
0.304490805 0.497027248 0.515370131
0.418975115 0.508918345 0.523212969
0.547501087 0.517900109 0.532068014
0.677166641 0.529664695 0.550537467
0.823402703 0.573434412 0.587223351
0.957368851 0.638962626 0.637823820
0.290828168 0.630360425 0.536495447
0.326628685 0.634155452 0.545477450
0.407969534 0.638962507 0.547628164
0.510056734 0.647944212 0.561163843
0.640607178 0.668943465 0.585452199
0.742188215 0.675521731 0.600885212
0.854396045 0.703858256 0.631625950
0.969765902 0.744465232 0.679190278
0.507906079 0.789753318 0.614674449
0.525869370 0.791903615 0.613662243
0.575964570 0.792283058 0.624035299
0.641366303 0.793042183 0.628842294
0.717141032 0.801770806 0.646299779
0.792410016 0.804048002 0.652245462
0.871474028 0.813788831 0.662745357
0.970524967 0.847944081 0.717773736
0.719417572 0.936369658 0.739025533
0.723719299 0.938266993 0.749398768
0.752055407 0.933080494 0.748766482
0.780645013 0.937381268 0.753067732
0.815812886 0.938646436 0.755597532
0.869196773 0.942188382 0.760784268
0.931688845 0.945857227 0.776344061
0.990385711 0.947754681 0.791018188
0.086906999 0.163693696 0.731562257
0.173687354 0.162428543 0.732953966
0.292093575 0.165211886 0.729285359
0.426185906 0.172675639 0.727767169
0.569259882 0.168248281 0.720430255
0.709044695 0.168248281 0.712840259
0.846552849 0.179000556 0.710942566
0.984060645 0.262618423 0.712460518
0.098671995 0.214927539 0.715496659
0.171663091 0.218595996 0.723719001
0.288931280 0.218975544 0.717141032
0.422390997 0.222517177 0.709424436
0.566476762 0.214168355 0.708791614
0.706009030 0.221125826 0.697280288
0.836052835 0.230866820 0.696900785
0.969765604 0.301075131 0.706894219
0.120177180 0.320430011 0.707273722
0.193421900 0.321315199 0.715117216
0.305249900 0.323339462 0.707906365
0.430866718 0.322201043 0.707147241
0.571663499 0.324857444 0.702466786
0.708918154 0.327514023 0.695003152
0.843390524 0.335610151 0.697533250
0.967741609 0.403921574 0.709297895
0.203794956 0.435167551 0.697406590
0.260974258 0.438962638 0.701328158
0.339532018 0.438710004 0.693738163
0.457684845 0.443516910 0.691334486
0.589247346 0.446046740 0.693231940
0.713472366 0.450347900 0.691714108
0.837571144 0.458190918 0.690322578
0.959898651 0.524604619 0.720936060
0.299177736 0.559013426 0.697027326
0.344339103 0.564705670 0.696268320
0.423023432 0.566350341 0.691334546
0.515622735 0.569386363 0.692473173
0.624920785 0.571663618 0.693864465
0.730676472 0.575458586 0.694750071
0.841998816 0.588741183 0.695256531
0.959139526 0.646299660 0.739531815
0.428336471 0.690954983 0.707906723
0.455913782 0.691714168 0.705755591
0.505755782 0.692093611 0.707147479
0.583934188 0.694497049 0.709677279
0.682605743 0.701834440 0.717393994
0.772169471 0.710562944 0.721315563
0.865528047 0.725490391 0.734092295
0.961922884 0.766729832 0.777609110
0.528905809 0.798228800 0.727640808
0.549652040 0.799746513 0.716635227
0.591777503 0.799873531 0.723592758
0.651992202 0.801644206 0.727767169
0.730170548 0.807716548 0.733965635
0.816192031 0.823149979 0.763820529
0.891081214 0.832890272 0.775331855
0.968627512 0.859835446 0.810752809
0.718785763 0.933206558 0.802530050
0.735610127 0.932447612 0.815054059
0.750537515 0.934092343 0.815812945
0.790259182 0.939152300 0.819481254
0.837571383 0.942694545 0.824794292
0.883871019 0.939911187 0.843137026
0.929158509 0.943959475 0.850600600
0.986590743 0.953952730 0.860720873
0.175584942 0.244908437 0.899936557
0.242630869 0.245161176 0.897659302
0.355344653 0.248323888 0.903731763
0.483744442 0.256293595 0.901327968
0.627577186 0.268817306 0.892346621
0.767235696 0.292472839 0.893864512
0.896141529 0.327387422 0.888930559
0.994939983 0.377356380 0.885515451
0.202150419 0.290955037 0.893864155
0.259329408 0.288424999 0.892473042
0.360404789 0.295888484 0.895256042
0.491587698 0.303225398 0.892346323
0.633776188 0.313725442 0.893611550
0.764832377 0.337507874 0.883744359
0.896394908 0.372296035 0.881467164
0.993547976 0.407842964 0.884377122
0.280328721 0.394433737 0.891840756
0.327514142 0.403795362 0.900569022
0.408475667 0.407210886 0.886147976
0.530550480 0.412144214 0.891334534
0.650095165 0.422137886 0.885641575
0.780392230 0.438077122 0.884376884
0.892978847 0.463883221 0.881467283
0.991650939 0.496900439 0.877545714
0.409234673 0.529411674 0.880708456
0.431625485 0.534851134 0.879949272
0.492473006 0.535863221 0.880961239
0.585072875 0.540923059 0.881720603
0.684376895 0.543959439 0.879063725
0.793295324 0.557747900 0.876407385
0.896141529 0.572042704 0.879822969
0.987476170 0.589752913 0.877798617
0.506514549 0.647817791 0.884756446
0.526628315 0.653004348 0.886400938
0.572422564 0.654901981 0.880581915
0.643390298 0.659202993 0.878051639
0.723846018 0.666540205 0.877672434
0.809867322 0.669323444 0.878557682
0.900316179 0.676027715 0.877545714
0.987349570 0.690828621 0.874003828
0.593674541 0.759013414 0.885768592
0.609487534 0.760404527 0.884882867
0.639089406 0.766350389 0.880708337
0.694876552 0.766350150 0.880202472
0.757495165 0.769765615 0.878810883
0.830360532 0.775458515 0.885894716
0.904617429 0.779253781 0.882858634
0.977861822 0.786843777 0.887286484
0.660215020 0.854016244 0.892979205
0.669702768 0.859456241 0.888930738
0.695382476 0.854901910 0.884123743
0.738646030 0.861606479 0.888045371
0.788235307 0.859329224 0.890069366
0.850853622 0.863757133 0.890955091
0.909930527 0.869702995 0.890701950
0.973308265 0.879190564 0.904490590
0.735230625 0.948133945 0.902593434
0.737887383 0.945857167 0.906388342
0.757621706 0.944971502 0.902466595
0.791144788 0.948007405 0.910183370
0.829474866 0.945603609 0.906514823
0.883870780 0.946742594 0.912207365
0.932826996 0.947754502 0.922454000
0.981909811 0.959771752 0.941555738
