Assets/Resources/EldamarStudio/100 Horror LUTs Pack/LUTs/cube/Angerpuke LUT.cube
LUT_3D_SIZE 5
DOMAIN_MIN 0.000000 0.000000 0.000000
DOMAIN_MAX 0.903226 0.903226 0.903226
0.109803997 0.039216001 0.039216001
0.188614696 0.043136999 0.057179291
0.361669391 0.080455415 0.054901998
0.669196486 0.125489995 0.084376998
0.985957980 0.163693786 0.138772801
0.118279584 0.183048993 0.050347995
0.183048993 0.184060693 0.052624706
0.343959808 0.218089700 0.067046285
0.671473503 0.259329528 0.096773997
0.986337543 0.299557239 0.156103522
0.077672601 0.383301795 0.087665990
0.182795703 0.393421650 0.088930994
0.363061219 0.399620354 0.096773997
0.701834679 0.463377684 0.102340288
0.987855375 0.510056853 0.184566796
0.211258382 0.700442970 0.115749255
0.330929518 0.705629408 0.133965969
0.541050076 0.705376327 0.145098120
0.776976228 0.711195409 0.171916381
0.993674815 0.739278972 0.295382649
0.621758223 0.949398816 0.455660552
0.665401578 0.954332650 0.483238399
0.750790656 0.959898651 0.491713971
0.881087959 0.957241774 0.523086369
0.994939983 0.953320801 0.557748377
0.108159289 0.051613003 0.133459404
0.175584704 0.055913705 0.129538402
0.302845955 0.109550700 0.154712111
0.595951796 0.146742716 0.193928123
0.973054588 0.182289675 0.251865953
0.134598002 0.156989396 0.136369705
0.176217705 0.171030700 0.141935408
0.301834077 0.206704393 0.168753996
0.607210457 0.251106828 0.199493840
0.981910050 0.306514502 0.254016370
0.106135294 0.354458958 0.174572989
0.183049008 0.369892508 0.177862003
0.341176480 0.376091182 0.181783408
0.665021896 0.444149226 0.207590118
0.986084759 0.515117109 0.292220324
0.225426644 0.680582106 0.231372699
0.327387631 0.685135961 0.237318113
0.531688929 0.686780632 0.244149238
0.752435386 0.695888340 0.262112677
0.989879608 0.741935313 0.375964344
0.630613267 0.948386967 0.501834095
0.666792989 0.946489513 0.515622914
0.746363044 0.947122097 0.526122689
0.877166510 0.949398816 0.556735992
0.994939983 0.952308714 0.607463181
0.113724999 0.065401994 0.321062386
0.193169117 0.087286703 0.303352416
0.306641400 0.123592407 0.286400974
0.601265252 0.142188132 0.350284547
0.967236042 0.217457607 0.425806224
0.132700577 0.200379282 0.292219996
0.185958281 0.205945402 0.280455410
0.303731680 0.214801118 0.283491671
0.604807198 0.251739413 0.353573531
0.958001196 0.343579650 0.435041040
0.109044597 0.362302005 0.288298428
0.198734999 0.372422546 0.308665395
0.382036746 0.402150363 0.335483402
0.659708977 0.448323548 0.379380226
0.963820577 0.542947590 0.475775003
0.284123808 0.663124859 0.396331221
0.368374407 0.665780842 0.404047966
0.540923357 0.672232866 0.414674401
0.750790179 0.686401010 0.438583523
0.984060347 0.752055764 0.536116064
0.669070184 0.942188382 0.618216038
0.695635498 0.937887549 0.616571784
0.771663606 0.944212615 0.637191594
0.884377122 0.945477784 0.653510392
0.993674934 0.950031400 0.692219555
0.085262872 0.128526121 0.607084155
0.229854703 0.137001708 0.595446110
0.442504525 0.148766696 0.578241229
0.668311417 0.143074006 0.563188255
0.973054588 0.247944310 0.616192222
0.093485422 0.258317411 0.574572980
0.233776107 0.265401393 0.576723278
0.438962817 0.265527844 0.562175930
0.666034281 0.266793251 0.553320289
0.966350198 0.372422427 0.624161899
0.146362692 0.454522818 0.557621539
0.276407242 0.461733401 0.564452887
0.478557944 0.467299104 0.564452887
0.698291898 0.475521654 0.565465033
0.955597460 0.582162738 0.652118802
0.351549476 0.676913261 0.575964332
0.439595252 0.682732284 0.587603092
0.607969522 0.693485141 0.612523973
0.785705090 0.721062422 0.649462223
0.971790075 0.775331914 0.715116918
0.720430076 0.938646317 0.756736040
0.749525428 0.936875343 0.762934923
0.805565894 0.939911366 0.780898213
0.885642111 0.944212556 0.779759586
0.988614798 0.949019670 0.808728933
0.175584942 0.244908437 0.899936557
0.323972344 0.243516788 0.899936557
0.555344343 0.263883352 0.895256162
0.800126374 0.298039168 0.890828431
0.994939983 0.377356380 0.885515451
0.266413271 0.363820374 0.897659719
0.368247867 0.377356142 0.887159884
0.580265760 0.388741195 0.892726183
0.806451619 0.418342710 0.883617878
0.996204793 0.473371238 0.882352591
0.463630378 0.596078157 0.884883046
0.529285312 0.599873602 0.883238316
0.665401995 0.606451392 0.884376526
0.825679898 0.624161720 0.879696190
0.987222970 0.645161450 0.881088018
0.607589900 0.786084771 0.885262489
0.641618848 0.790385902 0.880708456
0.738140464 0.792030215 0.882605731
0.853636980 0.800506234 0.886147618
0.976849794 0.809361100 0.890828431
0.735230625 0.948133945 0.902593434
0.751802444 0.947501779 0.902466595
0.807590187 0.947501361 0.905755997
0.900062919 0.949019611 0.916761637
0.981909811 0.959771752 0.941555738
