Assets/Resources/EldamarStudio/100 Horror LUTs Pack/LUTs/cube/Angerpuke LUT.cube
DOMAIN_MIN 0 0 0
DOMAIN_MAX 1 1 1
LUT_3D_SIZE 32
0.109803997 0.039216001 0.039216001
0.109803997 0.039216001 0.039216001
0.116255775 0.039216001 0.037065227
0.125363842 0.039216001 0.036559161
0.135230541 0.039216001 0.039974999
0.150410935 0.039216001 0.046046998
0.170651317 0.041745678 0.054649319
0.188614696 0.043136999 0.057179291
0.204554006 0.043136999 0.054901998
0.222770005 0.043137003 0.054901998
0.249715596 0.046046872 0.054901998
0.275015980 0.051106997 0.054901998
0.300442636 0.059455995 0.054901998
0.328273028 0.071347035 0.054901998
0.361669391 0.080455415 0.054901998
0.390259385 0.087159999 0.050095003
0.425174356 0.097786188 0.053130992
0.468944103 0.110436417 0.064009987
0.517521024 0.113472037 0.070082009
0.563314378 0.116508357 0.076154009
0.614547431 0.121441990 0.080328740
0.669196486 0.125489995 0.084376998
0.723719478 0.125363514 0.090069517
0.775331914 0.122327901 0.087033898
0.831498802 0.121569000 0.097659692
0.882226288 0.125743300 0.108664989
0.923719108 0.134851068 0.115243062
0.960151851 0.143959448 0.124351434
0.985957980 0.163693786 0.138772801
0.997849226 0.184946164 0.157495156
1.000000000 0.207969576 0.183175161
1.000000000 0.235293999 0.219607994
0.115875997 0.033144001 0.039216001
0.112839609 0.036179613 0.039216001
0.117141157 0.038330387 0.037065227
0.125363842 0.043010838 0.039089162
0.135610089 0.047944166 0.044149455
0.153447330 0.045288000 0.036938611
0.171157390 0.052878320 0.048070610
0.191903695 0.055281773 0.056040645
0.209107995 0.056040678 0.057179291
0.222770005 0.058317393 0.054901998
0.249715596 0.064136386 0.054901998
0.275015980 0.071347252 0.056926254
0.300442636 0.078431383 0.057938386
0.327767015 0.086274385 0.058191352
0.355597377 0.092599414 0.060973998
0.391397595 0.101707801 0.058570810
0.426692158 0.109930575 0.057685189
0.467678964 0.120809793 0.063377574
0.511448205 0.128652424 0.067046404
0.562808335 0.131688744 0.078684390
0.614547431 0.130929649 0.081467390
0.667172253 0.131561995 0.083365127
0.717773199 0.131941497 0.087413378
0.772296250 0.140543908 0.093105897
0.823908627 0.142062277 0.096900992
0.875900924 0.144212708 0.107020691
0.921694756 0.149525389 0.115749128
0.963187456 0.156103447 0.127387822
0.988994241 0.167868644 0.141809195
0.993801177 0.189753324 0.155218363
0.992662609 0.214041576 0.175332189
0.996963620 0.241365999 0.207464010
0.115496226 0.042125225 0.045667227
0.114610612 0.045161385 0.037065227
0.122327544 0.048197545 0.045667227
0.129664838 0.049968772 0.042631160
0.138772547 0.056799550 0.047059000
0.151676103 0.062618710 0.043263841
0.174193770 0.065401547 0.045414001
0.189120770 0.071220934 0.050980002
0.208855107 0.071727000 0.054522451
0.225173786 0.073371299 0.052877739
0.251865834 0.083617769 0.052751224
0.273118734 0.085641772 0.048703227
0.299430758 0.093231998 0.051360093
0.327514052 0.099557035 0.052372225
0.352941155 0.107526772 0.053510576
0.385325611 0.118152797 0.060341805
0.421758384 0.125743002 0.060341805
0.464389890 0.132321224 0.063377574
0.514484584 0.136875048 0.066413969
0.558886886 0.144718364 0.073498003
0.612397254 0.147754744 0.079949260
0.666033864 0.147248417 0.082226485
0.716001987 0.148386776 0.086654469
0.770651579 0.151422918 0.094750233
0.818722308 0.155977294 0.098671995
0.868943274 0.160404995 0.106135309
0.918026209 0.164705768 0.116255060
0.965464592 0.170777768 0.130044103
0.985578597 0.186464429 0.140544027
0.999240935 0.202150717 0.168121576
0.993801177 0.226565346 0.182416365
0.996078014 0.253889769 0.203922004
0.113724999 0.061100323 0.048450001
0.114990160 0.066666707 0.042631164
0.119797543 0.067172773 0.040101163
0.131941989 0.067679159 0.050980002
0.142188162 0.068817608 0.047185391
0.153952926 0.080075994 0.044529002
0.171916470 0.085894838 0.049588677
0.190891996 0.088930868 0.050980002
0.203795090 0.091967061 0.050221097
0.224035501 0.092473008 0.049715161
0.247311711 0.099050991 0.047185164
0.274889499 0.106894158 0.048197165
0.294244349 0.110309802 0.044402160
0.323971957 0.116508320 0.047311965
0.349272788 0.124604568 0.048323840
0.383301795 0.134851307 0.056799795
0.418216377 0.145224154 0.061606966
0.457179099 0.150663733 0.065275155
0.512966812 0.151296332 0.068943977
0.560531735 0.157115683 0.076028168
0.606831312 0.162428737 0.077672422
0.661480129 0.165465131 0.080708288
0.713598490 0.168627322 0.086654469
0.769386411 0.170904323 0.095762096
0.819734454 0.173181280 0.102846287
0.865401268 0.176344156 0.106135309
0.912966132 0.182416156 0.115243062
0.962302148 0.188488156 0.128905430
0.987096667 0.201391637 0.141302824
0.994433820 0.220873103 0.160025179
0.996963859 0.239974737 0.192030430
0.993548036 0.266540140 0.202656835
0.114863545 0.086148098 0.043136999
0.117520384 0.094117939 0.045034841
0.119797774 0.095762320 0.042757999
0.127388000 0.092726156 0.042251840
0.138772994 0.090449542 0.050221004
0.156988993 0.099557161 0.041113388
0.173054859 0.105376087 0.046046678
0.188235149 0.109803699 0.050221004
0.203795090 0.113219447 0.049841549
0.218975499 0.116255067 0.046805933
0.237444550 0.116761096 0.042757999
0.264263213 0.122074351 0.043643445
0.293485343 0.131182641 0.047817998
0.315749079 0.140291035 0.048071031
0.343327224 0.146489546 0.051106673
0.379506767 0.154965356 0.060215056
0.417836815 0.163314342 0.067805447
0.456799567 0.171536565 0.068311445
0.505376458 0.174572960 0.074383467
0.555598021 0.178368345 0.082479812
0.604174733 0.181404352 0.084756806
0.652371824 0.184060678 0.082985580
0.707020521 0.187097028 0.086274952
0.764452696 0.192916006 0.095382646
0.817583799 0.196710795 0.104111284
0.866793156 0.200126231 0.110436320
0.911448121 0.203668550 0.114863612
0.953952849 0.209740549 0.123971984
0.984313369 0.218848810 0.138772801
0.996078014 0.233523160 0.156736165
0.995445609 0.254016578 0.178368032
0.989373565 0.275269002 0.199620456
0.123971932 0.116508871 0.043136999
0.123971932 0.116508871 0.037064999
0.122327775 0.122327931 0.038962841
0.129159003 0.123086706 0.040480837
0.144845009 0.120809540 0.044149000
0.150916994 0.123845927 0.044149000
0.169133633 0.125363857 0.042631064
0.185199216 0.128020152 0.044149000
0.201138258 0.131814986 0.044149000
0.218975499 0.137507454 0.043769553
0.239974871 0.140543804 0.052371930
0.260721177 0.143074125 0.050853740
0.285136074 0.149399221 0.051612709
0.309677094 0.158507034 0.054143030
0.343074232 0.167615399 0.057179414
0.375458777 0.176217735 0.060215063
0.412903160 0.182289734 0.069323063
0.453763157 0.186969921 0.076913066
0.502340078 0.192788973 0.077419080
0.545350790 0.201391354 0.080708429
0.595066309 0.205692738 0.084756806
0.645667434 0.207716867 0.084756806
0.697912931 0.208349422 0.083238572
0.752561808 0.211385027 0.092346974
0.805439830 0.214927271 0.099177934
0.855661273 0.219354853 0.104364313
0.902213991 0.224920928 0.108918130
0.941808820 0.230992928 0.120936371
0.979000568 0.242377907 0.138013899
0.994433701 0.252245188 0.153953180
0.996963620 0.265148580 0.172801971
0.998481929 0.281341016 0.196584061
0.122960322 0.156989634 0.045667320
0.122960322 0.156989634 0.044655319
0.127261311 0.154838860 0.042884320
0.132954165 0.158507481 0.044275999
0.148766771 0.158001408 0.046046771
0.156989008 0.156736255 0.048197001
0.168121636 0.157242313 0.048197001
0.184693277 0.157242313 0.046552710
0.202150196 0.159392729 0.046426225
0.223908976 0.163693950 0.048197005
0.242504537 0.171916187 0.051865868
0.265781194 0.174952582 0.056926254
0.289816648 0.179127321 0.056040645
0.315496385 0.186590642 0.057938319
0.342062235 0.193421736 0.063251413
0.382669568 0.200126305 0.068690993
0.419481486 0.207589984 0.070335321
0.461479992 0.212902889 0.076533742
0.511954665 0.220872641 0.078431018
0.562555075 0.224667996 0.086274356
0.608854771 0.229980901 0.091207996
0.660847485 0.235041127 0.093864672
0.713852346 0.239848316 0.092599511
0.763694167 0.245287731 0.096900910
0.816065609 0.248323932 0.103731997
0.864895582 0.249968648 0.111195661
0.910816073 0.254269570 0.118532576
0.950284421 0.262365311 0.132700562
0.979506254 0.271220624 0.147627965
0.994686663 0.283364594 0.162302420
0.996078014 0.296773911 0.180265889
0.997469664 0.315243304 0.206198648
0.118279584 0.183048993 0.050347995
0.118279584 0.186337993 0.048703291
0.129159003 0.189120919 0.048703291
0.131435826 0.183554530 0.046173289
0.144339129 0.185831830 0.048070837
0.155977070 0.187855750 0.058696769
0.169259921 0.185705408 0.050980002
0.183048993 0.184060693 0.052624706
0.201264814 0.185578689 0.051107090
0.226438984 0.189500481 0.054142933
0.246552706 0.193421826 0.055534579
0.263883501 0.200126246 0.058570541
0.289310634 0.204300985 0.060468286
0.316888064 0.210626021 0.060974285
0.343959808 0.218089700 0.067046285
0.379380137 0.224161699 0.071473993
0.423403114 0.231751889 0.072991811
0.464389503 0.237950400 0.074762858
0.513978601 0.246046662 0.079822749
0.567236125 0.249589056 0.083491370
0.621884882 0.254269660 0.090701997
0.671473503 0.259329528 0.096773997
0.725363731 0.268184900 0.098291993
0.775458813 0.272738725 0.102846190
0.824667990 0.274889261 0.108159289
0.874888957 0.282099962 0.115622945
0.919670999 0.284123987 0.126249418
0.959139407 0.292093247 0.142567948
0.986337543 0.299557239 0.156103522
0.997722745 0.307147354 0.169512704
0.997722745 0.321947992 0.185199469
0.997722745 0.343200386 0.211765006
0.113724999 0.200506091 0.056419998
0.115243189 0.207337186 0.054142710
0.122833453 0.211132094 0.050980005
0.137507826 0.214674026 0.052245095
0.136748537 0.204806730 0.047311641
0.151928931 0.210879132 0.066287033
0.165591314 0.210626423 0.060214777
0.180012599 0.208349481 0.054901805
0.195952103 0.206072196 0.057937995
0.223276496 0.212144196 0.060974386
0.244781882 0.214674100 0.062618896
0.263504267 0.218722090 0.063124835
0.283238649 0.223276094 0.065022096
0.311069012 0.229601130 0.065275066
0.341935724 0.238709509 0.070840992
0.377861977 0.246932089 0.074509807
0.417330563 0.253004313 0.076027997
0.464769065 0.263377666 0.074256606
0.510689139 0.269829154 0.083111972
0.563820422 0.274636328 0.085389003
0.618848979 0.278811097 0.088425085
0.675269246 0.284377247 0.091461092
0.727008045 0.293232590 0.097659573
0.779253721 0.296268195 0.104364000
0.828589559 0.299304187 0.111195087
0.876407206 0.303352147 0.120176755
0.923466146 0.313978255 0.129285157
0.962934494 0.319797277 0.146742880
0.989879608 0.325869769 0.158886880
0.997722924 0.334219158 0.172549054
1.000000000 0.343959689 0.192030177
1.000000000 0.365212083 0.216318995
0.113724992 0.233902499 0.062492006
0.119797766 0.243010893 0.062492006
0.119165197 0.243390217 0.055913717
0.125869513 0.244528502 0.054775167
0.142820537 0.247311503 0.062492028
0.158000931 0.232131913 0.065528423
0.168121308 0.230613977 0.064263165
0.179126993 0.230487496 0.064010195
0.192915708 0.230360985 0.067046382
0.211132497 0.230360970 0.070082001
0.232637867 0.239342108 0.076027513
0.253890276 0.246046484 0.075774774
0.277166635 0.249841481 0.074130483
0.304997027 0.250853539 0.074383453
0.338393360 0.259961903 0.077419065
0.376470268 0.271473467 0.080581814
0.415812552 0.278810680 0.083618194
0.458697081 0.284630090 0.086401381
0.513346016 0.299810469 0.089437008
0.564832568 0.309044629 0.095509008
0.616571724 0.314104736 0.099430740
0.669449508 0.317267656 0.099557482
0.723972440 0.320556998 0.094623953
0.778621316 0.323592603 0.103731580
0.828589559 0.331182808 0.112713285
0.875774622 0.338519990 0.124478132
0.920429766 0.344339073 0.138393551
0.959898829 0.347375453 0.147501931
0.988741279 0.353194475 0.156989142
0.994686782 0.364579707 0.171536908
0.991271079 0.380265981 0.195699036
1.000000000 0.398608506 0.234534994
0.102087006 0.255660862 0.071473867
0.113978028 0.256040394 0.068563998
0.122201025 0.265148789 0.070714772
0.127261162 0.263883740 0.063377738
0.139784873 0.262998194 0.061353866
0.152434945 0.262997925 0.071979932
0.167615324 0.257938325 0.069955677
0.180771694 0.259203166 0.068563998
0.194939971 0.259709090 0.068817228
0.211005986 0.257558882 0.067552388
0.229222000 0.257558882 0.067678869
0.254522383 0.262618482 0.073750868
0.279822767 0.268943518 0.075648353
0.307400197 0.275015771 0.077419132
0.338140368 0.284124136 0.077798583
0.376343757 0.293231934 0.088045605
0.420366764 0.306388050 0.085009493
0.465907961 0.315622866 0.082352825
0.516002834 0.323971957 0.089943036
0.570651591 0.330802977 0.095762007
0.620493472 0.339784622 0.094244003
0.672106087 0.343832880 0.094244257
0.726502120 0.345097989 0.094497472
0.775584996 0.350916952 0.103605099
0.825679660 0.356229872 0.110435992
0.871473432 0.363314360 0.120303467
0.914990127 0.369386733 0.133459985
0.956862450 0.374826312 0.144971579
0.988361776 0.380518854 0.164705917
1.000000000 0.390132815 0.178368047
0.996963859 0.405060172 0.198988169
1.000000000 0.423276752 0.232384875
0.093991004 0.285009235 0.076533742
0.104111269 0.289057225 0.079570122
0.114104517 0.289436758 0.076786771
0.123212904 0.294749975 0.079823159
0.133839294 0.290954977 0.072992243
0.150916994 0.292346328 0.078558251
0.167615578 0.288298309 0.082099929
0.181151256 0.286906987 0.075774550
0.196711004 0.288804263 0.076154187
0.213156223 0.287033468 0.076913722
0.233269989 0.284883261 0.072738737
0.253510237 0.286906987 0.074762993
0.283111632 0.292219907 0.078557998
0.312207103 0.301075280 0.080961257
0.340797067 0.308412403 0.084503256
0.378368020 0.319544435 0.079949096
0.420872808 0.328652442 0.090575680
0.468311548 0.340923250 0.084503256
0.515496790 0.346995234 0.089436978
0.563567698 0.353067249 0.093738265
0.618216455 0.361036986 0.099810258
0.667046249 0.369133234 0.095256120
0.719544470 0.371283770 0.096394733
0.770019054 0.375458479 0.103605099
0.816571534 0.385578483 0.112460248
0.863756955 0.391650498 0.122706905
0.907400310 0.397217065 0.135483980
0.951422870 0.401771247 0.147627980
0.987349629 0.405818969 0.163693786
1.000000000 0.413662165 0.179632962
0.999114394 0.427324444 0.196331322
0.997975767 0.445541263 0.223276481
0.091334641 0.314990282 0.077292651
0.098165743 0.319923639 0.082226485
0.108412229 0.322833270 0.082985580
0.119797163 0.323971927 0.083618164
0.128905550 0.323592365 0.085895449
0.147121936 0.322833270 0.085136354
0.164705992 0.321188927 0.086527683
0.183048993 0.317267269 0.086400941
0.197470099 0.319544375 0.081087641
0.216065645 0.320682913 0.087160319
0.240607157 0.318912148 0.086147897
0.261859536 0.316508651 0.083870903
0.283111632 0.320682913 0.084629998
0.316255063 0.329538286 0.084883027
0.344465584 0.335610300 0.090069637
0.383681417 0.346489251 0.087539487
0.423908919 0.358253807 0.082985193
0.471347451 0.367994785 0.090195999
0.518406034 0.375078946 0.090196006
0.566224098 0.382289261 0.094117709
0.620873094 0.387982011 0.096774355
0.673497915 0.398102254 0.102846354
0.722074628 0.404427260 0.100315996
0.772675753 0.408475518 0.104364000
0.820872903 0.414927274 0.114990279
0.865274966 0.424288273 0.125743002
0.909298122 0.430866361 0.141429484
0.952941060 0.435167730 0.154838637
0.984819591 0.439342082 0.171916455
0.997722983 0.448197097 0.188741237
0.999493957 0.458190888 0.207083836
0.997216642 0.475901634 0.229348272
0.092852965 0.340797067 0.075521998
0.096647613 0.343832672 0.078304641
0.105629005 0.346868843 0.079443067
0.120050162 0.349652201 0.081720293
0.134724587 0.351929486 0.085642420
0.143832967 0.348893106 0.082606040
0.157748327 0.351423353 0.082353003
0.177229702 0.350664347 0.083365001
0.198229134 0.350158125 0.083871000
0.219481528 0.359266520 0.089943007
0.248703733 0.359899044 0.095762029
0.273498237 0.356610030 0.096015260
0.295003384 0.354586035 0.093485355
0.317520082 0.360152036 0.090701997
0.347880840 0.366224021 0.093738385
0.389247358 0.376344025 0.093864970
0.432764202 0.388235003 0.093105808
0.474889129 0.400632143 0.091713995
0.529538035 0.412776947 0.091714002
0.581657171 0.422137707 0.095509037
0.640101254 0.427956820 0.098292030
0.698798299 0.433776021 0.100062996
0.747121990 0.445793509 0.106261499
0.795445859 0.451992065 0.106641032
0.844022572 0.455787361 0.117773272
0.889563322 0.460468024 0.131562039
0.931309104 0.466793090 0.144718125
0.967741847 0.475901455 0.162934884
0.990891755 0.482100040 0.183301792
0.996710956 0.492979199 0.205313191
0.993927956 0.507780015 0.229601592
1.000000000 0.519924045 0.262998015
0.077672601 0.383301795 0.087665990
0.089816600 0.386337399 0.087665990
0.095762007 0.389373571 0.090449184
0.111954167 0.391144812 0.092852667
0.134851098 0.391397834 0.094244026
0.146869346 0.388361454 0.079569653
0.158507422 0.395445704 0.081593908
0.182795703 0.393421650 0.088930994
0.209867194 0.388614476 0.093990996
0.228589907 0.392662883 0.089942999
0.249842271 0.395952255 0.093105868
0.277040243 0.398355514 0.094750419
0.301961005 0.398355365 0.095256351
0.326628447 0.399620384 0.096773997
0.363061219 0.399620354 0.096773997
0.395825207 0.403289199 0.092599586
0.440860122 0.411258608 0.093864582
0.489310503 0.422263950 0.099303976
0.538646460 0.437064916 0.109929964
0.593295157 0.446426332 0.096015327
0.647311926 0.455534548 0.098545417
0.701834679 0.463377684 0.102340288
0.750158370 0.473117888 0.106261499
0.792663217 0.482226282 0.115369901
0.840986907 0.486148089 0.124857403
0.885388970 0.491967142 0.137634322
0.925490022 0.499936402 0.150790825
0.964705408 0.506261408 0.169006869
0.987855375 0.510056853 0.184566796
0.996710598 0.517267585 0.209867358
0.996331215 0.530297339 0.237444982
1.000000000 0.547248423 0.266034424
0.069703005 0.423402756 0.092599802
0.077040009 0.428842187 0.095002994
0.087033778 0.434029132 0.095002994
0.103478812 0.436053395 0.092726350
0.129664555 0.434914857 0.091208264
0.139785066 0.427830458 0.088171870
0.171157792 0.432510912 0.085768320
0.189879775 0.433396608 0.085515708
0.217963099 0.428083301 0.091587715
0.237824172 0.431119263 0.090449005
0.263757050 0.434155643 0.095509060
0.287033677 0.433143497 0.096521191
0.316255629 0.435420424 0.096521191
0.344844848 0.436685592 0.098545000
0.376976579 0.436685592 0.102845997
0.413409382 0.439089417 0.098039001
0.448323965 0.440607607 0.098038986
0.496141881 0.449588954 0.100948595
0.548260808 0.468311369 0.100695819
0.599999726 0.477925152 0.107020527
0.650853932 0.487033546 0.101328187
0.703479111 0.496141940 0.106388181
0.753447175 0.505123377 0.111068495
0.800505996 0.511954486 0.120176896
0.843010724 0.518785596 0.131561995
0.887160122 0.524731398 0.143706322
0.926122785 0.532827318 0.156357065
0.963693380 0.537001610 0.172675788
0.984819591 0.540417433 0.200252786
0.997216821 0.554079771 0.220746368
0.997596204 0.566603541 0.249842167
0.997596204 0.581783593 0.278684795
0.063630998 0.461353362 0.097153999
0.072738998 0.471979558 0.094117612
0.090069763 0.468943745 0.095003001
0.101708144 0.477546185 0.097533002
0.130044177 0.477799177 0.090449348
0.144844919 0.469829440 0.091208249
0.175205827 0.471853167 0.090195999
0.200505972 0.472865373 0.091587707
0.226312175 0.469829381 0.090069897
0.249841690 0.473624080 0.093105517
0.276913047 0.473624051 0.096014999
0.308285683 0.474130094 0.098039001
0.333712816 0.473370999 0.098039001
0.366603225 0.476154357 0.098039001
0.399493992 0.476154357 0.101581000
0.433143586 0.478557795 0.102593191
0.471094549 0.481594175 0.099557191
0.507527173 0.482859164 0.104996607
0.556862831 0.499683946 0.099430777
0.605692565 0.508285820 0.100948848
0.656925976 0.517393887 0.107400186
0.706515133 0.526502311 0.111448184
0.757874489 0.535737157 0.118658692
0.805059969 0.544592142 0.127767101
0.847564578 0.550664186 0.139152184
0.885894656 0.555344820 0.148513183
0.926122785 0.563188076 0.163440928
0.965591133 0.566223741 0.183681428
0.987602651 0.573814213 0.201518133
0.994180799 0.578368187 0.231372178
0.999367416 0.598735213 0.259202987
0.997596204 0.612144411 0.290828794
0.061986405 0.499683678 0.100696012
0.076660551 0.513598919 0.094750181
0.096394755 0.511322081 0.091460995
0.118659154 0.506768107 0.090196021
0.136116534 0.517773569 0.096268021
0.161163554 0.512460530 0.093991362
0.189879969 0.512713373 0.090955265
0.216571838 0.513725221 0.091840707
0.234914333 0.512334108 0.092979498
0.265275151 0.518406093 0.096015118
0.293990999 0.515749276 0.098039001
0.326755047 0.516002119 0.097406588
0.361037165 0.516508162 0.098671578
0.388614595 0.519291520 0.098418549
0.424288362 0.519291520 0.098039001
0.458317339 0.521062315 0.099810235
0.493484974 0.524098277 0.102593422
0.532321513 0.525869548 0.102593422
0.568753600 0.531941533 0.105629027
0.612270653 0.538013697 0.104364343
0.660974205 0.544718266 0.107653566
0.710689723 0.553826690 0.114484571
0.761796057 0.562935054 0.126375571
0.806325138 0.574573100 0.134977907
0.846679270 0.582163155 0.146362990
0.887792230 0.588108599 0.158254132
0.921188653 0.591651082 0.166856214
0.966223717 0.594813287 0.196837455
0.991144776 0.605186641 0.211764812
0.998861372 0.612650275 0.234535038
0.996963620 0.618848741 0.264136136
1.000000000 0.637065530 0.300568968
0.077166080 0.545224965 0.094624005
0.101454839 0.554332554 0.100696005
0.116129003 0.555344760 0.099051200
0.130803198 0.552815020 0.092473023
0.148260593 0.554206431 0.084124021
0.181656972 0.557242036 0.090196006
0.201644659 0.554459333 0.087919369
0.227704018 0.555218220 0.089816980
0.256040275 0.557748139 0.092600010
0.283491999 0.560911000 0.086907506
0.316761851 0.558254123 0.095762104
0.349652261 0.561289966 0.096015275
0.383301646 0.564579010 0.096647978
0.415939063 0.564832032 0.101454951
0.446299821 0.564832032 0.098418579
0.479569823 0.564832032 0.098039024
0.512966216 0.566603184 0.101328045
0.547501206 0.568374395 0.105629049
0.583934069 0.565338016 0.105629049
0.623150110 0.571410716 0.108665369
0.668817520 0.575585186 0.114990748
0.715623319 0.581151187 0.122833975
0.758760512 0.590259552 0.129411966
0.798228979 0.599367976 0.135483995
0.835926652 0.606452048 0.146363035
0.880961299 0.613915324 0.161290362
0.930297077 0.622011244 0.179001033
0.963693380 0.628083944 0.200253397
0.990132630 0.636559069 0.224920958
1.000000000 0.644149065 0.255028397
0.999746978 0.651739180 0.287412941
1.000000000 0.664390028 0.312713057
0.117393740 0.604680777 0.096900649
0.130550504 0.608223021 0.102972642
0.150537729 0.610879421 0.106894419
0.166476727 0.608475924 0.105123200
0.184313476 0.606957734 0.098292015
0.210499674 0.607590199 0.094750009
0.238836050 0.608096123 0.100822002
0.261100769 0.608602464 0.098545372
0.289184064 0.611638308 0.101202004
0.318532526 0.614674211 0.103226006
0.354459226 0.617457628 0.100569129
0.385831892 0.616445482 0.105629258
0.417331040 0.618722439 0.105250008
0.449589133 0.618722439 0.108033001
0.487539560 0.618722439 0.112586953
0.522707343 0.621125638 0.111954369
0.556483269 0.621505082 0.116508558
0.591144621 0.622011304 0.121948138
0.629727721 0.618975461 0.119797364
0.663377881 0.618722498 0.117014721
0.700948775 0.626691997 0.123845614
0.745983541 0.632511020 0.133965909
0.791524708 0.639722109 0.143959835
0.823023319 0.646173656 0.158001021
0.862492204 0.653004766 0.173181593
0.899430692 0.659076750 0.187729388
0.942188203 0.666287065 0.205060437
0.975585163 0.672359228 0.226312801
0.990385711 0.673118353 0.255534321
0.998228788 0.680075705 0.285388947
0.998102248 0.687918723 0.321695298
1.000000000 0.700062990 0.355471104
0.163693458 0.655914187 0.105628990
0.170145497 0.655155122 0.113598734
0.190386191 0.659835696 0.117520504
0.204807028 0.657305717 0.112966567
0.221884564 0.654396057 0.108918279
0.246173322 0.655914187 0.110436469
0.271094054 0.659709215 0.114484467
0.293485135 0.658064485 0.110689059
0.321062833 0.659835696 0.109171450
0.354838490 0.661732972 0.115243740
0.383428186 0.664769351 0.118279599
0.415812492 0.665781498 0.115496241
0.448450267 0.664642870 0.118532628
0.480329067 0.663883686 0.119797729
0.514864087 0.663883686 0.125869721
0.550031543 0.666287422 0.127134725
0.586464345 0.667805195 0.127134725
0.620872855 0.667805195 0.133206993
0.659076512 0.666034460 0.131435782
0.687286377 0.669576466 0.137887344
0.726375699 0.667678714 0.140543982
0.761796057 0.674762607 0.147627860
0.805439949 0.679823220 0.157368973
0.839341998 0.684123993 0.174319834
0.874636054 0.690195978 0.189879566
