Assets/Resources/EldamarStudio/100 Horror LUTs Pack/LUTs/cube/Astas LUT.cube
LUT_3D_SIZE 5
DOMAIN_MIN 0.000000 0.000000 0.000000
DOMAIN_MAX 0.903226 0.903226 0.903226
0.074510001 0.019608000 0.019608000
0.133712694 0.047059000 0.058190994
0.262239397 0.092220411 0.088930994
0.460215122 0.179506868 0.154079869
0.823023379 0.269575775 0.256546646
0.093484998 0.138266698 0.083364703
0.136621997 0.145477697 0.085642003
0.253384113 0.181783825 0.115116984
0.461227238 0.249841988 0.184440404
0.818342745 0.342820793 0.274889469
0.111194983 0.302846372 0.162175998
0.157621399 0.310056806 0.165464982
0.260341823 0.322454423 0.184439987
0.495003104 0.395066231 0.236052990
0.843769729 0.507021189 0.341555774
0.258444101 0.574067116 0.285515130
0.316255659 0.585831404 0.298292249
0.464389503 0.599873662 0.321568400
0.639848232 0.623023331 0.349399239
0.880328596 0.702845931 0.471473753
0.718532383 0.885388911 0.619101405
0.741049826 0.896520913 0.630486846
0.793421984 0.899177372 0.643896401
0.871726632 0.906008780 0.674889445
0.959898651 0.920682907 0.715875506
0.076786712 0.045414291 0.109550700
0.123592407 0.055913705 0.116761699
0.217457101 0.119671412 0.144212693
0.402023941 0.201770708 0.222390831
0.776976466 0.289816648 0.307147533
0.105249994 0.124604695 0.116128691
0.137634695 0.156989396 0.149778411
0.213535696 0.187096804 0.173687264
0.410246253 0.257052392 0.229854256
0.791650414 0.357495517 0.334851205
0.130423695 0.290069669 0.210246697
0.167741701 0.297912687 0.212523818
0.252498806 0.316255540 0.230233982
0.464263111 0.388235122 0.282859087
0.824161589 0.508285761 0.390638769
0.273497522 0.568880558 0.326248944
0.325869948 0.573434412 0.335989535
0.452625066 0.585199356 0.350664258
0.619607627 0.607084095 0.381783724
0.876027763 0.705376089 0.509045064
0.717140734 0.885135770 0.629222274
0.739152372 0.885894954 0.635673404
0.789247334 0.891334355 0.653384089
0.869449794 0.900189877 0.684756756
0.957621634 0.917520761 0.727640569
0.067299418 0.065401994 0.276533574
0.143200412 0.096141994 0.262871385
0.230866402 0.134092391 0.247184977
0.406324804 0.211890996 0.309045106
0.771410167 0.315369934 0.423276186
0.114104703 0.176850110 0.245540693
0.153320700 0.186337575 0.243896410
0.220366985 0.203668281 0.248449981
0.402403235 0.275015712 0.319164842
0.766730011 0.387349755 0.433017224
0.146489829 0.304743797 0.280582219
0.188361824 0.323086381 0.296267986
0.313978761 0.377356231 0.339405358
0.477292925 0.415686518 0.372801960
0.806578040 0.530550182 0.491334170
0.331561953 0.564453244 0.417330652
0.382163256 0.570019126 0.431752235
0.483238518 0.582162857 0.440227628
0.631625831 0.607969522 0.471600413
0.874383211 0.715243459 0.586084604
0.731309414 0.876913190 0.676407456
0.744085848 0.880202174 0.684629858
0.793927670 0.886021316 0.700569153
0.870461583 0.898544729 0.728146553
0.956736147 0.918785274 0.770018995
0.084376998 0.156988993 0.503352106
0.183807403 0.175585121 0.494117945
0.327767223 0.205692694 0.478810966
0.484883249 0.246173128 0.467172235
0.798861563 0.340923637 0.556862593
0.128399864 0.260341853 0.473624259
0.198228985 0.267172515 0.462745100
0.329158813 0.282859117 0.461227119
0.478052109 0.305376410 0.458570242
0.800505877 0.408602476 0.570398331
0.199620247 0.399999946 0.465781242
0.266666681 0.404554248 0.465401560
0.390006214 0.428083658 0.480455101
0.542441666 0.448070794 0.492599636
0.821884751 0.562555313 0.604427636
0.381910384 0.581783414 0.527767301
0.431878239 0.592536211 0.543200374
0.555724502 0.623908758 0.564832389
0.721062422 0.682859242 0.632764101
0.878684461 0.746616066 0.695002913
0.753573418 0.878937602 0.750284433
0.774066865 0.879063725 0.764326334
0.820999384 0.890702188 0.783301473
0.879190445 0.899177670 0.794686794
0.948133945 0.922327638 0.826438904
0.248956591 0.298544914 0.821505547
0.346363157 0.311574757 0.822517455
0.533333182 0.340417564 0.818975568
0.731688738 0.399114281 0.808602214
0.911701560 0.475395381 0.801897585
0.335736692 0.401518166 0.807463706
0.400126249 0.413282454 0.808475435
0.561543107 0.434914708 0.809867203
0.744718313 0.472232550 0.806831062
0.905502677 0.536495507 0.804933667
0.489183813 0.586337566 0.796837389
0.531182826 0.588488102 0.796457648
0.635420799 0.599999964 0.793548107
0.773307860 0.623908699 0.801011801
0.903226018 0.656925499 0.807969809
0.644528747 0.750663936 0.817963302
0.662871599 0.754585624 0.807210624
0.730044127 0.758506894 0.815053582
0.817836881 0.771157444 0.820240498
0.918532670 0.793042064 0.836305737
0.788867772 0.898544967 0.861985803
0.799240708 0.900569201 0.872232854
0.825300634 0.899177372 0.869955599
0.892599821 0.916761637 0.882985413
0.957115650 0.937634468 0.922074616
