Assets/Resources/EldamarStudio/100 Horror LUTs Pack/LUTs/cube/Astas LUT.cube
LUT_3D_SIZE 8
DOMAIN_MIN 0.000000 0.000000 0.000000
DOMAIN_MAX 0.903226 0.903226 0.903226
0.074510001 0.019608000 0.019608000
0.092093542 0.028209999 0.032511450
0.149652004 0.048576999 0.064262994
0.216951281 0.076787002 0.079569645
0.306261986 0.113472179 0.101074994
0.424794734 0.166350737 0.138899729
0.597849548 0.209107995 0.194054574
0.823023379 0.269575775 0.256546646
0.079190098 0.069323547 0.040354453
0.109803997 0.070082545 0.051359549
0.148513556 0.097153991 0.071726546
0.211132541 0.117520280 0.082352906
0.297280371 0.150284290 0.106135540
0.418089449 0.197469994 0.149525478
0.597596228 0.239721805 0.197849557
0.815306664 0.290322334 0.258697093
0.098039001 0.152688190 0.092473097
0.108918086 0.161417007 0.084123641
0.144212186 0.162176087 0.094749995
0.205692634 0.187223196 0.110056639
0.292220086 0.216951191 0.144971281
0.420746207 0.254142851 0.182163253
0.607336819 0.303099275 0.220113888
0.819354773 0.359771907 0.281720638
0.092473000 0.255534291 0.137887284
0.116761282 0.252245277 0.135483980
0.158254191 0.250980616 0.144971281
0.207969636 0.261226922 0.150790647
0.290701836 0.296015203 0.176596835
0.425679743 0.331562102 0.204680726
0.621505439 0.382416189 0.242251918
0.826186001 0.447817922 0.312966257
0.126122802 0.364199996 0.196457982
0.152308553 0.373307824 0.200632378
0.187096998 0.371916473 0.196458176
0.251233369 0.379000366 0.209107995
0.334092349 0.394686997 0.223908991
0.471347004 0.429475129 0.248576924
0.661226928 0.490955174 0.293485045
0.853130937 0.560151756 0.367741823
0.216951206 0.532574475 0.266286999
0.245793819 0.537887275 0.275268912
0.302846313 0.541049540 0.284883082
0.374572754 0.550031722 0.287665725
0.464642674 0.559392929 0.304996938
0.577103198 0.573434174 0.321062475
0.725236952 0.618975341 0.369386464
0.876786828 0.676280677 0.452245414
0.443895817 0.722074509 0.388741553
0.454522550 0.720303833 0.402909547
0.500316203 0.725237250 0.395951748
0.565464854 0.733839512 0.420113862
0.633143544 0.737634420 0.431878746
0.719924033 0.741429090 0.447438538
0.798861265 0.759645820 0.481214285
0.900569081 0.792536259 0.546995640
0.718532383 0.885388911 0.619101405
0.729411662 0.896647751 0.625173867
0.746109903 0.898544908 0.626438618
0.776723623 0.897027135 0.637191594
0.815812588 0.899809778 0.652118683
0.860341430 0.907020867 0.671853304
0.906514883 0.916508317 0.699430585
0.959898651 0.920682907 0.715875506
0.078051552 0.036432546 0.053257097
0.095256448 0.028589547 0.053636547
0.140670538 0.057558544 0.085389093
0.184440643 0.093991093 0.106135450
0.259962171 0.134724900 0.135104358
0.381657183 0.180518538 0.178241536
0.555977285 0.220872998 0.216445252
0.795192838 0.275521964 0.275142491
0.083871000 0.065401539 0.056672640
0.106261544 0.070841536 0.066540085
0.132448003 0.094750091 0.089310996
0.182542890 0.121821538 0.111574635
0.259582549 0.154712543 0.140164196
0.379759461 0.201265007 0.178115025
0.556988955 0.247564793 0.220493242
0.784693122 0.296268195 0.276660502
0.100316092 0.143327102 0.110436186
0.112080991 0.143706635 0.111195095
0.135989636 0.151549652 0.120682999
0.187223285 0.172675654 0.128779545
0.268184841 0.210246637 0.165591538
0.391018212 0.254142910 0.198608547
0.574952602 0.304996669 0.236306071
0.804680586 0.365211576 0.301201642
0.108538546 0.232511178 0.150663823
0.130171001 0.239215732 0.159013182
0.151549637 0.240354180 0.160151631
0.198481634 0.249715373 0.165591657
0.279822826 0.283870816 0.186337993
0.403541654 0.325616539 0.223402828
0.593548119 0.380771697 0.266793281
0.814800739 0.450474083 0.331562310
0.131182745 0.358001381 0.213535547
0.149145737 0.360531032 0.217836991
0.184693187 0.363693804 0.222896829
0.249715179 0.371536911 0.226818547
0.321695179 0.378115386 0.227830291
0.450980365 0.421631724 0.261985809
0.651486337 0.481846809 0.313093185
0.841872334 0.551929116 0.390512377
0.223402545 0.519418180 0.286401004
0.241492555 0.526375711 0.290828526
0.289943159 0.523592651 0.284250498
0.360911012 0.536242604 0.299051285
0.456925750 0.544844806 0.311575174
0.554459155 0.556989074 0.320809275
0.712333798 0.605945468 0.370145351
0.867931604 0.675015628 0.461480111
0.440606803 0.716128826 0.400632381
0.450474381 0.711827576 0.404047817
0.488171875 0.714104772 0.410499632
0.551296830 0.718405962 0.419354737
0.621884704 0.724351764 0.438962847
0.706641436 0.735863328 0.459962010
0.791777253 0.750284553 0.486527354
0.898039103 0.785578907 0.550664186
0.709171116 0.881847084 0.600379407
0.714990556 0.886527479 0.615306914
0.730170488 0.885262311 0.613535702
0.764958858 0.888677955 0.629222095
0.803668618 0.892599583 0.647058666
0.854269326 0.900948405 0.666540027
0.907906353 0.908665299 0.693232238
0.953700244 0.918532431 0.718658805
0.075268902 0.045414094 0.131562188
0.106261544 0.055281546 0.136369199
0.139532089 0.065780997 0.138013899
0.192789197 0.097912900 0.148892999
0.262492180 0.142568097 0.181024984
0.361796439 0.195951998 0.217837080
0.531182766 0.239595175 0.269323260
0.771157324 0.297912717 0.325616747
0.098039001 0.096015446 0.122201093
0.117647000 0.090828992 0.130929992
0.136369079 0.107779540 0.135989636
0.181404442 0.133206993 0.150411084
0.252751529 0.173940197 0.184819996
0.353446901 0.216571540 0.225680083
0.527387500 0.264389545 0.268943816
0.767868519 0.314231724 0.329285234
0.109044902 0.149652004 0.144212186
0.123086900 0.161796555 0.150411084
0.152055994 0.188868001 0.176344082
0.188867897 0.191145003 0.181404442
0.260847270 0.224035278 0.202909276
0.373054802 0.264389843 0.243263826
0.556229949 0.313345879 0.282732576
0.790891528 0.378747642 0.354079783
0.133332998 0.243643194 0.193042636
0.139152542 0.247944534 0.195825279
0.166856095 0.256546646 0.207590178
0.208349183 0.264389724 0.211512014
0.280329078 0.287033617 0.232257813
0.395825356 0.331561893 0.263503939
0.587096691 0.382922292 0.306514919
0.804933250 0.457938015 0.377103239
0.149525285 0.361164004 0.246552974
0.173560739 0.360278159 0.259835631
0.204301193 0.365718186 0.255408078
0.254016638 0.372422695 0.262871653
0.325743258 0.382922173 0.273498088
0.447944194 0.423908919 0.299557418
0.644022763 0.485389084 0.347501487
0.830739737 0.566856325 0.428842604
0.253004640 0.525110722 0.325237095
0.268437654 0.526122570 0.327008009
0.316508740 0.530170560 0.329664558
0.372549117 0.537507772 0.335483849
0.462365568 0.544971466 0.351296663
0.559140146 0.558254480 0.363314480
0.714358091 0.612270653 0.417204380
0.870208681 0.681593835 0.503478765
0.466540039 0.709550619 0.432637632
0.478937268 0.719417930 0.450094581
0.514610946 0.718912482 0.450094849
0.571157455 0.723592460 0.461353600
0.641745627 0.729158640 0.470335454
0.712840021 0.738266945 0.492725998
0.792536438 0.751043677 0.509297848
0.899809897 0.791398048 0.582669199
0.723465919 0.885894656 0.639595330
0.734471679 0.891966999 0.648956060
0.753067672 0.890448749 0.652118683
0.779126704 0.892979145 0.660467863
0.817963362 0.895761728 0.673877597
0.863883555 0.900948465 0.690575421
0.906008959 0.911068857 0.709171295
0.958380640 0.915496767 0.734218538
0.070588000 0.053257290 0.227704287
0.103858545 0.065780997 0.220746279
0.150790542 0.087286651 0.209360823
0.188361645 0.109297641 0.202403635
0.259202987 0.149525389 0.227071181
0.362808108 0.198988095 0.264263093
0.531688929 0.243896335 0.317899972
0.761037171 0.311068803 0.387223303
0.097659647 0.109930634 0.200758919
0.110815734 0.117014632 0.191777274
0.148513541 0.125237077 0.193295270
0.181277737 0.137760997 0.196078539
0.256166995 0.176976293 0.224668205
0.353067547 0.219228283 0.264642537
0.526502430 0.269070536 0.320303380
0.751296520 0.333333105 0.385831714
0.110183448 0.176976383 0.202276826
0.130043998 0.178114742 0.205060184
0.155850992 0.187855989 0.211385176
0.186717540 0.201644644 0.216065988
0.258317471 0.234914392 0.250980616
0.359139472 0.274889171 0.280961275
0.542820811 0.327893674 0.340670288
0.770524919 0.390512347 0.411258698
0.127766997 0.239468277 0.223150000
0.142188549 0.245414525 0.239722088
0.183302000 0.273244977 0.252119184
0.238329917 0.299430639 0.276407242
0.292599469 0.308412462 0.283744723
0.393295467 0.340544283 0.313093275
0.570525169 0.394813210 0.363946557
0.790765166 0.470208615 0.433902770
0.172296003 0.361037195 0.299810350
0.188615084 0.366350442 0.294750035
0.230486929 0.378241479 0.306641400
0.275015801 0.382795364 0.316382289
0.339152217 0.391777217 0.319418162
0.451359659 0.433017254 0.350031555
0.630740047 0.493611723 0.399493963
0.828462541 0.572928309 0.480581731
0.274636179 0.514611125 0.365718096
0.295002997 0.519291580 0.368754178
0.335989952 0.525996387 0.381151170
0.388109118 0.532827199 0.383301705
0.471600562 0.547627926 0.398861647
0.562049210 0.556103647 0.412903100
0.711827993 0.611891091 0.458570361
0.862998068 0.687792122 0.547880888
0.480961472 0.707526922 0.490575612
0.499304175 0.703478813 0.488930941
0.525236905 0.705376506 0.489310294
0.575584769 0.708159149 0.497533232
0.635673344 0.720809817 0.507779896
0.713851929 0.731056154 0.531815290
0.793927848 0.746742129 0.555724263
0.892599463 0.789373636 0.618595839
0.736748695 0.877419412 0.659962237
0.736748934 0.880708337 0.661733031
0.750790179 0.883870780 0.671726584
0.776217222 0.886527598 0.679063857
0.810626149 0.892093599 0.694370210
0.860974073 0.895256042 0.705755591
0.904996693 0.908412278 0.735483766
0.954459071 0.919291556 0.764073193
0.069070198 0.090828799 0.334598392
0.104617350 0.101833992 0.328779340
0.165338203 0.119797185 0.315622985
0.219355002 0.144971192 0.307526827
0.274003983 0.168374196 0.296900809
0.367361993 0.209108174 0.326881915
0.545983553 0.254522264 0.381277472
0.778747737 0.321947753 0.457305640
0.104490802 0.150790647 0.308285743
0.118405908 0.155091912 0.300569415
0.160658091 0.164958641 0.294876665
0.217078000 0.178747803 0.296647638
0.269829422 0.193548188 0.300063163
0.364832252 0.229475185 0.325489730
0.541049898 0.277293026 0.381783724
0.769006729 0.343580127 0.449462175
0.121568806 0.214548007 0.281973273
0.138899088 0.220113903 0.298924625
0.164452985 0.224035084 0.300063074
0.217837095 0.231878281 0.294117630
0.266160578 0.247564897 0.297533154
0.377356172 0.281973392 0.337887526
0.554711878 0.331941575 0.395319372
0.779000461 0.408854961 0.467678785
0.143073842 0.284503281 0.303226054
0.156989440 0.290322632 0.302719742
0.199620366 0.299177974 0.313725621
0.256799281 0.315623283 0.328905374
0.312207460 0.328146368 0.332320839
0.419608027 0.366477102 0.378241450
0.592156708 0.414927274 0.428969085
0.790006399 0.490575612 0.498418421
0.177735373 0.369639188 0.327387571
0.204047918 0.374825716 0.352688193
0.245034978 0.391651183 0.358001262
0.329158604 0.427324653 0.387476444
0.418848574 0.458064586 0.419734180
0.506388545 0.469070375 0.427197903
0.647185624 0.516129076 0.469196558
0.819354773 0.591777205 0.538519800
0.312839985 0.529032052 0.427197725
0.325869828 0.528273106 0.432763815
0.375205725 0.539911091 0.438583404
0.444149196 0.558380485 0.460468262
0.506641150 0.565464675 0.466034174
0.592536688 0.581530750 0.482099742
0.722201288 0.629854202 0.529285192
0.863124609 0.698798120 0.604680359
0.513978362 0.706388593 0.540290833
0.540291071 0.708665311 0.547628224
0.564832509 0.711195350 0.552814543
0.604680479 0.718279421 0.557874799
0.658443749 0.724478364 0.567615330
0.722580731 0.733839512 0.582289577
0.797975838 0.746236563 0.605186462
0.900569022 0.796331525 0.666033745
0.747121692 0.880328596 0.703352153
0.748513579 0.879063845 0.707526863
0.761163592 0.882985532 0.712966442
0.788235188 0.887539387 0.719038188
0.823276401 0.893611729 0.725110590
0.857811630 0.902466595 0.738772810
0.910815835 0.909044743 0.761163652
0.952687979 0.915749371 0.783048570
0.076280735 0.142820731 0.461859465
0.119417928 0.150917172 0.455914199
0.193674818 0.163187832 0.446805537
0.266287118 0.182415992 0.441113114
0.349652380 0.201265186 0.429854274
0.430233926 0.228968725 0.424667716
0.567868769 0.263504028 0.459835887
0.792789221 0.336875379 0.535863280
0.099177547 0.190259084 0.431246459
0.131941542 0.198229000 0.440986902
0.192662999 0.202276915 0.431119651
0.260847837 0.213282526 0.422643453
0.332574308 0.227324530 0.417963266
0.414674461 0.249335721 0.418469012
0.559139609 0.283618212 0.448576570
0.780645132 0.356483161 0.534345090
0.137761086 0.262618750 0.413662106
0.156862631 0.264895618 0.417710453
0.204301193 0.268690735 0.412397355
0.265528023 0.277545840 0.409993529
0.337887436 0.288931280 0.413282663
0.423149884 0.301834345 0.423149705
0.575964570 0.344971746 0.465275079
0.793927670 0.419734389 0.548893273
0.167235732 0.337254465 0.411132216
0.191524267 0.340797126 0.417583913
0.235294268 0.346742541 0.411511451
0.292852640 0.352182269 0.420493126
0.362681538 0.362428546 0.419734299
0.449082971 0.378494620 0.437191725
0.607716680 0.423402667 0.488045931
0.804174423 0.508918166 0.564579368
0.226312727 0.423908919 0.433902919
0.244023010 0.425806582 0.440100998
0.289689898 0.436812192 0.442631096
0.360531360 0.453763694 0.459202915
0.450221121 0.478431165 0.484250724
0.543453395 0.497280359 0.498418897
0.676660061 0.539785087 0.540290534
0.823276103 0.611511707 0.606072247
0.328273445 0.534218729 0.485262483
0.354585826 0.536622047 0.486527920
0.392662585 0.551549733 0.494370848
0.467678845 0.568754137 0.511954367
0.574699402 0.607210696 0.550031960
0.671473682 0.636306167 0.587223411
0.752181947 0.659076929 0.610373139
0.866793275 0.715749443 0.662871718
0.529411852 0.708285809 0.592536271
0.549525738 0.704617321 0.595319092
0.583934128 0.711068630 0.604680538
0.629601240 0.722833633 0.616192222
0.694117904 0.737887263 0.635420799
0.745350718 0.750031710 0.650600731
0.808349550 0.757242560 0.658696949
0.904870391 0.810120106 0.721568525
0.749019444 0.876154482 0.740670502
0.763061285 0.881846607 0.749272823
0.771789789 0.878810585 0.752688229
0.798608601 0.885135591 0.761290312
0.826185703 0.889436960 0.767109334
0.864263237 0.893864512 0.777988434
0.904237568 0.909804046 0.798481643
0.950663984 0.921568692 0.814800799
0.113978274 0.201264992 0.637444854
0.170904830 0.209487543 0.638330460
0.253510565 0.216824889 0.630360365
0.357242197 0.232763916 0.628589511
0.467805177 0.251992583 0.618469238
0.577355862 0.268437564 0.614927292
0.683111846 0.300568968 0.603415847
0.814421415 0.352308482 0.627956927
0.132447526 0.249588534 0.616192579
0.181277573 0.250221550 0.613282859
0.255408108 0.254902005 0.610246837
0.355091542 0.266793460 0.609487712
0.456293404 0.281973302 0.608855188
0.566476762 0.300569057 0.603921533
0.677545547 0.320303798 0.598608553
0.807590127 0.373434156 0.623403072
0.177229553 0.322580576 0.599746704
0.217836633 0.328146666 0.608855247
0.282985628 0.331309378 0.600252926
0.366603643 0.342188358 0.599114478
0.466919571 0.350664169 0.592409790
0.575078905 0.365085334 0.597975791
0.679063678 0.385831445 0.600252867
0.813409090 0.438583076 0.635673702
0.244149193 0.411131918 0.594939828
0.273118198 0.415559530 0.589753270
0.325489998 0.415939093 0.588109016
0.401138544 0.428968966 0.586084783
0.493358821 0.435926557 0.591650784
0.589247227 0.447691441 0.598355472
0.687539160 0.465528250 0.604554176
0.821126044 0.525110602 0.644781828
0.329791456 0.511195183 0.604427338
0.353320658 0.517267406 0.600126147
0.402782857 0.518279433 0.602909565
0.467805237 0.525363743 0.603162408
0.544718623 0.533965468 0.605313182
0.628715992 0.549525738 0.615306497
0.717899919 0.565085649 0.620113552
0.839468598 0.626438737 0.678051889
0.453130990 0.621252000 0.636812270
0.470082253 0.620999455 0.628463030
0.502972662 0.625679612 0.631119490
0.559266269 0.631119490 0.639215410
0.633269906 0.651486456 0.651865780
0.706768036 0.668564200 0.663757265
0.782922029 0.686906993 0.684629977
0.878810704 0.738899410 0.734092355
0.565464854 0.724351823 0.662238836
0.577609241 0.721694946 0.663124561
0.601897478 0.722833574 0.664010406
0.649336159 0.731056213 0.678937554
0.708665490 0.747248292 0.693864405
0.783554733 0.773940325 0.724604607
0.842378497 0.804427564 0.755091846
0.911321938 0.833396554 0.792156696
0.764199853 0.871220589 0.781783402
0.761417031 0.883491516 0.792916059
0.779000521 0.881720304 0.795825362
0.803668320 0.882732391 0.803288758
0.839974701 0.894244015 0.814927220
0.876913071 0.902719319 0.832764268
0.908159494 0.914104640 0.843263865
0.952055633 0.921062469 0.859329402
0.248956591 0.298544914 0.821505547
0.289183855 0.304111302 0.821884990
0.365844607 0.315622807 0.820999324
0.468184561 0.331056237 0.819354713
0.594560504 0.355218142 0.820240438
0.706388354 0.389753044 0.814421475
0.811638057 0.433902413 0.809487820
0.911701560 0.475395381 0.801897585
0.274509847 0.339405596 0.818596005
0.309677571 0.340796679 0.815686226
0.379253507 0.349019229 0.812649965
0.485515445 0.367995143 0.810373187
0.592915773 0.387476146 0.813535750
0.710056722 0.417836934 0.807842851
0.812650144 0.453636825 0.801391423
0.903605342 0.496015102 0.805313230
0.353194237 0.425553709 0.799367547
0.370904565 0.432131469 0.806451559
0.430233836 0.438582838 0.808222532
0.522201121 0.445414037 0.807969689
0.615939140 0.465401590 0.802403450
0.723719358 0.487918884 0.805060089
0.814674318 0.515622914 0.803288758
0.900695622 0.550157905 0.801644623
0.442757666 0.533712804 0.799240768
0.462871104 0.530676842 0.793801546
0.503478408 0.539405167 0.801517606
0.570145249 0.545603991 0.798355341
0.652371764 0.560024858 0.800505936
0.738899410 0.570525289 0.797343254
0.823529243 0.589753151 0.799114227
0.903984785 0.616065502 0.805945396
0.531815112 0.632257998 0.795445561
0.546995401 0.634788036 0.797090590
0.576090932 0.635420680 0.798228741
0.627197802 0.642251790 0.797849357
0.694876790 0.650727332 0.796710730
0.762301922 0.662871480 0.798481584
0.833902419 0.675395310 0.804680645
0.900316119 0.696520805 0.807842791
0.625047565 0.728905499 0.808602214
0.631498873 0.732827365 0.808095932
0.659076452 0.734092176 0.809234500
0.690449119 0.734092355 0.809740543
0.739279032 0.737887383 0.809614062
0.792789340 0.748893321 0.814674199
0.853763521 0.758127451 0.820746303
0.912713647 0.773813605 0.828462660
0.703099310 0.820873082 0.831372619
0.711701274 0.816951334 0.831625283
0.727766871 0.821758270 0.831372619
0.752055466 0.823403060 0.832763910
0.790385723 0.825426936 0.837065101
0.833776116 0.831246078 0.839341879
0.881467223 0.847185314 0.850347996
0.931056380 0.854143023 0.858570397
0.788867772 0.898544967 0.861985803
0.785705447 0.902593374 0.864642441
0.797469795 0.899304032 0.868184626
0.816065788 0.899683535 0.865907788
0.848323643 0.901581347 0.871600568
0.881720364 0.913472533 0.880202591
0.921442032 0.925616503 0.895635486
0.957115650 0.937634468 0.922074616
