Assets/Resources/EldamarStudio/100 Horror LUTs Pack/LUTs/cube/Astas LUT.cube
DOMAIN_MIN 0 0 0
DOMAIN_MAX 1 1 1
LUT_3D_SIZE 32
0.074510001 0.019608000 0.019608000
0.074510001 0.019608000 0.019608000
0.078811005 0.019608000 0.021758227
0.084883004 0.022138000 0.026059322
0.092093542 0.028209999 0.032511450
0.107273929 0.034281999 0.041619062
0.119923994 0.042884320 0.050727319
0.133712694 0.047059000 0.058190994
0.149652004 0.048576999 0.064262994
0.167868003 0.054649007 0.070335001
0.180265740 0.063630871 0.073497869
0.196457997 0.070714995 0.076533742
0.216951281 0.076787002 0.079569645
0.240987033 0.083112031 0.082859002
0.262239397 0.092220411 0.088930994
0.283491790 0.101328187 0.095002994
0.306261986 0.113472179 0.101074994
0.331182539 0.129285127 0.107779570
0.358506978 0.147501945 0.116887979
0.391398072 0.154586017 0.125996351
0.424794734 0.166350737 0.138899729
0.460215122 0.179506868 0.154079869
0.499936491 0.188614503 0.169006497
0.545477748 0.197722912 0.178114906
0.597849548 0.209107995 0.194054574
0.652498245 0.221252322 0.210879296
0.707653165 0.233902931 0.225047067
0.765338242 0.249082521 0.234155446
0.823023379 0.269575775 0.256546646
0.877166092 0.290828168 0.280834913
0.926122189 0.317393780 0.305123180
0.968626976 0.356862992 0.329412013
0.083618388 0.013536001 0.025680000
0.074510001 0.016571613 0.025680000
0.078811005 0.018722387 0.027830776
0.084883004 0.023403160 0.033396613
0.092093542 0.030866839 0.041239612
0.107273929 0.034281999 0.047691066
0.117394321 0.045414001 0.044149000
0.130676672 0.055028319 0.057305314
0.146615803 0.059202999 0.066540100
0.164832398 0.060721006 0.061227392
0.185958251 0.069702871 0.073118389
0.204554245 0.078811251 0.078557998
0.220367029 0.085895389 0.082606032
0.235167995 0.091967389 0.085389383
0.259202987 0.098292410 0.085895382
0.280455381 0.107400186 0.091967382
0.306261986 0.119544178 0.099557191
0.335483938 0.134092137 0.108412147
0.367615372 0.147501945 0.119924366
0.389373779 0.160152018 0.129032046
0.425553322 0.170524985 0.141935349
0.463250995 0.182542741 0.155091748
0.502846360 0.191777378 0.166223884
0.545477748 0.203794912 0.181151301
0.602403522 0.215179995 0.197090387
0.658570230 0.227324322 0.212523594
0.713219225 0.239468992 0.225047067
0.768374681 0.252118915 0.234155446
0.820746124 0.267299205 0.248576805
0.875900924 0.291334540 0.271726996
0.924351215 0.317773581 0.298671961
0.962554991 0.350791007 0.329412013
0.081973448 0.026818775 0.031751998
0.079316847 0.023403160 0.033902772
0.076660231 0.028589547 0.029601775
0.083997391 0.031625614 0.035167839
0.092093542 0.038962770 0.043136999
0.107273929 0.045540836 0.045667000
0.115243547 0.051865771 0.050221000
0.129285216 0.060720772 0.049082708
0.144971102 0.068564005 0.064263098
0.161796212 0.071347006 0.063504487
0.182922095 0.080075867 0.070461996
0.202150732 0.087159999 0.078557998
0.222137988 0.095003217 0.081214361
0.235041276 0.101075225 0.082226478
0.255534738 0.107147224 0.084124222
0.279569775 0.119923964 0.093232222
0.302340388 0.130550146 0.102340221
0.330170989 0.144465521 0.110815577
0.359013259 0.156609967 0.118406177
0.392030388 0.166603789 0.134218648
0.420872718 0.178747773 0.145224467
0.459835380 0.189879894 0.158127636
0.499684006 0.198988244 0.167488724
0.546236813 0.209108010 0.182669133
0.595951736 0.221252546 0.193674996
0.653889835 0.233396530 0.209107980
0.709044814 0.245540991 0.222770065
0.765338182 0.257684976 0.238456443
0.819481492 0.274636596 0.257178813
0.876407087 0.295129716 0.275901139
0.927387357 0.324731171 0.300695777
0.965084970 0.357621998 0.331562221
0.078431003 0.048071161 0.036559161
0.078431003 0.044529159 0.040860385
0.083491325 0.043263998 0.042504996
0.088551328 0.048071157 0.037697840
0.096521154 0.051106770 0.046805546
0.107273929 0.058443930 0.049462158
0.117394000 0.066287160 0.050727323
0.128779158 0.073624320 0.057684708
0.146995172 0.079696320 0.060721092
0.162681505 0.085768327 0.068817489
0.179886028 0.092219867 0.073750839
0.197849512 0.099303991 0.078557998
0.216066003 0.105376281 0.081214361
0.234788075 0.111701287 0.078937069
0.255028814 0.118785158 0.082985580
0.276787132 0.128272787 0.093232155
0.299810052 0.143200219 0.102846153
0.326628774 0.155344978 0.116887711
0.353447050 0.167489186 0.123719141
0.385072589 0.178115368 0.134345010
0.420872718 0.186590984 0.148766473
0.458317369 0.197723120 0.161923125
0.498545468 0.207084492 0.171663299
0.545983613 0.218469411 0.185705066
0.596837461 0.228589401 0.195066288
0.648576617 0.238203824 0.206831142
0.703732073 0.250853896 0.219987154
0.761416376 0.263756990 0.240480423
0.816445231 0.282479495 0.260467976
0.869576275 0.304238081 0.282985151
0.926755130 0.329411715 0.308665156
0.967362165 0.364706010 0.337128133
0.079190098 0.069323547 0.040354453
0.079949096 0.069323547 0.046806000
0.087033547 0.067552321 0.052118998
0.099177994 0.066666707 0.053636838
0.109803997 0.070082545 0.051359549
0.109803997 0.073118158 0.060467936
0.119923994 0.080834866 0.060974319
0.133333147 0.088804699 0.063377835
0.148513556 0.097153991 0.071726546
0.166729555 0.103225999 0.074762933
0.179886192 0.106767669 0.077798679
0.194434255 0.111827537 0.080834806
0.211132541 0.117520280 0.082352906
0.229348540 0.123846032 0.080581546
0.253384262 0.132953674 0.086907275
0.276028216 0.140417084 0.097027436
0.297280371 0.150284290 0.106135540
0.320556104 0.164452597 0.113852002
0.356988966 0.176597401 0.135104418
0.385451913 0.188741565 0.141555741
0.418089449 0.197469994 0.149525478
0.456799358 0.204554126 0.161543578
0.502340436 0.213662505 0.176597431
0.547880888 0.228336915 0.188741460
0.597596228 0.239721805 0.197849557
0.650347948 0.247817531 0.206957653
0.702593625 0.255407602 0.222643986
0.760277927 0.270587981 0.240859985
0.815306664 0.290322334 0.258697093
0.866793334 0.312966377 0.280834913
0.914231598 0.337381572 0.306767613
0.962808430 0.364706010 0.343200445
0.085262865 0.090575933 0.049462065
0.091334864 0.090575933 0.058570448
0.092093870 0.090575933 0.060720995
0.099177994 0.090069868 0.057937838
0.109803997 0.091334932 0.051359549
0.109803997 0.097406931 0.054395936
0.119923994 0.102972865 0.063504323
0.132067993 0.106261931 0.065655001
0.144718260 0.109297998 0.069449842
0.157621950 0.115370005 0.077798545
0.175837934 0.121441998 0.080834933
0.193042561 0.127007931 0.083871193
0.211891636 0.131941572 0.086907282
0.232384935 0.135990039 0.089689933
0.250600934 0.145098403 0.101833925
0.277039856 0.156609863 0.108159050
0.300316274 0.166224062 0.115243450
0.322833478 0.176344275 0.121948346
0.350916982 0.185705021 0.132068053
0.381783724 0.197849780 0.150537789
0.413535655 0.208096176 0.158633873
0.449462384 0.216698125 0.165718004
0.490196437 0.225806504 0.173561037
0.535736918 0.234914914 0.185705066
0.583554506 0.249589279 0.202403635
0.638203681 0.260974169 0.213029921
0.696395159 0.270588011 0.222643986
0.751170337 0.285768360 0.240859985
0.806198478 0.300948739 0.256419808
0.859076619 0.320683092 0.279190212
0.906641603 0.342441589 0.304237574
0.947628081 0.364706010 0.328020066
0.088804677 0.119417995 0.068690322
0.089816675 0.119417995 0.065148383
0.095888682 0.117267765 0.067805000
0.099177681 0.116888314 0.069070160
0.108412221 0.117267765 0.066540092
0.114863999 0.121188998 0.069575936
0.124983996 0.124731317 0.072612323
0.137128413 0.125869602 0.078431711
0.150031537 0.125743091 0.079317316
0.163946658 0.130044326 0.083112165
0.179380000 0.141176328 0.088931188
0.195572257 0.145224586 0.089943320
0.214421317 0.151928991 0.093612000
0.235420734 0.158001050 0.098292321
0.253637284 0.164832726 0.105882302
0.274257094 0.171537310 0.118026309
0.298292100 0.183428317 0.125869513
0.321441799 0.193548575 0.133586571
0.350664020 0.202656686 0.142694682
0.383301407 0.214547709 0.155091733
0.419354886 0.224794731 0.167615741
0.457052559 0.234914631 0.177356184
0.498545438 0.245540828 0.187982023
0.548892915 0.254649222 0.195319653
0.601265132 0.266034305 0.202909648
0.653130889 0.279569983 0.218722656
0.710057199 0.290828377 0.229728252
0.762682140 0.306008756 0.245919973
0.814800620 0.326249123 0.271600455
0.867678523 0.344971478 0.292093575
0.918406129 0.368880510 0.319544494
0.962808311 0.395066649 0.345730633
0.093484998 0.138266698 0.083364703
0.095129706 0.141555697 0.074003711
0.094497003 0.145983472 0.078810699
0.100569002 0.141682699 0.075015537
0.107400090 0.140923694 0.076533839
0.117773645 0.142694473 0.079569772
0.131055996 0.140797019 0.085895024
0.136621997 0.145477697 0.085642003
0.148007676 0.144718409 0.087919287
0.161416546 0.148640200 0.087919295
0.179885864 0.155470982 0.095382996
0.195066258 0.164832249 0.099051282
0.210246637 0.169006988 0.100189924
0.230993032 0.177102730 0.106261991
0.253384113 0.181783825 0.115116984
0.274004072 0.191144988 0.125995979
0.295256466 0.198735178 0.135104373
0.318405837 0.210752681 0.144718677
0.348766685 0.220872968 0.154838979
0.383554369 0.229475006 0.165085718
0.420746207 0.239721730 0.175332025
0.461227238 0.249841988 0.184440404
0.504111469 0.262112498 0.198102221
0.555723906 0.274256885 0.205692813
0.607969403 0.283997715 0.213409290
0.662618518 0.297533363 0.222264618
0.717267513 0.310436338 0.237697989
0.770019293 0.325616419 0.254016221
0.818342745 0.342820793 0.274889469
0.871599793 0.362428874 0.300442934
0.920556426 0.388994277 0.327387571
0.967615306 0.421631992 0.358507276
0.098039001 0.152688190 0.092473097
0.101075388 0.158001095 0.084123991
0.101328224 0.162428766 0.085389100
0.102086999 0.166730016 0.091713928
0.108918086 0.161417007 0.084123641
0.121062867 0.161417007 0.087160029
0.131941780 0.159392998 0.092220224
0.141176000 0.157622099 0.097786382
0.144212186 0.162176087 0.094749995
0.153320596 0.168248087 0.094750002
0.172548965 0.171410233 0.101201780
0.190512255 0.177735254 0.106261835
0.205692634 0.187223196 0.110056639
0.221631989 0.193295196 0.113599032
0.248450294 0.196837515 0.125237077
0.270967692 0.206325188 0.135863081
0.292220086 0.216951191 0.144971281
0.317267597 0.225426987 0.152308881
0.348007977 0.237318024 0.164452925
0.383934200 0.245414212 0.175332263
0.420746207 0.254142851 0.182163253
0.461227238 0.264263093 0.192030221
0.504111469 0.276533604 0.201012090
0.555723906 0.291714013 0.209487915
0.607336819 0.303099275 0.220113888
0.661100328 0.314990640 0.231372222
0.715749204 0.330171049 0.244529024
0.770398617 0.345350713 0.262745082
0.819354773 0.359771907 0.281720638
0.868690312 0.379759490 0.304238021
0.918279171 0.400379747 0.328905582
0.960784018 0.439848185 0.362302005
0.098039001 0.183048978 0.101581492
0.101075396 0.186084598 0.104617096
0.104111224 0.182795495 0.102719776
0.108158991 0.179886013 0.102846324
0.114990093 0.179633006 0.105376035
0.127134860 0.179633006 0.108412407
0.129158989 0.184693009 0.106388159
0.134724766 0.185325727 0.110436223
0.144212201 0.183428496 0.116002388
0.156356990 0.183428496 0.112966008
0.171284363 0.186590627 0.112966008
0.188741475 0.191650480 0.115369782
0.205692634 0.200126305 0.119544484
0.221631989 0.211511984 0.125743032
0.245919973 0.217583969 0.134851411
0.267931283 0.225933298 0.141682476
0.289183706 0.235167786 0.148007482
0.314231217 0.243643001 0.155344501
0.353700459 0.249715045 0.167488530
0.390006751 0.261606753 0.182415888
0.424541712 0.273497999 0.187855512
0.461227238 0.285515517 0.192283273
0.504111469 0.297785968 0.204048485
0.555723906 0.312966406 0.210120499
0.607336819 0.325869471 0.223150283
0.661732972 0.339278638 0.238077253
0.718785584 0.354459077 0.253636628
0.773434281 0.369639426 0.271853417
0.828083098 0.382162958 0.292726278
0.878810346 0.405059874 0.317394137
0.924098194 0.433143675 0.343706429
0.960784018 0.458064973 0.368374020
0.100948870 0.195951998 0.110689126
0.106894389 0.201897487 0.116635360
0.101328224 0.204933643 0.106767967
0.105122998 0.204933584 0.107020997
0.114104547 0.206577867 0.113092870
0.118659005 0.206577867 0.103478938
0.130803123 0.201517880 0.116635323
0.135610119 0.204427585 0.115876034
0.144971102 0.205439776 0.119164996
0.159266114 0.207589984 0.122580387
0.171410874 0.207589984 0.119544744
0.188614994 0.210626125 0.125616476
0.205692634 0.215812743 0.130423635
0.221379027 0.224162042 0.134977907
0.243010849 0.232890859 0.144086286
0.264895648 0.241366044 0.150790870
0.290701866 0.251992494 0.156862870
0.317393720 0.263124734 0.164199859
0.347754955 0.273750752 0.176343888
0.384440035 0.285388738 0.182921872
0.422770470 0.297532976 0.195825472
0.461227238 0.308665156 0.201897740
0.503984988 0.319038361 0.210120469
0.552814782 0.334218770 0.218975127
0.604427695 0.342567861 0.227324411
0.658823490 0.354838520 0.242631435
0.715496361 0.370018929 0.259329677
0.767741799 0.385199279 0.275142014
0.819734395 0.408348799 0.293358773
0.870588183 0.426818043 0.319670916
0.918279409 0.450221181 0.347248316
0.960784018 0.470462024 0.371536881
0.095888749 0.226312235 0.123845249
0.103985012 0.224288240 0.125869513
0.107400224 0.224162027 0.127008200
0.104617000 0.227198094 0.116888143
0.115243092 0.229474783 0.124857701
0.123213187 0.227830499 0.124224983
0.131814986 0.228842244 0.126755312
0.142314702 0.224414960 0.132068276
0.149525344 0.226692155 0.130550086
0.162175775 0.229727760 0.135357246
0.176470727 0.231878504 0.134724855
0.188614994 0.233902246 0.133712992
0.206830993 0.238077253 0.141682252
0.223149806 0.243896455 0.145604029
0.242631406 0.249462396 0.151170403
0.261859536 0.262618691 0.159898728
0.289183915 0.271726698 0.167488933
0.320682704 0.282100230 0.174066991
0.350790918 0.291461289 0.183428004
0.382416010 0.301581025 0.187982261
0.418848455 0.313725471 0.195951998
0.460215122 0.325869501 0.206957862
0.504237950 0.336116225 0.214168236
0.556609809 0.349398911 0.223276362
0.611511886 0.361796498 0.236432537
0.661733270 0.373434484 0.249715224
0.716508448 0.389753252 0.267425805
0.768121541 0.406451404 0.282605797
0.819734156 0.421505451 0.300442368
0.866034031 0.442251474 0.322201103
0.912333906 0.465907425 0.352940828
0.956736028 0.488678247 0.380644977
0.092473000 0.255534291 0.137887284
0.101581380 0.252877653 0.139025643
0.106388226 0.251233399 0.137887284
0.110689282 0.249589115 0.138899148
0.116761282 0.252245277 0.135483980
0.127387866 0.249968573 0.140796706
0.137001678 0.249715328 0.144844964
0.148386702 0.251739353 0.145730570
0.158254191 0.250980616 0.144971281
0.167742148 0.254395813 0.148387134
0.181530878 0.256293505 0.150790647
0.195825636 0.259329647 0.151928991
0.207969636 0.261226922 0.150790647
0.226185635 0.267299622 0.156103611
0.244402170 0.271220833 0.157368779
0.266034275 0.282732427 0.166350469
0.290701836 0.296015203 0.176596835
0.323465765 0.304490983 0.183807641
0.356356949 0.310562968 0.188867643
0.388108641 0.319417924 0.196711004
0.425679743 0.331562102 0.204680726
0.465148389 0.344718784 0.214800984
0.511068940 0.357115775 0.223782152
0.565717816 0.370271921 0.230866551
0.621505439 0.382416189 0.242251918
0.678431273 0.395066619 0.257684976
0.727008283 0.413282782 0.276913136
0.777988911 0.431498915 0.293991059
0.826186001 0.447817922 0.312966257
0.874762595 0.464642584 0.337001652
0.914610863 0.485515416 0.364832193
0.956356645 0.515623271 0.398481637
0.099050999 0.269450039 0.150031999
0.107147381 0.272232682 0.153320655
0.112207256 0.275268793 0.151549742
0.117014289 0.276787013 0.152055874
0.123593032 0.277040005 0.153699994
0.129665032 0.277040005 0.147627994
0.137760714 0.275015742 0.149146318
0.149904698 0.275015742 0.150031999
0.164073154 0.278052002 0.151803032
0.176217943 0.284124017 0.157875031
0.188868031 0.284883082 0.164199993
0.203036219 0.286907285 0.167488769
0.217330992 0.289058030 0.168500647
0.229981065 0.289058059 0.166224003
0.248197049 0.295130044 0.163187623
0.273118377 0.305249989 0.171157569
0.301454991 0.317394048 0.183048993
0.331815124 0.328779042 0.193674996
0.362175971 0.334851027 0.193675011
0.396584392 0.343959361 0.206831336
0.437318176 0.356609732 0.219860986
0.482859105 0.371537179 0.231498986
0.528526008 0.386717528 0.243516505
0.582921863 0.401897937 0.246805906
0.637824059 0.415053993 0.254902273
0.693105578 0.427704036 0.267046303
0.749272287 0.440607160 0.283491135
0.797849774 0.458823919 0.307779878
0.841366529 0.479696840 0.329411775
0.886654258 0.500948787 0.355724335
0.930803597 0.523971796 0.387855977
0.964200020 0.551297009 0.424288034
0.111194983 0.302846372 0.162175998
0.108159378 0.302846372 0.168247983
0.114105001 0.305629045 0.162934631
0.122074410 0.306135118 0.165211737
0.132953659 0.304490834 0.174825847
0.144845411 0.307399958 0.165843979
0.148387089 0.309930295 0.167362303
0.157621399 0.310056806 0.165464982
0.169639081 0.309930295 0.164453089
0.179253563 0.308411986 0.173055395
0.197217330 0.314484715 0.182036534
0.212144151 0.317267537 0.180391982
0.227324218 0.320303619 0.178494409
0.242125064 0.322454393 0.178367987
0.260341823 0.322454423 0.184439987
0.280961603 0.326122582 0.183807403
0.304996967 0.335610360 0.190891773
0.331815124 0.347754806 0.201264977
0.362176001 0.359139830 0.211890996
0.409234762 0.370777816 0.217456982
0.450853884 0.382289380 0.227324307
0.495003104 0.395066231 0.236052990
0.540669978 0.407969892 0.243516505
0.589247584 0.423150301 0.252624899
0.645920098 0.438330084 0.265022278
0.698797822 0.454269320 0.280328959
0.749272287 0.470714897 0.298418462
0.797849774 0.486148298 0.319923878
0.843769729 0.507021189 0.341555774
0.885135710 0.528273523 0.366350144
0.924730957 0.551296771 0.396963745
0.958127975 0.578621387 0.433396399
0.118532605 0.333839595 0.176723793
0.115496382 0.338646591 0.180391982
0.121062763 0.338646591 0.184313759
0.129917800 0.341429234 0.181277439
0.139784798 0.340670317 0.188487992
0.139785066 0.339658469 0.177355871
0.161163673 0.340290904 0.183175117
0.165844411 0.340037882 0.181277797
0.176470608 0.340796769 0.178241789
0.187223300 0.342694104 0.185705468
0.205059931 0.343579710 0.187602937
0.221252441 0.345603973 0.194686815
0.236432448 0.348260432 0.193548441
0.251865804 0.351296753 0.194813594
0.270082027 0.353446990 0.196584597
0.293105781 0.358254582 0.202656597
0.312839955 0.359772384 0.202656597
0.338519692 0.369007170 0.209740788
0.374193788 0.382921994 0.221884817
0.414041758 0.392662793 0.228462800
0.460721195 0.406704515 0.236432537
0.503732026 0.420366734 0.244528800
0.548134089 0.434029281 0.250980288
0.598987818 0.449209690 0.264642686
0.652119339 0.466666758 0.278305054
0.706894219 0.481973231 0.294876754
0.755976975 0.498671860 0.313092798
0.802656770 0.513852179 0.332447410
0.848576725 0.534345567 0.351296604
0.888804317 0.557368696 0.379632920
0.928525984 0.578368187 0.413535565
0.966476977 0.601138830 0.454522580
0.126122802 0.364199996 0.196457982
0.123086803 0.371790171 0.197975799
0.131688952 0.372042984 0.197975963
0.140797019 0.370778143 0.197217196
0.152308553 0.373307824 0.200632378
0.151929170 0.372548908 0.197596371
0.162049189 0.373561174 0.197090313
0.177988410 0.374952853 0.199494183
0.187096998 0.371916473 0.196458176
0.200759009 0.375711381 0.202530175
0.215686381 0.375964373 0.202783182
0.234914631 0.379000366 0.205312982
0.251233369 0.379000366 0.209107995
0.267299235 0.381657213 0.211764842
0.286780357 0.384693146 0.213029996
0.306767553 0.390132815 0.217836991
0.334092349 0.394686997 0.223908991
0.352940917 0.394686997 0.222644001
0.387096941 0.405439228 0.229475006
0.426565379 0.418089539 0.239088982
0.471347004 0.429475129 0.248576924
0.518912196 0.444655269 0.259709299
0.563187957 0.459961981 0.267425865
0.613409102 0.476534098 0.279822886
0.661226928 0.490955174 0.293485045
0.714484751 0.509171188 0.308665454
0.764579356 0.524984121 0.326249063
0.809108257 0.541176617 0.343453169
0.853130937 0.560151756 0.367741823
0.888804317 0.580139279 0.388741314
0.927008152 0.605312943 0.422137737
0.969512999 0.625427186 0.465148807
0.137128145 0.395192713 0.216318578
0.137887493 0.404300928 0.218848556
0.143327177 0.406071931 0.216065750
0.155344978 0.403668255 0.213662565
0.164832145 0.400632530 0.209108561
0.174193487 0.403162181 0.220746562
0.180771559 0.406198442 0.220872819
0.189753249 0.409234673 0.218469262
0.200506151 0.412018001 0.216445565
0.218722150 0.408981621 0.222517550
0.232384712 0.408855110 0.222770557
0.250601232 0.412270695 0.225426883
0.270714939 0.417330682 0.226691559
0.288677990 0.417583644 0.227197558
0.309171349 0.420619935 0.230613396
0.330550104 0.424794525 0.235420555
0.352940917 0.428083509 0.240227565
0.382669091 0.431119114 0.246299565
0.403921574 0.431119144 0.240227565
0.439341962 0.441871911 0.247691169
0.483238012 0.455787420 0.259835452
0.530296981 0.468944013 0.272359550
0.581657052 0.484250098 0.287413418
0.629727781 0.502466798 0.297027081
0.674383163 0.516129136 0.310309559
0.721062362 0.532321095 0.322580218
0.772169530 0.550537288 0.339784622
0.814927220 0.568754017 0.355470985
0.856799603 0.585705101 0.382036597
0.892979085 0.605186343 0.409614116
0.922201157 0.624162138 0.435041100
0.964706004 0.651486576 0.468437552
0.155344978 0.428590000 0.219354987
0.170525342 0.437697589 0.231498986
0.169133410 0.442504793 0.229727983
0.169892386 0.443769962 0.227704197
0.176976964 0.443137437 0.230361000
0.189120978 0.440101057 0.236432984
0.195952013 0.442631304 0.237950996
0.206957713 0.445667267 0.237697959
0.221632108 0.448703170 0.237444997
0.236938983 0.451486498 0.237697989
0.255154997 0.451359987 0.237950996
0.274889290 0.453384250 0.241999000
0.295003057 0.457811952 0.244402319
0.312966079 0.463124931 0.242377996
0.328146458 0.466160536 0.248449981
0.355850637 0.466793031 0.251865834
0.380645186 0.465781212 0.253637016
0.403921574 0.464516371 0.255407989
0.431246042 0.467552006 0.261480033
0.458064377 0.467552006 0.258191377
0.495888472 0.478304744 0.265907943
0.537887335 0.493232191 0.278052002
0.578621447 0.508538961 0.290449053
0.624161959 0.526754975 0.302593082
0.669955909 0.540417612 0.321315289
0.718026638 0.558127940 0.336242676
0.769133151 0.580898166 0.348893076
0.817709863 0.599114895 0.376217395
0.857811451 0.612017989 0.397216767
0.897533119 0.631751895 0.426312149
0.933333158 0.653763294 0.459582210
0.964706004 0.672739029 0.495761991
0.184693024 0.487033755 0.244655371
0.188741401 0.487792730 0.245667368
0.199620783 0.490449101 0.251360118
0.201771080 0.491587758 0.250980556
0.208222926 0.491208225 0.253257543
0.217963725 0.488171816 0.252119362
0.232637405 0.490196049 0.258191377
0.244402081 0.493232042 0.258697391
0.258064508 0.496267825 0.260215372
0.269196898 0.499304235 0.264263362
0.295635730 0.496647358 0.258697391
0.313851744 0.500695884 0.260721117
0.334345043 0.504491091 0.266034037
0.354205817 0.508412361 0.268690437
0.371916503 0.508918285 0.274763077
0.396710902 0.511954546 0.278431267
0.423656136 0.512334108 0.281467557
0.448071063 0.512460709 0.283365130
0.477545768 0.517647147 0.287286371
0.507653475 0.520682752 0.293358386
0.534977794 0.524478257 0.292220026
0.571030974 0.535990119 0.300822288
0.609108388 0.549525797 0.313219696
0.657305658 0.567741811 0.330676734
0.698291957 0.585958362 0.342820734
0.742820978 0.599114776 0.363946676
0.789120853 0.616318762 0.382036805
0.828589559 0.632258296 0.404807150
0.866540313 0.650474370 0.429474682
0.905882478 0.668184578 0.454395980
0.941808939 0.691460907 0.487539649
0.970272005 0.713472784 0.525869727
0.216951206 0.532574475 0.266286999
0.225679860 0.538266718 0.268184751
0.227324501 0.538266718 0.268437773
0.237697735 0.538266718 0.271474153
0.245793819 0.537887275 0.275268912
0.256420374 0.534851253 0.278304905
0.259203136 0.536875069 0.271474004
0.285894871 0.538266718 0.284123987
0.302846313 0.541049540 0.284883082
0.314231724 0.544085920 0.287539750
0.333206594 0.545098066 0.285768718
0.356356472 0.546236217 0.285768449
0.374572754 0.550031722 0.287665725
0.395572215 0.552308500 0.292219728
0.418722272 0.553953171 0.298292071
0.440354258 0.556356549 0.301960945
0.464642674 0.559392929 0.304996938
0.489816844 0.561037421 0.308665723
0.520177245 0.567109466 0.312966496
0.546742439 0.570398569 0.314990461
0.577103198 0.573434174 0.321062475
0.605439723 0.577482700 0.320050329
0.639848471 0.586084723 0.328020245
0.677798808 0.600758791 0.346236736
0.725236952 0.618975341 0.369386464
