Assets/Resources/EldamarStudio/100 Horror LUTs Pack/LUTs/cube/Atag LUT.cube
LUT_3D_SIZE 8
DOMAIN_MIN 0.000000 0.000000 0.000000
DOMAIN_MAX 0.903226 0.903226 0.903226
0.035294000 0.039216001 0.054901998
0.089310996 0.051359549 0.063124545
0.198988095 0.047817901 0.073750906
0.313345999 0.040354352 0.063251354
0.441745371 0.057937995 0.061859995
0.593168736 0.076407261 0.066666998
0.760657549 0.096394710 0.064389713
0.935230613 0.120429970 0.061606653
0.056040544 0.096774548 0.061985999
0.108538546 0.096774541 0.065528452
0.208476007 0.112080991 0.067931458
0.307526618 0.113219440 0.054143000
0.431119740 0.129285187 0.064010449
0.581530690 0.145730287 0.058444452
0.748766541 0.160278544 0.053383809
0.923339546 0.181530654 0.045414284
0.087666094 0.187223092 0.058064904
0.137507543 0.200252652 0.055660997
0.205313101 0.189627096 0.050094996
0.308285624 0.203795090 0.051739097
0.429222286 0.216192096 0.052498192
0.589373708 0.236432567 0.046679355
0.758127809 0.259329468 0.037065003
0.928778946 0.281973183 0.025806181
0.132321283 0.289184004 0.044908639
0.164832547 0.280834645 0.045034546
0.229095638 0.281593740 0.056167260
0.314484626 0.284756631 0.055408359
0.434661567 0.312587082 0.037824005
0.584819555 0.339785159 0.021126268
0.760278523 0.367235988 0.001644712
0.927640736 0.390638649 0.005060354
0.190385997 0.409740567 0.015053811
0.222137734 0.402909815 0.014800557
0.280328989 0.404174477 0.015180106
0.361796170 0.406451374 0.007590359
0.452625364 0.411891162 0.007210811
0.612397254 0.449715286 0.002277191
0.774572790 0.485642076 0.000000000
0.938013971 0.514357984 0.003415631
0.258570462 0.565844238 0.000000000
0.287666291 0.570145249 0.000000000
0.348133832 0.573940456 0.007463645
0.440101266 0.576723814 0.002024260
0.538393080 0.581530690 0.004427551
0.659709215 0.585325718 0.000000000
0.804048002 0.612144053 0.000000000
0.953193784 0.641998708 0.000000000
0.335230976 0.737128556 0.000000000
0.364958972 0.749525547 0.000379548
0.424415290 0.748007298 0.000000000
0.507906616 0.752308965 0.002277288
0.609993398 0.749652028 0.000759096
0.720303774 0.754712284 0.004301451
0.834787846 0.751802862 0.000000000
0.960911036 0.764199972 0.000000000
0.461859614 0.908918619 0.003795180
0.493358761 0.918026805 0.003542452
0.532321036 0.916128874 0.000000000
0.603415608 0.915749431 0.001138644
0.688425124 0.916635156 0.003795183
0.785452425 0.917393982 0.032257870
0.891587555 0.919417739 0.061859675
0.987349629 0.918152928 0.085009150
0.048576999 0.059203450 0.081467099
0.093232088 0.050980002 0.083871000
0.186084643 0.064642549 0.096394897
0.268691003 0.084250644 0.103099450
0.389247179 0.092852637 0.101454735
0.543073773 0.108285807 0.108791552
0.731056273 0.114104547 0.108918279
0.912713110 0.129538149 0.109044708
0.068184994 0.089690544 0.065401539
0.105376542 0.100695543 0.090954997
0.171157554 0.109297536 0.094876997
0.272232711 0.120683089 0.094497353
0.391651005 0.132827550 0.103478998
0.545351148 0.153573811 0.109424353
0.718153000 0.163694009 0.101201713
0.902846158 0.180518538 0.103605233
0.110436186 0.162935004 0.088551894
0.135989547 0.173940197 0.087413348
0.190765545 0.170398563 0.085009545
0.279190540 0.187602654 0.092473090
0.398987889 0.209487751 0.099557094
0.556356907 0.230613828 0.094750091
0.736369252 0.257685184 0.092599712
0.916508317 0.279696375 0.093990989
0.147627652 0.260721266 0.083364740
0.169133291 0.269829541 0.093738444
0.222011641 0.266287267 0.090955094
0.295635730 0.267805278 0.085009642
0.417457283 0.292852372 0.091081910
0.562049329 0.328526109 0.084123909
0.739911616 0.361290008 0.053383999
0.918532431 0.388867825 0.056040451
0.204554200 0.387349725 0.074636199
0.225553378 0.395572364 0.081846908
0.276027828 0.390006274 0.071094550
0.349651933 0.394686997 0.067172557
0.441239804 0.394686997 0.059329551
0.591650903 0.435294360 0.032637626
0.762934804 0.482099831 0.002024260
0.927640915 0.508412361 0.005819353
0.260088474 0.552814484 0.000758999
0.286527276 0.548387051 0.000000000
0.341049731 0.553826869 0.000758999
0.429601818 0.559013247 0.002783356
0.534092247 0.562555194 0.004427551
0.640480638 0.570018768 0.000000000
0.792409658 0.605059981 0.004554189
0.949904859 0.637444437 0.001518192
0.335863560 0.731056094 0.001644712
0.367109269 0.730676532 0.000000000
0.416950881 0.733333290 0.005186744
0.501960635 0.736875236 0.000000000
0.601770937 0.734598517 0.001897740
0.714737535 0.740417302 0.001518192
0.826818407 0.749525547 0.000000000
0.953446925 0.761796057 0.002277288
0.455914170 0.912966430 0.018596003
0.479696333 0.906135142 0.016445633
0.525996029 0.901327848 0.019101884
0.591777205 0.903225601 0.033776261
0.683870912 0.909044743 0.051612861
0.781151056 0.911195457 0.074509911
0.889057517 0.912333906 0.099050775
0.984060824 0.917899847 0.126755312
0.072106004 0.065907903 0.141050100
0.129032448 0.062365547 0.139532089
0.195952103 0.071347095 0.137128100
0.278937191 0.085768647 0.135104433
0.392536372 0.108917996 0.152814895
0.524604499 0.122833647 0.162935093
0.709550858 0.123845704 0.174699560
0.902466714 0.134218723 0.172169179
0.101075098 0.114484094 0.127387539
0.130929992 0.115622543 0.114737548
0.179886460 0.116002090 0.127007991
0.269955754 0.132448003 0.136748642
0.376091182 0.153194368 0.146489292
0.519291580 0.165844455 0.156356648
0.704870224 0.172801733 0.161416993
0.893231869 0.188488260 0.177609265
0.125363901 0.172422096 0.123845905
0.155218095 0.185831919 0.134471536
0.207716897 0.184187099 0.129285082
0.275774986 0.197090462 0.139532089
0.385325372 0.213915199 0.144212186
0.540923715 0.231119379 0.158507004
0.721948326 0.254648805 0.159772113
0.908285856 0.280708343 0.169386342
0.181151092 0.264389724 0.140416995
0.190006554 0.265275449 0.135610089
0.238203987 0.266793638 0.140291005
0.292220086 0.268311530 0.137507752
0.407337278 0.288172066 0.134218737
0.551676214 0.323086530 0.147122175
0.735230803 0.352435082 0.149272457
0.909930408 0.386717379 0.154458925
0.219355002 0.378368199 0.143706918
0.231752172 0.384186924 0.136875451
0.281973302 0.381404400 0.133207098
0.349272490 0.381783843 0.130929902
0.432384372 0.387729377 0.126122802
0.580645084 0.428336263 0.126755163
0.755850732 0.469829202 0.126249090
0.928146660 0.507527113 0.135736823
0.275142103 0.553320706 0.105502740
0.300948799 0.552434862 0.106768005
0.350537807 0.552308619 0.097280107
0.431246012 0.554079831 0.100569010
0.526249349 0.560657501 0.093105465
0.634661734 0.562302411 0.086021461
0.794307530 0.605060160 0.084377185
0.951928914 0.637191594 0.132447720
0.347501278 0.732321501 0.041492905
0.371663511 0.735737026 0.057052486
0.426059365 0.737001836 0.050474185
0.508285880 0.737001836 0.048956379
0.606198728 0.737001657 0.045920383
0.713978589 0.735736907 0.039342180
0.827197671 0.744844675 0.037571177
0.957115591 0.762934744 0.140037999
0.491966575 0.909930229 0.180265665
0.508159518 0.910309792 0.197090596
0.547248662 0.906894326 0.199873567
0.613535762 0.911954522 0.203415409
0.697786272 0.912713587 0.209613696
0.790385664 0.907526731 0.222517148
0.886148155 0.912207365 0.224667653
0.989879608 0.918532729 0.250980496
0.112713277 0.062239353 0.209108278
0.146742642 0.067298993 0.199240729
0.217710301 0.080708288 0.200506091
0.279190630 0.092473000 0.186084643
0.393168986 0.110056639 0.195825279
0.524984241 0.124731094 0.214421451
0.701960862 0.117647000 0.234914556
0.892472744 0.142567992 0.256546438
0.137507647 0.126502439 0.176850185
0.156862631 0.125237182 0.186084643
0.212650448 0.131182641 0.180139095
0.274889171 0.129158884 0.176976189
0.381783754 0.150031641 0.195066288
0.513472438 0.161796555 0.207084015
0.688551247 0.165844366 0.227956891
0.880581975 0.188994229 0.251233369
0.149652004 0.191904083 0.190512195
0.182036623 0.190259278 0.178114831
0.215686530 0.198229000 0.179000631
0.284250379 0.196204647 0.178114831
0.382922381 0.216192096 0.190259278
0.521821618 0.237065554 0.209108278
0.703858376 0.255407900 0.226312190
0.893105328 0.283238351 0.253510267
0.187729359 0.254016638 0.179380000
0.204427272 0.259962201 0.182922438
0.255787671 0.270968080 0.185578987
0.313978255 0.280328989 0.185578987
0.405945837 0.290449172 0.196204633
0.536496103 0.317520529 0.205945373
0.712713182 0.351549536 0.226565629
0.896268070 0.387729079 0.248956278
0.232637182 0.377482384 0.195952088
0.257685065 0.377482384 0.193295166
0.299304098 0.376976728 0.197470099
0.355091810 0.377861828 0.193927646
0.430992901 0.385199368 0.192283630
0.573940396 0.418848455 0.207337365
0.744718611 0.465022177 0.218089938
0.917140841 0.509297967 0.254522592
0.285136074 0.529917538 0.193927735
0.307779968 0.531182826 0.198102474
0.354459018 0.533459783 0.193927824
0.433776379 0.539785147 0.194560632
0.521568596 0.545224309 0.191904098
0.623908877 0.549146116 0.198102280
0.780265391 0.597090304 0.214547709
0.938140333 0.635926425 0.262112260
0.362302274 0.715496540 0.209234625
0.385958284 0.719164968 0.209234446
0.432005078 0.717140794 0.209866911
0.511321962 0.722707272 0.208222628
0.602530122 0.723845899 0.213029712
0.709803998 0.728273273 0.214168280
0.821378827 0.733333170 0.220619902
0.952814460 0.761416793 0.274889410
0.506514549 0.894497156 0.305123091
0.521568477 0.899936438 0.303478688
0.561416686 0.899051309 0.312966287
0.619481266 0.903478742 0.318405867
0.699810266 0.902719915 0.319544405
0.790006280 0.903478742 0.329284847
0.891840577 0.909424424 0.347374767
0.987349570 0.912966430 0.360657871
0.163567185 0.090195999 0.292979181
0.203288838 0.095635802 0.289057374
0.268817186 0.103478804 0.284377098
0.331815422 0.111321799 0.268691003
0.403415382 0.116761386 0.264009982
0.543200493 0.128652990 0.285895169
0.717899919 0.120050810 0.327261478
0.900189936 0.150790438 0.345730335
0.174699187 0.153700203 0.271347642
0.212397099 0.155724466 0.274889439
0.258949935 0.152435347 0.271094173
0.324857563 0.153573811 0.262492090
0.390891999 0.153953537 0.247058839
0.533080101 0.165717646 0.281593740
0.709803879 0.163061097 0.310436428
0.891207874 0.196205154 0.347754359
0.199873298 0.216192082 0.254522294
0.220873088 0.218216553 0.258570194
0.266413987 0.216192290 0.248450279
0.322453737 0.217457458 0.251233548
0.394813269 0.217837006 0.253890097
0.533712804 0.237824455 0.279316813
0.717267334 0.253004104 0.313978285
0.897153556 0.300948739 0.352434993
0.215053827 0.284756631 0.247058824
0.242504627 0.287539274 0.264263064
0.287918717 0.295383006 0.251865745
0.348133922 0.294876844 0.255028546
0.425680041 0.303099185 0.259708822
0.551929295 0.323845625 0.280202359
0.723086894 0.356989145 0.311448395
0.890069664 0.407969892 0.354838550
0.245920181 0.378368199 0.255281389
0.270714521 0.375584811 0.251359999
0.319671065 0.389374107 0.261606187
0.393548638 0.408475727 0.272991747
0.477672160 0.414294362 0.280329198
0.592030287 0.430740386 0.293738186
0.751929343 0.467552483 0.317267478
0.914484262 0.516002357 0.361669987
0.308918536 0.533965647 0.284250468
0.330170631 0.533585966 0.286527246
0.379886180 0.538393199 0.287033647
0.447312087 0.544212461 0.290449083
0.527893662 0.550158203 0.289310724
0.635167420 0.554459274 0.296774179
0.785452247 0.601391673 0.332953930
0.935736835 0.641872227 0.384566724
0.404807091 0.715876222 0.335104465
0.422264189 0.715116978 0.331562102
0.461986184 0.716761231 0.334977567
0.524731278 0.716255605 0.332574189
0.610120356 0.722833633 0.337128371
0.713092744 0.722833633 0.336875647
0.820872664 0.730676651 0.349652261
0.949398875 0.767235875 0.404427618
0.538646400 0.896900535 0.438456953
0.556356549 0.896900296 0.437318444
0.582542717 0.898671508 0.434535056
0.640607119 0.897027075 0.435041130
0.712333798 0.899683535 0.445413917
0.800505519 0.904111326 0.453636885
0.889183998 0.903605223 0.460720927
0.981910110 0.912839949 0.466413647
0.230866462 0.119544737 0.418469459
0.259835452 0.119417734 0.416192263
0.325869471 0.124225348 0.412650198
0.402403444 0.124604896 0.396584481
0.486527920 0.125363991 0.387349457
0.575458467 0.123466253 0.377735704
0.737634540 0.123592742 0.419734478
0.912460506 0.159771785 0.455154687
0.236432463 0.165338293 0.385199189
0.266413897 0.169133291 0.391271174
0.321442038 0.170778006 0.388867676
0.393295139 0.170018911 0.383301556
0.476533830 0.167235732 0.372042894
0.561290205 0.168121353 0.368121207
0.724984407 0.168121547 0.403921455
0.901454747 0.204301178 0.453257531
0.240606830 0.249842092 0.380645186
0.274763048 0.250600904 0.387476385
0.321695149 0.240227550 0.369892567
0.392156661 0.243643194 0.369259655
0.470840901 0.241619453 0.359519124
0.566097498 0.238963097 0.361037076
0.732068241 0.260341823 0.404301018
0.908412457 0.307779908 0.450600624
0.263124466 0.324351728 0.359645456
0.282985747 0.324857444 0.368500739
0.328399718 0.325995922 0.359392911
0.397976100 0.325996131 0.356356710
0.475774735 0.324857473 0.360278189
0.575078845 0.328020394 0.366476983
0.733965814 0.361923009 0.402403384
0.904490530 0.420872808 0.459329545
0.282859176 0.413409114 0.367362469
0.305629611 0.423150033 0.355724454
0.350790441 0.419986933 0.367109358
0.423276603 0.429095566 0.368627280
0.511322141 0.440480739 0.374826342
0.619354665 0.450980574 0.385705441
0.760025084 0.487792671 0.422264278
0.911448181 0.542188346 0.482352793
0.325110465 0.532321453 0.367615461
0.349652022 0.540164411 0.375585258
0.397723079 0.544844806 0.381910443
0.474130124 0.554965377 0.392409831
0.572422445 0.578621507 0.418342888
0.667678714 0.581404209 0.420619726
0.791903555 0.612397432 0.451991975
0.935104489 0.654269278 0.504111409
0.427197546 0.708918273 0.432890475
0.447944194 0.709677279 0.433649480
0.488804638 0.711321890 0.441998571
0.555344939 0.716508567 0.457684845
0.633143783 0.723213196 0.465401888
0.718406022 0.725617051 0.457305282
0.817204058 0.735736787 0.470082283
0.954206228 0.772801995 0.528273225
0.594560325 0.882858574 0.554079652
0.605312824 0.888425112 0.555723906
0.637191534 0.887412667 0.566097140
0.672106147 0.892093420 0.564958870
0.719544709 0.895509064 0.559772193
0.798481762 0.895256042 0.563820183
0.889563680 0.903478980 0.583175182
0.980265379 0.905882299 0.584440112
0.291460991 0.152561277 0.598861277
0.324351579 0.149652004 0.596204996
0.383934289 0.148007289 0.587982297
0.478178650 0.144591928 0.581530809
0.579506457 0.139405191 0.575331628
0.678810716 0.130297005 0.562429011
0.789373517 0.122200996 0.558001518
0.920809746 0.174193621 0.567488670
0.293738276 0.195319533 0.571916103
0.325869262 0.196710795 0.583428502
0.383048683 0.195066094 0.573940277
0.472738653 0.191145003 0.568753958
0.568500757 0.184819803 0.561163545
0.671094298 0.181024790 0.555344820
0.780518830 0.175079033 0.545857012
0.917899907 0.221505359 0.564199805
0.296647549 0.278052092 0.564579546
0.329032093 0.283111840 0.564705968
0.385325372 0.279443383 0.565211773
0.469070256 0.282226741 0.559140027
0.566856444 0.274889201 0.550031781
0.674256563 0.270082206 0.545857012
0.779885888 0.266919672 0.544718564
0.917520463 0.318026692 0.567362428
0.312839925 0.380771607 0.549652159
0.337001711 0.380265564 0.549398899
0.395066470 0.380898029 0.542314827
0.476027548 0.375711292 0.543453157
0.565970838 0.376470357 0.536622465
0.669323444 0.375838280 0.535610199
0.770904481 0.377988577 0.534598172
0.912080944 0.433016866 0.571789920
0.338266969 0.490955174 0.540037870
0.371916354 0.485135823 0.543073833
0.416571647 0.491840571 0.539025903
0.493358433 0.489437193 0.535610199
0.578621447 0.486907274 0.538266659
0.678431273 0.487666368 0.538646102
0.785578847 0.501075268 0.547121704
0.918785453 0.554079652 0.588614583
0.384060740 0.603036165 0.547121823
0.402277052 0.604933858 0.549019217
0.455028474 0.605439544 0.545224309
0.523339450 0.604933918 0.547880828
0.611764669 0.613029540 0.555724323
0.710436463 0.620240450 0.564832091
0.810246825 0.637824178 0.577229559
0.929158509 0.685135543 0.628336668
0.442378551 0.723339558 0.555977106
0.453384280 0.720050693 0.549019337
0.501960456 0.717267394 0.554206431
0.569006920 0.724351823 0.560278296
0.650727451 0.731562316 0.572801948
0.746236444 0.750157773 0.601644278
0.838077247 0.761290550 0.620366812
0.948387265 0.790512085 0.663377345
0.605313182 0.884250760 0.656926036
0.613788724 0.888298631 0.660721004
0.642251611 0.885641873 0.665654421
0.693991184 0.887918949 0.676407337
0.755471051 0.892346323 0.685641587
0.814421535 0.899430335 0.694749892
0.885262668 0.898924470 0.698165715
0.971916437 0.911321998 0.716002345
0.334851146 0.210752785 0.798102379
0.369386524 0.212397099 0.793168902
0.434788167 0.214673787 0.791524589
0.524098456 0.209361136 0.793042362
0.637571335 0.212143779 0.788867772
0.748513579 0.216571674 0.779253483
0.867046297 0.227703869 0.772675514
0.980897963 0.245161414 0.773307562
0.340037972 0.255661041 0.783807397
0.373687804 0.254522502 0.784313679
0.434661448 0.256166875 0.784186959
0.531688690 0.252119064 0.785958171
0.632890344 0.258064538 0.784313560
0.747375011 0.263377517 0.777862132
0.868311107 0.267805219 0.771410406
0.981910050 0.283238590 0.773561001
0.370271951 0.345857054 0.780139327
0.393421829 0.347375333 0.785325825
0.451486409 0.349525750 0.783681273
0.536622286 0.349652052 0.781024635
0.636305988 0.352435112 0.775205255
0.752561629 0.356862783 0.772422493
0.862112701 0.360910952 0.770651400
0.971030891 0.376723588 0.766856253
0.402529866 0.462745070 0.766097367
0.425679743 0.462238818 0.774572730
0.478051692 0.467425883 0.769765735
0.557874620 0.466540277 0.769133210
0.649841785 0.465022087 0.768500865
0.753193974 0.464263082 0.764958501
0.859708905 0.475648433 0.762934864
0.963820159 0.482353032 0.760025382
0.441239774 0.577229440 0.772295773
0.469196767 0.577735782 0.763820052
0.513978481 0.580644906 0.768121243
0.582036853 0.583428144 0.762934566
0.666413605 0.581151187 0.764452755
0.758127809 0.581783354 0.766856194
0.863883495 0.583048522 0.762302160
0.959266067 0.585704982 0.764199376
0.491207898 0.690702379 0.770398498
0.510942578 0.689057350 0.771157384
0.548766613 0.691081643 0.771283865
0.615559518 0.690702081 0.767615080
0.690322816 0.693232358 0.769639313
0.768500626 0.694497526 0.768121421
0.862745285 0.698418498 0.770018697
0.954458833 0.704364240 0.766856194
0.532068253 0.798608243 0.779886127
0.550916731 0.799872994 0.781277418
0.589373887 0.793674767 0.775458515
0.638962686 0.795825243 0.775458694
0.710689127 0.794054210 0.778494656
0.789247394 0.797596335 0.781783700
0.863503993 0.801138222 0.787729383
0.957748234 0.816445291 0.801138520
0.599367559 0.902466595 0.789120376
0.612397432 0.909677446 0.794686794
0.638203740 0.904364407 0.792536080
0.687160015 0.901454806 0.798102021
0.747754633 0.901075244 0.796710730
0.821631491 0.900442719 0.810626149
0.894876599 0.911195338 0.831119895
0.959771752 0.925995886 0.853130579
