Assets/Resources/EldamarStudio/100 Horror LUTs Pack/LUTs/cube/Atag LUT.cube
DOMAIN_MIN 0 0 0
DOMAIN_MAX 1 1 1
LUT_3D_SIZE 32
0.035294000 0.039216001 0.054901998
0.038330387 0.042251613 0.057938386
0.047817998 0.045287773 0.058823999
0.065022320 0.048323840 0.060088836
0.089310996 0.051359549 0.063124545
0.113598995 0.054395933 0.066160932
0.142947644 0.052371677 0.069196679
0.171663702 0.049335711 0.072232708
0.198988095 0.047817901 0.073750906
0.226312518 0.050853509 0.070714518
0.265274853 0.042251874 0.067678869
0.290575504 0.039216001 0.066666998
0.313345999 0.040354352 0.063251354
0.343706071 0.043642998 0.055155031
0.374066800 0.049714994 0.058191415
0.406830788 0.053383805 0.058823999
0.441745371 0.057937995 0.061859995
0.478178114 0.064009987 0.066666998
0.514611006 0.070082009 0.066666998
0.551043749 0.073371358 0.066666998
0.593168736 0.076407261 0.066666998
0.635673285 0.080455258 0.065654866
0.672612011 0.086527988 0.062871508
0.721188784 0.092600003 0.065907903
0.760657549 0.096394710 0.064389713
0.801264942 0.100821987 0.059962008
0.846806049 0.106388062 0.054395936
0.892346382 0.109424442 0.051359553
0.935230613 0.120429970 0.061606653
0.974193335 0.134345174 0.068437763
0.998229027 0.148639977 0.072358988
0.992156982 0.160784006 0.078431003
0.038330387 0.042251613 0.057938386
0.032258388 0.045288000 0.057938386
0.056799769 0.046173386 0.067425996
0.076407544 0.049588997 0.065908000
0.094244443 0.055534385 0.060088836
0.110562608 0.066539936 0.063124545
0.144971251 0.064516321 0.071220934
0.173055023 0.063124776 0.075268678
0.200506091 0.061480291 0.075268708
0.232384503 0.059961900 0.067678899
0.253889859 0.060088385 0.061733387
0.286527514 0.059456252 0.060594998
0.313345999 0.061606742 0.060594998
0.343706071 0.064136423 0.058191352
0.374066800 0.061859764 0.061227027
0.404427588 0.070334964 0.059456423
0.438709766 0.073118001 0.057305805
0.475142360 0.076154158 0.058191188
0.511574566 0.082226783 0.060595006
0.553573370 0.091081426 0.066160999
0.590512097 0.092726000 0.062872000
0.631625295 0.094623521 0.060594998
0.672485530 0.098671995 0.059709385
0.718153179 0.104744002 0.059835903
0.764452636 0.110815994 0.056040425
0.804553926 0.114611059 0.056419957
0.846300125 0.119544707 0.058444321
0.889310777 0.127640441 0.060467936
0.929538131 0.130676836 0.054775398
0.971663356 0.141682357 0.061100595
1.000000000 0.153826594 0.064516000
0.998228967 0.163820401 0.066286996
0.037065227 0.058190770 0.063124999
0.043896228 0.059076384 0.056673225
0.048576999 0.059961997 0.058823995
0.080708541 0.059961997 0.065908000
0.101455003 0.064262994 0.060721450
0.121947832 0.072865002 0.070841067
0.141935423 0.074509546 0.070335321
0.176723480 0.073118225 0.067932010
0.202530190 0.074636415 0.068437681
0.231752276 0.075775065 0.064895704
0.255660862 0.075648546 0.060847998
0.282985508 0.077672288 0.058823999
0.313345999 0.079569995 0.057685357
0.343453109 0.081340775 0.057179224
0.371916592 0.080202416 0.062112574
0.402276814 0.082479730 0.056040257
0.435673594 0.090069547 0.054522451
0.472738743 0.091966972 0.055913784
0.510689020 0.096521169 0.065022193
0.548386753 0.105376430 0.062239230
0.590891480 0.108791776 0.058823489
0.628842354 0.110815771 0.055534579
0.670335233 0.114990510 0.056673225
0.715875983 0.119038776 0.056673225
0.757116020 0.122959994 0.058570974
0.802656353 0.127640665 0.052498206
0.844655395 0.132194996 0.054016516
0.888804853 0.142947316 0.053763546
0.928652763 0.146742612 0.053131010
0.968121111 0.155091733 0.066540144
0.996963859 0.167235747 0.071726784
0.995698988 0.177608997 0.069196776
0.041619159 0.078178324 0.065401837
0.049968325 0.079443157 0.060088608
0.062491775 0.080708325 0.055787612
0.076660156 0.078178324 0.061353996
0.106261939 0.078937322 0.062112994
0.130550161 0.085009322 0.074636221
0.152308479 0.086021326 0.072106160
0.176217869 0.088551320 0.071726851
0.207337171 0.088551320 0.061100837
0.231625825 0.093611963 0.062618516
0.253384143 0.093864992 0.059835870
0.281720340 0.094623893 0.057558838
0.310942471 0.097659513 0.057558838
0.341429085 0.098039024 0.054901998
0.370778233 0.099051155 0.058949996
0.399241149 0.102719799 0.060594518
0.433902383 0.106009156 0.053510323
0.470335126 0.112081148 0.054775313
0.509171188 0.115749359 0.068058118
0.545856893 0.121821359 0.063757151
0.584819496 0.126502156 0.059582584
0.627324283 0.126502156 0.052498195
0.667172790 0.132194653 0.054901998
0.711574912 0.137508065 0.054901998
0.753826678 0.139279023 0.054648966
0.794813633 0.143579841 0.056040656
0.839848161 0.146616101 0.049968004
0.884630144 0.156482995 0.046173293
0.928652763 0.164453000 0.047059000
0.968121111 0.170272112 0.054142985
0.996963620 0.182416126 0.078810811
0.994686961 0.194560155 0.075774841
0.056040544 0.096774548 0.061985999
0.059835836 0.100569159 0.063883543
0.070714772 0.102087319 0.059202995
0.088045157 0.102846548 0.058317613
0.108538546 0.096774541 0.065528452
0.132827312 0.102846548 0.071600452
0.157115549 0.104617544 0.066919677
0.182289556 0.107526988 0.064895548
0.208476007 0.112080991 0.067931458
0.232764021 0.112080991 0.061859451
0.253131181 0.112460546 0.059456322
0.279063970 0.112839997 0.056420196
0.307526618 0.113219440 0.054143000
0.335357010 0.116255060 0.054648999
0.368754148 0.119291410 0.054901998
0.398482233 0.124731094 0.062112797
0.431119740 0.129285187 0.064010449
0.469576120 0.132953987 0.059709441
0.506008983 0.139026001 0.065781444
0.542441726 0.142694190 0.061480444
0.581530690 0.145730287 0.058444452
0.621631801 0.148134097 0.057052873
0.664136529 0.148260579 0.054395992
0.706641257 0.156862915 0.054901998
0.748766541 0.160278544 0.053383809
0.791650712 0.162302539 0.050221004
0.834535122 0.167868495 0.049968004
0.877039850 0.170904085 0.043896005
0.923339546 0.181530654 0.045414284
0.967362106 0.190132976 0.049462434
0.996963620 0.197596520 0.057937976
1.000000000 0.209740549 0.076154001
0.065148935 0.118026935 0.055914000
0.074256547 0.127134547 0.071094386
0.082352839 0.122327700 0.066540159
0.096267931 0.121568933 0.061732996
0.114610538 0.124098927 0.062492065
0.129790917 0.118026935 0.056420058
0.154079705 0.124098927 0.062492058
0.176723644 0.127514213 0.061100710
0.198988169 0.130296990 0.058823746
0.220620006 0.130296990 0.052751072
0.253636867 0.133206859 0.055407934
0.280455321 0.135736674 0.053383809
0.306008637 0.135989636 0.050347712
0.329285026 0.134471834 0.048576999
0.362681389 0.137507454 0.054648995
0.398481727 0.142947599 0.062112797
0.431878656 0.147501677 0.065148808
0.466287464 0.151169986 0.062239062
0.499936968 0.157242015 0.062745064
0.536369741 0.163314000 0.063251063
0.578494728 0.166982666 0.058444068
0.620999396 0.170019060 0.053384066
0.661100924 0.172549337 0.048323993
0.703604937 0.175584972 0.054396000
0.743832886 0.184187278 0.057179287
0.786590576 0.187602937 0.052245535
0.831625223 0.189120874 0.044149000
0.877039850 0.192156479 0.043896005
0.914231598 0.200505763 0.043136999
0.958001077 0.208348975 0.043643065
0.991903603 0.215306580 0.047311664
1.000000000 0.224920928 0.057938002
0.079317316 0.149399325 0.057432320
0.083364934 0.148386940 0.059962392
0.096774094 0.153194100 0.064390004
0.107906312 0.149399325 0.060215320
0.123212859 0.151802778 0.059835773
0.138393253 0.147881001 0.055914000
0.161163956 0.146869004 0.054901998
0.185452312 0.149652004 0.059329707
0.207590103 0.152561322 0.058823999
0.228842497 0.156103313 0.056293674
0.254143178 0.156482860 0.051359549
0.283491582 0.157494992 0.056420188
0.309677303 0.161163598 0.052625004
0.333333075 0.162808597 0.047311965
0.366730034 0.165844217 0.051106669
0.400126427 0.166476637 0.057179283
0.436432689 0.173814192 0.061606999
0.470841527 0.178874061 0.060215320
0.504238009 0.183048338 0.060215324
0.545477748 0.189120978 0.062744997
0.583807707 0.195192963 0.058950003
0.628083348 0.198861510 0.054901998
0.670588493 0.201770991 0.051992487
0.710689306 0.202403411 0.050853677
0.753193855 0.207716316 0.047817681
0.797090292 0.215180337 0.048703358
0.842757523 0.218469635 0.043136999
0.884250581 0.223529503 0.043136999
0.924351573 0.226818144 0.043136999
0.959013104 0.234155297 0.039595019
0.990891576 0.242883906 0.044275582
1.000000000 0.255281329 0.059961997
0.084630288 0.171283990 0.058823999
0.094244316 0.173181310 0.053890295
0.100948773 0.174446478 0.060468286
0.117393993 0.177482545 0.057938289
0.131056085 0.176343992 0.058697291
0.147501633 0.169512764 0.061986059
0.168627635 0.172295704 0.054901998
0.186337993 0.170651406 0.051613003
0.210626200 0.172169402 0.056926291
0.232764214 0.178241417 0.060468286
0.258570731 0.178494409 0.057937965
0.283238560 0.181783408 0.051739097
0.310562938 0.181783408 0.055534583
0.335863054 0.186591029 0.048450325
0.367868543 0.189626992 0.048703287
0.399620801 0.191903695 0.052498192
0.434535384 0.194939688 0.057052772
0.470967978 0.203921556 0.057811864
0.505376279 0.208981454 0.058823995
0.548766792 0.209867001 0.055028655
0.589373708 0.219228700 0.057305295
0.630866349 0.224288568 0.053257290
0.676154494 0.227450684 0.053004298
0.715622902 0.230486691 0.048450097
0.759013295 0.233396411 0.043137010
0.801518023 0.240860075 0.039848004
0.849082768 0.246679634 0.039848004
0.890828550 0.251612991 0.039848004
0.927008033 0.256672859 0.034914300
0.966223836 0.259835392 0.039595019
0.988994122 0.268563986 0.039721590
0.995066285 0.283744425 0.059456002
0.087666094 0.187223092 0.058064904
0.099810287 0.193295091 0.053510703
0.110057093 0.195698872 0.054143000
0.118911996 0.198734939 0.061732996
0.137507543 0.200252652 0.055660997
0.156103775 0.188488185 0.065527998
0.174573317 0.191524193 0.059708908
0.190891996 0.191144720 0.052371908
0.205313101 0.189627096 0.050094996
0.229601890 0.195699096 0.062238999
0.256799787 0.196711004 0.061986096
0.282100052 0.200000077 0.056672748
0.308285624 0.203795090 0.051739097
0.335863054 0.204301089 0.051739097
0.366223812 0.207843423 0.049209420
0.395825505 0.211638302 0.049462192
0.429222286 0.216192096 0.052498192
0.467552423 0.222896665 0.054269422
0.504364073 0.232005060 0.057052765
0.547628105 0.232257828 0.051233537
0.589373708 0.236432567 0.046679355
0.629348338 0.246300057 0.048703101
0.674889445 0.249335676 0.048450109
0.715622902 0.254775107 0.042378098
0.758127809 0.259329468 0.037065003
0.803795278 0.265148640 0.033016905
0.846300125 0.274257064 0.032510970
0.891587496 0.277798742 0.032258000
0.928778946 0.281973183 0.025806181
0.965717554 0.288551301 0.025047107
0.990512490 0.293611676 0.036685593
0.987476110 0.308792084 0.051866002
0.108918488 0.214547485 0.055028517
0.111954100 0.220619500 0.064136893
0.121948063 0.220240265 0.059582710
0.132574320 0.219987333 0.057684995
0.143579558 0.221505046 0.061732993
0.164831921 0.212397441 0.055661004
0.178368151 0.215812981 0.052877679
0.190891996 0.213662282 0.051106520
0.205313101 0.207843110 0.053130616
0.226565495 0.210879505 0.062238991
0.253763378 0.214041620 0.059835866
0.279064000 0.216951266 0.054901972
0.305629462 0.218975499 0.052118648
0.335863054 0.219481498 0.054775480
0.366223812 0.225553498 0.054775480
0.394180775 0.231499001 0.052245196
0.426185876 0.237444490 0.052498192
0.464516014 0.244149074 0.054269418
0.510056496 0.253257483 0.051233031
0.549652100 0.259582520 0.051233031
0.589373708 0.263377756 0.045161258
0.628842354 0.267805517 0.039595481
0.668817461 0.273624480 0.039342485
0.714357913 0.276660085 0.033270478
0.755091846 0.282100081 0.029475186
0.798988283 0.289437294 0.026312318
0.846300125 0.298545092 0.023402574
0.888804853 0.307653457 0.020366961
0.931436121 0.308539003 0.017457161
0.971790075 0.315875947 0.015938995
0.996205032 0.326755106 0.021631712
0.984440506 0.336116493 0.039721996
0.121441990 0.227324739 0.060720995
0.115749478 0.236305863 0.058191389
0.127387643 0.240227640 0.060847998
0.141556144 0.238709703 0.055281550
0.153953195 0.238076866 0.055154674
0.165084928 0.236558944 0.061732993
0.183807641 0.237571329 0.055661000
0.199999988 0.239974871 0.057178866
0.216951102 0.235420749 0.058949970
0.238203496 0.232005358 0.059456352
0.253636867 0.232131869 0.054016132
0.280961245 0.235167474 0.057052772
0.307273746 0.238203645 0.054522451
0.335863054 0.240480870 0.051992130
0.366223812 0.246552870 0.051992130
0.394180775 0.252624840 0.051992130
0.430613548 0.260215074 0.049462195
0.471220821 0.268311322 0.049083002
0.509930015 0.277419716 0.048323900
0.552687764 0.286527395 0.045287512
0.588488400 0.292725861 0.039468750
0.627956986 0.296774119 0.031372748
0.671473622 0.300822347 0.027324269
0.717014790 0.303857952 0.021252260
0.758001089 0.309171438 0.015180264
0.798861444 0.316635162 0.012903131
0.844402254 0.325742930 0.010879002
0.891713977 0.334851295 0.005439586
0.926248908 0.333333045 0.007716964
0.966223836 0.338393182 0.010499855
0.995951951 0.348513484 0.017204462
0.995952010 0.357621878 0.033397004
0.125489995 0.257685244 0.050601009
0.131561980 0.258696854 0.055660874
0.138520032 0.261479765 0.052751746
0.147375256 0.260720998 0.051486585
0.158760548 0.257684797 0.047691002
0.171157569 0.259329498 0.055154685
0.187855631 0.259835571 0.057684999
0.204427689 0.259582549 0.056546707
0.222264260 0.259202987 0.060721260
0.242251500 0.255661011 0.058950484
0.263757110 0.255407989 0.057052772
0.282985508 0.257432252 0.055028513
0.310309887 0.260467857 0.057685357
0.337634265 0.263757050 0.053004257
0.366223812 0.269829482 0.053004257
0.398228794 0.279949516 0.046932004
0.428589582 0.284503311 0.043896008
0.469576538 0.291966975 0.040354330
0.504617274 0.299683690 0.038963005
0.544591784 0.306768149 0.038203906
0.588994205 0.315875739 0.031372529
0.624921143 0.322074234 0.023276750
0.668437541 0.326249003 0.017204273
0.713978767 0.331182837 0.011132263
0.756989598 0.338519543 0.007084008
0.797849536 0.343200654 0.003795004
0.840354383 0.350031435 0.004301068
0.885895073 0.356103420 0.002783263
0.925237060 0.364705920 0.002656833
0.960404634 0.366982728 0.007463982
0.989879966 0.374952495 0.011765000
0.995952010 0.382922262 0.021252751
0.132321283 0.289184004 0.044908639
0.139911279 0.287286252 0.050600905
0.152055547 0.286400646 0.051106773
0.163693994 0.286147624 0.048070837
0.164832547 0.280834645 0.045034546
0.178494930 0.283111930 0.048829645
0.197343633 0.283618003 0.053510323
0.211638346 0.283111930 0.053131066
0.229095638 0.281593740 0.056167260
0.248070642 0.281973273 0.056546710
0.268690765 0.281973273 0.055408359
0.290955245 0.281720281 0.055408359
0.314484626 0.284756631 0.055408359
0.342062056 0.288045287 0.052371968
0.370272040 0.294117838 0.051486358
0.402403444 0.302719980 0.045414202
0.434661567 0.312587082 0.037824005
0.468690962 0.316887856 0.030487020
0.502593398 0.323465943 0.025933325
0.543833017 0.330676705 0.024541717
0.584819555 0.339785159 0.021126268
0.630360723 0.348892778 0.014041876
0.670335114 0.354964793 0.008349358
0.715876102 0.360025436 0.004301354
0.760278523 0.367235988 0.001644712
0.801644623 0.374699295 0.000000000
0.843643546 0.378241628 0.000000000
0.885515869 0.381909847 0.002403804
0.927640736 0.390638649 0.005060354
0.963061333 0.400379628 0.006325338
0.988867998 0.407337248 0.009740974
0.994433999 0.413662285 0.009488002
0.149778962 0.308412075 0.057558969
0.150284961 0.308918059 0.057558969
0.158634007 0.308665097 0.055155225
0.171284080 0.308412075 0.053889871
0.182795584 0.308412075 0.050094552
0.191903964 0.308412075 0.047058936
0.210626349 0.308159024 0.051107001
0.226312727 0.308665097 0.051359970
0.238204032 0.309171170 0.047058932
0.262492031 0.312207550 0.050094545
0.278304875 0.312334061 0.047564872
0.297786266 0.310309798 0.046805967
0.320809662 0.309297651 0.046805967
0.348134041 0.312334061 0.046553001
0.378494799 0.318406045 0.043516617
0.410499781 0.324478060 0.038330004
0.442884356 0.332321197 0.031752005
0.474509984 0.341176569 0.024921017
0.510942042 0.350284964 0.012776996
0.554965079 0.359645665 0.008475644
0.597216725 0.370398462 0.005945744
0.638456345 0.381277919 0.003162904
0.683997512 0.390512049 0.000379512
0.729537964 0.393927962 0.000505999
0.775078833 0.398988008 0.000000000
0.818089604 0.405313045 0.000253032
0.858064175 0.411638081 0.000253032
0.897533298 0.417710096 0.000253032
0.941049814 0.423276097 0.004806988
0.978494346 0.431119204 0.007337000
0.999746978 0.440227628 0.006704586
0.999746978 0.449336022 0.003668968
0.158886582 0.338772804 0.042378597
0.164958566 0.344844818 0.042378597
0.171916336 0.343200564 0.038077597
0.185452312 0.340797067 0.042758018
0.200885832 0.338772804 0.052751414
0.207084343 0.338772804 0.040986940
0.221252725 0.336242497 0.040481009
0.240987107 0.338772833 0.043390300
0.257432371 0.342062235 0.043010682
0.271600395 0.342568308 0.040986944
0.290069371 0.342694819 0.041113429
0.311701506 0.340670556 0.042504743
0.334219038 0.338772804 0.043769583
0.357242405 0.339658409 0.043516617
0.384566784 0.342694789 0.040481009
0.410119951 0.348766804 0.037444621
0.442377955 0.357874781 0.029222006
0.477545679 0.368121386 0.019608013
0.513978481 0.374572963 0.012776990
0.550411165 0.386464000 0.003415640
0.594433725 0.396078140 0.003162746
0.637697279 0.404806972 0.003922000
0.680961072 0.411764413 0.003415896
0.726502299 0.423909187 0.006451514
0.772042692 0.427324533 0.002023998
0.816191852 0.433776051 0.001391672
0.858570158 0.442251891 0.003289416
0.903605282 0.451107234 0.003289416
0.935104668 0.451866239 0.000632584
0.973940551 0.458443969 0.001265006
0.999114394 0.467552006 0.001265006
0.996710598 0.476660401 0.000632584
0.175205603 0.376343757 0.027198207
0.178873792 0.372801781 0.032005198
0.187096566 0.376723558 0.034155972
0.197469801 0.372928768 0.028842680
0.212650284 0.369892597 0.035673406
0.222770795 0.373940587 0.031625398
0.236432493 0.371410280 0.036812197
0.249968588 0.370018601 0.031878494
0.268184990 0.373054981 0.031878300
0.283618003 0.373054981 0.032131683
0.306388587 0.373054981 0.027198207
0.324604601 0.373054981 0.023150209
0.346995652 0.371536791 0.025047369
0.368248016 0.371536791 0.026312210
0.391271383 0.372422397 0.025426824
0.416192591 0.375458777 0.022391211
0.445034802 0.380012572 0.019354820
0.481846929 0.390765131 0.011132209
0.521821797 0.403921574 0.005060196
0.563061535 0.408348799 0.003415639
0.603289306 0.422390491 0.003794996
0.646299720 0.432510912 0.006325191
0.687286258 0.440101087 0.006072199
0.728272915 0.449968576 0.002277102
0.771536767 0.459835470 0.003036004
0.816950977 0.465907425 0.000000000
0.859455943 0.474509776 0.001518196
0.899304271 0.481720418 0.001518196
0.938772857 0.485262781 0.008475968
0.972675562 0.485262781 0.001897601
1.000000000 0.494244158 0.000000000
0.998481810 0.506388605 0.000000000
0.190385997 0.409740567 0.015053811
0.196457997 0.409740567 0.018089814
0.203794762 0.405566156 0.020493396
0.210373163 0.407337368 0.019734623
0.222137734 0.402909815 0.014800557
0.235420868 0.407843173 0.015939202
0.248576865 0.407843053 0.017457139
0.266666383 0.404933572 0.021252304
0.280328989 0.404174477 0.015180106
0.298545003 0.403415382 0.018216491
0.316508740 0.404933572 0.015560007
0.341303200 0.406451374 0.012524007
0.361796170 0.406451374 0.007590359
0.383681029 0.406704396 0.009614006
0.406198591 0.407969564 0.009614006
0.431372583 0.408855170 0.008728620
0.452625364 0.411891162 0.007210811
0.486654162 0.415559351 0.004807003
0.527387798 0.430233926 0.000506000
0.566856563 0.437571019 0.000000000
0.612397254 0.449715286 0.002277191
0.652878046 0.460847437 0.005313067
0.692219973 0.469070166 0.004807003
0.735863149 0.479569882 0.001517999
0.774572790 0.485642076 0.000000000
0.815685809 0.494750023 0.000000000
0.860467970 0.503352344 0.000506064
0.898924649 0.509424388 0.001518192
0.938013971 0.514357984 0.003415631
0.971157312 0.520177364 0.006451802
0.996963978 0.522833765 0.000000000
0.996963978 0.536749005 0.000000000
0.203794986 0.439595520 0.006578009
0.212270960 0.444402516 0.006578009
0.222011358 0.443137527 0.007210585
0.229221717 0.439595520 0.006577991
0.233017102 0.439975053 0.000505992
0.247691497 0.443010777 0.002783359
0.260974139 0.442884117 0.001391679
0.276154280 0.441872239 0.000000001
0.297912568 0.439469010 0.000126520
0.316128552 0.436432630 0.003162908
0.331056297 0.438583404 0.003922000
0.351423234 0.440986842 0.003289424
0.376344144 0.443516701 0.002783356
0.401138157 0.443516701 0.000000000
0.426185787 0.446173519 0.000000000
0.450347781 0.446806103 0.000632577
0.475648373 0.447691500 0.000000002
0.495762527 0.450727105 0.000000000
0.532194614 0.456799120 0.000000000
0.568627298 0.465021908 0.000632576
0.610120058 0.477925479 0.001265164
0.655913830 0.492347002 0.002909872
0.692346513 0.495509118 0.000000000
0.738899231 0.506641150 0.000000000
0.780265570 0.513219237 0.000000000
0.819354773 0.520303607 0.000000000
0.858317137 0.528905988 0.000000000
0.900568843 0.534977913 0.002909872
0.939784825 0.542315066 0.001265167
0.974067092 0.548893154 0.000000000
0.993421972 0.556736529 0.000000002
0.993421972 0.565844119 0.000000002
0.222011030 0.479064018 0.000506000
0.228083804 0.479064018 0.000506000
0.238709986 0.479570031 0.002656774
0.248070955 0.479064018 0.005439803
0.254269540 0.479443550 0.006577995
0.263377935 0.482479930 0.000506004
0.278052330 0.480455637 0.000253038
0.291334957 0.479317009 0.000000007
0.307273984 0.479064018 0.000000006
0.331309021 0.478937507 0.000126519
0.355344713 0.478810996 0.003162900
0.374572992 0.479064018 0.001897744
0.393548310 0.480455637 0.000253035
0.413282990 0.482985944 0.000000000
0.443642944 0.482985944 0.000000000
0.461479813 0.483238995 0.002403806
0.485262394 0.483238995 0.002150782
0.513978601 0.484124362 0.000000009
0.541303039 0.487159967 0.000000000
0.577735782 0.493231982 0.002783353
0.614168525 0.501454771 0.001771228
0.653637290 0.511322200 0.000253035
0.695383012 0.519797981 0.000000000
0.731815040 0.525869966 0.000000000
0.776090860 0.534724712 0.000000000
0.820872962 0.546109736 0.000000000
0.864389956 0.559266090 0.000000000
0.900821924 0.565338075 0.000000000
0.937760592 0.576723754 0.000253032
0.974446356 0.583048761 0.000000000
0.999494016 0.586590707 0.000000003
0.999494016 0.590133011 0.000000010
0.243010357 0.524098396 0.000000000
0.246299788 0.526881754 0.000000000
0.254522800 0.526881754 0.002150774
0.266034365 0.526881754 0.002656839
0.275521934 0.526881754 0.002656544
0.284630299 0.527514338 0.003795356
0.293738067 0.525490105 0.005313034
0.311701357 0.525743127 0.005566004
0.328020126 0.528399765 0.005566004
0.346236408 0.532447755 0.005566000
0.378873736 0.526881754 0.000126515
0.399114519 0.528905988 0.003162899
0.420746356 0.529665112 0.001644713
0.443896383 0.531056702 0.000000000
0.464136332 0.533586383 0.000000000
0.492093146 0.535990179 0.004806995
0.513345778 0.536369741 0.008222840
0.541176498 0.536369741 0.006451794
0.570651770 0.537255168 0.000000001
0.603542089 0.537508070 0.000000000
0.638077080 0.543580115 0.003036383
0.675648332 0.551802874 0.001771229
0.717900038 0.560911238 0.000000000
0.754332721 0.569639385 0.000000000
0.793042004 0.577988684 0.000000000
0.836179316 0.585705101 0.000000000
0.878810763 0.595698774 0.000000000
0.915243328 0.604048073 0.000000000
0.943706155 0.610120058 0.000000000
0.974446118 0.616698623 0.000000000
0.997216642 0.622391105 0.002656599
0.997216642 0.631119788 0.008349362
0.258570462 0.565844238 0.000000000
0.269196868 0.572675586 0.000000000
0.274636507 0.573561192 0.005945771
0.277419716 0.571030855 0.003921836
0.287666291 0.570145249 0.000000000
0.305882663 0.571663499 0.001518195
0.311195403 0.572928607 0.002656680
0.326881438 0.573181212 0.008981708
0.348133832 0.573940456 0.007463645
0.365591228 0.575458467 0.004048002
0.392536342 0.575585186 0.002024001
0.419607490 0.573687732 0.000126516
0.440101266 0.576723814 0.002024260
0.466666758 0.577482700 0.000253032
0.489816427 0.578874052 0.001897740
0.509550512 0.580012500 0.002909739
0.538393080 0.581530690 0.004427551
0.564705849 0.582163274 0.006072265
0.595066786 0.583428502 0.000759035
0.626312375 0.585325718 0.003794996
0.659709215 0.585325718 0.000000000
0.692093492 0.589373708 0.002024260
0.730803013 0.595699012 0.000000000
0.767235816 0.603035867 0.000000000
0.804048002 0.612144053 0.000000000
