Assets/Resources/EldamarStudio/100 Horror LUTs Pack/LUTs/cube/Atag LUT.cube
LUT_3D_SIZE 5
DOMAIN_MIN 0.000000 0.000000 0.000000
DOMAIN_MAX 0.903226 0.903226 0.903226
0.035294000 0.039216001 0.054901998
0.171663702 0.049335711 0.072232708
0.374066800 0.049714994 0.058191415
0.635673285 0.080455258 0.065654866
0.935230613 0.120429970 0.061606653
0.084630288 0.171283990 0.058823999
0.186337993 0.170651406 0.051613003
0.367868543 0.189626992 0.048703287
0.630866349 0.224288568 0.053257290
0.927008033 0.256672859 0.034914300
0.158886582 0.338772804 0.042378597
0.240987107 0.338772833 0.043390300
0.384566784 0.342694789 0.040481009
0.637697279 0.404806972 0.003922000
0.935104668 0.451866239 0.000632584
0.274762988 0.608349264 0.002023998
0.345097959 0.617710531 0.001897579
0.507147551 0.622011244 0.003289416
0.708286226 0.628842354 0.001012128
0.953699887 0.672612309 0.001265167
0.461859614 0.908918619 0.003795180
0.520176768 0.914863765 0.000000000
0.644908607 0.915496767 0.011890981
0.813282788 0.917141080 0.039594885
0.987349629 0.918152928 0.085009150
0.061479993 0.064389706 0.121315695
0.167109698 0.066033997 0.119670987
0.323086798 0.098418705 0.135357410
0.568374634 0.123845711 0.148766696
0.902972877 0.134724990 0.152687699
0.107906409 0.150410980 0.110183708
0.176597401 0.159898683 0.120935991
0.320177078 0.184440389 0.130803406
0.578874290 0.214168265 0.139531702
0.911068738 0.254395813 0.152434975
0.179126993 0.311954409 0.124857575
0.247564688 0.314231277 0.123212866
0.362681687 0.322453976 0.122580700
0.614927292 0.385578543 0.118026279
0.923719049 0.449335814 0.125237286
0.291081816 0.594560623 0.051866278
0.344718397 0.598861516 0.044402402
0.495888650 0.599240839 0.040100861
0.678937733 0.608349264 0.015180276
0.952181756 0.669070065 0.079569921
0.485135883 0.907400310 0.133206755
0.524478137 0.903099239 0.136622310
0.643896341 0.910689294 0.152181923
0.811891198 0.906514764 0.181783497
0.987349629 0.916508496 0.212270766
0.135989994 0.077165999 0.244528994
0.217077985 0.088930994 0.235420823
0.336115956 0.107906409 0.223023400
0.578873813 0.122201420 0.258697093
0.888171792 0.146615803 0.298924387
0.172295690 0.185325697 0.212144285
0.222264409 0.184060693 0.210879117
0.326628685 0.188614696 0.211511701
0.572675526 0.217077985 0.251486272
0.892725945 0.270588487 0.297280103
0.219101399 0.309929997 0.202656835
0.265148699 0.320430398 0.213156417
0.389120400 0.336748391 0.224288404
0.601770878 0.377988398 0.252498388
0.911069036 0.454649180 0.306894243
0.311701119 0.567362547 0.244022816
0.365211725 0.578494489 0.240986690
0.496015280 0.578494489 0.242631406
0.675269127 0.593928218 0.249209240
0.943706214 0.668437660 0.324225068
0.517394185 0.897279918 0.369133592
0.552308679 0.893611550 0.365211725
0.663124740 0.899177313 0.380265296
0.817457139 0.904111326 0.390132576
0.987349749 0.909044743 0.425047129
0.251107007 0.124604866 0.466034114
0.317520708 0.126502126 0.457179248
0.466413647 0.127134711 0.436053127
0.627071381 0.125489995 0.417204380
0.917267442 0.163820043 0.481467217
0.254016131 0.235420406 0.429728001
0.323971689 0.232131556 0.418722242
0.454901665 0.230866402 0.416445106
0.621758401 0.224288568 0.404301226
0.910689414 0.287033498 0.477925092
0.289943129 0.390132934 0.404680401
0.342061996 0.388488233 0.405566096
0.471600235 0.392789513 0.407969385
0.640607119 0.398355424 0.411511421
0.910689294 0.485389054 0.494243920
0.344339132 0.580898285 0.412144244
0.407336831 0.587349832 0.417331010
0.545477390 0.606577933 0.438962668
0.713219345 0.626945138 0.466160387
0.934851468 0.689689934 0.537507772
0.597596467 0.885135889 0.580138922
0.630866289 0.895255923 0.592156589
0.706641495 0.891714036 0.601011753
0.824035227 0.898544908 0.598481774
0.980265558 0.906135321 0.610246778
0.334851146 0.210752785 0.798102379
0.417583525 0.214673787 0.792536438
0.576849818 0.212143779 0.792282999
0.776344061 0.220366910 0.776976526
0.980897963 0.245161414 0.773307562
0.361669630 0.320303500 0.784693122
0.428715825 0.326249331 0.786970377
0.583048463 0.324604750 0.781150997
0.775332093 0.334851205 0.775711656
0.976090729 0.351929158 0.768880248
0.427830607 0.520177007 0.773307741
0.492726147 0.519797444 0.765844285
0.614168167 0.524730802 0.768753767
0.783554614 0.531309426 0.765844047
0.963946521 0.538519979 0.767488956
0.501328111 0.717267931 0.774952710
0.541682363 0.717647195 0.768500745
0.654775560 0.717267513 0.769133329
0.792283118 0.720556736 0.769133270
0.954459071 0.731941640 0.776723385
0.599367559 0.902466595 0.789120376
0.630613446 0.902846515 0.800126374
0.716761649 0.901201725 0.798228562
0.840607107 0.903478742 0.813915253
0.959771752 0.925995886 0.853130579
