Assets/Resources/EldamarStudio/100 Horror LUTs Pack/LUTs/cube/Baloryx LUT.cube
DOMAIN_MIN 0 0 0
DOMAIN_MAX 1 1 1
LUT_3D_SIZE 32
0.129411995 0.054901998 0.062744997
0.132447615 0.057938386 0.065781385
0.135483772 0.060974225 0.068817228
0.138519838 0.064010158 0.071853161
0.141935095 0.067425996 0.075268999
0.148007870 0.073497996 0.081340998
0.154080003 0.079570003 0.087412998
0.160152003 0.083997712 0.091840707
0.166224003 0.087792993 0.095635995
0.172295988 0.093865000 0.101708002
0.175458863 0.097027130 0.101961002
0.182542726 0.100063257 0.106008992
0.190512002 0.104237996 0.112080999
0.197090060 0.110309996 0.117647000
0.209234834 0.116381995 0.117647000
0.216571987 0.122453995 0.122453995
0.227198184 0.130044192 0.131561995
0.242378563 0.139152572 0.141808584
0.257558972 0.148260966 0.144844979
0.267172664 0.151802644 0.150664002
0.278178483 0.160530984 0.156736001
0.291334867 0.172675252 0.164832264
0.307020485 0.184566990 0.176850468
0.334344923 0.190639004 0.185958102
0.357115269 0.201264992 0.195066288
0.381150991 0.214800656 0.205565974
0.408981979 0.229474992 0.217710122
0.439341962 0.241618991 0.229854882
0.475015581 0.256419808 0.244655117
0.513219118 0.275142163 0.265148371
0.555344403 0.295508981 0.288551599
0.603922009 0.313724995 0.309803993
0.138519615 0.064010382 0.077925391
0.138519615 0.064010382 0.071853384
0.137254775 0.069196999 0.072738998
0.139784992 0.070588224 0.074889228
0.145730391 0.071600154 0.078684159
0.157115489 0.085641995 0.087412998
0.158127621 0.086654000 0.088424996
0.163187608 0.088424996 0.093484998
0.168500707 0.090069704 0.097153611
0.172295988 0.093865007 0.098671623
0.178368002 0.099936999 0.104743615
0.185578868 0.103099123 0.109044611
0.193548396 0.107273608 0.115116894
0.199620396 0.113345675 0.121189386
0.206198439 0.119418383 0.126755387
0.218342602 0.125490382 0.126755387
0.225679994 0.131562382 0.131562382
0.236306399 0.139152572 0.139405370
0.251486212 0.148260981 0.144844979
0.266666591 0.157368660 0.153447360
0.278178483 0.162807986 0.157874659
0.294371009 0.172675252 0.164832264
0.315622896 0.184819981 0.176976979
0.331309319 0.196711004 0.188994497
0.356356382 0.207336992 0.198102683
0.382542312 0.219481319 0.208602369
0.412017733 0.232511386 0.220746383
0.442378372 0.244655386 0.232890502
0.478051990 0.259456187 0.247691423
0.516255498 0.276407331 0.262871563
0.556609571 0.298165560 0.281593978
0.600885630 0.322833389 0.300695598
0.141176000 0.073118225 0.086654000
0.141176000 0.073118225 0.080582008
0.143326774 0.075269006 0.078811005
0.144085988 0.077545844 0.080076165
0.149019539 0.076407097 0.083112001
0.152308777 0.089816704 0.088677935
0.162934780 0.090195999 0.094497003
0.162934780 0.090195999 0.094497003
0.168753862 0.092473097 0.100316092
0.174573258 0.098292492 0.104490779
0.182668999 0.104237996 0.108158998
0.186717257 0.108285740 0.112207256
0.194434002 0.112460285 0.118152767
0.200506002 0.118532546 0.123719223
0.206578001 0.124604829 0.125996217
0.215306774 0.130676985 0.131562218
0.227450773 0.135230795 0.134598210
0.236685783 0.141302794 0.140670374
0.251865834 0.150411204 0.146742791
0.267046154 0.159519434 0.155597582
0.280328780 0.166729778 0.160910964
0.293485373 0.174825758 0.165970907
0.314357966 0.186970234 0.177103460
0.335610151 0.199114785 0.191271231
0.357621759 0.211258769 0.201138511
0.383301407 0.222011432 0.210246891
0.413409054 0.234915063 0.222643986
0.445414126 0.251992762 0.238076985
0.476786822 0.264642805 0.248576805
0.520303547 0.285135925 0.269070387
0.560910821 0.304996580 0.288931340
0.602150798 0.329790980 0.310942531
0.142441168 0.082226165 0.088931158
0.143706322 0.083491325 0.086654000
0.145856768 0.083111778 0.084883004
0.145098001 0.088678166 0.086148165
0.151549563 0.086021326 0.089184448
0.152055934 0.094623871 0.092220061
0.157874838 0.096647672 0.096521161
0.167236000 0.097785994 0.099304162
0.167995095 0.098545089 0.100063063
0.176091477 0.106641486 0.108159319
0.181404293 0.110309996 0.110183127
0.190259263 0.114358060 0.114484094
0.194434002 0.118532315 0.118659124
0.200759038 0.124351971 0.124731153
0.207843170 0.129411831 0.126755163
0.216318637 0.136748984 0.132826984
0.228209987 0.141303122 0.136368990
0.240354136 0.144971311 0.143073574
0.254902184 0.153447151 0.149778798
0.271347374 0.163820356 0.157368660
0.283365160 0.169766158 0.163946584
0.296521038 0.177862167 0.169006974
0.312207341 0.190132663 0.178494841
0.337634355 0.203415811 0.194813415
0.361922562 0.215559989 0.205439284
0.385072619 0.225047499 0.213282511
0.412903130 0.236179903 0.221884966
0.445540577 0.257432252 0.237065151
0.480075628 0.273245126 0.251106828
0.519797504 0.287413090 0.269070387
0.564832389 0.312586725 0.295129955
0.603922009 0.334598154 0.322833836
0.145477548 0.091713995 0.087413445
0.148513854 0.095129833 0.090828605
0.151170224 0.093485221 0.091713995
0.151929006 0.094370611 0.092220157
0.145857006 0.102720000 0.094876997
0.154965386 0.102720000 0.097912610
0.160151690 0.105249673 0.101328321
0.165717706 0.109550543 0.103099450
0.173308089 0.114863642 0.103858449
0.176344484 0.117900029 0.106894061
0.177609444 0.118785545 0.107020542
0.184566990 0.120809704 0.110689089
0.195193008 0.124604993 0.116761282
0.201265007 0.130677000 0.122833997
0.210246861 0.133839130 0.128905997
0.219354734 0.141302809 0.136242732
0.231119186 0.147754639 0.141935095
0.245667145 0.151423439 0.142694116
0.257811964 0.157495469 0.151802525
0.274763018 0.169133559 0.158886567
0.288045734 0.176344186 0.165717557
0.299557418 0.181657538 0.172422126
0.315116554 0.193801537 0.181530505
0.342188716 0.208728909 0.198988274
0.366856545 0.222011551 0.210752696
0.390512198 0.232131526 0.218848526
0.414041668 0.239974618 0.226059124
0.444402426 0.261226952 0.232131884
0.481973290 0.279443651 0.248829961
0.524224997 0.295256495 0.270208836
0.567489207 0.311069101 0.295129955
0.603922009 0.338393539 0.325489998
0.148513943 0.103857994 0.096521065
0.151549563 0.109929994 0.102593064
0.152435064 0.106894061 0.103857994
0.155470997 0.103857994 0.102593154
0.158001006 0.105755612 0.100949004
0.151928991 0.108792000 0.100948997
0.163567051 0.111321680 0.106514931
0.169259712 0.114357710 0.110436291
0.173308089 0.117900029 0.112966157
0.176344484 0.120936424 0.116002455
0.185199127 0.126881927 0.116128936
0.188741326 0.129917666 0.118153192
0.196711004 0.132953703 0.122833863
0.207337007 0.136748999 0.128905997
0.213408992 0.142820999 0.134977981
0.222390860 0.148386925 0.136243001
0.233016938 0.154964998 0.142315134
0.245667145 0.160531059 0.148007870
0.257811964 0.166603073 0.148766920
0.269955993 0.178241774 0.160657957
0.285009712 0.188488185 0.171789929
0.300190002 0.195572332 0.180897921
0.318152934 0.202909917 0.187602505
0.342441738 0.215053931 0.196710914
0.364959300 0.229981273 0.209614053
0.389500558 0.243263915 0.219860658
0.417331070 0.254902005 0.229475006
0.453510821 0.270335346 0.244275898
0.486527681 0.286274731 0.260973960
0.524478078 0.305503160 0.280961156
0.564958870 0.325237513 0.302719653
0.603922009 0.347501934 0.325489998
0.154080003 0.113472320 0.105629317
0.154585943 0.114484318 0.106641322
0.157621548 0.118406095 0.110562548
0.158001006 0.116002642 0.110941999
0.161163554 0.116382092 0.109930225
0.161543325 0.119417928 0.112080999
0.165591314 0.122454315 0.109550677
0.171157315 0.123845637 0.112333678
0.174066991 0.126755312 0.115243189
0.178874165 0.131562486 0.120050803
0.187729448 0.132448003 0.122706994
0.194813326 0.138519987 0.126754999
0.199494004 0.143200323 0.131435677
0.208602041 0.147881001 0.137507737
0.216951311 0.153953001 0.143580317
0.227830306 0.157621816 0.144845322
0.237065196 0.166603312 0.146363124
0.247564897 0.174066901 0.152814671
0.257811964 0.178241655 0.156609699
0.272485673 0.187349394 0.167742327
0.286527395 0.197596416 0.176091313
0.301707804 0.206704453 0.186970308
0.318659008 0.214547977 0.196204826
0.342947811 0.226692006 0.205313236
0.367235988 0.238835990 0.214421019
0.392915964 0.252372026 0.226312324
0.422391057 0.265528321 0.237065315
0.456799567 0.282732427 0.250221431
0.495635420 0.295382500 0.265528291
0.529032290 0.310562849 0.281973481
0.570524871 0.332953870 0.300822288
0.616571665 0.359140009 0.320430011
0.156863004 0.125869706 0.114737704
0.158507288 0.127513990 0.116381988
0.162302226 0.126375765 0.116887927
0.166603327 0.131942153 0.118658699
0.165464878 0.131942153 0.118279248
0.160910949 0.129917771 0.118785642
0.173054993 0.137887314 0.121695086
0.174193710 0.137634695 0.118658699
0.174952611 0.138393596 0.119417794
0.180138990 0.143579990 0.124604963
0.189120874 0.145477697 0.129411831
0.196204990 0.149525702 0.134471700
0.202277005 0.153320700 0.137128055
0.208602041 0.158633739 0.141935036
0.217710406 0.166097403 0.149399117
0.229221985 0.171410516 0.153953284
0.239848197 0.174446508 0.153953284
0.250221580 0.185578570 0.158127576
0.261353999 0.190638974 0.165211722
0.274383366 0.197596356 0.175205722
0.292852432 0.206704438 0.185199276
0.308032840 0.216824695 0.191271544
0.323592693 0.226565495 0.202024192
0.347881079 0.237191707 0.211132199
0.372169703 0.249335691 0.220240414
0.400632322 0.264263034 0.232131362
0.431246132 0.276913702 0.245035067
0.463504136 0.292852700 0.258317709
0.498924494 0.307400405 0.273118526
0.536495566 0.321315169 0.291587442
0.572549164 0.339152187 0.307653457
0.621884704 0.367994994 0.325869709
0.159898996 0.141809002 0.125363901
0.162175715 0.142567709 0.125363708
0.165844098 0.142061785 0.126249090
0.171157315 0.142568156 0.127007991
0.176091447 0.150917456 0.127007991
0.162429065 0.143327072 0.124351829
0.170524999 0.148892999 0.127387896
0.179506615 0.153573632 0.130044371
0.178747892 0.152814895 0.129285097
0.181783512 0.155850515 0.132321492
0.191397965 0.159645960 0.136748984
0.198482081 0.164706081 0.142820999
0.203795001 0.169260010 0.146995559
0.210120037 0.169766009 0.144212201
0.219228402 0.178368300 0.151802510
0.229981080 0.184313998 0.158507094
0.242125288 0.189626902 0.163820192
0.251233518 0.193927661 0.165717602
0.266160935 0.203036070 0.174825966
0.279317021 0.210879102 0.183934346
0.296394646 0.217330843 0.193042442
0.314864129 0.226691991 0.200379163
0.330423981 0.238836005 0.206578404
0.354712009 0.248576999 0.215686187
0.380518556 0.259962082 0.225553274
0.408981621 0.274130315 0.235926643
0.440860152 0.291334987 0.251613021
0.470714867 0.303478986 0.267046332
0.506767750 0.318279803 0.282985806
0.541176438 0.334977895 0.299430817
0.580139220 0.353573292 0.322833270
0.622644007 0.377862096 0.341050088
0.172042996 0.160025015 0.140543520
0.172042996 0.153953016 0.131435916
0.172169477 0.152561501 0.129285485
0.173687652 0.153700188 0.130550325
0.176091447 0.156989470 0.133079991
0.173055068 0.160025075 0.133079991
0.172042996 0.160025015 0.132953525
0.176091000 0.160531014 0.134851247
0.181783512 0.161922529 0.138393492
0.187855527 0.167994529 0.144465506
0.199620739 0.173940748 0.144592017
0.207590476 0.179886490 0.148893014
0.212523833 0.184819862 0.153826654
0.216192037 0.187982008 0.156356990
0.225300401 0.194053993 0.156356990
0.234408796 0.197849333 0.161543503
0.246679679 0.202530012 0.169133693
0.260341883 0.209108055 0.177862376
0.269449562 0.218216449 0.186970010
0.284376889 0.230107501 0.196078360
0.301328003 0.236306235 0.205186740
0.317646772 0.241619349 0.212270841
0.330423981 0.250979990 0.215686008
0.354712009 0.263124794 0.224794418
0.383554548 0.275142491 0.236179471
0.415053636 0.288678139 0.246805668
0.446932137 0.303478986 0.257685006
0.471220911 0.315622985 0.275900960
0.514357746 0.330423802 0.293991178
0.552308559 0.349146158 0.308538944
0.589374006 0.371916533 0.326375663
0.634788036 0.399114490 0.356230468
0.169639125 0.175331876 0.144085869
0.172548994 0.172169745 0.149525389
0.168247998 0.170398742 0.140417218
0.169259995 0.171663582 0.136875287
0.175458670 0.174319997 0.137001872
0.187602922 0.174825937 0.142061874
0.182036862 0.177862197 0.147121876
0.182922155 0.179886028 0.149525583
0.186970085 0.181909963 0.152561769
0.190891862 0.185831726 0.156482995
0.199873745 0.186084732 0.159645870
0.207969993 0.192157000 0.163693860
0.215180352 0.198229000 0.167488873
0.222264022 0.202782869 0.168754041
0.231372416 0.203541875 0.171410874
0.240480810 0.212017670 0.173814073
0.249589175 0.217583865 0.179380000
0.261986405 0.224288449 0.187096700
0.275648057 0.233396843 0.196204901
0.293105721 0.239721879 0.199747235
0.308412582 0.247817874 0.208602116
0.325616717 0.253890127 0.216698125
0.341935486 0.262998223 0.221758008
0.363440871 0.272358924 0.228083774
0.392283410 0.289057702 0.239468858
0.421252489 0.303858519 0.254395843
0.451612920 0.319038779 0.269070089
0.483111858 0.333585978 0.284882843
0.515369773 0.348386794 0.300442666
0.556356549 0.368880361 0.320177168
0.593801558 0.388614833 0.337507844
0.635294020 0.405818999 0.359772116
0.166603267 0.192536503 0.153193995
0.171663389 0.187476113 0.149146259
0.172295988 0.190639243 0.148513496
0.168753996 0.190639243 0.143200263
0.173308000 0.192536503 0.143200547
0.183554679 0.192536503 0.154206261
0.191145003 0.193042576 0.158253998
0.188362002 0.194434255 0.157747984
0.191777259 0.197849512 0.160404742
0.196078479 0.202150747 0.164705515
0.202909619 0.204300985 0.167741865
0.209993720 0.208348975 0.172802001
0.217204377 0.213282630 0.176596999
0.226565257 0.218469247 0.177102983
0.237444401 0.222011253 0.181910142
0.248577058 0.227197796 0.188994452
0.260721058 0.236306190 0.193548247
0.270841300 0.242251813 0.198355258
0.283238322 0.248577222 0.203288972
0.297153443 0.254902244 0.210879356
0.315370202 0.260974228 0.213915259
0.331689000 0.269070238 0.221758246
0.350284487 0.279190481 0.227956980
0.375331879 0.288298607 0.235926539
0.397343278 0.304237545 0.248576969
0.427704036 0.319670975 0.263504297
0.457179129 0.334218800 0.281214476
0.492093652 0.349398762 0.296394408
0.527514279 0.366603315 0.313599080
0.566223860 0.387096435 0.334092170
0.605945826 0.411385179 0.356483161
0.645414233 0.428083509 0.376976490
0.169259995 0.210752994 0.164199650
0.171916634 0.205818862 0.157368734
0.174825996 0.207210541 0.154838860
0.177102998 0.211891636 0.154206276
0.177102998 0.211891636 0.154206276
0.181657001 0.211891636 0.165591583
0.186843678 0.211891636 0.169512957
0.195572644 0.213029996 0.172169298
0.196331546 0.213789091 0.168374196
0.202023998 0.219481632 0.174066648
0.208095998 0.221505418 0.174952507
0.214167997 0.226565272 0.180012643
0.221378639 0.231498629 0.184946001
0.230739996 0.234788045 0.185452059
0.242883980 0.240860283 0.191524282
0.255028605 0.248070627 0.199999794
0.268691093 0.253383845 0.205312997
0.283238262 0.261227041 0.210119992
0.292852640 0.264263332 0.210120022
0.305882275 0.272359610 0.219608009
0.322960109 0.278431654 0.226059541
0.341176629 0.287539780 0.231119141
0.359519124 0.299683750 0.237444848
0.384819567 0.308791876 0.246552736
0.409866899 0.323592633 0.259076267
0.435293972 0.339025617 0.275648326
0.465654612 0.352181762 0.293359071
0.500822186 0.367994696 0.308538795
0.539531946 0.385831654 0.327514291
0.577229679 0.404174566 0.346995562
0.617078125 0.428462833 0.372169197
0.656040609 0.452751637 0.396710992
0.180645034 0.229475066 0.173308030
0.177609339 0.226185635 0.170777634
0.179380253 0.227703840 0.171789765
0.183175027 0.230487198 0.174573123
0.188740999 0.233396992 0.177482992
0.188740999 0.233396992 0.177482992
0.189247057 0.233144030 0.177482992
0.195319414 0.235041350 0.180771992
0.205439940 0.237571090 0.185831934
0.208475560 0.240607485 0.188867554
0.214167997 0.240987033 0.186590910
0.220746040 0.245035022 0.189374000
0.227703676 0.250221401 0.194560394
0.236812055 0.253257096 0.197343022
0.248956040 0.259329855 0.203415796
0.261353582 0.267552257 0.211891219
0.274763167 0.274130195 0.216698050
0.289310992 0.277419448 0.217457026
0.301455021 0.280455083 0.217457041
0.316382378 0.291081727 0.227577671
0.335104704 0.299936980 0.235926956
0.356103987 0.308539152 0.243263930
0.374572992 0.323592991 0.252624542
0.395951927 0.332827121 0.261985958
0.421505272 0.346489310 0.273371071
0.449968338 0.360531032 0.287792325
0.480582058 0.373434156 0.305503070
0.510942042 0.391650915 0.320683420
0.550916553 0.409866989 0.340923756
0.590132356 0.426818192 0.360657930
0.626185715 0.444655210 0.381783575
0.659582973 0.468944013 0.409108013
0.183681414 0.253763795 0.182416409
0.180645019 0.247691035 0.185452029
0.186211348 0.250853926 0.185072407
0.190259412 0.253763795 0.185704991
0.191903874 0.254775852 0.186717123
0.194812998 0.257684976 0.189626992
0.199873641 0.255155295 0.189626992
0.204680830 0.257685393 0.192915991
0.212017998 0.260847718 0.197469994
0.217583925 0.258823454 0.197975934
0.220619529 0.261859864 0.201012284
0.230360508 0.266287386 0.202783152
0.238962829 0.272359401 0.207589984
0.245920449 0.277545840 0.212523401
0.255028814 0.280582219 0.212523401
0.269576013 0.286654383 0.220999375
0.282605946 0.294876635 0.227071598
0.295382977 0.302086979 0.230740234
0.307527006 0.307779431 0.238709405
0.322454393 0.310815752 0.238709405
0.339531988 0.321441978 0.245034561
0.361416698 0.331309110 0.253130823
0.386716992 0.341808945 0.264769316
0.411005795 0.353952974 0.279949725
0.434661388 0.367741644 0.291587830
0.460973978 0.382922024 0.303731799
0.489943475 0.397469878 0.317647070
0.523086786 0.412903279 0.332827419
0.553446770 0.431119353 0.350663960
0.591650546 0.451106548 0.371283740
0.630486965 0.471979588 0.394560188
0.668690562 0.496268392 0.424288422
0.189120993 0.278051972 0.196331799
0.190891594 0.274383605 0.199367419
0.187855765 0.270461649 0.202403575
0.195952162 0.277040124 0.203921437
0.199367806 0.279696763 0.204680339
0.200379670 0.276660681 0.203668743
0.203541845 0.281847090 0.204174802
0.211258903 0.280455768 0.205819085
0.217330903 0.284250706 0.210373089
0.221758187 0.284503281 0.212017789
0.229727924 0.287286639 0.217330858
0.236812055 0.290322512 0.220367253
0.247438639 0.294876605 0.224541605
0.255028754 0.299683809 0.230107591
0.264136612 0.304870397 0.230107591
0.280455768 0.307906777 0.237317786
0.294117570 0.312460572 0.244908363
0.305629551 0.320429772 0.247565210
0.316002816 0.330043793 0.249588847
0.333333373 0.338140130 0.255154788
0.352308750 0.344971538 0.262744784
0.372042924 0.355597734 0.270840913
0.396457791 0.364706069 0.281467497
0.420746595 0.374572784 0.292093903
0.447312057 0.388994038 0.304996997
0.475901216 0.405566096 0.318532646
0.505250037 0.421252578 0.332700789
0.534851372 0.434535205 0.349778414
0.570398510 0.454775572 0.365211755
0.602529705 0.472991526 0.386970162
0.639848173 0.497153342 0.410626173
0.677798808 0.525995970 0.439468801
0.196711197 0.302340388 0.213029996
0.201265007 0.300822586 0.217583805
0.203035772 0.300822407 0.219101772
0.200000152 0.297786355 0.219608158
0.206957996 0.305503190 0.222137839
0.206957996 0.303985178 0.221378937
0.212523669 0.301961184 0.220872998
0.215812698 0.306261986 0.222517669
0.224161983 0.307021081 0.224035278
0.227956712 0.310056895 0.225553483
0.233776063 0.313092828 0.229981199
0.244402245 0.317646921 0.237065062
0.255787641 0.320682824 0.238962799
0.265655011 0.323466182 0.244022831
0.274762958 0.327008158 0.245288000
0.286527395 0.332194805 0.247944385
0.301707774 0.336748987 0.260088354
0.314484358 0.341049761 0.265528381
0.325363785 0.352308393 0.264263004
0.344338983 0.360151529 0.269576401
0.364452720 0.370777726 0.279443383
0.386717230 0.380898237 0.292599529
0.408475667 0.390512675 0.302593380
0.431372792 0.399620295 0.310310096
0.457938254 0.413282454 0.321695179
0.485262632 0.428462833 0.333839148
0.518912137 0.446553111 0.349905044
0.549272597 0.460721374 0.369133174
0.583048582 0.480834752 0.389247179
0.614674091 0.498798132 0.405186534
0.648956180 0.518785357 0.430360764
0.685388982 0.550284386 0.457685202
0.206451982 0.326628983 0.231878549
0.211891413 0.327261537 0.237318128
0.215180218 0.328779370 0.239721552
0.216951132 0.330550134 0.239089131
0.214674532 0.328273505 0.236053512
0.214927569 0.334092557 0.238583192
0.220619828 0.331309527 0.239089131
0.226438701 0.329538405 0.240101278
0.231498972 0.332574040 0.242252037
0.237570971 0.335610449 0.239215642
0.241366431 0.338646233 0.241998851
0.250474542 0.343073726 0.247185305
0.263124615 0.349272162 0.254775137
0.277799010 0.352814555 0.255534172
0.286907375 0.353953093 0.259329557
0.296647757 0.356862515 0.259329557
0.307273537 0.363567114 0.265654743
0.320050120 0.369006693 0.278304964
0.335230559 0.378115088 0.281340599
0.355976939 0.384440124 0.288425118
0.377229303 0.393674701 0.297027558
0.398861229 0.405818790 0.310183555
0.423149973 0.417963535 0.325110912
0.444908470 0.427577227 0.331688970
0.470082253 0.440606803 0.341682553
0.499304205 0.456419766 0.355724096
0.526628613 0.471094131 0.368880123
0.562681854 0.489057869 0.390005976
0.596457720 0.509930253 0.412650198
0.628209651 0.528272688 0.433523118
0.657558143 0.545477152 0.451613128
0.693990946 0.569765985 0.478937566
0.218596011 0.350917071 0.253131002
0.221631631 0.353953421 0.256167382
0.222770050 0.354586005 0.259456187
0.224288180 0.356103837 0.260973990
0.226818562 0.358633578 0.260341555
0.229854956 0.361669958 0.257305950
0.230107978 0.362429023 0.257305950
0.232511237 0.361923009 0.257305950
0.237824008 0.362934887 0.257559001
0.249715015 0.365970522 0.257432461
0.255787760 0.369006902 0.260215074
0.265654981 0.372043252 0.261227012
0.277799010 0.377609283 0.265401632
0.289943069 0.386211038 0.273750991
0.299051434 0.395319402 0.282859355
0.310563028 0.394054145 0.281847179
0.322453976 0.397849172 0.285136193
0.335230559 0.405439556 0.293485433
0.350410998 0.408475935 0.296521068
0.371157348 0.414800972 0.307906032
0.392409742 0.422770709 0.315749526
0.413662136 0.433143914 0.325363874
0.435294032 0.445288002 0.340290576
0.459582835 0.457432032 0.349398971
0.483617991 0.469322950 0.358254313
0.513725281 0.484503329 0.373181641
0.547881007 0.501455009 0.393168956
0.575205386 0.513599038 0.411384970
0.608601809 0.534218848 0.429854631
0.643769324 0.553699970 0.452118933
0.678557515 0.572548628 0.475648224
0.712206960 0.594054043 0.500190020
0.227957353 0.386337757 0.274383396
0.228210330 0.386590779 0.274636418
0.231245935 0.389627159 0.277672797
0.233143523 0.392789751 0.278178543
0.236559361 0.396584541 0.276660383
0.241998956 0.394813299 0.276027948
0.242505014 0.395319372 0.275522023
0.245794013 0.395319372 0.277166724
0.252245367 0.396078467 0.279823363
0.264389366 0.399114609 0.283871353
0.273497760 0.404933602 0.283997834
0.279570013 0.405945748 0.287033439
0.290196002 0.409361392 0.290069371
0.302087069 0.416318774 0.296774030
0.311195433 0.420367122 0.298292071
0.327513993 0.427071720 0.307400465
0.343453407 0.429728061 0.310436368
0.358760297 0.435673743 0.317647010
0.373940736 0.436559349 0.322833419
0.386337757 0.445161760 0.325869709
0.409487844 0.455028743 0.336116463
0.429601580 0.466034383 0.343074381
0.447564542 0.477925360 0.352941215
0.474510163 0.484756380 0.367362618
0.505629659 0.499177665 0.381024420
0.531435668 0.511827707 0.395319343
0.560278118 0.527261138 0.414674371
0.585325778 0.543959737 0.432890356
0.617963135 0.561416686 0.451107025
0.649588704 0.582542539 0.472865313
0.683111966 0.602656305 0.502466559
0.716508389 0.623908758 0.538140416
0.244655728 0.420872718 0.295635730
0.240860239 0.426565468 0.289942980
0.244908690 0.426818490 0.299683779
0.245414317 0.427324533 0.300189823
0.247565001 0.431499094 0.297532976
0.253636986 0.433017284 0.297532976
0.262238979 0.428715736 0.297532976
0.263883710 0.430360436 0.299177676
0.269702762 0.432131469 0.302972972
0.279569715 0.436306208 0.309044987
0.288804591 0.438456744 0.311195731
0.297785997 0.444275707 0.311322182
0.306135297 0.445414364 0.315496445
0.318279475 0.450474441 0.321315438
0.329032123 0.453510374 0.322959721
0.343453467 0.457052737 0.328273267
0.363187641 0.463124722 0.338899463
0.379886299 0.469196707 0.344465464
0.392536730 0.471726716 0.348007441
0.408728749 0.478178352 0.351296335
0.426565468 0.487286747 0.356230497
0.448829979 0.496394873 0.365338624
0.465274721 0.505882442 0.372675478
0.490828693 0.515496433 0.387855887
0.515117288 0.524604797 0.403036177
