Assets/Resources/EldamarStudio/100 Horror LUTs Pack/LUTs/cube/Baloryx LUT.cube
LUT_3D_SIZE 5
DOMAIN_MIN 0.000000 0.000000 0.000000
DOMAIN_MAX 0.903226 0.903226 0.903226
0.129411995 0.054901998 0.062744997
0.160152003 0.083997712 0.091840707
0.209234834 0.116381995 0.117647000
0.291334867 0.172675252 0.164832264
0.475015581 0.256419808 0.244655117
0.156863004 0.125869706 0.114737704
0.174193710 0.137634695 0.118658699
0.217710406 0.166097403 0.149399117
0.308032840 0.216824695 0.191271544
0.498924494 0.307400405 0.273118526
0.183681414 0.253763795 0.182416409
0.204680830 0.257685393 0.192915991
0.255028814 0.280582219 0.212523401
0.361416698 0.331309110 0.253130823
0.553446770 0.431119353 0.350663960
0.263883859 0.456293374 0.317900002
0.287159830 0.467804819 0.325489938
0.351676106 0.490954965 0.351675957
0.468058109 0.530803144 0.389627129
0.643643022 0.616951048 0.501201808
0.537887454 0.757495463 0.604553759
0.559013247 0.761416733 0.604680538
0.608602405 0.778367639 0.624921024
0.696774006 0.797975540 0.661732733
0.803288579 0.830739558 0.703858554
0.139531717 0.076154292 0.105881996
0.164073005 0.087919287 0.116381988
0.207590118 0.131435573 0.143832996
0.292346984 0.188614860 0.200758845
0.478937596 0.272738993 0.277039826
0.162428722 0.137634695 0.139278978
0.177482709 0.149398699 0.149398699
0.220998988 0.173940405 0.172295690
0.311574697 0.223023564 0.219355136
0.496015191 0.315622807 0.299936533
0.194813415 0.257684976 0.214800686
0.207590118 0.262871385 0.222011685
0.261227101 0.289437056 0.244275689
0.363314271 0.336495936 0.285135984
0.554838598 0.438329786 0.373940319
0.267805547 0.467045844 0.340417266
0.286906958 0.476533711 0.357495099
0.360151529 0.494876534 0.376470357
0.467804819 0.529537916 0.416445374
0.646679223 0.620493293 0.516508460
0.535104275 0.766603589 0.612776577
0.561543226 0.768500745 0.616065681
0.615180016 0.781656981 0.635926604
0.697785854 0.799367428 0.670082271
0.808222651 0.829727709 0.722959816
0.151043415 0.093485415 0.173940822
0.165085286 0.103605285 0.176850110
0.205945417 0.135357410 0.188994408
0.301581234 0.193548411 0.252118677
0.486148149 0.283238381 0.344085813
0.170271710 0.150410995 0.195193112
0.181404293 0.157242268 0.198481709
0.222263992 0.184060693 0.222011283
0.314610839 0.238709837 0.274762839
0.506767690 0.325110376 0.366982788
0.187602580 0.268817395 0.262239397
0.211511701 0.285136372 0.275015682
0.277292788 0.315876395 0.310689360
0.375838101 0.355471283 0.343073934
0.568500996 0.449462205 0.438329756
0.278431118 0.480455101 0.407463849
0.303478837 0.486021668 0.411385268
0.370271951 0.509550989 0.431119233
0.479823112 0.543200374 0.470967650
0.655534625 0.633902609 0.562301934
0.527387619 0.762681782 0.649715185
0.555597484 0.771916449 0.648703277
0.609867275 0.782289565 0.662745059
0.699809849 0.801517725 0.695129752
0.810499787 0.839974582 0.754458964
0.150031865 0.120683126 0.286527246
0.174193710 0.133712858 0.293738425
0.227577403 0.161542997 0.308791965
0.311069131 0.207969993 0.334598124
0.497027040 0.289816797 0.437697649
0.167362422 0.178873688 0.302213848
0.184693128 0.186085120 0.307779670
0.237444818 0.210626394 0.328399658
0.332953990 0.251739413 0.362049550
0.519544601 0.338899225 0.459962219
0.193548411 0.296647519 0.368627548
0.216698125 0.308412105 0.376849979
0.282226712 0.331941694 0.399620384
0.384313494 0.373181492 0.431752235
0.577355862 0.456293523 0.523339570
0.287413150 0.494623244 0.486654252
0.312333673 0.505629241 0.495508939
0.388614804 0.530170560 0.522959888
0.510310233 0.581783354 0.569133282
0.672232926 0.641366065 0.634281933
0.538646579 0.767235577 0.699304044
0.557621539 0.775078595 0.697659492
0.609234452 0.788488269 0.712080836
0.699430764 0.806830764 0.738772929
0.819101572 0.843137622 0.790259361
0.105755858 0.164832145 0.560278416
0.165717706 0.176596820 0.555977225
0.283997625 0.209360972 0.571410120
0.422390938 0.267298967 0.593801320
0.594307244 0.346868783 0.629474699
0.112207189 0.227703810 0.567741692
0.173560694 0.240101382 0.573307514
0.286907077 0.264642507 0.585325539
0.434914887 0.314737380 0.606072068
0.602403343 0.392030627 0.641872227
0.140417606 0.363061368 0.598608196
0.191144705 0.367362499 0.601391196
0.315369785 0.393801630 0.618342996
0.465907633 0.439342350 0.642757893
0.637951016 0.501834214 0.678431094
0.321568549 0.582036734 0.675774634
0.346109986 0.583680987 0.686654031
0.415180534 0.589753389 0.689183891
0.542694569 0.609614253 0.712587118
0.708159268 0.662997901 0.742061913
0.570777535 0.791397810 0.779759586
0.584566355 0.795066237 0.794054627
0.628842115 0.805818617 0.799367547
0.721694827 0.833902597 0.817963302
0.856925726 0.875142395 0.872485578
