Assets/Resources/EldamarStudio/100 Horror LUTs Pack/LUTs/cube/Baloryx LUT.cube
LUT_3D_SIZE 8
DOMAIN_MIN 0.000000 0.000000 0.000000
DOMAIN_MAX 0.903226 0.903226 0.903226
0.129411995 0.054901998 0.062744997
0.141935095 0.067425996 0.075268999
0.166224003 0.087792993 0.095635995
0.190512002 0.104237996 0.112080999
0.227198184 0.130044192 0.131561995
0.278178483 0.160530984 0.156736001
0.357115269 0.201264992 0.195066288
0.475015581 0.256419808 0.244655117
0.145477548 0.091713995 0.087413445
0.145857006 0.102720000 0.094876997
0.173308089 0.114863642 0.103858449
0.195193008 0.124604993 0.116761282
0.231119186 0.147754639 0.141935095
0.288045734 0.176344186 0.165717557
0.366856545 0.222011551 0.210752696
0.481973290 0.279443651 0.248829961
0.159898996 0.141809002 0.125363901
0.176091447 0.150917456 0.127007991
0.178747892 0.152814895 0.129285097
0.203795001 0.169260010 0.146995559
0.242125288 0.189626902 0.163820192
0.296394646 0.217330843 0.193042442
0.380518556 0.259962082 0.225553274
0.506767750 0.318279803 0.282985806
0.169259995 0.210752994 0.164199650
0.177102998 0.211891636 0.154206276
0.196331546 0.213789091 0.168374196
0.221378639 0.231498629 0.184946001
0.268691093 0.253383845 0.205312997
0.322960109 0.278431654 0.226059541
0.409866899 0.323592633 0.259076267
0.539531946 0.385831654 0.327514291
0.196711197 0.302340388 0.213029996
0.206957996 0.305503190 0.222137839
0.224161983 0.307021081 0.224035278
0.255787641 0.320682824 0.238962799
0.301707774 0.336748987 0.260088354
0.364452720 0.370777726 0.279443383
0.457938254 0.413282454 0.321695179
0.583048582 0.480834752 0.389247179
0.244655728 0.420872718 0.295635730
0.247565001 0.431499094 0.297532976
0.269702762 0.432131469 0.302972972
0.306135297 0.445414364 0.315496445
0.363187641 0.463124722 0.338899463
0.426565468 0.487286747 0.356230497
0.515117288 0.524604797 0.403036177
0.628968775 0.589879692 0.476154357
0.344971567 0.597216547 0.420493275
0.356989086 0.588994086 0.422137827
0.378621072 0.597343445 0.434282362
0.418975204 0.606072247 0.444655538
0.470208526 0.616192579 0.456925720
0.530676782 0.633396745 0.484629780
0.599493802 0.654395819 0.517140806
0.697786331 0.700189769 0.576344073
0.537887454 0.757495463 0.604553759
0.547374845 0.760025442 0.600252867
0.564832449 0.763440609 0.607969642
0.591144741 0.772928357 0.618722200
0.631372809 0.781150937 0.633775949
0.681846857 0.795192719 0.656166792
0.743579566 0.810246766 0.683238268
0.803288579 0.830739558 0.703858554
0.140037552 0.066287450 0.082732551
0.145857006 0.071346998 0.087792993
0.170145184 0.087793000 0.107399993
0.191650644 0.113219641 0.121062644
0.220619738 0.134345353 0.142188653
0.278052002 0.171916530 0.173181474
0.353573740 0.211132243 0.207590282
0.477419287 0.266919643 0.260721266
0.154079542 0.098797999 0.100695543
0.157242462 0.103858545 0.104237996
0.166983008 0.112839997 0.112839997
0.194054455 0.132068455 0.135610193
0.230487183 0.154332817 0.154079556
0.285894990 0.185705096 0.176344186
0.364832252 0.223909289 0.218342990
0.487665743 0.285388798 0.275142491
0.165085554 0.148134008 0.133206993
0.169006541 0.151676461 0.135610104
0.181909993 0.153573990 0.143832639
0.204174548 0.167235658 0.156356633
0.238962993 0.195066079 0.171916544
0.294117749 0.220113993 0.201011822
0.375838250 0.263504088 0.234534830
0.505249858 0.320809394 0.293358564
0.178368449 0.211512089 0.176344097
0.183048546 0.211132541 0.171537101
0.200252727 0.216951191 0.179000646
0.226059541 0.235041097 0.191904098
0.263630629 0.256546438 0.209867284
0.322327644 0.282732397 0.233396381
0.412523448 0.328905642 0.275142521
0.539658248 0.395698816 0.340670168
0.199114382 0.305503190 0.216698542
0.207717001 0.301454991 0.228336632
0.224161983 0.310057074 0.230613530
0.253763378 0.324604839 0.246679187
0.300442606 0.340670377 0.260088265
0.365591377 0.370272160 0.290195793
0.457052648 0.416951180 0.329664767
0.577609062 0.484503448 0.393927723
0.239595070 0.426691979 0.298671514
0.250474453 0.427451074 0.299937010
0.272865534 0.436432809 0.311321914
0.311954737 0.446679235 0.319418192
0.362807989 0.464642882 0.340417355
0.426185936 0.487792283 0.369892716
0.512713552 0.527008474 0.407843292
0.629095495 0.591018498 0.483238071
0.352814555 0.587096870 0.427956551
0.361037105 0.594180822 0.431625515
0.384060740 0.602782845 0.440101117
0.426059395 0.612144530 0.458570451
0.477166444 0.623149633 0.475015819
0.537634254 0.641113281 0.499683708
0.609234512 0.665781260 0.532574296
0.703985095 0.706261933 0.592283487
0.531815290 0.761037290 0.611638367
0.550663888 0.768880308 0.604553759
0.564199448 0.766603470 0.611891150
0.597216904 0.776343763 0.625932753
0.637065351 0.784060478 0.641239643
0.684629679 0.797849476 0.666792989
0.743959129 0.809360981 0.686906815
0.807210565 0.831245720 0.723339677
0.138772994 0.079190098 0.109677091
0.145857096 0.079949193 0.113219544
0.170145184 0.091713995 0.128525987
0.191650644 0.116381742 0.141429543
0.227324277 0.143453285 0.165338188
0.277672708 0.177735373 0.191903993
0.358507365 0.219354793 0.231878281
0.480961382 0.274762958 0.286906809
0.146995544 0.103858449 0.120303549
0.162808478 0.108538538 0.121062547
0.172928542 0.116381638 0.136369184
0.195193097 0.137507647 0.150411084
0.230739743 0.165338188 0.174446538
0.285136074 0.195445836 0.204427481
0.363694012 0.238077089 0.245161384
0.485515147 0.293231875 0.294876814
0.166224003 0.152056009 0.155976996
0.169006541 0.157115638 0.160657987
0.187349990 0.165338188 0.164579093
0.211637989 0.176217377 0.170778096
0.246047094 0.198988080 0.197470084
0.302466899 0.231119379 0.229980722
0.375079155 0.272485971 0.256799579
0.507906616 0.330802888 0.315875828
0.186590895 0.219355091 0.190385997
0.180645436 0.220493540 0.196331546
0.202656642 0.228716075 0.202529639
0.229221642 0.240860552 0.218596086
0.264769197 0.263630629 0.231878191
0.323466182 0.289690077 0.257305533
0.413409352 0.333206832 0.301581085
0.540796578 0.396837264 0.357748449
0.209361002 0.309298158 0.251486272
0.211258546 0.308539093 0.251486272
0.227198184 0.318785310 0.257685006
0.260467827 0.330929816 0.264389634
0.301581264 0.347754270 0.282732189
0.366350442 0.374952465 0.312080830
0.457052648 0.422770202 0.350664198
0.582542539 0.486527622 0.417963237
0.254395992 0.435673803 0.328273237
0.260214806 0.434535384 0.325616479
0.280329078 0.441113114 0.336242706
0.316634804 0.451359808 0.341303080
0.367995173 0.467046201 0.360530943
0.429348797 0.490069598 0.390385836
0.522580802 0.528905809 0.435167670
0.628209889 0.594939768 0.502087295
0.357748061 0.591018438 0.446173459
0.364579350 0.594180644 0.450094759
0.385578841 0.599620581 0.451612860
0.424667656 0.607843041 0.466666996
0.470967650 0.623276412 0.485135645
0.532953680 0.639974892 0.510942459
0.605059862 0.663883746 0.543832958
0.707906008 0.708665431 0.599493980
0.531056464 0.764832437 0.615812659
0.545856833 0.762302339 0.619354725
0.566097200 0.766223848 0.619354725
0.595825315 0.775205493 0.631372273
0.634029090 0.781150937 0.646679401
0.682605922 0.793548346 0.664010108
0.743073821 0.814041913 0.697786033
0.808728576 0.830739617 0.723971784
0.141176000 0.087413348 0.149652004
0.150158361 0.095256351 0.156356648
0.170524731 0.101075090 0.159013197
0.187729359 0.122707352 0.164199650
0.229221836 0.147754550 0.193548277
0.279823005 0.180138990 0.224035278
0.359392583 0.222011343 0.259582639
0.482605964 0.281214654 0.324983984
0.158380911 0.112080894 0.151676357
0.163947001 0.118658736 0.156736106
0.174066991 0.124984346 0.165338188
0.192030191 0.141429648 0.177862003
0.233143553 0.166856289 0.205313087
0.285515726 0.197849646 0.229854539
0.372295916 0.242378235 0.275648177
0.490069360 0.299050987 0.332194895
0.167867988 0.161163643 0.181151092
0.168121651 0.161417007 0.183681533
0.180645347 0.173181191 0.193548188
0.207717001 0.184061095 0.208475903
0.244402185 0.207590193 0.225680083
0.299936891 0.237318277 0.252498537
0.386717260 0.283491492 0.293232024
0.507273614 0.338646233 0.349019349
0.187096640 0.219734639 0.219734639
0.185831904 0.227197990 0.217710182
0.210879087 0.241240084 0.238963097
0.237065345 0.258444279 0.252245277
0.273371249 0.274889261 0.271853179
0.330550373 0.301075548 0.291713804
0.418342918 0.349272281 0.338646650
0.548007369 0.408602446 0.399240971
0.208096340 0.319164753 0.280075729
0.219481081 0.321062386 0.285515517
0.236685887 0.329664558 0.292852491
0.267552614 0.342567831 0.304743975
0.309297949 0.357495010 0.317520618
0.378621072 0.389247388 0.344971448
0.462998003 0.429475129 0.388741106
0.588488400 0.491967201 0.454902053
0.253383815 0.440480739 0.359392464
0.261606276 0.443516821 0.360531211
0.287792712 0.449841946 0.367362291
0.322960138 0.458443999 0.378241360
0.375079095 0.477292925 0.395698905
0.434029102 0.499177724 0.422390819
0.523592532 0.539025962 0.458317757
0.634155631 0.600126207 0.521694958
0.357368857 0.597216547 0.478304833
0.372549266 0.600632250 0.475901276
0.388741434 0.605945468 0.482479125
0.433523268 0.616192281 0.499051213
0.478810549 0.627197802 0.514990509
0.541555643 0.644655228 0.536875427
0.615180254 0.670082569 0.561922550
0.713345885 0.713725269 0.623782516
0.536622584 0.762681603 0.637191594
0.549778581 0.764958858 0.631498694
0.568121076 0.771410227 0.641745687
0.592915535 0.774446547 0.651612759
0.634028912 0.786464214 0.660594642
0.684376776 0.797343254 0.679696321
0.742314756 0.811638296 0.703226030
0.813029587 0.831119418 0.737001777
0.149905011 0.101074994 0.200632200
0.152055994 0.104996994 0.194307387
0.169259995 0.112839997 0.206831083
0.194307193 0.132068440 0.210752800
0.227198184 0.152688190 0.228716001
0.279949725 0.185199246 0.259961963
0.364832371 0.224794567 0.301328450
0.489436775 0.282353014 0.366982818
0.158507019 0.122074187 0.203542188
0.158381000 0.129411802 0.199746996
0.172801822 0.138266638 0.209867090
0.202277005 0.152056009 0.223276198
0.236685991 0.171157554 0.242504641
0.293358535 0.203288734 0.269323200
0.372675359 0.244275793 0.313093185
0.495256037 0.302593350 0.372042894
0.171790093 0.171537086 0.225680187
0.177230000 0.172422200 0.224920884
0.190512091 0.180265889 0.230233982
0.215180457 0.193927750 0.244402185
0.245161265 0.211511999 0.258444101
0.305123419 0.241619438 0.293738067
0.387476385 0.285768360 0.336748987
0.516255617 0.339405328 0.392536074
0.185199097 0.231498629 0.259708732
0.189753190 0.236938819 0.269955814
0.206072196 0.246299624 0.274130255
0.238963097 0.261606455 0.288172156
0.274762988 0.281593651 0.310562819
0.339785188 0.310436517 0.337887645
0.426944911 0.355091631 0.374067247
0.554459035 0.412144095 0.438836277
0.206958011 0.322580576 0.309297979
0.213409528 0.329411715 0.323466152
0.238203883 0.340670168 0.337634176
0.281973183 0.364959180 0.359139800
0.326502144 0.386843383 0.375079364
0.387982100 0.405186623 0.399367362
0.477545500 0.440860391 0.431372464
0.587475955 0.503605008 0.489184171
0.263757169 0.447944283 0.401391506
0.271727055 0.453004599 0.401264876
0.296774209 0.462365687 0.413535655
0.332827240 0.473624289 0.426312715
0.384819895 0.491714358 0.441113114
0.442251474 0.512460530 0.460088879
0.533586204 0.550031662 0.495888680
0.640733778 0.604048193 0.557495356
0.367741644 0.602783024 0.508918285
0.375964522 0.604554176 0.515243292
0.398987740 0.610626459 0.521315634
0.434155434 0.620872855 0.533459783
0.483617634 0.637191474 0.543200731
0.543833017 0.653257489 0.566223979
0.618975341 0.675521851 0.600252748
0.717014372 0.719418108 0.651486516
0.531941831 0.761669755 0.660215139
0.538013816 0.768500984 0.647311628
0.555850506 0.774066865 0.655028582
0.589500427 0.779506207 0.665780902
0.630107641 0.786590755 0.678684413
0.681593716 0.798481822 0.700189769
0.743200183 0.816698432 0.725110352
0.814421177 0.834787786 0.751043379
0.146995738 0.117647000 0.264262736
0.157242462 0.121821538 0.264642298
0.175964728 0.133206993 0.268943846
0.205313087 0.146109834 0.277166367
0.244781926 0.167994931 0.292725980
0.291840732 0.193801731 0.311321706
0.371283978 0.232510984 0.353573531
0.495256007 0.289057642 0.420240492
0.155597553 0.141555741 0.263377547
0.161922544 0.140164286 0.268564284
0.180771723 0.152308732 0.273624659
0.208475798 0.168880448 0.286906838
0.247944638 0.185958341 0.299178004
0.297912568 0.213788792 0.321315527
0.378494740 0.249841988 0.362808108
0.505629420 0.310436398 0.435547203
0.170651257 0.183934093 0.284503639
0.181657448 0.193168744 0.290449083
0.195319191 0.195445821 0.292852461
0.220619634 0.205186471 0.302719831
0.259708732 0.227577642 0.317141086
0.313978374 0.253004402 0.348892838
0.394939929 0.288172007 0.384313673
0.525616705 0.348007619 0.453130722
0.183428094 0.251865745 0.326881707
0.188488454 0.256166995 0.324351281
0.210879087 0.264389813 0.330929637
0.239721984 0.272485882 0.341682732
0.285135984 0.293738186 0.359392583
0.342315078 0.318279743 0.381404370
0.435040921 0.359898627 0.427956909
0.559139907 0.422770262 0.491207778
0.199747190 0.345351011 0.371916264
0.220999286 0.346869290 0.383554459
0.240480989 0.354332834 0.391524404
0.276027828 0.369639277 0.405945718
0.331688732 0.389120668 0.422390729
0.394560188 0.409487665 0.445920110
0.482479066 0.447058648 0.480708480
0.600758851 0.507400453 0.537001967
0.262112498 0.456166714 0.448197216
0.270461917 0.458443999 0.451739281
0.296900690 0.472485840 0.465907425
0.338267088 0.485894740 0.473624468
0.398861736 0.513725281 0.501454711
0.465781450 0.540290415 0.528652489
0.545350790 0.563440740 0.547375143
0.651739359 0.608728588 0.600126445
0.369513065 0.607969999 0.552688420
0.381024659 0.605186641 0.554585814
0.406325191 0.619354725 0.563820302
0.443010569 0.629095197 0.575078905
0.499051005 0.649968445 0.597849071
0.555724502 0.662872016 0.608349264
0.631625831 0.689057231 0.637697756
0.730423629 0.729285002 0.688171625
0.540670574 0.764452696 0.693231702
0.548260391 0.769006789 0.683870971
0.562175810 0.773307860 0.688045382
0.587855518 0.781530440 0.697027028
0.624541640 0.792157054 0.703858316
0.681973338 0.801770627 0.721315265
0.745477319 0.818722367 0.746109605
0.817077816 0.842631578 0.785958052
0.142820716 0.137887001 0.374067247
0.153826997 0.139911249 0.372548997
0.181151286 0.151170000 0.377988279
0.220872998 0.168753922 0.394813210
0.266160548 0.190259278 0.399746656
0.334218562 0.216191992 0.415812999
0.407716542 0.252245575 0.443643570
0.509677410 0.296647370 0.486780256
0.147501722 0.162555560 0.379253805
0.153447449 0.169765547 0.371283829
0.183427989 0.173814282 0.387349755
0.223276287 0.187602639 0.394686997
0.277166456 0.207590193 0.407590359
0.342061996 0.233270094 0.429474831
0.414294779 0.271347225 0.452245563
0.522833407 0.319797546 0.502087116
0.150664300 0.209867284 0.392536253
0.166729555 0.213030010 0.397975802
0.194560185 0.217710093 0.401264846
0.232637569 0.232511371 0.407969832
0.285009325 0.249841988 0.425047457
0.348639846 0.274509817 0.443390191
0.428715646 0.307779998 0.470335275
0.531688869 0.356356889 0.511448264
0.165844351 0.280328989 0.424541205
0.180518717 0.279822648 0.424035549
0.209108263 0.288931191 0.433143824
0.251106650 0.299937010 0.442504913
0.306514919 0.318279713 0.460974246
0.375205636 0.342441529 0.482479095
0.461479872 0.375711560 0.505249918
0.569765627 0.431625485 0.553193927
0.202276915 0.374067247 0.470335454
0.208475903 0.381024718 0.476913095
0.242884189 0.382036537 0.480581671
0.280834824 0.391144902 0.490828633
0.340670377 0.405566156 0.502593458
0.414421022 0.430234134 0.525996447
0.500063360 0.462618768 0.549525738
0.611132145 0.515117168 0.599494159
0.266919553 0.490449041 0.529412031
0.280329198 0.498039484 0.538140237
0.303731978 0.500569284 0.543200374
0.342567831 0.508159280 0.551929295
0.402403653 0.526122689 0.571031213
0.474383473 0.542694271 0.584566712
0.561290264 0.571663260 0.613788605
0.665654659 0.619987249 0.655281544
0.387096852 0.626944840 0.620113492
0.389120996 0.622770309 0.611638308
0.410499573 0.628589511 0.620872617
0.454395831 0.643137217 0.632510841
0.503099322 0.660847783 0.646679580
0.581530750 0.682732582 0.671347022
0.661227107 0.708665252 0.701454818
0.747881353 0.738519549 0.728779495
0.541049659 0.773308039 0.725616872
0.548133850 0.773940444 0.722327530
0.566223621 0.777482331 0.733206987
0.595698774 0.783048630 0.738646030
0.640100777 0.797216773 0.748639703
0.694496989 0.815686047 0.764958620
0.754712284 0.827324450 0.784439921
0.823402822 0.859329402 0.819987297
0.105755858 0.164832145 0.560278416
0.130803168 0.168121248 0.557621598
0.180139273 0.179379985 0.558507144
0.244781822 0.198481828 0.567994595
0.318911999 0.221505359 0.578747749
0.397849381 0.257178843 0.590259433
0.493991077 0.297280252 0.607463717
0.594307244 0.346868783 0.629474699
0.109677181 0.194433808 0.566476643
0.135104403 0.199620664 0.555977166
0.182163253 0.203668565 0.568374157
0.245667458 0.219987467 0.573560715
0.324731082 0.246426150 0.589120746
0.413029820 0.279316902 0.602529645
0.499051541 0.321188778 0.618469298
0.603288591 0.373181611 0.643137455
0.112207189 0.245161191 0.571789503
0.145350829 0.246553063 0.574193597
0.184187099 0.259582818 0.575331807
0.250600904 0.268943906 0.579253256
0.327387810 0.290828913 0.591524482
0.418216288 0.321568578 0.609108090
0.511701345 0.361416727 0.627198040
0.607969642 0.406198651 0.645414233
0.119671039 0.319671005 0.586464226
0.147754848 0.322960109 0.592030406
0.197216943 0.331182480 0.593295276
0.270967990 0.342441618 0.604174614
0.351043731 0.365970790 0.618089974
0.437697768 0.393295199 0.626818597
0.532194674 0.427071631 0.646932125
0.634914637 0.472232938 0.671600521
0.180139393 0.422138005 0.617203951
0.192916214 0.422390699 0.617710114
0.226438999 0.422138005 0.620872974
0.290575385 0.431372464 0.626818538
0.374446511 0.453130841 0.639215767
0.462871611 0.478304774 0.652877808
0.560910523 0.506767869 0.671220779
0.656293392 0.544465184 0.695635974
0.288171798 0.549146175 0.662365496
0.298798472 0.550916791 0.663756907
0.323845655 0.549019396 0.664895535
0.365338355 0.554965198 0.670841396
0.417963356 0.556230247 0.672485709
0.503225505 0.572169423 0.691081524
0.597975791 0.600505829 0.703225970
0.692979276 0.634914398 0.728399694
0.429728091 0.681467116 0.724731028
0.434408665 0.680455506 0.724604726
0.454395711 0.680708230 0.726502478
0.487160116 0.684376657 0.728273451
0.537760794 0.695002973 0.737255037
0.598355234 0.707400084 0.752055645
0.672359526 0.725743234 0.766603231
0.765971005 0.754332364 0.794054210
0.570777535 0.791397810 0.779759586
0.564705670 0.795698881 0.783428133
0.592409492 0.799873352 0.790006578
0.617836535 0.803288579 0.794180691
0.652245164 0.810120165 0.801897585
0.704996526 0.828589499 0.813662589
0.777229846 0.846552849 0.841365993
0.856925726 0.875142395 0.872485578
