Assets/Resources/EldamarStudio/100 Horror LUTs Pack/LUTs/cube/Baulgaum LUT.cube
DOMAIN_MIN 0 0 0
DOMAIN_MAX 1 1 1
LUT_3D_SIZE 32
0.003922000 0.003922000 0.003922000
0.000885613 0.000885613 0.006957613
0.002150774 0.000000000 0.003542000
0.016571997 0.001265161 0.002529999
0.047691092 0.003922000 0.008222548
0.084123865 0.003922000 0.011258936
0.123086318 0.006451677 0.011765000
0.162555113 0.006198711 0.008476003
0.198229000 0.004680902 0.003162904
0.222517028 0.007716512 0.000126516
0.272991598 0.002024001 0.000000000
0.314484507 0.002024256 0.000000000
0.352055639 0.003922000 0.000000000
0.391271055 0.003668968 0.000000000
0.427703798 0.000632584 0.000000000
0.466540396 0.000000000 0.000000000
0.504490972 0.001518192 0.000000000
0.542188108 0.003922000 0.000000000
0.584693015 0.003922000 0.000000000
0.627197742 0.003922000 0.000000000
0.664010167 0.002024260 0.000000000
0.698418975 0.000000000 0.001012128
0.735103965 0.000000000 0.003922000
0.777608812 0.000000000 0.003922000
0.817836821 0.000000000 0.001644712
0.858697295 0.006957652 0.002782990
0.899178028 0.023655996 0.006831001
0.929537952 0.047943976 0.000759007
0.965211570 0.077545613 0.000000000
0.987475932 0.100821942 0.001771217
0.996963620 0.119038194 0.003922000
1.000000000 0.137254998 0.003922000
0.000885613 0.000885613 0.000885613
0.003922000 0.003922000 0.009994000
0.003036387 0.000885613 0.004427614
0.022897156 0.002529999 0.002529999
0.061732933 0.006578161 0.007463549
0.090195864 0.003922000 0.005186935
0.119038314 0.008981999 0.005693000
0.159772113 0.005945683 0.008981997
0.200506091 0.000885613 0.007716906
0.231625423 0.001644515 0.000126517
0.273371130 0.001770999 0.002909870
0.316508234 0.000000000 0.001012131
0.353952885 0.000885613 0.000000000
0.391271055 0.001138645 0.000000000
0.427703798 0.003668971 0.000000000
0.461732775 0.003036387 0.000000000
0.502972782 0.001518195 0.000000000
0.545224488 0.000885613 0.000632576
0.587729394 0.000885616 0.003036384
0.630234182 0.003668969 0.000253031
0.667046130 0.003922000 0.000000000
0.701454878 0.003036387 0.000000000
0.737887383 0.003036387 0.000885613
0.774573147 0.003036387 0.000885613
0.817077875 0.012144378 0.000885613
0.857305646 0.027704017 0.000000000
0.896647692 0.049968384 0.001771000
0.929537952 0.069196366 0.000759007
0.959898651 0.085515194 0.000000000
0.984945953 0.110436372 0.000000000
0.996078014 0.131182745 0.001771221
0.996963620 0.149398997 0.003922000
0.002150774 0.006451774 0.000000000
0.007337387 0.003036387 0.006957613
0.012523999 0.012523999 0.005313226
0.028969157 0.009487612 0.005059999
0.071220547 0.011764549 0.011385000
0.102086931 0.008728936 0.006578161
0.127261087 0.015433224 0.008223000
0.162808165 0.013282940 0.004934003
0.204807088 0.005692678 0.006704905
0.238203511 0.004300999 0.000379517
0.278178513 0.002150774 0.000759097
0.318659008 0.000126518 0.001771226
0.358127415 0.000000000 0.000000000
0.395066053 0.000000000 0.000000000
0.427703798 0.001138642 0.000000000
0.468184561 0.001771226 0.000000000
0.503099144 0.001771226 0.003035997
0.545477509 0.000632576 0.003036008
0.586464226 0.002150774 0.001518193
0.622517765 0.000632583 0.001138643
0.665022492 0.003668966 0.000000000
0.702213705 0.008981867 0.000000000
0.740923226 0.015433234 0.000000000
0.777356029 0.027577773 0.000000000
0.811891496 0.040986761 0.000000000
0.854396284 0.054522425 0.000000000
0.894117773 0.076280773 0.001011999
0.929158390 0.091207750 0.004300999
0.966350436 0.108918354 0.000000000
0.982542753 0.124098726 0.000000000
0.994813144 0.145477742 0.000000000
0.996078014 0.163693771 0.001771226
0.016571997 0.021884998 0.001265161
0.023909159 0.017078158 0.004807161
0.028716318 0.020113997 0.003542000
0.037318319 0.024668001 0.000000000
0.075268708 0.022770159 0.011005549
0.106894091 0.022390936 0.007590162
0.140290797 0.026944997 0.006578161
0.169386566 0.029980872 0.009740842
0.210373163 0.023150157 0.004427935
0.244275510 0.020619832 0.001391676
0.279696435 0.016319029 0.000000000
0.320430219 0.014548064 0.000000000
0.358760267 0.012650320 0.001138644
0.397849202 0.012144321 0.001012129
0.430233985 0.010120321 0.000000000
0.470208734 0.011385159 0.002529999
0.509677231 0.012650320 0.000505998
0.546109974 0.013915313 0.005945576
0.584946036 0.017584126 0.001771159
0.620113969 0.020114122 0.000000000
0.656673312 0.022138059 0.000000000
0.699178100 0.027198188 0.000000000
0.741429150 0.041745335 0.000000000
0.777861953 0.057685129 0.000000000
0.815812826 0.074636146 0.001265161
0.848323941 0.088930808 0.003795161
0.889816761 0.103099220 0.002783162
0.926248968 0.114484310 0.005819154
0.966603279 0.130676791 0.002530012
0.989120841 0.145857170 0.000000000
0.994307458 0.161922976 0.000000000
0.997343183 0.180138990 0.000000000
0.047691092 0.046552546 0.003922000
0.056799479 0.044275932 0.003542452
0.061606769 0.044781774 0.001771226
0.069197088 0.044781547 0.000379548
0.080202542 0.039089091 0.000000000
0.107526921 0.045161091 0.003036387
0.145604089 0.049082868 0.001391678
0.181530863 0.050094996 0.002909546
0.213409543 0.050094996 0.006704549
0.249841571 0.050094992 0.003668934
0.281214267 0.045414545 0.001012129
0.318912059 0.043390546 0.000000000
0.359139711 0.043010999 0.000759096
0.395319521 0.043264031 0.004048452
0.431625783 0.037571549 0.001391583
0.472486019 0.039089285 0.004047996
0.511574984 0.042125285 0.004807003
0.548386693 0.045414537 0.000253028
0.584819555 0.051486555 0.003289417
0.621252298 0.060721353 0.001138643
0.658064485 0.067172989 0.000000000
0.696521282 0.074256957 0.000379548
0.738772988 0.083364598 0.000253036
0.775205791 0.095256358 0.000000000
0.815812945 0.108918339 0.001897740
0.853890002 0.121315204 0.006325442
0.884882689 0.130423605 0.010753001
0.921315432 0.139531985 0.004681007
0.962681592 0.153573796 0.001265167
0.987475932 0.166603506 0.000000000
0.996963620 0.179380074 0.000000000
1.000000000 0.197596103 0.000000000
0.084123865 0.073876932 0.003922000
0.093232259 0.076913320 0.000885613
0.098039091 0.074636161 0.000506065
0.107400313 0.073876932 0.001265161
0.122707307 0.072485484 0.003036387
0.125742927 0.069449864 0.000000000
0.153067321 0.075521871 0.000506065
0.184566468 0.076154225 0.001644708
0.216445252 0.074382998 0.003668840
0.252877980 0.074382998 0.000632548
0.289310664 0.077292867 0.000506065
0.324731439 0.076786935 0.000000000
0.362175912 0.075648293 0.000000000
0.398355156 0.073624030 0.001012065
0.431752294 0.076660410 0.007084059
0.470461756 0.080581926 0.002024004
0.507400274 0.084630057 0.001012001
0.542567730 0.087666281 0.000000000
0.581783891 0.090954944 0.000253033
0.618216634 0.102592930 0.000506064
0.656546652 0.106640995 0.000000000
0.696521282 0.110689119 0.001012128
0.738772988 0.119797364 0.003289423
0.775205791 0.128905773 0.000253031
0.813915253 0.138520211 0.000000000
0.853890002 0.148640111 0.003289055
0.890828907 0.157747984 0.007843129
0.924351811 0.166856378 0.004681007
0.963440716 0.178620905 0.001265167
0.987475932 0.189500198 0.000000000
0.996963620 0.199114531 0.000000000
1.000000000 0.209740877 0.000000000
0.123086318 0.111321956 0.001391678
0.127134696 0.109297700 0.000885613
0.140544087 0.112334087 0.000000000
0.146362960 0.112586796 0.000000000
0.158001319 0.112713188 0.001391678
0.163187698 0.105376579 0.000506065
0.171283960 0.102340318 0.000000000
0.201897338 0.103478611 0.001644708
0.233143508 0.102719508 0.004680902
0.266034305 0.106261961 0.005186513
0.297406405 0.106641509 0.000000000
0.331815422 0.109677374 0.004047996
0.367742270 0.111321956 0.002783001
0.403921664 0.111574933 0.000000000
0.437318236 0.114610732 0.001517995
0.475521773 0.117647119 0.002783001
0.510436356 0.120556638 0.000000000
0.544085860 0.122580737 0.000000003
0.583554626 0.125616357 0.000000012
0.625300407 0.131941974 0.012650320
0.661733150 0.144085959 0.003162587
0.698545098 0.147627831 0.000000000
0.736242652 0.153699815 0.001391678
0.772675455 0.162808225 0.000759096
0.815939486 0.169639319 0.000000000
0.857305646 0.181277648 0.001391672
0.896901071 0.191650704 0.004807259
0.930297434 0.196711093 0.001771133
0.966477096 0.205945283 0.001265167
0.990006268 0.216318518 0.000000000
0.998608351 0.226312295 0.000885608
1.000000000 0.237064987 0.002530322
0.159266114 0.145856977 0.000000000
0.162302092 0.146109998 0.000000000
0.177229464 0.145730466 0.000000000
0.182289854 0.146236524 0.002529999
0.189120948 0.148133695 0.002529998
0.204048112 0.142820910 0.000000000
0.202783018 0.132195085 0.001644708
0.213535696 0.129158705 0.000000000
0.246173188 0.127640501 0.003036388
0.276534021 0.132827669 0.006072225
0.306894422 0.133080706 0.003668709
0.337634027 0.133460149 0.000758999
0.371031195 0.137634411 0.004554003
0.406957984 0.141429693 0.000000000
0.441745669 0.145856991 0.000000000
0.476660490 0.148892790 0.000000000
0.514610708 0.154965177 0.000000000
0.545857012 0.155977264 0.000000001
0.583301723 0.159013152 0.000000011
0.623908758 0.163187698 0.007337372
0.665907443 0.169765979 0.010120267
0.704364240 0.180898115 0.001012128
0.739911199 0.185451910 0.001771188
0.777861834 0.194560304 0.003288997
0.816192150 0.203036115 0.001644708
0.856167257 0.207716435 0.000253036
0.896901011 0.220872775 0.002277292
0.931435704 0.226186156 0.000379552
0.969133615 0.232890561 0.000000000
0.989753246 0.241998613 0.000000000
0.999240875 0.252877980 0.000000000
1.000000000 0.265781105 0.002277292
0.193422183 0.175458282 0.000000000
0.197216898 0.179253578 0.000000000
0.210119858 0.179380089 0.000000000
0.224035352 0.178115115 0.003289095
0.214927644 0.176217288 0.007463548
0.237697944 0.176976278 0.001012001
0.240733862 0.165085316 0.001771227
0.240860090 0.156483471 0.002277292
0.253004283 0.152688190 0.000000000
0.283365071 0.155724585 0.003036388
0.309930563 0.155092001 0.003922000
0.340290964 0.156609997 0.003415742
0.373307914 0.158886999 0.000000000
0.406452000 0.164959058 0.000000000
0.441871941 0.171031192 0.000000000
0.476660311 0.174699381 0.000000000
0.511575103 0.180012286 0.000000000
0.548007250 0.188488081 0.000000001
0.581530929 0.191650957 0.000000003
0.621252477 0.194686830 0.002783357
0.662618577 0.200379282 0.002024260
0.704364240 0.208222315 0.001012128
0.746616006 0.216951191 0.003922000
0.785452068 0.224161997 0.006325195
0.822643697 0.233270377 0.005566292
0.860720873 0.241113409 0.002530328
0.894623995 0.244655222 0.001011999
0.931056023 0.253510654 0.001517998
0.968627334 0.259962171 0.000000000
0.990385830 0.267805189 0.000759096
0.996963620 0.277166605 0.000000000
1.000000000 0.292347014 0.000000000
0.229854986 0.202783465 0.000000002
0.235926986 0.208855465 0.000000000
0.244022697 0.208349213 0.000000001
0.254901826 0.205439657 0.003795160
0.263504446 0.203542471 0.010499932
0.254396081 0.209614471 0.001391549
0.267046332 0.200252846 0.000000001
0.274636269 0.192915753 0.000126518
0.280328691 0.189121008 0.000000001
0.292473435 0.183048993 0.000000000
0.308285624 0.180265635 0.003036384
0.334218532 0.183428019 0.005945737
0.367994905 0.189247012 0.005313000
0.406452000 0.195319071 0.000000000
0.436811954 0.201391846 0.000000000
0.472232580 0.205060184 0.000000000
0.508538842 0.209613979 0.000000001
0.544971585 0.215812474 0.000000002
0.581404448 0.221884489 0.000000004
0.623276770 0.225047365 0.002783357
0.665654957 0.231878713 0.002024261
0.707147598 0.241872475 0.001012129
0.746616006 0.253383994 0.003922000
0.783048809 0.253383994 0.003921999
0.819608033 0.260594815 0.004048482
0.860215068 0.269702822 0.002530327
0.903731585 0.278051645 0.001011999
0.940164328 0.284124404 0.007083992
0.973940253 0.290322959 0.002277012
0.993421733 0.298165739 0.001771216
0.999873459 0.307273656 0.002909875
1.000000000 0.316635042 0.000000002
0.254648983 0.230107874 0.002909871
0.263630867 0.233269989 0.000000000
0.271853626 0.232890785 0.002150774
0.280961454 0.232384577 0.001644709
0.290701985 0.233016998 0.003036130
0.294243932 0.234028995 0.001518065
0.300316185 0.237571329 0.002530322
0.309803843 0.230613619 0.002909871
0.314104825 0.225553751 0.002909870
0.319797814 0.219481736 0.002909869
0.323212981 0.210499868 0.000000000
0.346489102 0.207463473 0.001012129
0.375964284 0.212017506 0.002024001
0.409614146 0.219607770 0.000000000
0.442630976 0.223023698 0.000000000
0.475395411 0.231499061 0.000000000
0.512840092 0.237064868 0.001518192
0.551929116 0.242504448 0.002909871
0.592916012 0.246299744 0.002909871
0.634914756 0.255155087 0.002909871
0.671726704 0.262238979 0.003922000
0.709171414 0.271347106 0.002909871
0.746362984 0.281214386 0.003795488
0.777229786 0.283997744 0.001012130
0.820493281 0.288551748 0.001012129
0.862998068 0.295635849 0.001012129
0.906008899 0.303225815 0.000506064
0.937633991 0.311701775 0.004174865
0.963440776 0.320430011 0.002277039
0.988994181 0.324984193 0.000000000
1.000000000 0.331815362 0.001897738
1.000000000 0.340923756 0.002909871
0.280961245 0.265528232 0.001897744
0.292093366 0.264516383 0.002909869
0.301201761 0.265275270 0.002150774
0.307780147 0.262239337 0.002656839
0.315369964 0.263757050 0.000000000
0.323086262 0.265401751 0.000000000
0.331688583 0.263883561 0.000506066
0.339152247 0.265275240 0.001897744
0.345224261 0.260721147 0.002656840
0.349525481 0.255913973 0.003921998
0.356609613 0.246932626 0.001012129
0.361669481 0.239848480 0.000000000
0.386716902 0.237950742 0.000000000
0.414421082 0.244402468 0.000253032
0.446046650 0.250980407 0.002024256
0.483491153 0.254775703 0.004047996
0.518406093 0.263883710 0.004047996
0.556736112 0.270461738 0.005313325
0.596458018 0.274889469 0.003921998
0.634914756 0.283491343 0.001897744
0.673624456 0.290701985 0.003795484
0.707147419 0.299683392 0.002909872
0.742694497 0.308665246 0.001897744
0.778747559 0.313598871 0.000759096
0.818469286 0.320936233 0.002024256
0.859835327 0.328399897 0.000632584
0.901960850 0.335104495 0.000000000
0.935357273 0.342694670 0.001518192
0.970524609 0.347754389 0.001265167
0.985958219 0.353320450 0.000000000
1.000000000 0.356356859 0.000000000
1.000000000 0.363188267 0.001897744
0.313978255 0.301581293 0.000000000
0.320429921 0.298545390 0.001897743
0.328146428 0.298798651 0.002783356
0.339278787 0.299810469 0.002656839
0.341935635 0.297153652 0.000000000
0.348766357 0.299430907 0.000000000
0.356735945 0.298545301 0.001138644
0.366476625 0.296015292 0.002276998
0.374066830 0.296015292 0.003036093
0.380897939 0.293358445 0.006072479
0.388741165 0.285642147 0.001012129
0.396963924 0.277419627 0.000000000
0.403035939 0.270208985 0.000000000
0.423782319 0.270714998 0.000253032
0.449715465 0.278937221 0.003289416
0.486147791 0.284376800 0.005186837
0.524098396 0.290449172 0.005566002
0.560531139 0.299557567 0.005566002
0.596964002 0.306135654 0.003036321
0.633396745 0.313851923 0.001138643
0.669829488 0.323339283 0.001897740
0.708286285 0.330423415 0.003922000
0.742062092 0.339278787 0.001012132
0.779506564 0.344338924 0.000000000
0.820113540 0.350410908 0.001138644
0.860973954 0.359519273 0.003668972
0.897912681 0.368121624 0.001138644
0.934977829 0.374193639 0.001138644
0.972928405 0.378747433 0.002276998
0.993548214 0.382921875 0.002276998
0.997343421 0.388614863 0.000506007
0.996584356 0.392410278 0.000000000
0.355471075 0.332195044 0.000253032
0.353194445 0.329664707 0.000505999
0.354712307 0.330423802 0.000000000
0.361037195 0.333459944 0.000000000
0.375332028 0.336116076 0.000253032
0.375332028 0.336116076 0.000253032
0.380898088 0.336116076 0.002277290
0.389753073 0.334977716 0.006072288
0.401897222 0.332448065 0.007843063
0.414041996 0.332448065 0.010879448
0.420367032 0.326882035 0.003036130
0.427957267 0.319291770 0.000253032
0.435927033 0.310436398 0.000000000
0.442252040 0.301075071 0.000000000
0.457432449 0.307147056 0.003036384
0.488425016 0.312713057 0.003668968
0.524351418 0.320809245 0.002403808
0.560531139 0.330170602 0.000505999
0.596964002 0.339278996 0.000505999
0.633649707 0.345351070 0.000000000
0.670082450 0.354712039 0.001644708
0.708286285 0.366097152 0.003922000
0.750664473 0.375079006 0.003795488
0.784313858 0.378241926 0.000759096
0.822517276 0.381530732 0.000000000
0.861479938 0.387096703 0.001138640
0.900696039 0.395699054 0.003668968
0.940164387 0.401771069 0.003668968
0.976217568 0.407590002 0.006072155
0.995698988 0.413661987 0.007337000
0.997596443 0.420746237 0.006072009
0.988488019 0.432891011 0.000000000
0.385831803 0.365591377 0.003289416
0.391903818 0.368627787 0.006325029
0.396078378 0.366097450 0.002276994
0.396457791 0.366856545 0.000000000
0.397090405 0.369513243 0.000379548
0.408728391 0.369513243 0.003289416
0.418849021 0.369513243 0.000759094
0.426439196 0.371157527 0.007210577
0.435294211 0.371410489 0.011384997
0.447438329 0.368880808 0.001771074
0.453763396 0.365970939 0.001897589
0.457811654 0.362302125 0.002024256
0.463251412 0.356862366 0.002150772
0.469576448 0.349651784 0.000000000
0.478684783 0.337507784 0.000000000
0.501075387 0.338772804 0.000632584
0.530929804 0.347627997 0.000632584
0.563187957 0.360910803 0.001264990
0.596964002 0.372675329 0.006577987
0.636179388 0.376217723 0.001011990
0.673118055 0.381783813 0.000000000
0.710562944 0.391144782 0.001644712
0.750664473 0.402403384 0.003795488
0.790132940 0.408475399 0.000759096
0.830613554 0.413914979 0.000000000
0.868311048 0.419354737 0.000000000
0.903478682 0.426059812 0.000632584
0.940164387 0.432131797 0.000632584
0.969006777 0.435546964 0.000632584
0.991144776 0.440986365 0.001265006
0.998229027 0.446173012 0.001265006
0.991524398 0.451106966 0.000000000
0.416192591 0.406198591 0.003922000
0.419860780 0.404427379 0.004554422
0.423782557 0.405312985 0.003289035
0.429601580 0.406325102 0.000000000
0.429601610 0.410120577 0.000000000
0.437697589 0.410120577 0.001012131
0.449841619 0.407716781 0.003795482
0.457052678 0.407716781 0.000759096
0.463124871 0.410752565 0.006072009
0.473624557 0.412650257 0.000506000
0.484756589 0.409614533 0.000000000
0.490828604 0.404553860 0.000000000
0.496521443 0.397722572 0.001518196
0.504111588 0.389120609 0.000505999
0.513219416 0.381277591 0.004806995
0.522327781 0.376343757 0.000000000
0.542061985 0.374825954 0.001518192
0.570525110 0.383428365 0.001771228
0.609234810 0.393801600 0.002530003
0.643390179 0.404807121 0.002276996
0.680961251 0.413535774 0.000000000
0.715370059 0.421631932 0.000000000
0.750790954 0.432005078 0.001644708
0.792536736 0.435799778 0.003162900
0.834282339 0.444149077 0.004680512
0.874003768 0.451739252 0.002024006
0.907906115 0.457811803 0.000000000
0.940543830 0.460088789 0.000000000
0.976217568 0.465907753 0.007210800
0.991144776 0.468943805 0.001897601
0.998229027 0.476154357 0.001770991
0.992156982 0.483744591 0.004806995
0.449588984 0.447185189 0.002403808
0.451106787 0.445666969 0.002403808
0.451106966 0.446299553 0.001771226
0.455408186 0.446299553 0.001265161
0.461859733 0.451486707 0.001518192
0.469070375 0.452625364 0.001518192
0.477166384 0.448576868 0.001012130
0.490449071 0.448703378 0.002277292
0.494244367 0.449462473 0.000000000
0.502593637 0.454775572 0.000000000
0.511575162 0.452119052 0.000000000
0.525743127 0.450095028 0.003035997
0.532953799 0.444022566 0.003035997
0.541050136 0.432890534 0.002783030
0.545097709 0.425553381 0.005060189
0.552688181 0.420366734 0.003036004
0.563314378 0.415812552 0.000000000
0.580392182 0.413409352 0.002403808
0.617583811 0.419861168 0.000253032
0.650221407 0.431752205 0.000000000
0.683997273 0.443896174 0.000000000
0.722454071 0.454016447 0.000000000
0.755218267 0.462492377 0.000000000
0.796331823 0.466919661 0.001644712
0.834282339 0.471473485 0.003162710
0.874004126 0.479190201 0.008981665
0.911448359 0.488172084 0.003036126
0.945857048 0.491208196 0.000000000
0.973940611 0.493485183 0.006451628
0.995698988 0.497786403 0.006451802
1.000000000 0.502593577 0.005312973
0.995193005 0.514104962 0.013914995
0.482858539 0.487286091 0.000000002
0.486021101 0.487286091 0.000632576
0.485135883 0.488804281 0.000000000
0.484630138 0.491208106 0.000632585
0.491081566 0.490828574 0.004048422
0.500189900 0.493358880 0.004554414
0.506135523 0.489437044 0.001391678
0.514611244 0.488930792 0.000000001
0.528779566 0.491967052 0.000000000
0.534851491 0.495003432 0.000000000
0.541556120 0.492852658 0.000632576
0.555091500 0.491840541 0.004680571
0.569892168 0.490196109 0.007210584
0.578747511 0.484124094 0.006957552
0.576849699 0.475395292 0.003921846
0.580392122 0.469323099 0.001518196
0.588868082 0.462618500 0.000632576
0.601644516 0.455281526 0.000000000
0.625932634 0.455281556 0.000000000
0.653257310 0.463883579 0.000000000
0.685515285 0.475395143 0.000000000
0.721315265 0.486147791 0.001264991
0.763566971 0.492347002 0.001011999
0.802530110 0.498924971 0.000000000
0.837444901 0.502719820 0.001264990
0.874130309 0.506514549 0.002277095
0.908033073 0.512080610 0.010373496
0.949652255 0.520936012 0.001771135
0.973561227 0.523339570 0.004680572
0.990132987 0.525110781 0.004933594
1.000000000 0.528020561 0.002783002
1.000000000 0.537128150 0.020999029
0.504111052 0.529790998 0.000000010
0.519291401 0.529790998 0.003036389
0.524604738 0.529790998 0.001518194
0.525869966 0.531309187 0.000000000
0.527514398 0.533333421 0.001012031
0.536622047 0.530297041 0.007084025
0.540670395 0.527767360 0.002530034
0.543959737 0.529411972 0.000000003
0.550285041 0.534471869 0.000000003
0.562176049 0.537507594 0.000000000
0.571157873 0.537634075 0.002909867
0.584060729 0.537381053 0.007716959
0.597216666 0.536242664 0.009234965
0.606072009 0.532700956 0.003921932
0.612144053 0.526628971 0.000885551
0.615053773 0.522707164 0.000253032
0.621379197 0.516381800 0.001518191
0.632005394 0.506894052 0.003036389
0.647185028 0.494750023 0.000000000
0.665907741 0.494750023 0.000000000
0.694623709 0.501454771 0.000000000
0.730044127 0.510816157 0.002023997
0.769639015 0.519671500 0.007084005
0.806071818 0.528779149 0.001011998
0.840480864 0.533080339 0.004553991
0.879443586 0.536116302 0.004554006
0.920177102 0.539405107 0.001265096
0.941429377 0.542441487 0.004301480
0.964452803 0.548640013 0.003668966
0.982163191 0.552435279 0.004174966
0.994433939 0.554586053 0.004554368
1.000000000 0.555344999 0.008855071
0.544844747 0.575079083 0.008349362
0.546109736 0.577861726 0.003036390
0.554838359 0.575711489 0.001771226
0.561037183 0.575079083 0.000000000
0.566350400 0.575838208 0.000000000
0.573054790 0.572801828 0.001264996
0.577103078 0.574826121 0.004807318
0.583428442 0.577229738 0.002783357
0.591018796 0.581783772 0.002024261
0.603162766 0.582795620 0.000000000
0.612397611 0.580138743 0.000126514
0.621505499 0.582163036 0.003162899
0.630613327 0.584060729 0.005060351
0.636432767 0.584314108 0.001138643
0.645035148 0.580771744 0.000632583
0.660721123 0.572295964 0.000000000
0.668690979 0.565464973 0.000000000
0.675901771 0.556989253 0.001138643
0.680329144 0.549145758 0.000253032
0.689942718 0.545351148 0.000000000
0.711954474 0.535863400 0.000000000
0.744718492 0.539911509 0.001012128
0.783807337 0.552561939 0.004933841
0.814927161 0.561670184 0.001517998
0.849082649 0.566223800 0.000000000
0.881087959 0.572043061 0.002276996
0.917647064 0.577862024 0.000506064
0.948007405 0.580897808 0.003542448
0.977229595 0.581277370 0.001265167
0.990006387 0.583554387 0.002909860
0.997722983 0.587349594 0.023403125
1.000000000 0.593042374 0.066287108
0.581657171 0.622517467 0.006072264
0.589247167 0.619860828 0.003795260
0.587855458 0.622390449 0.001771226
0.591397464 0.623150051 0.002529999
0.598228753 0.624035656 0.003035997
0.604300737 0.620999217 0.000000000
0.609740794 0.621125817 0.000632582
0.617710471 0.622517467 0.002024260
0.627071798 0.626565456 0.002783356
0.638077497 0.626565456 0.002024255
0.645414591 0.627451062 0.000000000
0.658317924 0.626565456 0.000126516
0.667425513 0.630740166 0.002024260
0.672738731 0.633776486 0.000000000
0.683491409 0.629095793 0.000000000
0.694117725 0.623149693 0.000000000
0.706261754 0.615559459 0.000000000
0.715623140 0.607463717 0.000000000
0.720683455 0.601391256 0.000000000
0.727134883 0.594307065 0.000000000
0.736242473 0.587476492 0.000000000
0.757495105 0.576344073 0.000000000
0.789626539 0.585831761 0.002277252
0.821758568 0.593168914 0.004554092
0.856293321 0.597723126 0.000000000
