Assets/Resources/EldamarStudio/100 Horror LUTs Pack/LUTs/cube/Baulgaum LUT.cube
LUT_3D_SIZE 5
DOMAIN_MIN 0.000000 0.000000 0.000000
DOMAIN_MAX 0.903226 0.903226 0.903226
0.003922000 0.003922000 0.003922000
0.162555113 0.006198711 0.008476003
0.427703798 0.000632584 0.000000000
0.698418975 0.000000000 0.001012128
0.965211570 0.077545613 0.000000000
0.159266114 0.145856977 0.000000000
0.213535696 0.129158705 0.000000000
0.441745669 0.145856991 0.000000000
0.704364240 0.180898115 0.001012128
0.969133615 0.232890561 0.000000000
0.385831803 0.365591377 0.003289416
0.426439196 0.371157527 0.007210577
0.478684783 0.337507784 0.000000000
0.710562944 0.391144782 0.001644712
0.969006777 0.435546964 0.000632584
0.615054131 0.668058097 0.001012128
0.651107132 0.667046249 0.000000000
0.720303357 0.674256980 0.001012128
0.782795250 0.624921143 0.000000000
0.987349629 0.648070812 0.007590108
0.837064743 0.920682907 0.055787388
0.870081902 0.919671059 0.070714474
0.927134812 0.919417739 0.085641734
0.990006149 0.908159554 0.129411429
0.996078014 0.853889823 0.246805370
0.042504996 0.022517294 0.085388690
0.166476697 0.000000000 0.083111979
0.399241090 0.001644708 0.080455408
0.653004348 0.094244413 0.116508566
0.943706632 0.177735507 0.147248387
0.098418698 0.134092405 0.061479993
0.204048395 0.139658689 0.077545695
0.393421650 0.165844515 0.094496861
0.655660987 0.207336977 0.107273817
0.949778616 0.277039528 0.140417352
0.343327224 0.345350802 0.067932010
0.391777366 0.349272788 0.074256703
0.451233804 0.329664797 0.094876409
0.687665999 0.391777396 0.107653692
0.955724061 0.453890055 0.152941078
0.588361561 0.652372122 0.015686406
0.629474998 0.656673253 0.018722694
0.702719927 0.663883448 0.015812824
0.764832556 0.618090272 0.078810647
0.970651686 0.652625024 0.189120725
0.831372499 0.912839949 0.231878519
0.843137443 0.911195517 0.222011417
0.912080765 0.913092852 0.238203377
0.986590743 0.910436690 0.274130404
0.998734832 0.857178807 0.335356981
0.160910830 0.000000000 0.290448785
0.242631391 0.000000000 0.277925402
0.408728391 0.003289416 0.257052392
0.663503945 0.060973994 0.255154997
0.935104489 0.193169042 0.305502534
0.215812817 0.171031117 0.250854105
0.266160816 0.181150988 0.243010670
0.404174805 0.183807820 0.240733400
0.654016435 0.227957115 0.262997955
0.928652644 0.327134788 0.331055969
0.254396379 0.353193790 0.210625961
0.323972106 0.363314509 0.221378669
0.466919810 0.391144782 0.268817395
0.661859274 0.434661657 0.299683362
0.928525805 0.516129017 0.372928619
0.518911958 0.646553099 0.297027409
0.556736112 0.645540833 0.301201671
0.660468221 0.649462283 0.309803545
0.734345376 0.632131577 0.325237244
0.947754502 0.686274529 0.405565947
0.781404197 0.912081182 0.448829770
0.800379574 0.906514645 0.448576868
0.873497725 0.910816193 0.458697170
0.960151494 0.909171641 0.481973290
0.994939983 0.872232616 0.510942161
0.286401004 0.030613123 0.571031272
0.351170242 0.051486123 0.564200103
0.473750949 0.100821994 0.544212639
0.687666118 0.111954249 0.525996268
0.944465637 0.222517312 0.509551108
0.324351400 0.235167682 0.529285252
0.370145410 0.238709822 0.533080280
0.479696542 0.250600815 0.524984121
0.682099819 0.253510684 0.508032918
0.943326712 0.348134041 0.515116930
0.348893106 0.407463819 0.511321962
0.408981711 0.421252221 0.514231622
0.520936251 0.457558513 0.504743934
0.688678265 0.466033936 0.505376339
0.918026626 0.564199924 0.555091977
0.386337996 0.660215139 0.453384221
0.435167730 0.668690681 0.469702810
0.564326406 0.683744431 0.503099382
0.728779137 0.706261992 0.569133282
0.919291615 0.753953278 0.633649766
0.688425303 0.919038653 0.605818629
0.722580731 0.916002572 0.622137547
0.808855176 0.919671059 0.683238506
0.908665299 0.918279469 0.679063797
0.969892502 0.899683595 0.697912812
0.367488980 0.203035936 0.880328596
0.415180147 0.217457443 0.872106433
0.524984241 0.252119035 0.865907729
0.684503257 0.309424460 0.865527928
0.942947447 0.340543568 0.848956585
0.413535684 0.347501338 0.863883615
0.450853825 0.356989324 0.861100554
0.553826749 0.378241599 0.864262819
0.689183950 0.415686160 0.855407953
0.936748922 0.436812133 0.844022870
0.506261826 0.575711608 0.845034719
0.544212639 0.586843610 0.850980639
0.612017751 0.595319629 0.849588990
0.724225104 0.611005604 0.840860128
0.931815207 0.615685999 0.837950826
0.510183334 0.758886933 0.846299589
0.559139907 0.760278225 0.844275713
0.656925976 0.757621527 0.841872454
0.772295833 0.785072923 0.835546911
0.921821654 0.787729084 0.834408581
0.596457779 0.933839619 0.792789400
0.629095793 0.932827473 0.790132642
0.708286047 0.930423319 0.808475614
0.821632087 0.932447612 0.837570846
0.934977651 0.941555798 0.884250581
