Assets/Resources/EldamarStudio/100 Horror LUTs Pack/LUTs/cube/Baulgaum LUT.cube
LUT_3D_SIZE 8
DOMAIN_MIN 0.000000 0.000000 0.000000
DOMAIN_MAX 0.903226 0.903226 0.903226
0.003922000 0.003922000 0.003922000
0.047691092 0.003922000 0.008222548
0.198229000 0.004680902 0.003162904
0.352055639 0.003922000 0.000000000
0.504490972 0.001518192 0.000000000
0.664010167 0.002024260 0.000000000
0.817836821 0.000000000 0.001644712
0.965211570 0.077545613 0.000000000
0.047691092 0.046552546 0.003922000
0.080202542 0.039089091 0.000000000
0.213409543 0.050094996 0.006704549
0.359139711 0.043010999 0.000759096
0.511574984 0.042125285 0.004807003
0.658064485 0.067172989 0.000000000
0.815812945 0.108918339 0.001897740
0.962681592 0.153573796 0.001265167
0.193422183 0.175458282 0.000000000
0.214927644 0.176217288 0.007463548
0.253004283 0.152688190 0.000000000
0.373307914 0.158886999 0.000000000
0.511575103 0.180012286 0.000000000
0.662618577 0.200379282 0.002024260
0.822643697 0.233270377 0.005566292
0.968627334 0.259962171 0.000000000
0.313978255 0.301581293 0.000000000
0.341935635 0.297153652 0.000000000
0.374066830 0.296015292 0.003036093
0.403035939 0.270208985 0.000000000
0.524098396 0.290449172 0.005566002
0.669829488 0.323339283 0.001897740
0.820113540 0.350410908 0.001138644
0.972928405 0.378747433 0.002276998
0.449588984 0.447185189 0.002403808
0.461859733 0.451486707 0.001518192
0.494244367 0.449462473 0.000000000
0.532953799 0.444022566 0.003035997
0.563314378 0.415812552 0.000000000
0.683997273 0.443896174 0.000000000
0.834282339 0.471473485 0.003162710
0.973940611 0.493485183 0.006451628
0.581657171 0.622517467 0.006072264
0.598228753 0.624035656 0.003035997
0.627071798 0.626565456 0.002783356
0.667425513 0.630740166 0.002024260
0.706261754 0.615559459 0.000000000
0.736242473 0.587476492 0.000000000
0.856293321 0.597723126 0.000000000
0.983301640 0.616951227 0.008855160
0.720809519 0.784187555 0.005566292
0.725869536 0.792030573 0.001897740
0.760784268 0.786464274 0.004807197
0.798734903 0.791524172 0.001644712
0.839721739 0.792915583 0.001644712
0.869323015 0.769006968 0.000000000
0.904111266 0.730929852 0.004933716
0.983807504 0.724098563 0.039089061
0.837064743 0.920682907 0.055787388
0.849209309 0.920303464 0.074003629
0.872612000 0.920429766 0.071726345
0.913472593 0.915243447 0.075521529
0.951929331 0.917646945 0.092219785
0.985957980 0.912207544 0.113472030
0.992283165 0.890955210 0.190891474
0.996078014 0.853889823 0.246805370
0.013662547 0.012903451 0.021884998
0.055534095 0.004301451 0.014421547
0.200885639 0.000000000 0.026565094
0.323086739 0.000000000 0.025806192
0.470335037 0.003795190 0.032384738
0.632890463 0.009487733 0.036685802
0.796584547 0.061480273 0.027703641
0.954711735 0.125995889 0.051992543
0.023023546 0.050474543 0.016065549
0.083744086 0.046932094 0.025806095
0.192663088 0.060215089 0.023782544
0.324225187 0.068944000 0.026185740
0.474004000 0.075395443 0.027830452
0.629728436 0.100442827 0.025679898
0.797722816 0.136495829 0.022643805
0.955977321 0.177735656 0.039595362
0.158887088 0.155471548 0.018722091
0.198988095 0.158254206 0.018722091
0.225932732 0.140923187 0.021125998
0.342694640 0.158128098 0.017963095
0.487160176 0.182795629 0.022643996
0.640354097 0.210246831 0.016698446
0.803162277 0.241872370 0.016698543
0.952941120 0.277925372 0.040860340
0.299937099 0.280708641 0.001897547
0.318405837 0.283491284 0.001138547
0.353699833 0.280708551 0.000759097
0.381783634 0.264262825 0.003036094
0.502087355 0.289690256 0.004174641
0.650094807 0.321441829 0.002276998
0.806831241 0.356736213 0.004554092
0.950031340 0.376976639 0.021378981
0.432131529 0.437317938 0.003415545
0.445287764 0.435799927 0.003542355
0.480581731 0.434914738 0.003162904
0.517773390 0.435420483 0.002403808
0.545603812 0.409993827 0.003415545
0.670841157 0.434914827 0.003921807
0.827071548 0.475395471 0.001897547
0.969006777 0.501834571 0.030866453
0.569006681 0.613156259 0.002783259
0.583554447 0.607969880 0.000000000
0.613282561 0.615433335 0.000000000
0.653384089 0.617330790 0.006072264
0.687033355 0.606831372 0.001138644
0.724351406 0.579506457 0.000000000
0.845161319 0.598102748 0.003415545
0.981277764 0.617710233 0.066033974
0.698545098 0.780392051 0.000000000
0.714737535 0.773561060 0.001644712
0.740038157 0.773561120 0.000759096
0.774699509 0.774826229 0.002276998
0.826312721 0.779126883 0.002277191
0.849209368 0.756230295 0.002024260
0.886400938 0.723592818 0.011005634
0.975078940 0.713472545 0.088930801
0.826565802 0.915369987 0.107147507
0.846679330 0.920556784 0.106894061
0.864389420 0.906008780 0.091081634
0.898798347 0.907779872 0.098671526
0.940290511 0.911701560 0.130550176
0.985705197 0.911068797 0.174066827
0.992662728 0.888298452 0.231878564
0.992536426 0.859582305 0.265528142
0.049336098 0.017203998 0.111954190
0.100189999 0.016951455 0.111954190
0.202909291 0.000000000 0.110436186
0.337254733 0.003162904 0.097153902
0.474130273 0.000759096 0.109677285
0.613788784 0.063883379 0.122833475
0.770651400 0.143959373 0.153320372
0.941176295 0.196205050 0.174826011
0.088045545 0.065021999 0.096647643
0.120935634 0.070461996 0.088804550
0.200885639 0.074762538 0.098292544
0.326628268 0.080582097 0.099430993
0.457937807 0.104744084 0.115876094
0.602403462 0.153447285 0.141808897
0.772802055 0.186211079 0.158001184
0.936242759 0.233649507 0.173560932
0.116635092 0.163694099 0.077419095
0.168501005 0.160531089 0.083364651
0.239722103 0.172296211 0.103352100
0.334472001 0.182036728 0.100063190
0.462871552 0.205186382 0.129285097
0.614927471 0.232890725 0.138646096
0.783934593 0.266160548 0.152435184
0.944718540 0.307906419 0.177102908
0.263503909 0.281973273 0.111701548
0.295003533 0.281214178 0.100569546
0.343579739 0.280708641 0.106767640
0.366603285 0.266666710 0.106008641
0.489563376 0.297533214 0.130803078
0.636812270 0.330423474 0.132574350
0.795066535 0.368880302 0.147881091
0.946362793 0.402150452 0.174952745
0.401771069 0.430107296 0.101581275
0.419354737 0.422517598 0.102972738
0.455914170 0.426818460 0.099304184
0.491461009 0.429981291 0.101707995
0.526502132 0.401644349 0.111828089
0.655914009 0.441998810 0.128779545
0.810752749 0.479317099 0.143074185
0.955597878 0.513598919 0.183175191
0.549904823 0.606072366 0.073624291
0.562808037 0.610373199 0.069702908
0.592536151 0.611132205 0.065275550
0.637950957 0.609234631 0.061353642
0.680328786 0.607337117 0.079696290
0.714231431 0.576850176 0.119291447
0.839468777 0.600759089 0.162555471
0.968627512 0.628336430 0.211131975
0.683871090 0.775585115 0.085641742
0.698545218 0.778368056 0.090069197
0.729538321 0.775585234 0.089184366
0.769259751 0.780644953 0.094117813
0.817836463 0.784313500 0.098671466
0.851739347 0.763567030 0.131815284
0.882985473 0.732574165 0.175205663
0.978241324 0.730043888 0.238076895
0.826818347 0.915875912 0.274130404
0.826312721 0.913345933 0.266287416
0.847438455 0.915243626 0.273877561
0.894876480 0.916887939 0.273624331
0.932067931 0.917647123 0.285894930
0.979000807 0.915243626 0.305502921
0.988994420 0.893358529 0.333079964
0.999240935 0.862491846 0.364199579
0.116128631 0.000000000 0.225932628
0.162428632 0.000379548 0.221884832
0.231498748 0.000000000 0.219987288
0.339152277 0.000000000 0.205186278
0.477419645 0.001138644 0.196837634
0.622011364 0.037950374 0.208349183
0.782542825 0.097153634 0.233270273
0.928526223 0.201644421 0.262365788
0.161796540 0.084123835 0.203921631
0.172928184 0.088425092 0.197343275
0.230993077 0.093485445 0.196078628
0.329284936 0.086400829 0.186717555
0.464010000 0.109930545 0.194939986
0.609361291 0.136495829 0.212144375
0.772295833 0.179632917 0.232131615
0.912586689 0.265654802 0.272612274
0.172295988 0.173814192 0.185452178
0.213029996 0.173687398 0.193042532
0.265528202 0.192662999 0.181530371
0.340164632 0.194560543 0.187476531
0.464769006 0.217583999 0.196837530
0.606704831 0.248197377 0.220873088
0.764452577 0.305123448 0.255914181
0.918026567 0.363946527 0.298671544
0.214674294 0.280328989 0.162049294
0.241239995 0.287792623 0.166730002
0.311069012 0.300696075 0.183934182
0.391271651 0.306135267 0.208601922
0.488804460 0.324604630 0.218469188
0.613282442 0.355471373 0.236179739
0.771410525 0.388614953 0.260847628
0.922707260 0.435167730 0.295255899
0.358001173 0.424794823 0.185452178
0.382668823 0.429222286 0.196837530
0.430486947 0.433143407 0.218596101
0.480581731 0.431119740 0.215686545
0.516634941 0.418089539 0.219101980
0.643896282 0.458444148 0.245793894
0.796710610 0.498418808 0.272232473
0.940164208 0.539278805 0.317014664
0.509804070 0.596205115 0.232005015
0.522580326 0.598987937 0.235926539
0.560025334 0.599873543 0.228968918
0.607843280 0.600885212 0.229601532
0.658697188 0.605439663 0.235167742
0.696394563 0.579759717 0.252372026
0.819607794 0.615559638 0.283365011
0.955597699 0.648070693 0.340796888
0.652498543 0.769639194 0.264262974
0.661480129 0.772675276 0.265275210
0.685389042 0.764452755 0.267299265
0.736495554 0.765211523 0.263251245
0.789247155 0.774826169 0.270461559
0.826059103 0.759519100 0.285009623
0.858190894 0.733712554 0.302340209
0.954838574 0.738013744 0.351549625
0.795319378 0.915623009 0.400379419
0.799746871 0.913346052 0.390765518
0.829981089 0.911322176 0.393801600
0.862365723 0.911322176 0.394686908
0.912713349 0.913725376 0.405566186
0.965085208 0.914104819 0.425173789
0.985957980 0.897153378 0.441239655
0.993295372 0.872106433 0.461606413
0.201264992 0.000000000 0.355471373
0.233902737 0.000000000 0.355471373
0.289816260 0.010879193 0.348513365
0.357115388 0.045667637 0.338267177
0.480961382 0.035041187 0.324098378
0.630107880 0.054269537 0.324477911
0.788108587 0.111701570 0.330423564
0.940417409 0.204554126 0.354965001
0.216951191 0.109930448 0.336242825
0.244022518 0.106008738 0.332827210
0.293358624 0.122201093 0.324477851
0.363187730 0.133586451 0.319544286
0.473497719 0.124098539 0.313345999
0.624288261 0.145224735 0.319418252
0.781151354 0.180771470 0.330043942
0.935230732 0.247438267 0.361796349
0.256926090 0.215433195 0.315623194
0.286780298 0.218848735 0.310057163
0.315623194 0.224668294 0.301328301
0.372043282 0.231119379 0.304996759
0.474636376 0.226312369 0.296647549
0.624667704 0.252498448 0.314737290
0.778621256 0.295129567 0.338140279
0.926249206 0.362934589 0.380518883
0.252119005 0.313598812 0.299303919
0.291081637 0.312460363 0.306262165
0.350917190 0.314737350 0.307653189
0.409614235 0.335863471 0.307273835
0.500948727 0.345730752 0.298924357
0.628210247 0.377102911 0.326502204
0.771536648 0.417457283 0.361669570
0.908285737 0.485262543 0.419102073
0.302340388 0.433017373 0.267678559
0.320050538 0.437444717 0.280075818
0.367488980 0.447185159 0.284250349
0.460341632 0.475015819 0.324604601
0.543706357 0.473750561 0.339784980
0.647058666 0.498039186 0.356862545
0.786590755 0.531056345 0.391397774
0.919038594 0.580518663 0.439342380
0.428716272 0.609993458 0.290448993
0.449715167 0.608349204 0.306008995
0.507653177 0.610373199 0.335736752
0.571410716 0.613915503 0.361543268
0.635294139 0.618342876 0.360025376
0.684250712 0.602150440 0.370272189
0.813029706 0.645414472 0.413915157
0.935230851 0.679949462 0.467931837
0.612903059 0.769259870 0.411258548
0.618595839 0.770904243 0.410752714
0.646426260 0.770272017 0.409361273
0.697153628 0.770904601 0.410626024
0.756989181 0.775585234 0.416445345
0.804554105 0.773055017 0.415812731
0.843263388 0.747501254 0.433017164
0.947627962 0.767615378 0.485515356
0.760910749 0.913345754 0.510942340
0.773181438 0.913725376 0.521315396
0.793674469 0.911068797 0.520430088
0.829728067 0.914611220 0.521189213
0.885768831 0.914104819 0.523086905
0.937760711 0.916508615 0.539152205
0.970018685 0.908285916 0.548513830
0.989753127 0.883871138 0.567362607
0.270208985 0.011384989 0.520430446
0.294876546 0.024035476 0.521695197
0.351676196 0.045161087 0.515370131
0.423402637 0.074509725 0.502466440
0.504870594 0.104743987 0.495635659
0.646173418 0.095762245 0.477419466
0.798355222 0.125236824 0.481467456
0.944971502 0.217457443 0.470082283
0.289816469 0.137761086 0.498292178
0.312080711 0.142820820 0.499430478
0.355217904 0.147122279 0.499051005
0.421378881 0.160910636 0.491587549
0.500442624 0.174952537 0.480581760
0.640227735 0.165211812 0.471979618
0.787476063 0.188867629 0.468058258
0.937254906 0.253636867 0.468817294
0.326375753 0.252878070 0.468058467
0.335104257 0.251233369 0.486148268
0.376723468 0.258696914 0.481214345
0.433523029 0.265021831 0.469576240
0.501960635 0.272865564 0.465654671
0.635547101 0.272486001 0.458697259
0.787602901 0.302087367 0.472232670
0.939025700 0.373940617 0.478937447
0.326628476 0.336622298 0.469576448
0.355976939 0.344465464 0.462871909
0.409740537 0.363567024 0.461733460
0.459456027 0.377862036 0.455155104
0.520809531 0.384440213 0.457052559
0.635294139 0.381530732 0.451739192
0.773687601 0.417330801 0.458823502
0.914484322 0.483364910 0.500063241
0.321315289 0.494497120 0.455028266
0.341682285 0.489690125 0.455281436
0.407083839 0.486653984 0.464642793
0.483744442 0.490575731 0.466033995
0.560530901 0.511701763 0.471220642
0.667046249 0.521821558 0.476153970
0.787097037 0.561416447 0.497153431
0.905249834 0.616065800 0.543832839
0.368121475 0.616698205 0.412903190
0.381151021 0.620240271 0.427830458
0.427830487 0.628463268 0.427956969
0.509677649 0.635420859 0.443390131
0.605692565 0.658697188 0.502213895
0.693358481 0.663757265 0.516508460
0.801518261 0.688425183 0.552941024
0.920809686 0.723592460 0.600000203
0.485894829 0.779000998 0.431499302
0.505629301 0.780898273 0.447817802
0.555091619 0.780139327 0.465907693
0.627956808 0.777735770 0.517773688
0.712334037 0.780898273 0.549904943
0.782163024 0.781404257 0.546995759
0.815180063 0.766856492 0.555977464
0.931435525 0.793927908 0.601011813
0.714737773 0.915243626 0.598734617
0.725110531 0.915117025 0.606325150
0.752182066 0.911195457 0.627197802
0.793295264 0.913219690 0.647818029
0.837570906 0.916761398 0.643769562
0.903605223 0.918026805 0.648703516
0.949146032 0.918279350 0.658570349
0.979000688 0.895635605 0.668564558
0.328399688 0.095003270 0.708665252
0.347248584 0.098671727 0.705755532
0.397343159 0.112586997 0.700063586
0.467425913 0.134218559 0.696900845
0.545983434 0.163314179 0.685135841
0.643010497 0.188361749 0.675774515
0.807716489 0.181910276 0.672359526
0.949146032 0.239342064 0.651107013
0.337254822 0.181024536 0.694370687
0.353826821 0.182795838 0.692093730
0.402403653 0.189373985 0.686147988
0.470209002 0.202276826 0.678557992
0.544971526 0.219861194 0.680961072
0.642504573 0.236432374 0.672991514
0.798734963 0.229222283 0.660468221
0.932194889 0.271726817 0.638203502
0.374699593 0.297406673 0.670967638
0.391777098 0.303858161 0.678051651
0.428589493 0.306008995 0.673244774
0.488045365 0.312966406 0.675395191
0.560151637 0.328779101 0.667046487
0.643896461 0.335610449 0.661227107
0.802909553 0.332447469 0.659835637
0.934724748 0.383807689 0.639216006
0.410878927 0.416065931 0.661733210
0.429728031 0.428210169 0.665022194
0.464136750 0.428589731 0.659962118
0.508412242 0.435673624 0.654901922
0.573813915 0.443516910 0.657052577
0.649968386 0.450980365 0.649588764
0.792662799 0.449209571 0.640480399
0.920176983 0.493738323 0.634028792
0.401897371 0.512840211 0.664895654
0.425173938 0.520177007 0.653763533
0.473118156 0.526122630 0.657684863
0.546489596 0.557242036 0.651865959
0.602530003 0.560657740 0.644908547
0.668058217 0.568627238 0.647691488
0.791397750 0.571663499 0.639848471
0.914104998 0.619607627 0.646805704
0.379759550 0.688425183 0.645414114
0.404806823 0.690702140 0.660341382
0.457052618 0.687286615 0.652498066
0.534598172 0.681846976 0.650221050
0.634914696 0.682479024 0.658697248
0.702719510 0.703858256 0.669323266
0.807969332 0.711701751 0.662112951
0.916382074 0.746236622 0.687539577
0.438836277 0.793674827 0.585199296
0.461985826 0.784060597 0.589373827
0.495256066 0.788235486 0.592915535
0.564959049 0.786843598 0.609361291
0.641872466 0.794560492 0.622770548
0.737634182 0.805692554 0.667173028
0.814294577 0.810373008 0.697279990
0.914358079 0.828209996 0.724857688
0.605945408 0.920050621 0.616698325
0.626438797 0.924731255 0.635420799
0.647058666 0.921947777 0.647817791
0.710056663 0.921947777 0.679316878
0.781783521 0.920429826 0.718532741
0.853384137 0.919671118 0.761543274
0.916761637 0.921315789 0.764579058
0.952561617 0.909804165 0.772675335
0.367488980 0.203035936 0.880328596
0.384693086 0.207337067 0.872738898
0.427324086 0.220746353 0.872359455
0.491840810 0.239342049 0.868690789
0.571283996 0.267805129 0.866160750
0.662744761 0.300822407 0.866792917
0.767995119 0.330550492 0.855407596
0.942947447 0.340543568 0.848956585
0.385705173 0.259456336 0.869955599
0.397090226 0.269829154 0.862365305
0.438330173 0.275774896 0.871221006
0.499177992 0.290828347 0.862238884
0.573181629 0.305755824 0.859835386
0.656672895 0.329158545 0.854142785
0.760784149 0.356103748 0.844655156
0.937254965 0.365591139 0.837697744
0.421631813 0.377355874 0.857558489
0.435041368 0.382036984 0.860720754
0.474130183 0.387602866 0.856293321
0.527387679 0.394939542 0.858696878
0.593928158 0.413409173 0.854648709
0.672232509 0.433143675 0.854395688
0.770777941 0.451359987 0.848956585
0.932953715 0.458823442 0.836432457
0.478810608 0.514863670 0.853636563
0.493358642 0.514737189 0.847817540
0.519165099 0.518658936 0.850853860
0.563061416 0.523592710 0.847944319
0.620619774 0.530297399 0.841998577
0.686527610 0.536622286 0.835420370
0.772422314 0.548893034 0.833523035
0.929158568 0.546995521 0.828336537
0.495382786 0.602782786 0.844149590
0.520429790 0.614674330 0.847691119
0.564452827 0.631372452 0.840607345
0.614674091 0.647817791 0.839468598
0.661353409 0.649335980 0.838456750
0.713978469 0.653383970 0.834028721
0.782795548 0.661859453 0.829221785
0.921695173 0.662239015 0.829095304
0.513472497 0.723719418 0.849841833
0.528652489 0.721695185 0.845034838
0.570272028 0.724857628 0.845034659
0.626185894 0.726755381 0.844908476
0.700442493 0.752814472 0.842884541
0.752814591 0.761796296 0.834281802
0.810879409 0.765211523 0.834534764
0.924604595 0.765970588 0.833396435
0.487033427 0.856420279 0.832763851
0.513472319 0.853130639 0.839848101
0.550537527 0.853510261 0.839468837
0.617583692 0.849209368 0.841113210
0.680581868 0.841872334 0.837571204
0.761796057 0.838583291 0.834282041
0.827324212 0.843896568 0.835926473
0.923466086 0.851739466 0.836432695
0.596457779 0.933839619 0.792789400
0.605945647 0.937634468 0.791777074
0.632890522 0.937634468 0.790891647
0.683364809 0.932447612 0.801770747
0.739910960 0.928652406 0.811131954
0.801138580 0.932447612 0.833016753
0.874383271 0.927134633 0.859329402
0.934977651 0.941555798 0.884250581
