Assets/Resources/EldamarStudio/100 Horror LUTs Pack/LUTs/cube/Beamspring LUT.cube
LUT_3D_SIZE 5
DOMAIN_MIN 0.000000 0.000000 0.000000
DOMAIN_MAX 0.903226 0.903226 0.903226
0.027450999 0.019608000 0.023529001
0.125236705 0.026439296 0.050980002
0.301454395 0.000632584 0.051612586
0.549399257 0.003922000 0.065781124
0.869955599 0.002656833 0.119038664
0.069955997 0.106261700 0.050347995
0.144844696 0.102340281 0.048703291
0.315876395 0.109551117 0.051359702
0.545857072 0.118785694 0.090195999
0.875521839 0.148260683 0.121062808
0.155598000 0.248576820 0.088930994
0.212903112 0.245287389 0.090575702
0.334218383 0.249209404 0.092220411
0.563567519 0.308791786 0.100695580
0.880328596 0.399114639 0.125616819
0.223655999 0.542694390 0.092094004
0.291714251 0.540417671 0.094750419
0.442757636 0.549652219 0.095256165
0.632890403 0.567236245 0.096900880
0.907779574 0.641998768 0.131056234
0.382289588 0.888171554 0.217583597
0.433649451 0.894117594 0.222770512
0.577609003 0.893991172 0.238076970
0.760910809 0.901201725 0.254775703
0.953446925 0.898544908 0.296268225
0.035927005 0.043770004 0.115749404
0.130803406 0.029095709 0.120682694
0.272738814 0.028463125 0.138013989
0.488551408 0.009740578 0.178873688
0.840860307 0.000000000 0.218342826
0.088298410 0.088930994 0.107906409
0.144844696 0.101707697 0.128526121
0.265528381 0.115116984 0.145856977
0.499430537 0.121948116 0.186337993
0.845161378 0.141429216 0.222390980
0.166097403 0.224668100 0.156609699
0.208601981 0.227957100 0.167109281
0.314611226 0.231878683 0.167109698
0.528272986 0.292093664 0.193548411
0.869702816 0.388994485 0.232637510
0.244149297 0.515622795 0.197849274
0.303099126 0.524478018 0.198861405
0.437950701 0.527008355 0.199999988
0.615560114 0.543073833 0.199493825
0.900569141 0.637824059 0.244022816
0.402909309 0.884250641 0.313346028
0.455028474 0.882985473 0.310436159
0.584819615 0.888171554 0.329411417
0.764831901 0.893105447 0.343832731
0.951928735 0.899936557 0.375711113
0.062871814 0.027450999 0.295003384
0.168374285 0.028463123 0.276913285
0.288425386 0.037318408 0.262239397
0.495509535 0.013282716 0.297532976
0.828209519 0.001265006 0.371536791
0.135357410 0.125237122 0.255028814
0.186085105 0.120303407 0.246552825
0.282859117 0.120303407 0.248197109
0.487412810 0.132448122 0.299557418
0.825932682 0.152561784 0.374826044
0.188361824 0.219101399 0.257052392
0.235800102 0.228589684 0.258317381
0.353193790 0.264895409 0.296900839
0.517140985 0.298671693 0.318912268
0.849715173 0.385452181 0.391271621
0.258823991 0.493738383 0.326755524
0.314864099 0.497912824 0.334218830
0.433017373 0.508412242 0.336875379
0.607716680 0.525110364 0.349904984
0.880581856 0.636559188 0.419101894
0.462871790 0.869197011 0.476913184
0.496647775 0.873118579 0.480582058
0.607716203 0.875015736 0.484883010
0.768500626 0.884250641 0.503858447
0.948260427 0.897279739 0.530170560
0.167868122 0.053004257 0.536749125
0.264642686 0.044402421 0.526881397
0.414800793 0.014927008 0.509930551
0.575079262 0.003922000 0.500442982
0.855660975 0.000000000 0.563187778
0.204427540 0.165464833 0.502087116
0.268816978 0.164832413 0.497912645
0.412776828 0.155344695 0.496900946
0.564326525 0.140290692 0.476280838
0.855281413 0.169133350 0.559012949
0.239974990 0.314104974 0.477672666
0.300316215 0.318405956 0.471347392
0.418975502 0.317647129 0.474003524
0.572169542 0.320303679 0.482858807
0.854901612 0.419228286 0.566603541
0.282479256 0.512334287 0.481973380
0.334471703 0.512966216 0.495888680
0.470967650 0.535863698 0.506009102
0.667172194 0.598608255 0.556356430
0.881340921 0.659708917 0.616318941
0.523845434 0.870208859 0.650600910
0.564579427 0.869829118 0.657684982
0.660721183 0.872865319 0.666919768
0.783680975 0.877419412 0.676153898
0.936748624 0.894117594 0.695129871
0.299683630 0.145477787 0.848956585
0.378115386 0.140037894 0.853257477
0.538267076 0.135863185 0.849588990
0.743580043 0.134218395 0.842504561
0.943073630 0.168627322 0.833396435
0.327134788 0.269070357 0.841492891
0.396837473 0.271473467 0.847817540
0.553700030 0.273118168 0.841871977
0.743706226 0.284756273 0.836306274
0.938140333 0.308159381 0.830739558
0.409867406 0.493484735 0.823403001
0.463377595 0.497153699 0.828083634
0.592156887 0.496774167 0.826818407
0.749652028 0.508285701 0.824541271
0.925363362 0.517140567 0.819607973
0.475395322 0.698418736 0.833143711
0.526502013 0.701581120 0.829601347
0.629348636 0.705882192 0.826818109
0.768121064 0.708918095 0.824161768
0.914610684 0.722960234 0.824035227
0.565464556 0.888298452 0.838456750
0.594180584 0.882985473 0.846805811
0.682985544 0.884250641 0.844528794
0.806957781 0.887792468 0.845034599
0.944338799 0.910309613 0.884376764
