Assets/Resources/EldamarStudio/100 Horror LUTs Pack/LUTs/cube/Beamspring LUT.cube
LUT_3D_SIZE 8
DOMAIN_MIN 0.000000 0.000000 0.000000
DOMAIN_MAX 0.903226 0.903226 0.903226
0.027450999 0.019608000 0.023529001
0.049715545 0.023908548 0.032511450
0.147248194 0.018848903 0.050980002
0.250600994 0.001138644 0.057685357
0.369639188 0.001518192 0.050094996
0.508918464 0.003922000 0.062744997
0.679569542 0.002277288 0.083617993
0.869955599 0.002656833 0.119038664
0.036812000 0.052498095 0.048576999
0.069702990 0.056419998 0.036432546
0.155092001 0.057179093 0.047438450
0.256926090 0.052118644 0.046300001
0.370777816 0.038836356 0.046552546
0.510689259 0.019228354 0.071600541
0.679190099 0.006831284 0.095508993
0.863377452 0.005692640 0.121694818
0.077546000 0.121442094 0.055661097
0.110815637 0.124984451 0.061606549
0.167615101 0.118279189 0.051739097
0.260467827 0.126502454 0.051613092
0.366603196 0.128399894 0.061100904
0.506894171 0.140797183 0.082859084
0.683491528 0.158760190 0.100948699
0.876533687 0.184945911 0.127134815
0.123971924 0.196204633 0.074003644
0.150790557 0.198102176 0.073624097
0.202403635 0.196963727 0.071220994
0.267425627 0.200126633 0.068437643
0.374699801 0.214548081 0.084629998
0.513978601 0.243769631 0.094370738
0.692979276 0.280455649 0.111068994
0.878684640 0.325995922 0.125363797
0.191270992 0.311701179 0.102846004
0.200885639 0.309677541 0.107527003
0.252119094 0.312334180 0.103478998
0.319164813 0.311068803 0.104237996
0.399493992 0.316255361 0.107400186
0.532447457 0.354079723 0.107400186
0.709297657 0.412270546 0.102719903
0.892472804 0.464136362 0.125743344
0.217583731 0.487033188 0.102214009
0.250474364 0.489057451 0.100696005
0.306641340 0.487033188 0.100822359
0.384060651 0.495003194 0.102087006
0.473624378 0.502340257 0.102087006
0.583301485 0.508538902 0.103984743
0.737760544 0.557368457 0.102592997
0.907020688 0.605313361 0.123719081
0.259076297 0.705376267 0.094749995
0.290575534 0.701581240 0.096394710
0.356989175 0.704617560 0.095382795
0.445160896 0.707653522 0.095888637
0.547248423 0.713978350 0.093105704
0.663124919 0.716381848 0.100189701
0.779885888 0.724351823 0.099936984
0.920809746 0.743832648 0.153320789
0.382289588 0.888171554 0.217583597
0.406198144 0.892346323 0.225806147
0.452118993 0.890322447 0.225047335
0.536242604 0.893611372 0.230486840
0.629474998 0.896141410 0.244149208
0.731562436 0.901201725 0.249715313
0.843769491 0.901201725 0.274256855
0.953446925 0.898544908 0.296268225
0.042757548 0.032132000 0.060721450
0.065401539 0.023908548 0.057178997
0.142567992 0.028589545 0.077166542
0.222011536 0.027830547 0.092093639
0.333206743 0.012144354 0.102972537
0.477545649 0.000000000 0.123466447
0.651359499 0.000000000 0.139278799
0.857431591 0.000000000 0.171916530
0.052877549 0.048956543 0.069702990
0.083871000 0.049715545 0.068943992
0.138646096 0.061100900 0.084250547
0.230739623 0.063124545 0.095256351
0.333206743 0.060341898 0.104111187
0.477165997 0.050474543 0.127640992
0.648956239 0.020493099 0.146489382
0.857811153 0.006451639 0.173434824
0.092473000 0.103352092 0.089310996
0.110436186 0.112460546 0.090069987
0.161037534 0.102593191 0.089310989
0.233016819 0.117520191 0.101075090
0.337508172 0.128779441 0.113598891
0.478304654 0.142061651 0.131435797
0.659835517 0.156862646 0.145730287
0.859708786 0.178241447 0.172043264
0.133459628 0.185199529 0.110815637
0.155471444 0.185199529 0.110056542
0.194940075 0.187982187 0.107653543
0.258444101 0.187982187 0.115496539
0.356735915 0.210626170 0.122074381
0.493991345 0.237191364 0.140796646
0.674762607 0.276533633 0.153194338
0.864136338 0.317900002 0.165970996
0.186590806 0.298798531 0.138266534
0.207590193 0.295508832 0.134345531
0.250221640 0.301834524 0.142568201
0.311701179 0.301328301 0.139025748
0.389247358 0.305629611 0.140923187
0.518153369 0.347375244 0.146109924
0.698671877 0.405692637 0.149019718
0.883997202 0.460215360 0.173814178
0.224161997 0.471853256 0.147754550
0.249462724 0.473876983 0.147881076
0.300442755 0.476027787 0.146995544
0.375079274 0.481973559 0.145730376
0.471853137 0.490954995 0.148893267
0.574572980 0.496015429 0.141555741
0.724731266 0.549905002 0.144212097
0.899051309 0.603289247 0.176343903
0.260847569 0.697406828 0.140923098
0.295382768 0.690702260 0.146742523
0.350158393 0.696268082 0.144591644
0.440480828 0.700569570 0.147248372
0.543200672 0.706261754 0.152941123
0.657179296 0.707147598 0.144718468
0.775711417 0.713345826 0.151802361
0.912333965 0.738013804 0.196457788
0.383554757 0.889563560 0.259582430
0.408349127 0.890701950 0.255407989
0.458317399 0.885515451 0.257558405
0.531435490 0.886274457 0.261226654
0.627577484 0.892093599 0.272738934
0.730803370 0.895761907 0.288931102
0.841998637 0.900822163 0.310436368
0.955344737 0.900822163 0.319291562
0.031373002 0.039974902 0.136243090
0.081087641 0.038836453 0.146109641
0.154333100 0.031373002 0.146489099
0.230739728 0.030613907 0.148893103
0.329032272 0.029728094 0.170018896
0.447058558 0.025680264 0.190765455
0.617583811 0.000000000 0.210752904
0.834535062 0.000759096 0.238836184
0.071600541 0.068184994 0.120935738
0.097533450 0.061480448 0.128526092
0.145350650 0.061480448 0.123339638
0.222517177 0.072485641 0.145350650
0.316382110 0.080708191 0.163567290
0.443263650 0.079190187 0.185199544
0.619101524 0.046173360 0.215812638
0.833396316 0.006072091 0.243010998
0.103478998 0.102593198 0.126882091
0.125363991 0.103352189 0.140290990
0.168374181 0.122201003 0.152814895
0.232257828 0.122580543 0.150411084
0.321947992 0.135483995 0.174699187
0.453384072 0.146489099 0.199747086
0.634661734 0.154206380 0.216192290
0.845920265 0.179127172 0.245667160
0.138519987 0.185325548 0.160151735
0.166476741 0.176596642 0.162934989
0.204047829 0.182922438 0.168880463
0.246679291 0.183301985 0.167742103
0.341049850 0.200758830 0.186843753
0.470841080 0.231372625 0.200885549
0.654902160 0.268817127 0.217457369
0.855408132 0.315622896 0.249462441
0.200632200 0.283365190 0.187223285
0.221378639 0.284250289 0.192156821
0.252245188 0.288931072 0.195952103
0.304996610 0.286906809 0.191144899
0.372675359 0.291208178 0.188741297
0.502087176 0.332953721 0.207590297
0.685009539 0.394307435 0.222517282
0.870841503 0.454648852 0.251739323
0.236811996 0.458191186 0.214801103
0.259203255 0.459329575 0.218342751
0.306641430 0.459961951 0.212017745
0.372802168 0.465907693 0.216319010
0.465528011 0.473371267 0.218342751
0.557874739 0.480328828 0.213156104
0.721442103 0.537507951 0.230360389
0.892725825 0.599367321 0.261986136
0.258444279 0.684250236 0.226059377
0.296394825 0.682099938 0.234155566
0.360151440 0.689690053 0.237191573
0.444275916 0.690069437 0.232890740
0.540164590 0.696774364 0.237950668
0.649082661 0.701834142 0.240986571
0.769006670 0.707020521 0.248703375
0.908538818 0.736748874 0.285136074
0.410499692 0.884250641 0.339152694
0.430739850 0.887665987 0.342820853
0.473750859 0.882985473 0.341049850
0.547374964 0.888551354 0.347881109
0.637697875 0.889436781 0.352434665
0.738013744 0.890828252 0.362302154
0.844275892 0.895382464 0.379632771
0.952181756 0.901707590 0.395951778
0.032004993 0.030234357 0.230993271
0.094750091 0.027071452 0.230993077
0.175837740 0.026691904 0.230739728
0.233775914 0.030234357 0.216951281
0.327008039 0.032890804 0.229474977
0.447438121 0.025680264 0.260088265
0.623529196 0.000000000 0.288172275
0.822390914 0.003668656 0.330423653
0.094117992 0.074383095 0.217457443
0.113851726 0.079949096 0.218216553
0.166730091 0.077166446 0.211512089
0.227071285 0.073624194 0.207210541
0.316634923 0.085388996 0.221884727
0.440354198 0.083997719 0.248576730
0.619101822 0.049336173 0.294497102
0.819734395 0.011258649 0.330044210
0.130170897 0.123339549 0.202783182
0.142441288 0.122074284 0.203921720
0.186717436 0.130423740 0.204427287
0.236938640 0.127641097 0.204427272
0.321821481 0.139784634 0.232637376
0.439595103 0.154333100 0.252878100
0.620240152 0.160151839 0.292093456
0.827071309 0.181783721 0.328399897
0.151928991 0.179380000 0.210752994
0.172675550 0.183301985 0.212650537
0.215812743 0.188741282 0.220872998
0.277545601 0.207463279 0.245540634
0.346869171 0.210246637 0.244402289
0.464263469 0.235673368 0.266287386
0.638203442 0.257432252 0.292220205
0.840860248 0.310056865 0.336116076
0.210752800 0.279822737 0.246679187
0.226439103 0.280961275 0.249082983
0.267172962 0.284503549 0.256167084
0.313598841 0.288045406 0.252498537
0.374952585 0.291081369 0.258570373
0.494244099 0.327134669 0.280708432
0.668058157 0.386843801 0.305123448
0.861733019 0.454522550 0.351423264
0.245667547 0.441366374 0.286274612
0.269576281 0.441619098 0.283491462
0.309044749 0.449082822 0.288551629
0.374320358 0.453004539 0.287033737
0.455407917 0.461606562 0.286400914
0.546995580 0.470208585 0.293232024
0.708791912 0.533333242 0.316508830
0.881720424 0.596837282 0.366223425
0.282606274 0.673497856 0.333080202
0.312587112 0.672106087 0.330929548
0.362302423 0.667172372 0.327387720
0.443010539 0.673497915 0.325363576
0.538266778 0.680581808 0.334977567
0.647438347 0.690448880 0.338772655
0.760278583 0.697533607 0.344971567
0.898418367 0.735736847 0.385325879
0.444402426 0.872612357 0.432511121
0.453763425 0.877545953 0.423908621
0.499304146 0.881846726 0.433396548
0.563567400 0.880328596 0.431246251
0.647438347 0.880202353 0.440986574
0.741682351 0.883744359 0.449209034
0.841872394 0.890828431 0.465907574
0.949398756 0.900063097 0.486527413
0.086021185 0.034408998 0.346110195
0.134598181 0.032890804 0.340290815
0.210626185 0.038456906 0.331182450
0.285009176 0.035673551 0.324984372
0.356989175 0.033776194 0.321947992
0.465907454 0.017963268 0.335104197
0.633143723 0.000000000 0.376470655
0.838583291 0.002403808 0.428083360
0.124225348 0.087792806 0.324984372
0.151170090 0.097533353 0.323592186
0.209108204 0.096015446 0.321189165
0.280834734 0.089310795 0.313725531
0.351802170 0.082985379 0.311701179
0.452877909 0.083111905 0.326502383
0.630992889 0.043516815 0.378621131
0.832258046 0.009867087 0.427197993
0.155850902 0.149525285 0.308539063
0.180645347 0.154838562 0.303605616
0.221632093 0.151170194 0.299937010
0.276027828 0.150031552 0.297659904
0.341429293 0.144086108 0.302340388
0.452877820 0.158254102 0.323718816
0.631625712 0.161290109 0.377229571
0.832131565 0.192915723 0.428083360
0.183175281 0.213029996 0.305502981
0.210879102 0.211764634 0.302340388
0.249083072 0.214927629 0.299937069
0.302973092 0.221252441 0.304996848
0.363693714 0.219987288 0.304491192
0.473624289 0.243010819 0.340290725
0.638836265 0.273497790 0.383681267
0.834914267 0.330550402 0.429601550
0.225047186 0.280961365 0.307147384
0.237444907 0.289310545 0.310562819
0.274889350 0.289689988 0.314864099
0.351296604 0.315116793 0.339279175
0.428210378 0.338899374 0.353953183
0.519797623 0.351423383 0.366603196
0.671726763 0.394433767 0.394433767
0.850347936 0.461353689 0.443896145
0.265275419 0.444275737 0.355217904
0.286021262 0.442884356 0.361037374
0.324730843 0.452625066 0.365591258
0.393927962 0.465654641 0.374825716
0.467172921 0.468310982 0.377102941
0.556989193 0.476533473 0.384566456
0.708159268 0.534092069 0.414168179
0.874762833 0.604174495 0.466793090
0.319291353 0.661479890 0.421884567
0.342694491 0.664263189 0.422011346
0.390512377 0.666919768 0.432131559
0.457558602 0.667805314 0.431372672
0.547248483 0.676407456 0.435167760
0.646426082 0.683112025 0.440986902
0.752561748 0.691334307 0.443010539
0.898038805 0.739658058 0.497027367
0.476407409 0.866919577 0.532573998
0.495635599 0.868185043 0.537887216
0.523845613 0.873371601 0.527767062
0.589247346 0.874509931 0.534092188
0.660341620 0.880328596 0.536495984
0.749778509 0.881973326 0.548387051
0.843390167 0.888930619 0.560783803
0.946742237 0.890954971 0.576091111
0.148639992 0.048956256 0.487160206
0.188108727 0.045034740 0.483364701
0.266160548 0.042378098 0.484630078
0.350031435 0.029095713 0.472485840
0.439089358 0.014421202 0.463883698
0.520430446 0.003922000 0.455914199
0.649968266 0.000379548 0.466160715
0.850347579 0.000000000 0.532068253
0.163061738 0.110562809 0.471347272
0.204427287 0.106135346 0.472865462
0.263757080 0.102593087 0.466160804
0.344718605 0.094117910 0.458317816
0.426818371 0.084630094 0.451233298
0.514484167 0.070841104 0.440733671
0.649968266 0.033269912 0.469449729
0.846805751 0.022770349 0.525490165
0.190259084 0.181657091 0.454016477
0.223150074 0.178368285 0.451233089
0.277166456 0.175711840 0.447058469
0.345098227 0.173814103 0.438330263
0.427703917 0.168500915 0.442251533
0.505629361 0.165338203 0.432511210
0.645920157 0.164832443 0.463883728
0.851739526 0.201517954 0.529917419
0.220493630 0.253890008 0.444022477
0.246679381 0.256040484 0.433523357
0.289310724 0.256419837 0.432005435
0.352688104 0.253130913 0.426185906
0.428589702 0.253510475 0.433143884
0.503099442 0.253257632 0.429728389
0.659708977 0.273244739 0.470841110
0.848197281 0.343832940 0.534977794
0.245540917 0.347375154 0.439215481
0.270335197 0.354079723 0.433396548
0.313725531 0.351802796 0.434029013
0.378620893 0.353700191 0.440607369
0.461100370 0.363061368 0.451233208
0.546362877 0.372928619 0.459203094
0.694623649 0.413788736 0.491334528
0.854522288 0.486527503 0.556229949
0.270334989 0.455661178 0.438456476
0.287539482 0.458317637 0.440986723
0.332447827 0.466666818 0.450094461
0.409740388 0.474636078 0.459203094
0.507400155 0.509550631 0.486274242
0.614547431 0.541935205 0.510815740
0.730297267 0.565085411 0.533586025
0.872485638 0.623023391 0.581910193
0.327767462 0.662871838 0.517899990
0.353447467 0.666033864 0.519544721
0.403162181 0.667678654 0.521189332
0.482353121 0.671220958 0.527640581
0.576597154 0.683997273 0.551929355
0.661227226 0.688551307 0.551043749
0.755850375 0.697153747 0.554206431
0.896141589 0.746362627 0.605313182
0.518026412 0.869196713 0.627324283
0.533965766 0.869323313 0.625173867
0.570145488 0.865781188 0.630107641
0.622391105 0.868437827 0.636938512
0.685136139 0.871220827 0.644149184
0.763693750 0.876407623 0.647564650
0.845034838 0.887286603 0.656419754
0.939784706 0.890828431 0.671347141
0.220872998 0.074130282 0.665528238
0.264010280 0.065654702 0.665654838
0.335231006 0.056166992 0.668690562
0.430613548 0.034788355 0.660468221
0.533206761 0.001517999 0.648829520
0.635420740 0.001644712 0.639595270
0.746869147 0.001644712 0.637444854
0.868943870 0.002277288 0.644782007
0.227704272 0.127387375 0.654648542
0.266540110 0.128146544 0.662998021
0.333459586 0.120936126 0.654016256
0.428969264 0.107274003 0.650853932
0.527640760 0.089184195 0.644275606
0.631751835 0.064010084 0.641113341
0.738646090 0.020872895 0.630613327
0.866287112 0.044022880 0.639595211
0.247312084 0.212776378 0.638962626
0.277166456 0.215307102 0.642631114
0.341303170 0.208855182 0.641872346
0.430993021 0.208475828 0.635673642
0.529285371 0.202530175 0.636306047
0.626944900 0.192662820 0.630233824
0.738140523 0.185831472 0.622264385
0.862618387 0.215053797 0.642251968
0.263630569 0.318532556 0.624161899
0.292852461 0.318406165 0.624161899
0.351423085 0.319291383 0.628210008
0.435673922 0.316887975 0.624161899
0.526502073 0.315496713 0.620746553
0.627830505 0.313978732 0.621505320
0.726755142 0.313092917 0.620240211
0.859835386 0.357621849 0.641998708
0.291967243 0.438203543 0.620113552
0.322580487 0.432258189 0.624667645
0.374193579 0.435673654 0.623149753
0.447691351 0.439721555 0.618469238
0.537760735 0.435041249 0.617583811
0.629854500 0.438077450 0.618722260
0.730423808 0.441872358 0.613788545
0.868817031 0.501075268 0.660341322
0.325490296 0.560784280 0.629348755
0.347880751 0.563820183 0.626691937
0.399241269 0.561796367 0.624161959
0.471599996 0.562681496 0.627071381
0.560531259 0.575205743 0.629474759
0.659456491 0.583807707 0.631752014
0.754585683 0.591018260 0.639595509
0.883112073 0.646426260 0.683491230
0.350537270 0.681214273 0.626944840
0.373940557 0.683364511 0.628589511
0.426438749 0.683491528 0.627071321
0.499557257 0.683491528 0.632511139
0.588867664 0.689057231 0.638077259
0.688678205 0.714990258 0.658191025
0.798228860 0.740037799 0.689057231
0.904870510 0.767109096 0.716381609
0.532700598 0.865781128 0.721948326
0.540670216 0.865022182 0.714357853
0.575458407 0.866540372 0.721189022
0.635926485 0.870082438 0.731562018
0.704870224 0.874762893 0.737128019
0.783428490 0.878304839 0.748133957
0.846173286 0.883871078 0.756609440
0.932194889 0.891460896 0.771157265
0.299683630 0.145477787 0.848956585
0.335104078 0.143200502 0.850980401
0.399620801 0.140290618 0.854269564
0.490322649 0.135357410 0.850600600
0.601897478 0.131562233 0.851612747
0.710689247 0.135230735 0.847817719
0.827197969 0.147375107 0.841239393
0.943073630 0.168627322 0.833396435
0.305502504 0.196837619 0.855281115
0.342062235 0.192662999 0.846679330
0.399494171 0.192915723 0.845667541
0.493991226 0.192662999 0.847185493
0.598228812 0.192915946 0.845920205
0.712207079 0.193422034 0.836938858
0.824035406 0.204807103 0.832763851
0.941049755 0.228968769 0.833902597
0.337507844 0.296900600 0.839215815
0.363693714 0.296268046 0.843137443
0.419101894 0.299556941 0.851359606
0.506008685 0.299177498 0.839848459
0.606072128 0.301707834 0.837950706
0.713851929 0.311827868 0.835800290
0.825933099 0.322833329 0.834408283
0.934092462 0.338266850 0.830233812
0.384313583 0.423276037 0.833522975
0.408095896 0.423276037 0.832131565
0.455913663 0.425553322 0.835041165
0.532068193 0.429854572 0.831372738
0.622644067 0.432131588 0.829348207
0.721315324 0.434788227 0.827830434
0.823149741 0.444275707 0.825173855
0.930044472 0.453130841 0.822770357
0.425047249 0.551296592 0.833522916
0.446046948 0.555218220 0.825679958
0.497786045 0.554838479 0.829348207
0.563440502 0.558886290 0.829095542
0.641366124 0.564705968 0.826691747
0.728905737 0.564578950 0.823908925
0.824794292 0.568627298 0.822011352
0.922327518 0.569512963 0.824035227
0.467805475 0.670588076 0.832890630
0.490069151 0.670335233 0.831498682
0.524477839 0.675015867 0.827577531
0.590512216 0.672232747 0.828715801
0.662239075 0.680202544 0.827577472
0.742061794 0.684882641 0.823402882
0.829474628 0.685515523 0.826691628
0.916887701 0.694623351 0.823529482
0.501454413 0.784566343 0.835294127
0.533333540 0.780518532 0.829601586
0.558760107 0.780139089 0.830866396
0.611637950 0.780518711 0.831752002
0.684250236 0.783301473 0.832637489
0.759898961 0.787729561 0.830360055
0.838457048 0.789753318 0.830360174
0.920809805 0.796331525 0.829854250
0.565464556 0.888298452 0.838456750
0.577988148 0.889943004 0.843896270
0.604806781 0.886274338 0.838203609
0.652245402 0.888424933 0.842504621
0.713978410 0.885768354 0.842757642
0.784946382 0.884250581 0.841239393
0.866287529 0.896520793 0.863630831
0.944338799 0.910309613 0.884376764
