Assets/Resources/EldamarStudio/100 Horror LUTs Pack/LUTs/cube/Beamspring LUT.cube
DOMAIN_MIN 0 0 0
DOMAIN_MAX 1 1 1
LUT_3D_SIZE 32
0.027450999 0.019608000 0.023529001
0.027450999 0.019608000 0.023529001
0.029601775 0.021758227 0.025679775
0.036433000 0.023529001 0.028716162
0.049715545 0.023908548 0.032511450
0.070967935 0.026944935 0.041619062
0.099809997 0.029981323 0.048197001
0.125236705 0.026439296 0.050980002
0.147248194 0.018848903 0.050980002
0.171536982 0.015812511 0.050980005
0.198734865 0.006957873 0.053889871
0.224035501 0.001897744 0.056926254
0.250600994 0.001138644 0.057685357
0.280202031 0.003668968 0.054648966
0.301454395 0.000632584 0.051612586
0.334724605 0.000000000 0.048576809
0.369639188 0.001518192 0.050094996
0.403668106 0.003922000 0.055534575
0.440100968 0.003922000 0.058570970
0.470967740 0.003922000 0.061606646
0.508918464 0.003922000 0.062744997
0.549399257 0.003922000 0.065781124
0.586211443 0.003795488 0.074510001
0.631751895 0.000759096 0.074510001
0.679569542 0.002277288 0.083617993
0.729537964 0.002530328 0.094370663
0.779633105 0.000000000 0.103478938
0.822137833 0.000000000 0.112586536
0.869955599 0.002656833 0.119038664
0.914990306 0.005692765 0.130423725
0.956609547 0.006957618 0.144718215
0.996078014 0.003922000 0.156863004
0.030487388 0.016571613 0.020493388
0.024414614 0.022643613 0.023529001
0.033017159 0.022643613 0.025679775
0.042505000 0.026059322 0.028716162
0.056167092 0.029222228 0.032132000
0.080076322 0.026944935 0.038583450
0.101328060 0.024920678 0.050221384
0.126881406 0.028589644 0.052371677
0.151043490 0.027198195 0.054016192
0.177608982 0.021884512 0.063124768
0.201897740 0.015938999 0.057305776
0.225047648 0.013029613 0.053889874
0.249462634 0.011005646 0.051612873
0.278178424 0.009488001 0.048829999
0.310562789 0.003668971 0.048576970
0.336622179 0.000632583 0.047944386
0.368121386 0.000000000 0.048576806
0.399999917 0.000885613 0.053130768
0.434029013 0.000885616 0.058570970
0.470461756 0.003668969 0.061606646
0.505123436 0.003922000 0.066539995
0.545351267 0.002909872 0.070840999
0.586211443 0.001012125 0.077798635
0.631751895 0.003795483 0.083618388
0.679569542 0.003036387 0.090449095
0.728146255 0.002530328 0.100442663
0.777608871 0.000000000 0.109044999
0.825174212 0.000000000 0.115622923
0.867679000 0.000000000 0.122074373
0.917267442 0.000885613 0.131688565
0.960025132 0.001771000 0.143832594
0.993042350 0.000885613 0.153826609
0.029222226 0.026438773 0.021758227
0.027451001 0.023908775 0.024794387
0.036432549 0.027830549 0.029980775
0.048576999 0.027830549 0.030487161
0.061480094 0.032132000 0.033650000
0.082226865 0.034408838 0.046805996
0.103984669 0.031372450 0.042884223
0.128526121 0.029980775 0.048450224
0.152561873 0.033523228 0.048197001
0.177103266 0.030233804 0.057558425
0.203668743 0.028462775 0.058697224
0.227956980 0.022390777 0.054648969
0.252751529 0.019860774 0.052118644
0.280835003 0.015560000 0.051106967
0.308538616 0.009488006 0.049209226
0.337128550 0.005819195 0.044908226
0.367488950 0.001265002 0.044908226
0.399747103 0.000000001 0.048576571
0.434661776 0.000000003 0.056167163
0.468690753 0.002783357 0.061606646
0.505123436 0.003922000 0.066539995
0.543580234 0.002909872 0.072612002
0.586337984 0.000000000 0.078937016
0.633902669 0.001012130 0.089057811
0.679569542 0.003922000 0.093105704
0.726754963 0.002530328 0.100821987
0.774572849 0.000506064 0.109171286
0.823149979 0.002150774 0.116887994
0.870714843 0.002150774 0.120809764
0.916761518 0.002150774 0.128652513
0.963567197 0.001265166 0.139531597
0.996457994 0.000000000 0.148640007
0.029980998 0.040353999 0.031119321
0.036306158 0.033017162 0.031625386
0.044528931 0.033396613 0.034281995
0.053384159 0.038962997 0.035294000
0.065907702 0.038203999 0.033396836
0.083238862 0.040733997 0.048070833
0.105249830 0.044275999 0.048576839
0.128526121 0.041619159 0.044402160
0.155092001 0.042378254 0.045161061
0.176850334 0.042884320 0.050727006
0.201391697 0.040353999 0.052624710
0.229222149 0.038836002 0.051612902
0.254648805 0.033902645 0.049715161
0.284377009 0.027957160 0.051866002
0.308664978 0.021885166 0.047817748
0.336622238 0.019481517 0.046173006
0.368248194 0.013662162 0.045667000
0.401012123 0.008855158 0.047564570
0.436179966 0.008855159 0.056672972
0.472359389 0.007843357 0.061733164
0.506388307 0.005186839 0.067805156
0.544845104 0.003162840 0.072865032
0.587349832 0.000000000 0.078810506
0.633649647 0.000000000 0.089816652
0.681214273 0.002277288 0.096394710
0.725489795 0.002530328 0.099557146
0.771536946 0.000000000 0.106135093
0.820113659 0.002277287 0.115243278
0.867425621 0.002656839 0.121568672
0.918532312 0.003922000 0.126881748
0.962681592 0.008349365 0.134218603
0.998734832 0.007589999 0.142568007
0.036812000 0.052498095 0.048576999
0.050094839 0.044908386 0.044022612
0.061353773 0.044022772 0.042757548
0.068184994 0.048450161 0.042125002
0.069702990 0.056419998 0.036432546
0.084883377 0.050347999 0.042504545
0.107273988 0.056167319 0.046046771
0.130803406 0.059076838 0.047059000
0.155092001 0.057179093 0.047438450
0.179380015 0.060215481 0.050474066
0.201897427 0.055281356 0.050980002
0.228083506 0.052877549 0.048576713
0.256926090 0.052118644 0.046300001
0.284250468 0.049083032 0.046300001
0.308664978 0.043137554 0.040481009
0.338140130 0.042251997 0.041998737
0.370777816 0.038836356 0.046552546
0.405945569 0.031246090 0.053257119
0.436306417 0.031246085 0.062365521
0.473877370 0.026439089 0.066666804
0.510689259 0.019228354 0.071600541
0.547121823 0.011132093 0.076660417
0.589753032 0.005186579 0.079696059
0.632510781 0.004933544 0.088298455
0.679190099 0.006831284 0.095508993
0.725742817 0.006704872 0.099810123
0.769639134 0.004554092 0.103858486
0.818215907 0.004554092 0.112966083
0.863377452 0.005692640 0.121694818
0.913851857 0.008222759 0.129790977
0.962681592 0.015560003 0.136116147
0.996078014 0.030739639 0.139152542
0.048955999 0.064642869 0.060720995
0.048955999 0.067678481 0.045540608
0.060088616 0.066539995 0.040986773
0.071727000 0.067045934 0.043516774
0.081846997 0.068563998 0.048576549
0.093990996 0.068563998 0.045540933
0.114231378 0.070082322 0.049082611
0.134345397 0.072485998 0.048829775
0.155092001 0.071979932 0.047059000
0.179380015 0.072359487 0.047438454
0.209487736 0.072485998 0.050474066
0.232258171 0.069449611 0.046932004
0.256166995 0.068057932 0.042504713
0.281214088 0.067299031 0.040228002
0.308538467 0.064263418 0.040228002
0.340164393 0.065528125 0.044022996
0.371536911 0.066539995 0.049588930
0.402909189 0.064389512 0.056293502
0.433270037 0.061606862 0.065401912
0.463630825 0.061606862 0.074509591
0.503099442 0.058697127 0.080708541
0.544086158 0.053636864 0.085768804
0.586717367 0.047691353 0.088804446
0.632257819 0.044654962 0.091840841
0.677292824 0.044401933 0.100442633
0.724731207 0.042125002 0.104869999
0.772802174 0.038076997 0.106894128
0.824288666 0.040986866 0.116002470
0.864895582 0.048956685 0.122453921
0.912460566 0.056546547 0.132573962
0.960151911 0.068184510 0.143706217
0.996078014 0.088424802 0.154332936
0.061100643 0.086906999 0.052625000
0.063630320 0.084883250 0.050094932
0.070082098 0.087918870 0.043516546
0.080582164 0.088298321 0.041745678
0.091461316 0.087918870 0.046299547
0.103605315 0.085768640 0.047564935
0.120809317 0.085768640 0.047059000
0.140417412 0.087160319 0.046805616
0.158634007 0.089437217 0.046046674
0.179380015 0.094749987 0.049588673
0.212017417 0.089690000 0.042378455
0.236305922 0.089690000 0.043390326
0.259835601 0.088298321 0.041745674
0.285768658 0.088551350 0.042251676
0.313093036 0.090069741 0.046805676
0.342820615 0.089437321 0.049209479
0.374573052 0.089310452 0.053637192
0.404933453 0.088298321 0.058064736
0.435294300 0.087159969 0.063377656
0.470715046 0.091966994 0.075015657
0.502973020 0.090069741 0.084123738
0.544592083 0.088045642 0.089816809
0.588614643 0.085389122 0.092852801
0.631751895 0.087159730 0.095888585
0.677292824 0.088677928 0.101201676
0.725616574 0.090322271 0.107273668
0.775331974 0.089689761 0.108412318
0.824921250 0.094750404 0.111448437
0.873498023 0.100569449 0.120430313
0.914737642 0.107906610 0.130044281
0.960531592 0.117140941 0.143073916
0.998608351 0.133459643 0.156863004
0.069955997 0.106261700 0.050347995
0.077925310 0.104870379 0.047059000
0.081973478 0.106135637 0.048197225
0.091081537 0.107906409 0.050221156
0.100948825 0.107906409 0.050221153
0.114357986 0.106135637 0.048197225
0.131562412 0.102340281 0.047059000
0.144844696 0.102340281 0.048703291
0.163820386 0.103858471 0.046425998
0.182922006 0.112080924 0.050726999
0.210752577 0.109930404 0.047185160
0.237697244 0.107906409 0.042504996
0.261226922 0.109044760 0.044781994
0.288552016 0.109297730 0.048070703
0.315876395 0.109551117 0.051359702
0.342314988 0.110183701 0.055028513
0.374193192 0.111701503 0.058064513
0.405945420 0.110815689 0.062365856
0.438330263 0.112839699 0.067425743
0.469323307 0.113472410 0.072232716
0.510436714 0.118785441 0.084123738
0.545857072 0.118785694 0.090195999
0.590132535 0.120050691 0.092599802
0.634155512 0.121568501 0.095635809
0.680581808 0.126248971 0.102592997
0.726122558 0.130676687 0.105881996
0.776723266 0.134471402 0.109677352
0.825300753 0.140543878 0.113092996
0.875521839 0.148260683 0.121062808
0.918912351 0.152688369 0.128652960
0.960531592 0.162302375 0.139911592
1.000000000 0.175964400 0.153574005
0.077546000 0.121442094 0.055661097
0.090449095 0.122200996 0.049588904
0.095382772 0.123592675 0.049209226
0.101707928 0.126122996 0.054016259
0.110815637 0.124984451 0.061606549
0.125237018 0.123845905 0.053257160
0.140670642 0.121821448 0.049209230
0.155471280 0.118279189 0.049462389
0.167615101 0.118279189 0.051739097
0.188867494 0.124351971 0.051739097
0.211511731 0.124605000 0.051739097
0.235041067 0.125363901 0.051233355
0.260467827 0.126502454 0.051613092
0.287539899 0.129538134 0.056926060
0.314358205 0.127514511 0.056419998
0.340038061 0.126882091 0.058823802
0.366603196 0.128399894 0.061100904
0.402529687 0.132068083 0.066034079
0.439342082 0.138140097 0.075268976
0.469702542 0.138140351 0.078305095
0.506894171 0.140797183 0.082859084
0.551170170 0.146869183 0.090955094
0.590765059 0.152688190 0.091081575
0.635673761 0.152688190 0.094117805
0.683491528 0.158760190 0.100948699
0.730676591 0.164832175 0.105881996
0.776723266 0.171916187 0.107906125
0.825300753 0.178494170 0.117267534
0.876533687 0.184945911 0.127134815
0.921062589 0.192030296 0.135231063
0.960531592 0.198735163 0.142188489
1.000000000 0.216951191 0.151296899
0.089690000 0.136622503 0.058697488
0.104870386 0.139658108 0.052624721
0.109171487 0.140417010 0.050853524
0.114358000 0.141808689 0.053510327
0.125996023 0.143200472 0.058570936
0.135104433 0.134092078 0.055534553
0.144465804 0.138013527 0.052245174
0.157242283 0.138646215 0.052498233
0.173687100 0.136495978 0.054775491
0.194939494 0.136495978 0.054775488
0.213282734 0.136749014 0.054775488
0.233776242 0.138772756 0.056799743
0.257432133 0.141682178 0.060721487
0.284503520 0.144718528 0.066034451
0.308791488 0.147754908 0.062998071
0.335610420 0.148134500 0.064895809
0.361290455 0.149652302 0.066414006
0.390385687 0.153320491 0.069070473
0.435926974 0.159392521 0.081214495
0.472739220 0.165464506 0.090449356
0.510689676 0.171157479 0.093485475
0.551423252 0.177229971 0.093991481
0.593801439 0.183048978 0.094117962
0.636306286 0.183048978 0.097153582
0.683491528 0.192156971 0.102466516
0.730676591 0.201264977 0.105881996
0.776723266 0.208348989 0.107906133
0.825300753 0.220492974 0.120050892
0.876533687 0.221757993 0.132068470
0.921062589 0.227450714 0.142315194
0.960531592 0.238077104 0.151296854
1.000000000 0.253383994 0.160404518
0.093105868 0.157621875 0.061733127
0.102466516 0.154838488 0.067299090
0.113345906 0.160024866 0.059076644
0.118152998 0.160278022 0.056799740
0.128146544 0.159645870 0.058823999
0.147374928 0.158127815 0.058317937
0.151423320 0.156609744 0.065401547
0.167994976 0.158633739 0.065527871
0.186211064 0.157621875 0.065781094
0.201012239 0.157621875 0.063630864
0.216444865 0.154712006 0.060720995
0.238709629 0.154712006 0.062745251
0.261986285 0.155723870 0.063504353
0.287792891 0.157242000 0.064263128
0.317393839 0.162934542 0.069196582
0.344085634 0.165970936 0.075774796
0.371410310 0.171031192 0.075268999
0.398987710 0.176850155 0.073118418
0.435420930 0.180644885 0.078431144
0.467045993 0.189500228 0.082226492
0.508918464 0.197596475 0.091081865
0.550411105 0.203668728 0.095129870
0.591271162 0.207842976 0.097153641
0.639341950 0.213408992 0.100189969
0.688677967 0.220240280 0.103225574
0.736495972 0.228968859 0.110056661
0.782542825 0.236053005 0.114610866
0.831119776 0.248197585 0.117141023
0.877039731 0.257684767 0.126628950
0.921062589 0.263756961 0.138519973
0.960531592 0.274636328 0.149652109
1.000000000 0.289816737 0.160784006
0.104237735 0.176849991 0.066792995
0.117393859 0.177862108 0.064769000
0.120429769 0.173181519 0.068184771
0.129538149 0.177988350 0.064136833
0.137128249 0.176849991 0.063757285
0.153446943 0.176849991 0.058823999
0.165591568 0.178874254 0.062365681
0.173561245 0.177229539 0.068184711
0.194813266 0.177609086 0.068564259
0.209487721 0.178874254 0.066793486
0.228589386 0.175964385 0.069829382
0.239721507 0.176976502 0.062744997
0.265148640 0.176976502 0.068058386
0.290322781 0.176976502 0.068564221
0.317141235 0.179506496 0.069322996
0.345098048 0.187223315 0.077798799
0.375458449 0.190259308 0.082353003
0.405692369 0.197722986 0.079822987
0.440480947 0.202150300 0.084250286
0.471094519 0.210752606 0.085262358
0.509044528 0.217963248 0.088298738
0.552435100 0.226945117 0.095129870
0.592409730 0.232258007 0.098165512
0.642884314 0.240227759 0.101201907
0.687665522 0.250600785 0.110309958
0.737887383 0.261100471 0.111954249
0.784567118 0.269449502 0.118153065
0.833143830 0.281593889 0.119671255
0.877040029 0.289057374 0.123592563
0.920809627 0.301707417 0.134471700
0.959645987 0.311321855 0.148386940
0.997975767 0.324225247 0.162808269
0.123971924 0.196204633 0.074003644
0.131182387 0.199241027 0.070208639
0.139025643 0.198102638 0.068311125
0.141682163 0.195825472 0.071347483
0.150790557 0.198102176 0.073624097
0.162175655 0.197343275 0.066034287
0.174319983 0.197596312 0.067046314
0.188741639 0.198481917 0.068943702
0.202403635 0.196963727 0.071220994
0.220619634 0.200000122 0.071221001
0.237191513 0.199493766 0.074763000
0.256040245 0.199367255 0.075269029
0.267425627 0.200126633 0.068437643
0.294244021 0.200379595 0.077040032
0.317647159 0.201264992 0.075774871
0.345477790 0.207337439 0.081214443
0.374699801 0.214548081 0.084629998
0.408728600 0.218216270 0.085262574
0.445161343 0.224288300 0.090828650
0.477166742 0.234281987 0.094749995
0.513978601 0.243769631 0.094370738
0.558506906 0.250853747 0.097406872
0.598481953 0.259962142 0.100442506
0.647059083 0.269070536 0.103478901
0.692979276 0.280455649 0.111068994
0.738266587 0.292599589 0.117647000
0.786338031 0.304743767 0.118153065
0.834282219 0.316887915 0.121189445
0.878684640 0.325995922 0.125363797
0.921189308 0.335104078 0.134851247
0.961037576 0.349398881 0.143453285
0.997216642 0.358760267 0.160152003
0.149526000 0.218216062 0.082859002
0.143959284 0.221505418 0.083618037
0.149398804 0.221631989 0.081214294
0.156230032 0.223149925 0.079443134
0.163187593 0.225679606 0.082985520
0.172295958 0.222644001 0.079949133
0.183934033 0.219354704 0.080961324
0.199114412 0.217963025 0.083618037
0.217078030 0.218722120 0.083365001
0.235294029 0.221758515 0.083365001
0.245540872 0.224794209 0.083365001
0.264010012 0.225553066 0.084883258
0.285135627 0.224667668 0.085895382
0.300822020 0.221885026 0.083112031
0.322074383 0.224920645 0.086148411
0.349778563 0.230360597 0.091081992
0.380139351 0.236686021 0.092852838
0.411511958 0.243011057 0.091587543
0.447944045 0.249083087 0.094623946
0.481847048 0.260468006 0.101454653
0.519038737 0.272359043 0.103731714
0.561290264 0.283744156 0.102972873
0.609613955 0.292979002 0.105881996
0.652118802 0.302213907 0.108791873
0.696900845 0.314105064 0.113851994
0.743833244 0.326249033 0.117647000
0.791904032 0.338393122 0.117647000
0.837444425 0.350537896 0.120683379
0.882732451 0.362682045 0.126881987
0.926502287 0.372802228 0.138014138
0.966097593 0.382796019 0.149526000
0.999494016 0.394940019 0.149526000
0.155598000 0.248576820 0.088930994
0.155598000 0.254648805 0.098039381
0.167235821 0.249335602 0.094497398
0.173434407 0.248450279 0.086527504
0.172548950 0.253131211 0.080581680
0.187476337 0.253004730 0.092093892
0.199114412 0.247438163 0.083997510
0.212903112 0.245287389 0.090575702
0.228716090 0.246046484 0.098039314
0.244402424 0.249082878 0.095508993
0.262618423 0.252119243 0.095508993
0.276913255 0.251106977 0.093485251
0.295129389 0.249841809 0.092852995
0.312966019 0.249209389 0.092220411
0.334218383 0.249209404 0.092220411
0.355470777 0.254648805 0.092852995
0.383174956 0.262239158 0.094117999
0.414168090 0.270714968 0.095382817
0.447944075 0.279443800 0.103731520
0.484376758 0.288298458 0.092852563
0.522074759 0.298039138 0.096521005
0.563567519 0.308791786 0.100695580
0.609613955 0.320303380 0.105881996
0.652118802 0.332447410 0.105881996
0.696900845 0.348513544 0.108791865
0.743833244 0.362681776 0.113851994
0.791904032 0.374825776 0.117140934
0.837444425 0.386969864 0.114610612
0.880328596 0.399114639 0.125616819
0.923465908 0.407716781 0.136495963
0.962428749 0.416192353 0.148387179
0.993421972 0.428336382 0.155598000
0.176090986 0.281340778 0.099809989
0.168880790 0.280202568 0.096900582
0.175332025 0.279822797 0.103858195
0.186464161 0.276280761 0.102593347
0.186084792 0.280455768 0.097659595
0.199240923 0.280455768 0.101707861
0.214294791 0.277798951 0.096141674
0.224794492 0.276660293 0.093611702
0.239215791 0.277419388 0.101961002
0.256040454 0.278811067 0.100569323
0.271726787 0.277039856 0.098039001
0.289942801 0.278051972 0.100063257
0.307779610 0.277672410 0.098924994
0.327260852 0.278937578 0.098924994
0.346362978 0.278937578 0.098924994
0.367615372 0.281340778 0.101328187
0.391903788 0.282858968 0.102846377
0.420746326 0.290322751 0.101834424
0.450600833 0.304743946 0.100316033
0.489183754 0.313852251 0.104363978
0.529411435 0.326755315 0.099809989
0.570398450 0.338899463 0.102845997
0.614420950 0.352308303 0.105755515
0.656925797 0.362175584 0.103478812
0.701707840 0.378874153 0.105755515
0.750031590 0.395698875 0.110183187
0.799114347 0.408348858 0.116255328
0.844655216 0.418595582 0.118912160
0.885135591 0.430739641 0.121947847
0.929411530 0.444655150 0.137634590
0.967235744 0.453510374 0.150158182
0.994560182 0.464136600 0.159266204
0.191270992 0.311701179 0.102846004
0.188235372 0.313219368 0.099810004
0.192030609 0.308665395 0.103858188
0.197343379 0.306894183 0.104870185
0.200885639 0.309677541 0.107527003
0.211890996 0.310816169 0.109803997
0.225047514 0.311321855 0.103731871
0.241492689 0.308538884 0.102719702
0.252119094 0.312334180 0.103478998
0.269576192 0.313852161 0.101961002
0.283364862 0.310942292 0.102087125
0.302087188 0.309930176 0.100063257
0.319164813 0.311068803 0.104237996
0.339911222 0.313852161 0.104490995
0.360658020 0.313852161 0.101961002
0.381277949 0.316255748 0.104364187
0.399493992 0.316255361 0.107400186
0.426818520 0.314484745 0.109803997
0.454143196 0.328273386 0.103352219
0.491081417 0.341176361 0.105123192
0.532447457 0.354079723 0.107400186
0.574952245 0.369260132 0.105376191
0.617583513 0.384566396 0.104490675
0.661480010 0.397849470 0.104237705
0.709297657 0.412270546 0.102719903
0.756230414 0.426312625 0.108538501
0.805692494 0.441745490 0.113724999
0.849209309 0.453889996 0.117773511
0.892472804 0.464136362 0.125743344
0.932447553 0.475015551 0.134598210
0.972675562 0.490195960 0.155471385
0.997596204 0.500569344 0.168374196
0.197975576 0.342188090 0.097406588
0.201011971 0.348892689 0.099936567
0.206451774 0.346362680 0.103858195
0.214294985 0.342820674 0.108538985
0.215812981 0.342441142 0.103605442
0.225173622 0.344971448 0.109424412
0.236812204 0.347374797 0.106008992
0.250980556 0.348386824 0.103985004
0.268437654 0.346995533 0.110815980
0.283618063 0.353067517 0.104743980
0.296520978 0.350410819 0.104870126
0.314737231 0.349398702 0.105755664
0.335610181 0.351802319 0.104237996
0.351296574 0.354332656 0.110309996
0.375205785 0.353953093 0.105755985
0.395825773 0.356356919 0.106261753
0.415939331 0.356989503 0.109297752
0.433649272 0.353953093 0.110436410
0.460974514 0.356989533 0.110436410
0.494750202 0.369259804 0.109803997
0.534977615 0.384439856 0.109803997
0.577482402 0.400885254 0.108412415
0.619860649 0.416065603 0.102340423
0.664389729 0.433776349 0.103858106
0.711954296 0.449082822 0.103605293
0.761543036 0.463377178 0.103605330
0.810120523 0.472485602 0.112713084
0.849968433 0.490322858 0.113092586
0.894117355 0.501201689 0.123719074
0.936748564 0.510309756 0.137760952
0.972675562 0.519924104 0.152435154
1.000000000 0.535104513 0.179759577
0.207083985 0.384692997 0.094370984
0.210120380 0.393801391 0.106514968
0.211006001 0.391903967 0.106894195
0.216825023 0.388361961 0.107400194
0.227957010 0.387982428 0.109677449
0.240101010 0.384946048 0.112713054
0.251992643 0.384946018 0.110942341
0.264137000 0.386843681 0.106008999
0.277546078 0.389373899 0.105502993
0.292726457 0.392536014 0.116887987
0.307906121 0.389879882 0.107906125
0.326881289 0.388867944 0.109929986
0.349272311 0.392283589 0.111827672
0.372549027 0.399873942 0.110309996
0.393801391 0.396837562 0.116381988
0.410499811 0.398861796 0.116634987
0.430740029 0.400379986 0.118406147
0.454901695 0.399494380 0.119544804
0.482226908 0.396458000 0.113472015
0.509551406 0.402277023 0.110689372
0.547122419 0.414800733 0.109803990
0.589627147 0.432005107 0.108791858
0.632005394 0.452498466 0.105376028
0.671473861 0.467678905 0.099304028
0.711448252 0.480835021 0.100822292
0.754711926 0.496014953 0.100569338
0.801012099 0.511954069 0.100569069
0.849588871 0.521062434 0.109677441
0.892093599 0.533586025 0.120682940
0.934851289 0.543706238 0.138140202
0.972675562 0.552814603 0.157748207
1.000000000 0.562429070 0.176723972
0.213409007 0.432763755 0.105250008
0.219228044 0.433522791 0.106261998
0.226565421 0.438330173 0.111954227
0.232258171 0.436685741 0.110183164
0.242125377 0.436306208 0.109044999
0.249462351 0.433269829 0.104870416
0.264136702 0.435294062 0.105376348
0.278178692 0.433902383 0.104237996
0.292979360 0.435420573 0.102719903
0.310183495 0.440480977 0.108791634
0.319797873 0.440480977 0.106135480
0.343073994 0.441492826 0.105123088
0.366982698 0.441113383 0.109297633
0.390765071 0.442884743 0.109803997
0.409487754 0.442378700 0.110815987
0.430740148 0.446553111 0.109677188
0.452751577 0.449968547 0.109297633
0.477672279 0.451233387 0.109171286
0.500695944 0.450347781 0.103099063
0.533586383 0.450094759 0.108158991
0.559013486 0.459962219 0.101328388
0.598229229 0.472232968 0.100695990
0.644402444 0.486400872 0.102972843
0.689183950 0.506894290 0.099556997
0.730929554 0.519797385 0.102592997
0.772295654 0.533333063 0.104743645
0.815939128 0.549145818 0.105123065
0.859961867 0.560531497 0.114231445
0.900569439 0.569639266 0.123339824
0.939405203 0.581657171 0.140670523
0.974572837 0.590892076 0.162808329
1.000000000 0.598102748 0.184819654
0.217583731 0.487033188 0.102214009
0.223655730 0.487033188 0.106009007
0.235673502 0.481593490 0.110056967
0.242251575 0.487159848 0.104237743
0.250474364 0.489057451 0.100696005
0.259582758 0.487539262 0.106767990
0.267552316 0.485768527 0.098166004
0.287665993 0.488804489 0.099810295
0.306641340 0.487033188 0.100822359
0.328272998 0.490828693 0.103858262
0.343453586 0.492979437 0.104870126
0.359013259 0.493105918 0.100189745
0.384060651 0.495003194 0.102087006
0.407336771 0.492979437 0.104364291
0.427197814 0.492979437 0.106009007
0.447817773 0.497786462 0.103605203
0.473624378 0.502340257 0.102087006
0.501328290 0.505376041 0.102087006
0.525110722 0.506641209 0.098545000
0.549905121 0.506641209 0.096015014
0.583301485 0.508538902 0.103984743
0.609614253 0.516635418 0.094876871
0.652372003 0.523213208 0.096394777
0.692599654 0.539152384 0.096900836
0.737760544 0.557368457 0.102592997
