Assets/Resources/EldamarStudio/100 Horror LUTs Pack/LUTs/cube/Beast LUT.cube
LUT_3D_SIZE 5
DOMAIN_MIN 0.000000 0.000000 0.000000
DOMAIN_MAX 0.903226 0.903226 0.903226
0.000000000 0.003922000 0.090195999
0.006577994 0.040860288 0.113724999
0.206704825 0.100695997 0.148387417
0.383555144 0.183428124 0.194180995
0.573054612 0.276027828 0.268184811
0.060214989 0.147754416 0.153953284
0.156989396 0.172295704 0.164072990
0.279570103 0.187982276 0.188614696
0.419860840 0.240987122 0.228209987
0.588994384 0.328652680 0.287413090
0.291081369 0.305376381 0.226185992
0.323086381 0.316888094 0.238330126
0.405439824 0.342062235 0.255661398
0.510056853 0.377355963 0.295888543
0.661859632 0.445414364 0.357748240
0.484503239 0.494497240 0.354079872
0.508412123 0.507906556 0.363061398
0.552561820 0.527134717 0.382669389
0.637571275 0.561164021 0.422897130
0.737001777 0.621632099 0.488298506
0.691966772 0.750790775 0.590006471
0.706387997 0.758633733 0.599620342
0.737002015 0.766476631 0.612903178
0.787349641 0.787349641 0.651486576
0.846173644 0.805692732 0.696014881
0.003922000 0.012776705 0.124224991
0.014800696 0.053004406 0.135357410
0.208728373 0.122327819 0.176850110
0.384187549 0.197849542 0.223908707
0.571663618 0.286527634 0.285135984
0.059708804 0.145856977 0.179126993
0.159013391 0.167109683 0.188994393
0.280961514 0.200126395 0.205312982
0.420493245 0.248829708 0.242252126
0.595192790 0.329664826 0.306767970
0.305755675 0.305375963 0.246173277
0.334851384 0.317520708 0.259582847
0.405819088 0.341049671 0.276913673
0.502593338 0.374066949 0.309297979
0.662871540 0.450980514 0.373181492
0.476154238 0.499051392 0.362428814
0.499683827 0.504617512 0.370145410
0.547374845 0.523972273 0.396078527
0.629727840 0.549398839 0.425806671
0.741935492 0.618468940 0.495762259
0.694117486 0.749145925 0.591650724
0.699683785 0.746616185 0.592662632
0.731815159 0.759013057 0.614421010
0.781404197 0.775964439 0.646299601
0.839595377 0.803162396 0.691714168
0.000000000 0.047691423 0.183681414
0.050095119 0.075521708 0.197469994
0.223023385 0.132067993 0.224920988
0.394054115 0.204047993 0.262618512
0.577482402 0.298291981 0.324984401
0.120935991 0.157874703 0.219987288
0.177229419 0.170272112 0.227830693
0.289057404 0.203668281 0.249082997
0.427071244 0.257685006 0.287033588
0.599746943 0.338772982 0.348260701
0.309929997 0.307273954 0.287665993
0.340923280 0.319418103 0.301075280
0.419101387 0.344592392 0.317773819
0.522833705 0.386463970 0.350158095
0.663757205 0.453257233 0.413408935
0.491081834 0.497913122 0.398229003
0.506388307 0.500569284 0.405692458
0.554712117 0.524730921 0.420113713
0.632257879 0.556862712 0.460720986
0.745730519 0.620366693 0.527767241
0.684630215 0.738899589 0.594560146
0.692473233 0.741808891 0.606325150
0.727767229 0.753953218 0.630486727
0.777735591 0.776849926 0.658950031
0.836938620 0.805692792 0.702466667
0.065908119 0.093232125 0.274636269
0.146236271 0.110183127 0.276913136
0.270841241 0.153699994 0.293991297
0.419861019 0.220746115 0.336496145
0.590006471 0.304490685 0.396710962
0.193928123 0.180139124 0.297913134
0.235420823 0.193548560 0.309550703
0.327261090 0.221378848 0.320050269
0.448323697 0.269070536 0.350157708
0.614421070 0.347628087 0.419607937
0.336622000 0.323972255 0.357368678
0.371031106 0.327893704 0.369512826
0.433523387 0.350790679 0.384566784
0.534598529 0.384566814 0.415306836
0.667045712 0.452878118 0.477419406
0.498292238 0.501328111 0.465148240
0.515875995 0.517899990 0.476407140
0.562555134 0.535231113 0.495002985
0.645414293 0.569007277 0.526881397
0.744465470 0.620240092 0.576850057
0.682732821 0.743200481 0.646805823
0.691207945 0.749146104 0.654142857
0.716635227 0.762808025 0.663251221
0.769386530 0.780518472 0.690701783
0.844149113 0.809613764 0.737507701
0.217330620 0.141302824 0.442251623
0.269323319 0.153699994 0.438456744
0.372296035 0.194307402 0.459962010
0.510562956 0.253510118 0.493611634
0.648829758 0.337634474 0.540417433
0.273750693 0.211258650 0.456672788
0.310056955 0.220746696 0.463630438
0.404554099 0.252118826 0.481593758
0.527514100 0.302466959 0.510562658
0.665907741 0.379126906 0.559139729
0.366223812 0.342694640 0.511701584
0.385072827 0.349272788 0.507273912
0.468943357 0.368880630 0.534598172
0.576850235 0.410752535 0.562934875
0.706388474 0.476913363 0.600505769
0.518532455 0.551043510 0.605439901
0.534345269 0.548766494 0.611005783
0.565970719 0.553952873 0.612903237
0.644402146 0.569639444 0.628968954
0.756356776 0.625300348 0.668817103
0.688045740 0.754711747 0.723339796
0.700442791 0.758001149 0.726375520
0.721315384 0.768501043 0.739785075
0.771663785 0.784187019 0.758001208
0.848829746 0.817457438 0.796837568
