Assets/Resources/EldamarStudio/100 Horror LUTs Pack/LUTs/cube/Beast LUT.cube
LUT_3D_SIZE 8
DOMAIN_MIN 0.000000 0.000000 0.000000
DOMAIN_MAX 0.903226 0.903226 0.903226
0.000000000 0.003922000 0.090195999
0.003542452 0.012903451 0.098418549
0.024035286 0.045414094 0.116002090
0.149778634 0.085768647 0.136748642
0.256799191 0.123718992 0.162302196
0.360278457 0.170271739 0.188108996
0.459709287 0.216950998 0.222517282
0.573054612 0.276027828 0.268184811
0.007463549 0.065781094 0.107020542
0.008475997 0.077925541 0.130171001
0.076534085 0.096774444 0.135230541
0.187096983 0.118658639 0.154459000
0.279190540 0.152688101 0.175078839
0.367615551 0.190765351 0.204174548
0.459709287 0.229854539 0.227324277
0.571916163 0.288551807 0.275268823
0.092852280 0.165971190 0.163820192
0.127766833 0.186084643 0.161796555
0.193422183 0.192789197 0.173940077
0.261226803 0.196584195 0.189753100
0.329032272 0.216192096 0.201391295
0.405692577 0.246299818 0.231498823
0.492726177 0.289057374 0.257052571
0.594813347 0.342567891 0.296774060
0.227071270 0.262871653 0.214042008
0.258570284 0.267552555 0.217962995
0.287792623 0.274636537 0.220240086
0.339152277 0.286400646 0.222517282
0.399873823 0.303099185 0.248829633
0.458950371 0.319165021 0.264516354
0.532574296 0.347627968 0.284250587
0.629474938 0.401264906 0.328399628
0.349399000 0.354205996 0.259456187
0.363314152 0.363567173 0.266793460
0.383934289 0.365844309 0.271979898
0.415432930 0.376470536 0.281341165
0.465275377 0.391651005 0.297786176
0.527893662 0.413535655 0.316761643
0.594433725 0.440986484 0.340543866
0.670335233 0.492093801 0.378747821
0.456166714 0.466160476 0.330803216
0.462618530 0.471473634 0.332447916
0.479063720 0.481340736 0.340797067
0.512334049 0.489942729 0.350537747
0.554332912 0.505249977 0.368500710
0.607210457 0.528779507 0.391524464
0.656925976 0.557621539 0.422643751
0.725616634 0.599620640 0.471600473
0.566603541 0.599873543 0.436179280
0.575331986 0.607336998 0.437065274
0.585072577 0.609234571 0.441619277
0.608728528 0.620619893 0.452498585
0.644022465 0.629728019 0.470588267
0.678304791 0.643643320 0.495635539
0.714611292 0.658064544 0.509677529
0.771410644 0.685135663 0.557874978
0.691966772 0.750790775 0.590006471
0.702213883 0.762428761 0.599747002
0.704869986 0.759898603 0.603415608
0.734851420 0.764958978 0.609487534
0.750031590 0.773307920 0.624414742
0.781277657 0.784566820 0.647438586
0.808981538 0.794180930 0.668817043
0.846173644 0.805692732 0.696014881
0.000000000 0.007843000 0.106640995
0.007463549 0.016824547 0.107400090
0.027957190 0.051612999 0.129664540
0.150158182 0.099051446 0.159519449
0.250094742 0.132700548 0.175205633
0.352814525 0.176596925 0.202150285
0.450601012 0.223529741 0.236306459
0.566476762 0.279064089 0.271853358
0.000758999 0.066540092 0.117140636
0.009994091 0.075142086 0.138773009
0.074130185 0.099810444 0.148513541
0.174066827 0.126881987 0.161796451
0.267805219 0.155850917 0.186211556
0.359013230 0.195825279 0.210879192
0.455787271 0.236052826 0.233396575
0.562808156 0.287666082 0.274889469
0.095635734 0.161290199 0.165338188
0.125110283 0.174699202 0.175205529
0.171663746 0.179759637 0.181024984
0.247817740 0.195445746 0.192030191
0.320303500 0.213409543 0.206451640
0.399873614 0.245540738 0.237065449
0.489437282 0.282226712 0.259203196
0.596331179 0.337001622 0.299430519
0.231625274 0.254142731 0.216698542
0.248956189 0.257685065 0.218216643
0.278684288 0.264262915 0.222137734
0.330423385 0.276027650 0.233902648
0.387602478 0.294117838 0.246805981
0.451866180 0.313598841 0.260467857
0.527767241 0.347248644 0.291713923
0.619734287 0.394433737 0.329538256
0.339278996 0.354965091 0.259708732
0.364452988 0.356483191 0.274762571
0.380012393 0.361922979 0.274257094
0.416445613 0.368880391 0.284503192
0.465021998 0.384186953 0.295762420
0.515875936 0.406451583 0.312966555
0.589120567 0.440101206 0.343832999
0.671726763 0.487539530 0.391904026
0.448830158 0.459203005 0.325363725
0.461227268 0.461732805 0.336242944
0.474383652 0.470208734 0.341808915
0.502846301 0.480835170 0.347754359
0.546363056 0.495382726 0.364579529
0.593801260 0.513725460 0.388361454
0.653004527 0.544591784 0.425427020
0.726248980 0.591271460 0.472485811
0.559772134 0.591397882 0.429854363
0.565338552 0.596458018 0.430487245
0.572042942 0.595445931 0.434787810
0.594054282 0.597849369 0.444655389
0.629854500 0.614041746 0.464263290
0.668437541 0.627451062 0.482226461
0.709550977 0.647565007 0.506008983
0.761543214 0.677419543 0.547880948
0.689690053 0.739784777 0.577609122
0.691587627 0.739911437 0.580012619
0.697153389 0.742567718 0.586464047
0.716761410 0.746489525 0.594434023
0.739026010 0.760025203 0.616065741
0.768500805 0.769639432 0.633775890
0.806198597 0.790638804 0.665275156
0.834914505 0.804048002 0.679569900
0.003922000 0.020366903 0.134850994
0.006704549 0.028969098 0.143959448
0.041366193 0.068185002 0.152055994
0.169133291 0.106514998 0.180265993
0.271094292 0.145730391 0.200759098
0.365464836 0.190006256 0.222643986
0.458949983 0.234155566 0.249968290
0.572422504 0.289816558 0.288677931
0.000379549 0.080708094 0.146995455
0.022264550 0.091714092 0.167488545
0.102593102 0.112460539 0.170904189
0.196584180 0.144212201 0.183807552
0.287539393 0.175964534 0.208601996
0.374952555 0.209234998 0.230866730
0.471220911 0.251106828 0.259329289
0.573181450 0.303478718 0.297406524
0.117394194 0.173181191 0.190512091
0.153194457 0.186591014 0.204681009
0.206072196 0.196711004 0.213283002
0.271473616 0.209234998 0.217583641
0.343200266 0.231119186 0.226439074
0.413662106 0.260467827 0.252371967
0.498924673 0.291334480 0.275774777
0.607083976 0.343073964 0.321694851
0.260088176 0.269196630 0.234281987
0.272232711 0.278305084 0.241872445
0.310689539 0.282100081 0.247311741
0.350158274 0.291460991 0.253890097
0.399873734 0.303985059 0.267678529
0.462112367 0.323466390 0.279190660
0.540923357 0.356609643 0.311321735
0.629222095 0.401644349 0.348386884
0.355724186 0.360531181 0.274889380
0.374952525 0.365085274 0.284882724
0.389374107 0.368248075 0.290702075
0.426186085 0.379632831 0.301328510
0.470209092 0.390132993 0.311828077
0.525363684 0.412396938 0.335736841
0.593042254 0.446553171 0.359519303
0.679949522 0.493105590 0.405945718
0.463757336 0.475268811 0.351802379
0.472865611 0.478304833 0.355976999
0.480961382 0.483365089 0.362555474
0.517141104 0.492852479 0.369639367
0.555091739 0.502466857 0.384946108
0.603668690 0.521315753 0.405312747
0.660973907 0.549778521 0.435420454
0.733333409 0.597723067 0.488678157
0.567236006 0.600000262 0.441492766
0.574572802 0.605945766 0.450727701
0.586843729 0.608855128 0.460594267
0.609487474 0.616571486 0.466286987
0.638583124 0.625933111 0.479317278
0.672738671 0.638836086 0.497659713
0.714737594 0.654269278 0.524857283
0.766729772 0.688171804 0.563946664
0.697153687 0.750410914 0.596204937
0.701581120 0.748513758 0.597849250
0.704743862 0.757495522 0.609107792
0.724731207 0.760278404 0.618342757
0.749398947 0.768880248 0.635041058
0.774319887 0.774699509 0.647817910
0.807336926 0.792283416 0.670208573
0.841872275 0.803668499 0.697027147
0.000000000 0.037065350 0.155344635
0.000379548 0.047311638 0.173181280
0.061480086 0.078304999 0.182542890
0.166603267 0.111574635 0.203415647
0.268943846 0.148386747 0.216698453
0.361416817 0.189120635 0.238330096
0.463124633 0.239342347 0.276280940
0.579506636 0.292978972 0.311827987
0.005313091 0.093105987 0.179380193
0.033143468 0.099810444 0.193548188
0.107653275 0.117394082 0.197849646
0.196331367 0.142947644 0.205692545
0.285768360 0.175458282 0.224541545
0.367235988 0.210752994 0.244781837
0.467931807 0.254522353 0.278304935
0.573181570 0.305502981 0.317014545
0.136369541 0.170271844 0.215433180
0.159519181 0.172928303 0.212650537
0.203794822 0.196584284 0.224541530
0.267678380 0.207969651 0.240227640
0.340164632 0.227450922 0.253004193
0.420366734 0.261606485 0.267425746
0.507526994 0.302340209 0.304743886
0.600000024 0.350537807 0.343453616
0.245667264 0.257937908 0.249462634
0.267678291 0.263503909 0.252624750
0.297912717 0.272106558 0.268691093
0.351549268 0.288172275 0.272991627
0.405312806 0.309803814 0.285515606
0.463630468 0.330044121 0.305123538
0.539911211 0.358886629 0.333586305
0.631372452 0.405945420 0.368121475
0.363567263 0.355597377 0.306641191
0.381150931 0.360278279 0.303858191
0.396331370 0.371663630 0.313725621
0.427704275 0.379506618 0.321568608
0.470714360 0.393927991 0.334472179
0.528020203 0.415180385 0.356103837
0.596964180 0.448830187 0.380138993
0.680708468 0.495635450 0.427703977
0.462998062 0.469829351 0.368121356
0.467678457 0.473371029 0.369513243
0.486021519 0.478178531 0.384187043
0.512207448 0.489816636 0.388488293
0.552308679 0.505629539 0.405059963
0.601644516 0.523213267 0.426818341
0.658443809 0.552435040 0.454142988
0.734851539 0.599999905 0.498924643
0.558253944 0.597090185 0.456925899
0.566097260 0.603162527 0.464136809
0.577988565 0.599367440 0.465401620
0.599746943 0.607210934 0.478810906
0.632637918 0.619861007 0.489057600
0.668817163 0.636432707 0.507779896
0.713599265 0.654775262 0.538772821
0.768248022 0.682226419 0.567741930
0.686527550 0.746742189 0.604427576
0.691334784 0.742821038 0.596584260
0.699051201 0.745477498 0.605313003
0.717140973 0.753826499 0.615180194
0.740417480 0.761290252 0.633269906
0.770904422 0.774572730 0.650727451
0.805692613 0.787602842 0.674889445
0.844528556 0.805186391 0.695761919
0.003922000 0.060341805 0.216318801
0.010879191 0.072485641 0.208096355
0.108033001 0.087793000 0.220240176
0.189500287 0.122580543 0.233902633
0.283617973 0.155092001 0.246806175
0.373181731 0.196963727 0.274636626
0.468311369 0.245161280 0.305628985
0.580771804 0.296774179 0.345983446
0.045414194 0.108538546 0.215053543
0.090575449 0.114737540 0.224667549
0.143327102 0.130929902 0.228462830
0.221378744 0.149652198 0.241492912
0.296900779 0.177862197 0.256672800
0.381910026 0.213535547 0.279316902
0.478178561 0.258190840 0.307526916
0.576090991 0.307906181 0.348387241
0.163567200 0.181024998 0.246047094
0.196711004 0.191271305 0.249209195
0.224921092 0.200632200 0.255534172
0.283997536 0.215939462 0.268058091
0.349399209 0.235041186 0.282859087
0.422643930 0.262365550 0.297659904
0.510689497 0.303858161 0.329791188
0.611258805 0.354458809 0.375964463
0.270335197 0.262365282 0.288172245
0.286400646 0.273244739 0.288045645
0.314231217 0.281214267 0.293232203
0.358001262 0.292220116 0.302846432
0.407337248 0.309044838 0.316508204
0.470461637 0.335610628 0.337254733
0.544844985 0.364832163 0.360278249
0.639468789 0.403541923 0.401897460
0.365718186 0.358760148 0.336116195
0.384440362 0.365212202 0.340543717
0.405186206 0.372169286 0.341682255
0.438456833 0.381530464 0.348766178
0.484250188 0.405819178 0.370525181
0.536622167 0.419860989 0.385072917
0.602530003 0.450601101 0.411385298
0.681973577 0.491207987 0.457684785
0.469323277 0.472486168 0.401138276
0.476534188 0.477545738 0.406957626
0.493611366 0.482985765 0.404680640
0.520682931 0.493231893 0.414800912
0.559519351 0.509297967 0.435926735
0.605819166 0.527640760 0.455028266
0.667931914 0.557242095 0.483997285
0.736116111 0.599620402 0.524731100
0.566603243 0.596964061 0.481088281
0.568500638 0.603795052 0.489690304
0.583807528 0.606451333 0.491081297
0.601012290 0.613156021 0.502466738
0.637191594 0.628336251 0.515622973
0.672486007 0.640860379 0.532321095
0.717773616 0.659582555 0.558507383
0.774825990 0.691840649 0.597217083
0.681973755 0.750663996 0.616571665
0.686527610 0.745857120 0.625679970
0.698292017 0.750537515 0.623655796
0.715370059 0.755977094 0.634787977
0.741555810 0.769006789 0.647438467
0.771536887 0.779633164 0.663756847
0.805819035 0.790006459 0.684250355
0.836558759 0.807969749 0.710309565
0.038583465 0.082099989 0.260467738
0.076280981 0.090828992 0.258949906
0.145730719 0.111954086 0.267046094
0.221505389 0.136242896 0.277293086
0.303478926 0.167615384 0.293358535
0.393548727 0.205565721 0.317267478
0.477419525 0.249588743 0.343579739
0.591777384 0.301454872 0.388108820
0.102593340 0.125363797 0.258190751
0.129917815 0.127640992 0.261227012
0.175838292 0.143706545 0.276154548
0.240860268 0.164073542 0.281088084
0.317014247 0.189879745 0.293358743
0.399367452 0.228968725 0.317140996
0.482479364 0.262365282 0.340164602
0.582289755 0.311954677 0.379127085
0.199494183 0.194307193 0.290069640
0.222390905 0.198608369 0.296267807
0.249589071 0.208728835 0.297153741
0.298671603 0.220746070 0.300695986
0.365338624 0.244402200 0.319923729
0.434408695 0.271347463 0.341556072
0.513598979 0.309044838 0.368247986
0.610119998 0.357495010 0.412270904
0.289816618 0.273624539 0.320935994
0.300062925 0.278051972 0.325743288
0.330044031 0.282226443 0.328525931
0.365211904 0.294370383 0.335483730
0.420873046 0.312839627 0.351928890
0.482732743 0.333965749 0.372801989
0.544085741 0.364073157 0.396837384
0.639342129 0.407463610 0.440227717
0.372802168 0.366856635 0.379253477
0.397596449 0.366856635 0.378873914
0.414041907 0.376723379 0.379886091
0.438709378 0.384187013 0.384187102
0.484503627 0.402276725 0.404048383
0.538140357 0.423782408 0.418848664
0.605566144 0.450474203 0.449968427
0.682479382 0.488678187 0.485009462
0.471979707 0.471979707 0.432763755
0.478431284 0.475015938 0.440733641
0.498671740 0.489057720 0.444022447
0.524351656 0.495762259 0.456546485
0.564073205 0.512207448 0.476533890
0.611005485 0.532574475 0.493484974
0.672232568 0.562808335 0.516002238
0.736116290 0.595698774 0.552055538
0.556230009 0.596837282 0.514990449
0.567741990 0.599367142 0.512460530
0.578494489 0.604933679 0.523465991
0.600000143 0.614294946 0.532700837
0.634661496 0.630992770 0.548893273
0.676660717 0.643390238 0.564579248
0.720682979 0.658570588 0.581657231
0.778747380 0.692346275 0.618722439
0.680961430 0.740164638 0.638456643
0.683364928 0.745097935 0.641745746
0.691207886 0.746362686 0.643516660
0.708538771 0.753826618 0.653636813
0.728526175 0.766476989 0.660974026
0.761037290 0.774193466 0.679316878
0.802403331 0.789626896 0.708285987
0.840859890 0.808348954 0.727387547
0.135230988 0.108791701 0.327387571
0.157748252 0.118026547 0.329032272
0.207337365 0.133206695 0.331941366
0.268057913 0.156989351 0.342567921
0.346616268 0.185705274 0.352941275
0.422643751 0.219987467 0.377482563
0.507400274 0.262998283 0.403162539
0.597469926 0.309677392 0.432890654
0.162681788 0.141049802 0.329664290
0.187349990 0.152435243 0.333080292
0.228336632 0.161163852 0.338519990
0.288172185 0.181024790 0.347375005
0.355091751 0.204427272 0.356989175
0.429222196 0.239088982 0.379127204
0.510815799 0.276534021 0.406072050
0.594560325 0.316002816 0.435167342
0.236306176 0.207716912 0.348513573
0.248576641 0.213535830 0.352182031
0.282732397 0.219481289 0.360278189
0.331309408 0.235294014 0.369766265
0.393928111 0.256166995 0.383048475
0.463630557 0.283491284 0.398861647
0.538899362 0.318026572 0.428336442
0.621378899 0.357241988 0.458570540
0.309424281 0.283617973 0.386717618
0.323212802 0.288804471 0.386211276
0.344338715 0.293864787 0.389247209
0.383427948 0.304364324 0.397469640
0.439089090 0.323466182 0.413535655
0.501201570 0.346236259 0.431878805
0.572928905 0.373940647 0.456420302
0.644908011 0.411891252 0.483871043
0.393295258 0.380012482 0.429728150
0.404553920 0.381530493 0.440354258
0.420114100 0.384566486 0.442504674
0.447944522 0.390512556 0.441619277
0.490575373 0.404300958 0.455155075
0.548766613 0.426186204 0.477419436
0.611891448 0.453510404 0.498924464
0.685389102 0.490449071 0.533459544
0.482859194 0.491967171 0.498291969
0.494876742 0.497153431 0.505502999
0.506388128 0.501328468 0.500442624
0.528146625 0.507780075 0.505123258
0.566603482 0.515370131 0.522201002
0.614673972 0.533333540 0.540037751
0.673877239 0.559266269 0.559266448
0.737381458 0.593674541 0.593295455
0.568880260 0.601518273 0.558001578
0.569007277 0.603794992 0.565338671
0.584693193 0.607843041 0.564959049
0.606451333 0.614294529 0.576849937
0.634788036 0.623656213 0.584313631
0.674256682 0.643263817 0.602403522
0.725743294 0.665907621 0.624415278
0.781150997 0.690575421 0.658444107
0.680202603 0.745603561 0.669070303
0.683744490 0.747501612 0.673877299
0.690955102 0.750537455 0.676027775
0.705123425 0.753573418 0.684630215
0.731435716 0.765338421 0.696268022
0.764326096 0.779506624 0.711701512
0.797976077 0.790006459 0.727514207
0.843896389 0.811637998 0.754458964
0.217330620 0.141302824 0.442251623
0.233523175 0.144212380 0.437064767
0.280455768 0.161037162 0.443263888
0.335610211 0.176091164 0.455154985
0.410879165 0.208602011 0.468817294
0.489310563 0.242378235 0.488045752
0.570398092 0.288551420 0.513852060
0.648829758 0.337634474 0.540417433
0.238836169 0.167109236 0.436812341
0.248703346 0.170904085 0.436052829
0.287539601 0.182795823 0.446552604
0.348387182 0.202024087 0.457178950
0.417204350 0.225173816 0.470082402
0.493358552 0.260341495 0.490828335
0.567741811 0.297153533 0.509930074
0.651359797 0.346742630 0.536242902
0.286906809 0.228716090 0.458190799
0.302340358 0.225173920 0.461733222
0.332827181 0.239974812 0.467425764
0.376597077 0.255787313 0.474889576
0.443516999 0.273750722 0.489184022
0.514611006 0.304996818 0.510309815
0.590891838 0.339531928 0.533712626
0.670461655 0.388740987 0.562934756
0.330170840 0.296900809 0.483238578
0.342820823 0.302719712 0.493358582
0.371157259 0.309298068 0.493231952
0.415306598 0.320177078 0.502719760
0.467425644 0.338646442 0.513851762
0.535863280 0.363187462 0.530044019
0.610499740 0.393801272 0.550916851
0.679569602 0.434029281 0.573434293
0.391397804 0.393675029 0.521694779
0.411132336 0.396837533 0.540164173
0.421378851 0.395192951 0.532700896
0.456040382 0.399494171 0.536622286
0.513978183 0.415180355 0.552688122
0.572928429 0.439721733 0.569386184
0.642251611 0.470209032 0.590259433
0.711827755 0.508791625 0.606957614
0.497026891 0.517899752 0.590259552
0.500948846 0.516129196 0.593801379
0.511827767 0.520429909 0.597849488
0.533712804 0.519164860 0.592915833
0.566476941 0.520809472 0.595446110
0.616065681 0.540543973 0.615812778
0.684882939 0.569765985 0.637697995
0.747248769 0.599746585 0.657684565
0.591271222 0.641872525 0.653763115
0.592030227 0.640860081 0.655407906
0.602656722 0.640860081 0.651739180
0.616951108 0.645161510 0.657684803
0.639342248 0.647944152 0.664895654
0.679696441 0.653510392 0.668690622
0.723845243 0.664642751 0.679063916
0.786590636 0.695888460 0.705629528
0.688045740 0.754711747 0.723339796
0.688172281 0.760025442 0.733080328
0.695888758 0.760025442 0.729917586
0.712839901 0.764326632 0.735610366
0.731435776 0.767994940 0.738899231
0.760278344 0.778873861 0.750663757
0.798355639 0.792662621 0.770145118
0.848829746 0.817457438 0.796837568
