Assets/Resources/EldamarStudio/100 Horror LUTs Pack/LUTs/cube/Beast LUT.cube
DOMAIN_MIN 0 0 0
DOMAIN_MAX 1 1 1
LUT_3D_SIZE 32
0.000000000 0.003922000 0.090195999
0.000000000 0.000885613 0.087160386
0.000000000 0.002150774 0.088425227
0.001265161 0.006452000 0.092726000
0.003542452 0.012903451 0.098418549
0.000506065 0.022011064 0.101454936
0.000000000 0.033649646 0.109550677
0.006577994 0.040860288 0.113724999
0.024035286 0.045414094 0.116002090
0.057432480 0.054522492 0.125110477
0.099556997 0.066539995 0.125489995
0.125869498 0.076660253 0.129538000
0.149778634 0.085768647 0.136748642
0.182416067 0.094623998 0.145351037
0.206704825 0.100695997 0.148387417
0.230992988 0.111574993 0.156230196
0.256799191 0.123718992 0.162302196
0.284123540 0.135230571 0.165970996
0.311447978 0.144338980 0.172043011
0.335989714 0.156230018 0.180898353
0.360278457 0.170271739 0.188108996
0.383555144 0.183428124 0.194180995
0.405060470 0.192662984 0.200505987
0.432384908 0.204807013 0.212650001
0.459709287 0.216950998 0.222517282
0.485641986 0.229095325 0.231625661
0.510436058 0.242251992 0.241239995
0.537760437 0.260467976 0.253383994
0.573054612 0.276027828 0.268184811
0.607716560 0.296520919 0.286907166
0.641998947 0.321694791 0.303731978
0.678430974 0.349020004 0.309803993
0.000000000 0.003922000 0.090195999
0.000000000 0.003922000 0.099304393
0.000000000 0.009487612 0.098419003
0.001265161 0.018089935 0.096774384
0.004301451 0.027324840 0.096900836
0.006578065 0.031119451 0.110562548
0.001012001 0.037697386 0.113598935
0.011511698 0.047185317 0.120050378
0.033902574 0.054522481 0.121315390
0.069576472 0.063630879 0.119038485
0.094243996 0.075648390 0.133965865
0.129917756 0.085768640 0.138646394
0.156610027 0.094876736 0.143580034
0.185452387 0.103731610 0.148134395
0.209740430 0.109803610 0.148387417
0.234029204 0.118279412 0.153826997
0.259835571 0.128273189 0.160784379
0.287159950 0.139531955 0.167235985
0.314484388 0.153447375 0.178115010
0.339026123 0.159772396 0.184187010
0.361417145 0.169513136 0.191144615
0.384566993 0.181404367 0.199240878
0.407969594 0.192662984 0.209234878
0.432384908 0.204807013 0.212650001
0.457431972 0.219228283 0.224794567
0.482605904 0.233523041 0.233270377
0.507906377 0.247311994 0.241239995
0.537760437 0.260467976 0.253383994
0.562428594 0.278684646 0.265527993
0.600885332 0.296015322 0.282099992
0.638077199 0.318658948 0.302087575
0.672358990 0.345983595 0.318912387
0.004300999 0.021125998 0.098797999
0.000000000 0.025426999 0.097153611
0.000000000 0.025426999 0.104111224
0.001265161 0.033269774 0.106641226
0.003542452 0.043263771 0.104490772
0.003036065 0.049841836 0.109044828
0.011384999 0.051106770 0.116255321
0.021758407 0.057178769 0.117647000
0.045034867 0.065781094 0.123466089
0.077292986 0.074889489 0.124351777
0.104237773 0.084756769 0.130044088
0.130550012 0.092852771 0.139152229
0.163693860 0.101834357 0.145224512
0.192789301 0.110689066 0.149526000
0.217077747 0.116761543 0.153320998
0.239215598 0.125236794 0.153826997
0.263504386 0.132826984 0.162934989
0.289563745 0.142567784 0.169007003
0.315370023 0.157748207 0.175079018
0.335610181 0.168880776 0.188108772
0.361796677 0.174952775 0.194180772
0.383555144 0.184819981 0.200252771
0.407084227 0.196963981 0.210120216
0.437444806 0.209108010 0.219228089
0.457431972 0.219228283 0.224794567
0.484503299 0.233016983 0.234155983
0.511322141 0.248450279 0.242251992
0.541682541 0.265527993 0.257684976
0.566729605 0.282985628 0.263377756
0.603415549 0.304743916 0.282605678
0.644528985 0.324604571 0.306008786
0.679190576 0.349399000 0.332321227
0.007843000 0.044149160 0.105881996
0.001771000 0.048956320 0.104869999
0.000000000 0.051992159 0.103605159
0.001265161 0.053257320 0.113472320
0.003542452 0.059329320 0.118405774
0.000506065 0.067552097 0.115369931
0.017710319 0.071600154 0.117394000
0.035167567 0.073624320 0.122706994
0.060974155 0.078937225 0.124224991
0.088804498 0.087033488 0.132827312
0.117394023 0.094876707 0.134851113
0.143453568 0.101960830 0.141176149
0.169639319 0.109171480 0.144971162
0.201897234 0.118026160 0.150790840
0.226185977 0.124098666 0.156862840
0.248070955 0.132574350 0.160657838
0.270841241 0.142694145 0.166730151
0.293232411 0.150031298 0.177609146
0.315623045 0.164579302 0.178874165
0.336875349 0.174446717 0.188994363
0.362049073 0.184060827 0.198481992
0.386338115 0.191144958 0.204553992
0.407337487 0.202909499 0.210625991
0.436179906 0.213915169 0.220493004
0.461986154 0.225047275 0.226818398
0.483238131 0.236812145 0.236685976
0.513092875 0.249462232 0.243769988
0.542694509 0.269196600 0.260467976
0.572801948 0.286527634 0.270461828
0.605692387 0.309551090 0.278304905
0.646806002 0.333839118 0.303478539
0.682479858 0.355471015 0.336116016
0.007463549 0.065781094 0.107020542
0.002150548 0.068817385 0.114231087
0.000000000 0.072232775 0.112713315
0.001644612 0.074889161 0.115749612
0.008475997 0.077925541 0.130171001
0.005439609 0.083997540 0.127134606
0.029095637 0.090449095 0.127387539
0.054522697 0.094117701 0.129917547
0.076534085 0.096774444 0.135230541
0.106894106 0.099810071 0.141302541
0.136116296 0.106135085 0.142694101
0.162428945 0.112207085 0.148386806
0.187096983 0.118658639 0.154459000
0.210879073 0.127514049 0.154712036
0.234914824 0.133586094 0.160657555
0.257179230 0.142441347 0.166729555
0.279190540 0.152688101 0.175078839
0.301960558 0.164073154 0.185578987
0.317140996 0.176217958 0.191651016
0.341050178 0.183175445 0.198102549
0.367615551 0.190765351 0.204174548
0.394307256 0.199873120 0.209487557
0.412903488 0.209108025 0.215686023
0.434661895 0.218469456 0.222011000
0.459709287 0.229854539 0.227324277
0.486021519 0.242631197 0.234788090
0.510815620 0.257811517 0.249462545
0.538139999 0.272991866 0.261606544
0.571916163 0.288551807 0.275268823
0.607589781 0.309677571 0.285894990
0.642631173 0.335736960 0.297027022
0.672991991 0.360024989 0.324351460
0.004427936 0.090069868 0.116128936
0.004427936 0.093105480 0.131309316
0.001265161 0.098291993 0.125616863
0.002529999 0.101327926 0.121315777
0.011511608 0.102213539 0.127134606
0.044907998 0.105249926 0.136242986
0.062112249 0.113852255 0.140796930
0.084882692 0.115876161 0.142567933
0.105376184 0.114611000 0.143579930
0.125110880 0.114990458 0.144338936
0.146742746 0.123845801 0.153320819
0.171536922 0.130423859 0.158886880
0.196963698 0.135357216 0.164326280
0.223023072 0.139658064 0.166856036
0.241239831 0.145730823 0.169892415
0.265274972 0.156609863 0.175837919
0.286021471 0.166730121 0.181909919
0.305249900 0.175711855 0.188361645
0.323212981 0.182289958 0.191651016
0.349525362 0.191650659 0.200506359
0.370651543 0.198355541 0.207210943
0.391904056 0.205945730 0.211258948
0.412903488 0.215180010 0.212650418
0.440227926 0.227324814 0.221758038
0.461986274 0.238962919 0.234914273
0.487033635 0.249715596 0.243895978
0.513852000 0.260847837 0.252498180
0.541176379 0.276027501 0.264642924
0.565844536 0.293864727 0.271473914
0.595698833 0.311574936 0.282605946
0.627956867 0.332194656 0.295508981
0.660848022 0.353953004 0.315243065
0.031752314 0.124477997 0.137887642
0.041872311 0.127514243 0.145477712
0.048324086 0.128399640 0.147754550
0.053130955 0.132447794 0.144338995
0.062491953 0.133712962 0.147880867
0.080834568 0.134598568 0.148387253
0.106641278 0.142694324 0.152435005
0.126248956 0.146869004 0.155218005
0.145856827 0.145477325 0.155218005
0.164073616 0.145477325 0.155218005
0.180139512 0.149146199 0.156356558
0.199367628 0.156230316 0.165464938
0.221505269 0.161163956 0.172042996
0.245034680 0.164199919 0.176217318
0.260974139 0.167994827 0.176976413
0.279190302 0.174066991 0.180012807
0.300189704 0.184440196 0.185958311
0.319038868 0.193548575 0.192662895
0.339152664 0.201518342 0.199494302
0.363187671 0.210372970 0.213156030
0.386717051 0.217583790 0.214674413
0.406578124 0.224668190 0.218848988
0.427956998 0.233902335 0.222264498
0.452878237 0.246047124 0.231372744
0.477925301 0.258191317 0.242757633
0.499430627 0.270335317 0.252118975
0.524478018 0.281594068 0.258064628
0.551802397 0.296774179 0.270208895
0.581530631 0.309550643 0.279570311
0.609361351 0.331309378 0.292726249
0.645034790 0.352814585 0.310815871
0.686654329 0.375711322 0.333965629
0.060214989 0.147754416 0.153953284
0.077292688 0.152435094 0.153447285
0.088931173 0.159898698 0.161290213
0.091714084 0.159898698 0.155724153
0.103099085 0.162934989 0.159898728
0.120303400 0.165464982 0.160657942
0.142568037 0.166477084 0.164326385
0.156989396 0.172295704 0.164072990
0.175964504 0.173054799 0.166350096
0.195066676 0.173940405 0.169006705
0.210373566 0.175205573 0.170651406
0.225932971 0.175331995 0.173434258
0.243010625 0.181403995 0.176849991
0.262998074 0.184946314 0.181657031
0.279570103 0.187982276 0.188614696
0.297153682 0.193421692 0.187729090
0.313851863 0.199493691 0.193801478
0.332574546 0.208475560 0.200632557
0.353827000 0.217583969 0.209740967
0.374573022 0.225047350 0.217836648
0.398608446 0.233902469 0.228209734
0.419860840 0.240987122 0.228209987
0.441113204 0.250347883 0.234281987
0.463883817 0.264010072 0.241872191
0.486527681 0.274509996 0.249968693
0.510815680 0.286653966 0.257938027
0.533333004 0.299304068 0.262998343
0.560657382 0.314484417 0.276280999
0.588994384 0.328652680 0.287413090
0.619354606 0.341302663 0.295256227
0.652372062 0.366476834 0.316128850
0.698671997 0.391523987 0.343453288
0.092852280 0.165971190 0.163820192
0.111827567 0.171284094 0.158507094
0.125110731 0.177103102 0.164579183
0.132701054 0.186464190 0.170145258
0.127766833 0.186084643 0.161796555
0.149398953 0.191018105 0.166730002
0.167615533 0.190259323 0.171283990
0.185073093 0.189753383 0.174699366
0.193422183 0.192789197 0.173940077
0.214674592 0.195825592 0.183048472
0.230866879 0.197470099 0.186337858
0.245287821 0.196204931 0.187855735
0.261226803 0.196584195 0.189753100
0.276154190 0.202403232 0.184440136
0.293358803 0.205439612 0.197596505
0.312334061 0.211638093 0.200632378
0.329032272 0.216192096 0.201391295
0.346110046 0.222264081 0.211132079
0.367489010 0.231245965 0.220366955
0.385199100 0.238330081 0.225426823
0.405692577 0.246299818 0.231498823
0.428210139 0.254649132 0.238077089
0.449462473 0.263757497 0.244149089
0.470714927 0.277672291 0.250221103
0.492726177 0.289057374 0.257052571
0.515370011 0.299557060 0.263251305
0.539152145 0.311195165 0.267805099
0.565970480 0.325869530 0.282732517
0.594813347 0.342567891 0.296774060
0.623908997 0.357495040 0.307653159
0.658443689 0.372548640 0.317646652
0.697912931 0.399873078 0.344971091
0.150537461 0.202403992 0.175964966
0.162681460 0.205439612 0.172928572
0.170904517 0.202150509 0.178368255
0.177229986 0.203162670 0.183807969
0.182416409 0.210373446 0.183048949
0.185452014 0.207337052 0.180012554
0.186843500 0.207210511 0.179886013
0.197722942 0.207084015 0.183428004
0.214674592 0.207969606 0.189120486
0.229855001 0.211005986 0.195192486
0.248197496 0.216951489 0.198481873
0.262239009 0.218722492 0.197469756
0.276786774 0.220872983 0.196963653
0.294370949 0.226692021 0.199620545
0.306514949 0.229728401 0.202656925
0.326122761 0.237571180 0.208602488
0.344212681 0.241998494 0.211258978
0.361290455 0.243516490 0.214168489
0.385578513 0.249588475 0.226312503
0.401391357 0.258570343 0.235547349
0.418595940 0.267552227 0.242504969
0.437065482 0.275648504 0.246679485
0.455534488 0.281973511 0.247185484
0.476786911 0.291081905 0.253257483
0.500315964 0.302719951 0.261606783
0.524477780 0.314737439 0.270588309
0.548260570 0.326375544 0.279949099
0.569512904 0.335483909 0.292093873
0.601644218 0.355471313 0.309677452
0.633016825 0.374699414 0.325869650
0.667805016 0.393548071 0.341555953
0.713092506 0.415053487 0.360151470
0.167488873 0.218469128 0.182289988
0.179632872 0.221505493 0.182163477
0.185325637 0.228842646 0.185578868
0.191904157 0.226565748 0.193928152
0.200759321 0.226692334 0.197723314
0.213914931 0.228715926 0.189626947
0.219481513 0.230740190 0.191650555
0.223529607 0.231119737 0.193674713
0.235926956 0.231878638 0.196963876
0.251107365 0.234914482 0.198734865
0.266286999 0.237950876 0.204806864
0.282479227 0.239974871 0.207843274
0.296647489 0.241113216 0.209993750
0.312586993 0.245161027 0.214547873
0.324730963 0.248197421 0.214927405
0.339278787 0.256040812 0.217963189
0.362555206 0.262112558 0.223529503
0.382669151 0.264768869 0.226312876
0.397849768 0.270840883 0.229348883
0.416571766 0.274130225 0.238709524
0.431878597 0.282985598 0.242125124
0.450095117 0.291081846 0.248197377
0.470208853 0.297153860 0.255661339
0.488677919 0.303478897 0.253383994
0.512207508 0.314863980 0.266287267
0.533712685 0.328399658 0.278051972
0.556989133 0.341555923 0.289183855
0.590259314 0.350664288 0.301328033
0.616824687 0.365085691 0.313472778
0.644402266 0.382289588 0.327640831
0.670714796 0.401138186 0.343453586
0.702086985 0.424414873 0.363693863
0.194813237 0.239721507 0.198482245
0.206957743 0.244781628 0.198482245
0.210626274 0.241998762 0.196710989
0.218722329 0.248577148 0.202782989
0.228209972 0.245541245 0.209234729
0.235167310 0.246932566 0.201771066
0.242757887 0.247944564 0.202783197
0.252119243 0.252625257 0.205818802
0.260468245 0.253384262 0.207337081
0.274383456 0.255155027 0.206072256
0.289563626 0.260215104 0.209867001
0.302719504 0.263250977 0.211890996
0.316761255 0.263250977 0.214927375
0.330550015 0.265654325 0.219607994
0.340923250 0.270461917 0.219607994
0.361543298 0.274256766 0.232131451
0.376723677 0.280329168 0.233649254
0.399493933 0.283364922 0.238077313
0.413029701 0.288045257 0.239469007
0.426692277 0.293358326 0.247818157
0.443011016 0.296394706 0.251233518
0.459203243 0.304237962 0.252245367
0.479443491 0.310436487 0.261100709
0.499557257 0.318406284 0.263757110
0.516255558 0.327008009 0.272359520
0.541935623 0.341935337 0.284756541
0.563061297 0.357242256 0.295762062
0.593421578 0.367868423 0.306388259
0.623908818 0.380265534 0.318532377
0.651233137 0.395445913 0.332447886
0.676660299 0.411511451 0.345730573
0.702086985 0.433523268 0.364706010
0.227071270 0.262871653 0.214042008
0.236938760 0.265527993 0.214042008
0.241619632 0.266413659 0.211891234
0.244529128 0.265275180 0.212650001
0.258570284 0.267552555 0.217962995
0.260088265 0.266793638 0.213408992
0.265148640 0.265654981 0.213788673
0.275648624 0.267805636 0.215686291
0.287792623 0.274636537 0.220240086
0.299936622 0.275774986 0.218722478
0.312713504 0.280455649 0.222643763
0.325869650 0.283365011 0.222517282
0.339152277 0.286400646 0.222517282
0.351296276 0.286906630 0.225806639
0.361290038 0.292979181 0.227577627
0.379000574 0.298924834 0.238583267
0.399873823 0.303099185 0.248829633
0.413789064 0.304870576 0.248197213
0.427956700 0.306894302 0.250221610
0.441492707 0.313851625 0.258823693
0.458950371 0.319165021 0.264516354
0.473118633 0.324225157 0.266540617
0.491334617 0.330297142 0.269702762
0.513598919 0.337381542 0.274762630
0.532574296 0.347627968 0.284250587
0.551043630 0.358633310 0.297280580
0.577862144 0.375838131 0.306388199
0.602150261 0.387982249 0.315496415
0.629474938 0.401264906 0.328399628
0.660341382 0.417457104 0.343453437
0.686780214 0.435293883 0.359519243
0.713851631 0.454016626 0.374952644
0.257685035 0.284124047 0.220113993
0.263504058 0.281593621 0.221379027
0.266919762 0.282352805 0.218722254
0.272233069 0.286907077 0.218469024
0.277799070 0.291840553 0.225047067
0.283871084 0.288804919 0.225047067
0.289184034 0.286527723 0.224794030
0.300442696 0.286274731 0.224541053
0.314611018 0.290322930 0.226565123
0.326755017 0.299430549 0.235673517
0.335736871 0.302719891 0.241619006
0.347122014 0.303985000 0.241619259
0.360404670 0.305376381 0.240987033
0.375079066 0.308665127 0.240481034
0.387223065 0.314737111 0.246553034
0.401770860 0.322453856 0.255281806
0.417710364 0.330044061 0.261100829
0.434788465 0.334724575 0.263883621
0.443896115 0.331688970 0.260847986
0.458823413 0.339531690 0.268184721
0.478684455 0.346995473 0.275648028
0.499431014 0.353826910 0.281467259
0.511828065 0.362808019 0.287413478
0.535863042 0.365970910 0.290449083
0.558127344 0.375585020 0.298039287
0.579379737 0.387728989 0.309930652
0.601138115 0.399873167 0.324351937
0.625426888 0.412017941 0.333459556
0.649715662 0.426565826 0.347374856
0.678305149 0.444782168 0.364832371
0.710057020 0.467425972 0.383049011
0.734345078 0.491714001 0.401265025
0.291081369 0.305376381 0.226185992
0.294117779 0.308411986 0.241366386
0.293485045 0.305882156 0.236179620
0.300569296 0.309171528 0.229601413
0.313978791 0.316129267 0.228715956
0.314231813 0.313092917 0.243263826
0.312713504 0.317646980 0.240733504
0.323086381 0.316888094 0.238330126
0.338393092 0.316635311 0.238203824
0.348007381 0.320682913 0.244781896
0.354332387 0.323972255 0.248070538
0.367109209 0.327008128 0.247691259
0.381657004 0.330549985 0.251486629
0.396331429 0.335989475 0.261733413
0.405439824 0.342062235 0.255661398
0.419987619 0.343327224 0.266540408
0.432131618 0.348260820 0.271979988
0.445034713 0.353700221 0.274509966
0.462112874 0.355976939 0.282100350
0.479569823 0.361289978 0.281847388
0.493358374 0.369892120 0.289437056
0.510056853 0.377355963 0.295888543
0.527008414 0.384060383 0.299557477
0.545224428 0.390132397 0.302593082
0.569260001 0.397849262 0.310183287
0.591524482 0.408981353 0.322074652
0.613282859 0.421125501 0.336748987
0.637570858 0.433270276 0.348639965
0.661859632 0.445414364 0.357748240
0.684377193 0.459962159 0.376976311
0.712587178 0.480834961 0.398228735
0.746489823 0.509929955 0.416445404
0.322074592 0.331435770 0.244275793
0.317900181 0.334472001 0.247438386
0.325237006 0.335357398 0.251866013
0.325742960 0.335104436 0.248576954
0.335230976 0.340037972 0.245920494
0.331182986 0.334977865 0.246932119
0.345477462 0.339531779 0.251739472
0.349019498 0.342314780 0.255281508
0.361922562 0.341556072 0.255281687
0.369386286 0.344592094 0.256419986
0.375584781 0.345224649 0.259582728
0.381656766 0.350284815 0.264642596
0.394560277 0.352561593 0.262745142
0.408475816 0.356103629 0.269829243
0.421885192 0.362175822 0.274509996
0.433396786 0.365844786 0.278051972
0.448577166 0.367362589 0.284123987
0.461986154 0.373181552 0.286021560
0.481973737 0.379759610 0.295129955
0.492979020 0.383174777 0.295888990
0.511195421 0.389247268 0.301581234
0.526375592 0.396837592 0.308665127
0.544339001 0.403036088 0.311701506
0.558000982 0.411384761 0.314737678
0.580771565 0.419734061 0.326881289
0.605060279 0.430233747 0.337634325
0.626312733 0.442377895 0.350284785
0.644907951 0.454522669 0.358633786
0.661985815 0.469070554 0.368121624
0.698671758 0.484756529 0.387855947
0.722327828 0.504111350 0.411891192
0.746616185 0.532953620 0.431625783
0.349399000 0.354205996 0.259456187
0.346363008 0.360278368 0.262492180
0.349525809 0.358127981 0.257937998
0.361163408 0.360657990 0.264263153
0.363314152 0.363567173 0.266793460
0.354965180 0.359772176 0.259582311
0.367615372 0.359266400 0.261100501
0.376343906 0.365085393 0.264389515
0.383934289 0.365844309 0.271979898
0.389247388 0.368880481 0.270461708
0.395319402 0.370525181 0.270208657
0.405945569 0.371537179 0.275269181
0.415432930 0.376470536 0.281341165
0.427451074 0.376849979 0.279949337
0.438836604 0.380391985 0.286527395
0.451613188 0.387096792 0.293231994
0.465275377 0.391651005 0.297786176
0.479190588 0.395319164 0.299051166
0.496900797 0.403541952 0.307273954
0.510056853 0.407084018 0.304996997
0.527893662 0.413535655 0.316761643
0.542062163 0.418596059 0.321821243
0.558507204 0.424288481 0.324351490
0.576217175 0.433396488 0.332953900
0.594433725 0.440986484 0.340543866
0.614547849 0.451486170 0.354332507
0.637445033 0.464642316 0.365465194
0.653636754 0.478811085 0.371537179
0.670335233 0.492093801 0.378747821
0.692599356 0.507527113 0.401518136
0.734598339 0.524857819 0.427071571
0.751169980 0.549652219 0.448323995
0.372422159 0.374319732 0.270461977
0.375584722 0.382162929 0.275268972
0.377988517 0.381783545 0.273750752
0.384693414 0.380139142 0.270335138
0.399114102 0.385831565 0.285135984
0.388741106 0.386084527 0.277798623
0.395572305 0.383554876 0.276280880
0.404427558 0.384187549 0.279316843
0.406451643 0.390133053 0.282985061
0.409488022 0.393168658 0.286021471
0.415433556 0.395572424 0.283870697
0.426945210 0.397849530 0.286906928
0.440860510 0.398988068 0.292979538
0.455281138 0.402276695 0.298545539
0.461353809 0.403035700 0.301201701
0.472865552 0.408981323 0.305376142
0.485262603 0.416571528 0.309297770
0.499810576 0.420746148 0.312333971
0.508918226 0.426818132 0.318405986
0.523592532 0.431372494 0.316508561
0.541302860 0.436938733 0.324351728
0.562049568 0.444655418 0.339405417
0.568754077 0.447817534 0.337001532
0.592536151 0.456419855 0.351675898
0.611005545 0.463883549 0.360657573
0.629095614 0.474003524 0.368247747
0.644782007 0.485641599 0.380392551
0.662997961 0.503478885 0.386717558
0.681214631 0.516381979 0.394686937
0.703605473 0.530297160 0.413535684
0.727387547 0.546110153 0.442757577
0.760783970 0.561290562 0.464010000
0.390638947 0.401644945 0.288678020
0.405819356 0.404680550 0.288678020
0.406831175 0.406072021 0.293485016
0.405819029 0.406831175 0.293231964
0.408222526 0.410120428 0.291207999
0.417330921 0.413156062 0.303351998
0.414547652 0.410879314 0.296015322
0.419607759 0.409488022 0.294497281
0.427957088 0.411512047 0.298292011
0.436812460 0.417457521 0.304237515
0.442758024 0.417584002 0.304364026
0.452877998 0.421885014 0.308158994
0.464136690 0.426312625 0.314231336
0.473497957 0.429601908 0.319797993
0.479569942 0.435673892 0.319797993
0.492852837 0.438836128 0.320050955
0.504743814 0.443895996 0.320556968
0.514990211 0.448070586 0.321442395
0.527135015 0.445034981 0.324478000
0.541809320 0.453890353 0.333333373
0.553194225 0.458697259 0.339278996
0.566603363 0.463251054 0.346616000
0.583934486 0.469070017 0.352181971
0.605186880 0.475142032 0.364326000
0.619860947 0.483744323 0.374446303
0.636685669 0.496773988 0.381909996
0.656926036 0.512966096 0.389500201
0.675141931 0.522074461 0.401644975
0.693358660 0.534598053 0.415939152
0.716888070 0.548513234 0.432131439
0.741302907 0.564579248 0.451612979
0.760784030 0.582543015 0.470082045
0.422770381 0.437318027 0.306894004
0.426818758 0.440354347 0.309677392
0.431246370 0.441239744 0.309677392
0.432637721 0.439974576 0.311954379
0.435673743 0.439595014 0.309677392
0.437571317 0.440227449 0.312207371
0.444149375 0.443263680 0.316761672
0.446805745 0.445667386 0.316888392
0.453257471 0.448703498 0.319544643
0.458317876 0.452751756 0.319544375
0.472865731 0.453004748 0.330929369
0.478937745 0.455028474 0.328905642
0.490702063 0.459203035 0.330423713
0.502846062 0.462492406 0.333207011
0.508918762 0.468564391 0.338266999
0.519797742 0.472233176 0.343073994
0.531562567 0.476787060 0.345351219
0.540670455 0.482226491 0.347881347
0.550663948 0.483491361 0.353067786
0.571157396 0.491587758 0.358886719
0.580645025 0.498798400 0.366097361
0.590891480 0.503731787 0.373181492
0.607210517 0.509803712 0.380898207
0.623149931 0.515875757 0.385072380
0.644402266 0.526502311 0.399493665
0.659456015 0.536116362 0.413788706
0.677419364 0.549145818 0.426439077
0.695635319 0.560531497 0.438583285
0.713851988 0.569639266 0.445414394
0.735610247 0.583427906 0.461986125
0.761922538 0.600379288 0.481973708
0.785831392 0.620493412 0.503984749
0.456166714 0.466160476 0.330803216
0.451613128 0.474889129 0.330044121
0.461986452 0.470082462 0.330929726
0.459456116 0.472612470 0.332194895
0.462618530 0.471473634 0.332447916
0.464136720 0.469955474 0.330929726
0.476786733 0.472485781 0.337255031
0.472991735 0.475521743 0.333712995
0.479063720 0.481340736 0.340797067
0.485515475 0.485515475 0.344591975
0.494497091 0.485641986 0.344718456
0.507400692 0.485768467 0.352435023
0.512334049 0.489942729 0.350537747
0.524224818 0.493737996 0.351296782
0.533586562 0.498165727 0.359013438
0.540670753 0.503731787 0.359392703
0.554332912 0.505249977 0.368500710
0.564200103 0.510562956 0.372042984
0.573307812 0.514863789 0.375584990
0.591650844 0.521568358 0.383554757
0.607210457 0.528779507 0.391524464
0.616318583 0.533839345 0.397596449
0.631245971 0.539152265 0.405819237
0.642884433 0.546995461 0.412397295
0.656925976 0.557621539 0.422643751
