Assets/Resources/EldamarStudio/100 Horror LUTs Pack/LUTs/cube/Benket LUT.cube
LUT_3D_SIZE 5
DOMAIN_MIN 0.000000 0.000000 0.000000
DOMAIN_MAX 0.903226 0.903226 0.903226
0.113724999 0.035294000 0.039216001
0.140543997 0.043136999 0.052624710
0.247184977 0.050347578 0.048324004
0.467172235 0.107905999 0.071600132
0.871347249 0.124225155 0.108538829
0.120935991 0.096521109 0.046425998
0.138266698 0.109550700 0.039216001
0.252751261 0.148133695 0.056925986
0.481593817 0.205060109 0.073876999
0.894244015 0.251486689 0.119038559
0.103226006 0.280582219 0.073877417
0.154965416 0.281594098 0.078811117
0.265527964 0.298924387 0.088930994
0.529411435 0.377102941 0.097027130
0.927514434 0.458570361 0.137507960
0.105376370 0.595699072 0.085262872
0.227324665 0.591144741 0.085009582
0.431119353 0.599620342 0.094876990
0.663504243 0.618216276 0.116761126
0.964326441 0.698545039 0.233902782
0.529285192 0.916887760 0.348893166
0.558760285 0.914231598 0.349399209
0.676533580 0.918152928 0.373054773
0.834914923 0.924351633 0.411891073
0.987222791 0.932447612 0.496521175
0.113724999 0.050980002 0.090195999
0.150031716 0.044781707 0.094497278
0.246805698 0.081720419 0.121948116
0.449209541 0.136622414 0.166097254
0.877292573 0.132068157 0.209993809
0.121569000 0.111827992 0.096773989
0.150664285 0.119670987 0.105249994
0.237065122 0.159266114 0.133459404
0.465274811 0.211258814 0.164199814
0.886400580 0.253130972 0.214927509
0.119291708 0.275015712 0.148134112
0.163440570 0.278305113 0.142567992
0.263883680 0.297912687 0.153320700
0.526755095 0.372169644 0.182416141
0.925869703 0.460847527 0.240860373
0.120050669 0.595319629 0.188741267
0.237065241 0.597217083 0.187729403
0.437191486 0.606071949 0.194307402
0.676533639 0.624414980 0.211384833
0.963946760 0.698418796 0.323213279
0.555218160 0.919670939 0.427071214
0.594560444 0.917140901 0.425932676
0.702213705 0.920683265 0.452877641
0.849209189 0.924604356 0.490448803
0.989120781 0.936116338 0.548260272
0.120936416 0.040481009 0.249968797
0.167742118 0.065401576 0.239468813
0.256419808 0.102086976 0.239468813
0.471473932 0.136622414 0.291461259
0.876533687 0.130297229 0.376091212
0.133712709 0.151169971 0.224162072
0.163440585 0.158001512 0.222770512
0.248197109 0.175964400 0.232890397
0.474762917 0.214168280 0.291461080
0.887033403 0.264768898 0.380771607
0.120177016 0.288551360 0.246679395
0.169386402 0.297659367 0.252878070
0.306894213 0.340164781 0.288551360
0.540670693 0.380392075 0.319671094
0.915117025 0.476407439 0.421505421
0.164452776 0.589247346 0.348133802
0.272612035 0.596457958 0.350158215
0.452118754 0.604554057 0.359266043
0.677545965 0.624794662 0.376597375
0.954838455 0.709677398 0.490828633
0.604300797 0.915622771 0.551043391
0.635926545 0.911701322 0.566855967
0.721568167 0.916255176 0.580644965
0.856799424 0.921695054 0.606704533
0.986590385 0.932447612 0.651865542
0.100822128 0.097280122 0.481088251
0.193042561 0.107653543 0.480455488
0.350537360 0.123592995 0.483997375
0.554712355 0.134218872 0.490702242
0.907273591 0.156356916 0.575585246
0.093359001 0.205439389 0.465022355
0.184819698 0.206072241 0.471220493
0.349904925 0.222770691 0.479064256
0.560657620 0.229854688 0.483238518
0.912839830 0.288425058 0.580897987
0.077039585 0.380518496 0.477166653
0.189120814 0.379253358 0.479822844
0.375458509 0.392283499 0.487918943
0.610626042 0.404048353 0.509044647
0.922580719 0.511068761 0.603162646
0.224288493 0.600632548 0.524098516
0.308285952 0.607210696 0.524478376
0.509297609 0.629348695 0.556103587
0.736875415 0.674004138 0.602530241
0.942947626 0.735483766 0.678937435
0.652498424 0.908412576 0.707906008
0.677419364 0.905755877 0.714357674
0.755597591 0.913599014 0.733459532
0.857685089 0.920556426 0.743959546
0.977103114 0.929917574 0.768374741
0.119417772 0.205692768 0.868690431
0.276533484 0.204680651 0.864769399
0.510309756 0.216825023 0.861985743
0.762682080 0.240227729 0.868437707
0.979506612 0.306767374 0.860720634
0.175964400 0.322327495 0.859835327
0.305502892 0.325616658 0.856546283
0.529664516 0.333206594 0.858190715
0.771410525 0.356229991 0.861100435
0.981530607 0.409614116 0.864136577
0.361922354 0.544465542 0.855534554
0.437697351 0.540543735 0.854016304
0.604680538 0.551675975 0.854269564
0.790512323 0.569639146 0.856546283
0.973687351 0.592282951 0.855534554
0.543706656 0.754079640 0.859202743
0.583175063 0.749272704 0.864769280
0.693105340 0.755471170 0.864009976
0.821757913 0.762934923 0.861733258
0.965085447 0.778368175 0.872865379
0.688171566 0.924730718 0.888045788
0.714737296 0.928905487 0.887159705
0.773687184 0.929285169 0.888930976
0.880075812 0.928525925 0.897533000
0.971536756 0.949398756 0.931309640
