Assets/Resources/EldamarStudio/100 Horror LUTs Pack/LUTs/cube/Benket LUT.cube
DOMAIN_MIN 0 0 0
DOMAIN_MAX 1 1 1
LUT_3D_SIZE 32
0.113724999 0.035294000 0.039216001
0.113724999 0.035294000 0.039216001
0.113724999 0.035294000 0.039216001
0.114990160 0.034029163 0.039216001
0.118026547 0.031752452 0.039595451
0.121062934 0.034788065 0.042631064
0.131688997 0.040353999 0.048197001
0.140543997 0.043136999 0.052624710
0.148134008 0.042378098 0.055661093
0.160278022 0.039342485 0.058697481
0.172422737 0.039216001 0.055914126
0.188614994 0.041239738 0.054901998
0.207969636 0.044275641 0.054901998
0.228968993 0.047311965 0.054396000
0.247184977 0.050347578 0.048324004
0.275015593 0.053383805 0.047059000
0.302340388 0.062492184 0.050094996
0.327261537 0.076407567 0.055534575
0.354586005 0.085515976 0.058570974
0.387476385 0.094623655 0.064390004
0.424667716 0.101833992 0.068564259
0.467172235 0.107905999 0.071600132
0.516128480 0.113851510 0.074762993
0.573813736 0.116887905 0.080835007
0.631498814 0.119924285 0.082353003
0.691966951 0.121569000 0.087918982
0.755218089 0.121569000 0.099050999
0.815938830 0.121569000 0.105122991
0.871347249 0.124225155 0.108538829
0.920683086 0.129031971 0.116887957
0.962681592 0.135989591 0.129031971
0.996078014 0.145098001 0.141176000
0.110689387 0.038330387 0.033144001
0.110689387 0.038330387 0.039216001
0.110689387 0.038330387 0.034915000
0.111954227 0.037065227 0.033144001
0.116508156 0.034788162 0.034662001
0.130170539 0.037824452 0.045667451
0.133206934 0.040860064 0.048703063
0.145477697 0.039848004 0.054269418
0.154965296 0.038582999 0.056420192
0.160278022 0.042378101 0.052624710
0.175331876 0.045161486 0.046932228
0.191651121 0.049335994 0.049841609
0.208728746 0.054522384 0.050727259
0.226438671 0.059456032 0.049082965
0.250221372 0.062492348 0.051359620
0.270841181 0.067931771 0.050094616
0.297786206 0.076154381 0.048576809
0.324857742 0.087918997 0.049462419
0.354586005 0.094623595 0.052498214
0.387476385 0.103731975 0.069449946
0.422770470 0.112840116 0.068944000
0.464136660 0.120050766 0.067552388
0.513219357 0.125996247 0.068943985
0.573813736 0.129031897 0.080835007
0.633776128 0.132068276 0.089184284
0.696394622 0.132321328 0.092852712
0.761796176 0.131182671 0.099050999
0.825047195 0.133712992 0.105122991
0.880454957 0.133712992 0.111194983
0.931561887 0.138140365 0.118152805
0.971283555 0.145983368 0.129917592
0.996078014 0.157242000 0.144212395
0.114105001 0.039216001 0.037824225
0.111954227 0.037065227 0.033144001
0.114105001 0.034915000 0.045667224
0.114105001 0.034915000 0.039595224
0.117014319 0.034661774 0.037824225
0.128652707 0.043010935 0.042884223
0.138013542 0.043896452 0.043137450
0.144338921 0.046932064 0.047817770
0.157748222 0.043896001 0.053131126
0.164958537 0.047185007 0.051233035
0.177482650 0.054648869 0.049462002
0.194686770 0.059708994 0.049462255
0.212903515 0.064642638 0.050853778
0.229348540 0.069702774 0.047059000
0.249841809 0.074636415 0.048197351
0.273877561 0.080075994 0.048829775
0.298165977 0.084630191 0.050347582
0.324857771 0.094876759 0.050474379
0.352182209 0.103984788 0.055028591
0.389627159 0.112840138 0.063377716
0.424920768 0.121948026 0.070208997
0.465401471 0.130044222 0.067678869
0.514610708 0.135989740 0.068943739
0.577355802 0.139025867 0.075015999
0.638077140 0.142062053 0.082732514
0.702972889 0.142315090 0.091840893
0.768500924 0.140796766 0.097912766
0.827324271 0.145477459 0.107273765
0.883111596 0.145857006 0.109044753
0.934218287 0.149398983 0.123971932
0.974825561 0.156356603 0.131941766
0.996078014 0.167235777 0.140797004
0.120177001 0.044275999 0.041872162
0.113345772 0.042504773 0.037824225
0.117140934 0.038203772 0.035800386
0.118912160 0.037697840 0.048450001
0.120050609 0.038077388 0.043895997
0.129158765 0.047564995 0.045667000
0.137001678 0.053384159 0.044402160
0.146109700 0.055028450 0.043769836
0.156736091 0.058064256 0.049082935
0.169386178 0.058570325 0.052118678
0.182795733 0.064768873 0.052245162
0.197723165 0.070588157 0.050474260
0.215939164 0.077798806 0.052372001
0.234408870 0.081088126 0.047311965
0.253636986 0.086147994 0.048323840
0.274130583 0.092219993 0.047059000
0.299937189 0.096774183 0.052371964
0.327261537 0.101707980 0.056040149
0.352182239 0.113852009 0.062112775
0.389121085 0.124478199 0.064390004
0.427957147 0.132321566 0.067931838
0.471473545 0.140417308 0.071980089
0.521188796 0.146362811 0.075774804
0.582669020 0.149398908 0.078810900
0.645414233 0.153700113 0.081593998
0.705249727 0.155218318 0.086527660
0.774067044 0.153194055 0.095635936
0.830992818 0.158507153 0.107020825
0.885641575 0.161796167 0.111068837
0.936748624 0.169133306 0.120935999
0.973813713 0.176090926 0.138646424
0.993548036 0.185199320 0.139784992
0.125110537 0.056419998 0.039216001
0.113725446 0.056799546 0.041872162
0.116255775 0.052877996 0.037444774
0.121948451 0.050600935 0.034788389
0.121948451 0.053257097 0.042757548
0.131056055 0.056293480 0.048829548
0.139152095 0.064010315 0.050980002
0.146489248 0.069829382 0.050600551
0.156736091 0.073244639 0.051359549
0.171916500 0.076281026 0.054395936
0.187096864 0.079316676 0.054522451
0.202277258 0.082352802 0.050854005
0.218595996 0.087666094 0.046679452
0.237065032 0.096268475 0.046932485
0.258317381 0.099304125 0.049968127
0.277546048 0.105123088 0.048956260
0.300316632 0.110436186 0.053130992
0.328020543 0.114611082 0.063630536
0.355345011 0.126755103 0.069702543
0.390639186 0.138899103 0.067805350
0.430487245 0.147628024 0.069702804
0.475268811 0.153700545 0.074256703
0.533206880 0.159646034 0.085895449
0.591398180 0.162681654 0.088678099
0.653637290 0.167994544 0.091334544
0.715749681 0.171283543 0.092726119
0.772928238 0.172928140 0.095635936
0.836685359 0.175964534 0.104743533
0.892472684 0.181657076 0.111954078
0.943579793 0.192662716 0.122959726
0.980265975 0.206451595 0.139025688
0.989373565 0.215560004 0.148134097
0.122074932 0.068563998 0.039216001
0.116002157 0.071600385 0.039216001
0.117520608 0.069829158 0.039721936
0.122833841 0.068817154 0.038203999
0.124984063 0.071473867 0.039721936
0.124984056 0.071473867 0.039721936
0.141682640 0.077039935 0.048323613
0.151296869 0.081973709 0.049335711
0.159392938 0.085768864 0.048323836
0.171916500 0.091461413 0.051359553
0.187096864 0.094497062 0.051486067
0.202277258 0.097533189 0.049462326
0.218595996 0.102846287 0.045920357
0.237065032 0.111448094 0.043896098
0.258317381 0.114484474 0.046932481
0.279569775 0.122327730 0.049968127
0.303352267 0.130929664 0.055028252
0.331309199 0.138393149 0.063377574
0.361416996 0.144971892 0.066666931
0.394307375 0.157115892 0.067172930
0.439595282 0.167362615 0.074256994
0.489184052 0.174952924 0.080834940
0.542314529 0.180898413 0.082859069
0.606071770 0.183934033 0.082859069
0.668816924 0.189246938 0.094750278
0.733965695 0.192535937 0.101834252
0.796711087 0.194560066 0.104364060
0.848830163 0.206325322 0.104743533
0.904617488 0.212017849 0.116508648
0.955724180 0.221631825 0.127640828
0.991903961 0.234281912 0.145604119
0.998481929 0.245919988 0.172422856
0.119038679 0.075648002 0.041745678
0.120556869 0.078684390 0.044275999
0.120935865 0.081720769 0.044275999
0.124098673 0.080708638 0.044275999
0.125869542 0.082479768 0.043896452
0.128020316 0.084629998 0.041745678
0.130549997 0.089690000 0.039216001
0.147122055 0.094117709 0.043390326
0.158127770 0.097912997 0.042757902
0.172042996 0.103985004 0.045793518
0.182036862 0.109677449 0.048450325
0.197217256 0.112713575 0.048450325
0.214674637 0.118026674 0.047059000
0.234029278 0.126881316 0.046173319
0.250727057 0.132194415 0.051486414
0.276787072 0.140037790 0.052118998
0.301328510 0.149146199 0.056546319
0.328652859 0.157621637 0.064009987
0.357115984 0.163693950 0.068943650
0.392789692 0.170272008 0.071727000
0.433776051 0.180518731 0.069829263
0.483111918 0.188614994 0.075774811
0.533332944 0.194686994 0.077419482
0.589879394 0.200126424 0.079822682
0.651359797 0.207716599 0.086653963
0.716255248 0.214041620 0.098545343
0.782542527 0.216824695 0.104364321
0.842251658 0.222897202 0.108412318
0.896520972 0.229728311 0.111448005
0.945856929 0.235800296 0.123592764
0.985705256 0.245540917 0.134851366
1.000000000 0.256040633 0.153700039
0.120935991 0.096521109 0.046425998
0.125616670 0.094623372 0.042884391
0.127008215 0.094370760 0.053636990
0.128778994 0.097406827 0.046046995
0.128399536 0.098165825 0.044908453
0.128905937 0.101201758 0.046932064
0.136875376 0.105123408 0.038962614
0.138266698 0.109550700 0.039216001
0.153447106 0.113345988 0.042251997
0.168627501 0.119417995 0.047944222
0.181277871 0.122200988 0.050980575
0.196078539 0.129538253 0.050347995
0.212397575 0.133712992 0.050347995
0.233396992 0.142061695 0.050853994
0.252751261 0.148133695 0.056925986
0.274256676 0.156609505 0.058190994
0.300063670 0.165717900 0.059709188
0.328526527 0.174826115 0.065022126
0.357875019 0.181910008 0.070082009
0.393548757 0.187982425 0.075015649
0.434029430 0.195951715 0.075901262
0.481593817 0.205060109 0.073876999
0.531182468 0.211891204 0.076533794
0.587349534 0.219481409 0.082605802
0.646552801 0.226185977 0.088551283
0.708665252 0.233902678 0.094876669
0.774699152 0.240480766 0.102972999
0.838456273 0.245794147 0.109044991
0.894244015 0.251486689 0.119038559
0.945224285 0.259203374 0.124098413
0.979253709 0.265275389 0.134471983
0.996711016 0.273624688 0.142820716
0.123971999 0.124605000 0.049462005
0.129285097 0.120050415 0.042631295
0.131056100 0.116887867 0.048323907
0.132574096 0.117141031 0.057431903
0.132574096 0.119797193 0.041113451
0.129917935 0.122454032 0.048703164
0.140291095 0.123972222 0.042378005
0.147375092 0.127767473 0.039215609
0.151170194 0.130803093 0.043011092
0.166350588 0.136875093 0.055155098
0.180771872 0.139405191 0.057052776
0.197217092 0.145477444 0.058317743
0.215433195 0.151929200 0.056419998
0.233396932 0.158507198 0.056419998
0.256166995 0.165591195 0.061479993
0.279569775 0.173307896 0.063504092
0.302340388 0.181657195 0.065781184
0.327893972 0.191397980 0.068184994
0.361163944 0.200632155 0.071094133
0.398102760 0.207716718 0.076913103
0.439089388 0.215686440 0.079949193
0.485389113 0.225553215 0.080708094
0.537380993 0.234661594 0.080834605
0.595698774 0.243770003 0.088678002
0.656420112 0.251360208 0.094749995
0.718532741 0.256673098 0.099430673
0.781277359 0.263251185 0.104491062
0.844528437 0.272359550 0.111322090
0.899557114 0.279569983 0.122327708
0.948387325 0.287413180 0.132953972
0.987603009 0.294877112 0.142821088
0.993674994 0.300949097 0.148893103
0.117899999 0.136749014 0.043390006
0.120936394 0.136749014 0.043390006
0.121948488 0.136495978 0.043010522
0.124478482 0.138899505 0.046299525
0.129538476 0.144085988 0.050221071
0.129538476 0.144085988 0.047185458
0.142062321 0.141682178 0.044655167
0.152182490 0.143832952 0.046173003
0.160278574 0.149019882 0.052118711
0.175458968 0.152055502 0.058191486
0.187729478 0.161037385 0.055787615
0.202024251 0.169766247 0.059076510
0.218469486 0.175458983 0.062491998
0.236432552 0.176723972 0.062491998
0.251612931 0.188867971 0.062491998
0.276786774 0.195951983 0.065148801
0.302340388 0.202150494 0.069576479
0.327893972 0.209613994 0.074257001
0.358254045 0.221758023 0.074257001
0.397090614 0.230992854 0.079949483
0.440227717 0.239974752 0.084124215
0.488677770 0.250094980 0.087033838
0.543452978 0.261986017 0.089942992
0.604174614 0.271094412 0.092979386
0.667046309 0.280202806 0.096268184
0.730676949 0.286401331 0.099430665
0.793422103 0.290575594 0.104491062
0.851107240 0.299683958 0.119671434
0.903731704 0.308791667 0.123845637
0.948387086 0.317773223 0.130929708
0.982037008 0.325110644 0.143453598
0.999746978 0.328273535 0.164073497
0.114737131 0.169259861 0.051865868
0.126502380 0.163440868 0.051865868
0.127388000 0.163440868 0.051865868
0.129917994 0.163440868 0.053131029
0.134471983 0.166223869 0.057179190
0.129411995 0.171283871 0.059202932
0.142062321 0.168754190 0.048576999
0.155598000 0.170651600 0.050980575
0.164200008 0.175964773 0.056799740
0.172928631 0.179000393 0.058570966
0.188108996 0.182036743 0.058823999
0.200252995 0.187096611 0.057811871
0.214547768 0.193295419 0.060974222
0.230993003 0.197596833 0.062744997
0.248829529 0.207083985 0.062744997
0.271220744 0.214420989 0.067551993
0.296520978 0.223529384 0.069576129
0.323971957 0.233017147 0.072865121
0.361163914 0.242883891 0.077419125
0.399873257 0.255028576 0.074636482
0.445034564 0.266160727 0.080329001
0.496647507 0.276280999 0.084377259
0.555218220 0.286527723 0.087413348
0.613156497 0.298418760 0.090449035
0.678431392 0.305249870 0.091208130
0.741429269 0.313725650 0.096394666
0.803162396 0.320303738 0.104996994
0.863251269 0.327008307 0.122580558
0.915622711 0.336116701 0.129791111
0.958380342 0.348766327 0.143706173
0.987855732 0.359266102 0.160910591
1.000000000 0.364326745 0.182163000
0.111701258 0.194560245 0.054901998
0.121821776 0.188488245 0.058949992
0.129411995 0.184692994 0.058949992
0.128146827 0.187223315 0.056419998
0.132321298 0.189120963 0.057179291
0.134471983 0.193548247 0.060215324
0.146110326 0.198102295 0.060720991
0.156356990 0.195066690 0.055154990
0.166224003 0.200000241 0.060847737
0.172296003 0.204301015 0.060847737
0.189120606 0.207336843 0.060847737
0.200252995 0.210373238 0.062871993
0.214674294 0.214547500 0.064010352
0.231246293 0.220367014 0.067046024
0.251233488 0.225933075 0.068817250
0.276280850 0.240733489 0.071599990
0.303605258 0.246805504 0.074635997
0.332067937 0.257305562 0.076533563
0.371537209 0.266413540 0.083997250
0.413029909 0.276280969 0.079696350
0.460088253 0.290322483 0.080455735
0.509803653 0.303605139 0.084377259
0.567868471 0.314737469 0.086274996
0.633143663 0.324984252 0.087413356
0.697660029 0.336622238 0.094243996
0.758886755 0.345477581 0.098418660
0.817330658 0.354712516 0.107020989
0.875015795 0.360784501 0.119164988
0.927767217 0.369512796 0.136875242
0.968753636 0.378621161 0.146489218
0.993421674 0.392409474 0.167868197
0.997975767 0.400758982 0.190259263
0.109803997 0.220366627 0.059455995
0.115496740 0.216571629 0.063250996
0.123593010 0.213788494 0.066160642
0.128146827 0.211131960 0.065907642
0.126628548 0.216825083 0.060215093
0.135736927 0.219860703 0.061733287
0.146489680 0.222011283 0.063630678
0.160152003 0.225426689 0.065021999
0.168501094 0.223149985 0.066539995
0.175711647 0.228462979 0.067298993
0.191144645 0.230486751 0.065021999
0.205565900 0.233522892 0.065907605
0.216951296 0.237697631 0.071220994
0.235167995 0.243769631 0.074256673
0.255534738 0.247691408 0.077293061
0.281594127 0.259329617 0.081467479
0.310436636 0.274889261 0.080708288
0.342061758 0.280961275 0.080075711
0.381024957 0.289563626 0.087159969
0.422138095 0.299810350 0.085768640
0.469196707 0.311574876 0.087666094
0.520809412 0.325742900 0.089690350
0.572802007 0.340543747 0.089563869
0.639595091 0.349651873 0.088551998
0.706008792 0.362175643 0.094244346
0.769513249 0.372042656 0.102213666
0.824668050 0.384187490 0.111322060
0.879949212 0.391524643 0.118026637
0.931941748 0.401391417 0.133965790
0.975205481 0.410499454 0.151043609
0.999746978 0.420493245 0.169386208
0.997216642 0.432637274 0.194434002
0.109297998 0.253257096 0.070841029
0.109044969 0.253763080 0.071093999
0.116255775 0.252751023 0.072485745
0.123086870 0.252245218 0.075521998
0.126628548 0.249968514 0.074889489
0.135736927 0.253004134 0.071853101
0.142568037 0.250727355 0.070841029
0.153320700 0.251486391 0.071600065
0.167995095 0.253510058 0.071599998
0.183175504 0.253510058 0.077671997
0.196205035 0.253763080 0.073371038
0.210626245 0.256040305 0.071600065
0.225806639 0.259962022 0.074509643
0.241239995 0.265528023 0.082859002
0.259455979 0.271600008 0.085895382
0.284629792 0.280075818 0.090575993
0.313472331 0.292220205 0.091081999
0.345098078 0.306009024 0.086148418
0.381530941 0.312081039 0.083112039
0.421758413 0.323466092 0.085389324
0.466666460 0.335610062 0.091967255
0.516508460 0.347501278 0.097786032
0.568627536 0.359645993 0.098039024
0.629474878 0.368880183 0.095382899
0.692219853 0.382542342 0.098671995
0.754332542 0.394054025 0.104490958
0.814042091 0.400885165 0.111322060
0.871726453 0.413029939 0.120430440
0.923845410 0.425174028 0.132700965
0.967868149 0.436053246 0.147122175
0.996963620 0.445288032 0.167868599
1.000000000 0.457432061 0.201265037
0.103226006 0.280582219 0.073877417
0.100189619 0.286654204 0.076913029
0.112840138 0.278557658 0.072864994
0.124099001 0.276533723 0.077545747
0.129538417 0.280329257 0.086906984
0.135736927 0.283364892 0.080961481
0.144845322 0.278810829 0.075395413
0.154965416 0.281594098 0.078811117
0.166983098 0.286401123 0.080708638
0.177103505 0.283870816 0.071600012
0.198102877 0.286780685 0.080581874
0.215433404 0.291208237 0.082479671
0.231878638 0.295509160 0.084883176
0.247311994 0.298924387 0.088930994
0.265527964 0.298924387 0.088930994
0.288551569 0.307400197 0.087160386
0.316508412 0.319544584 0.087540001
0.348133683 0.334092379 0.086907409
0.384566545 0.345477372 0.089184023
0.434914649 0.354332745 0.088930994
0.480202109 0.365970820 0.093358576
0.529411435 0.377102941 0.097027130
0.583807886 0.386970371 0.095003411
0.647565126 0.399114400 0.101075426
0.708412349 0.412903100 0.100695997
0.768374324 0.426691800 0.103352316
0.825680137 0.437064856 0.108538710
0.877799213 0.446426272 0.120430440
0.927514434 0.458570361 0.137507960
0.967868567 0.472485542 0.156230152
0.994560361 0.482858986 0.180645153
1.000000000 0.487792820 0.216445401
0.097154006 0.317520767 0.079316996
0.103731610 0.306767970 0.079949416
0.102845997 0.310689747 0.087286577
0.118279554 0.307400405 0.079949275
0.127008185 0.312334239 0.083744295
0.129032195 0.311321855 0.085768804
0.149652317 0.313978612 0.086906992
0.158760279 0.312839895 0.080835000
0.170904294 0.319670975 0.084630288
0.183301687 0.321568280 0.080708630
0.199241072 0.324351639 0.081720673
0.218469709 0.325363755 0.084756806
0.238962799 0.329538435 0.088551998
0.258444011 0.332827419 0.092346773
0.278810769 0.337128401 0.090195999
0.299430579 0.339531571 0.092599802
0.325237185 0.345603973 0.092599794
0.357241899 0.357242346 0.091587774
0.397216797 0.371157587 0.087539844
0.440354079 0.378115147 0.092599802
0.495762169 0.389120787 0.090702064
0.547374964 0.403289020 0.095256001
0.603668809 0.416825056 0.096521191
0.665148675 0.431245804 0.098039202
0.722074509 0.443390369 0.101834483
0.781150937 0.458444238 0.107526980
0.837318063 0.472106338 0.115622856
0.887033463 0.485009223 0.129664883
0.935989797 0.489563584 0.147121951
0.973940551 0.503478765 0.172422349
0.994307399 0.514231563 0.192915767
0.992789209 0.515749753 0.217204183
0.088045619 0.358507365 0.091460988
0.097153619 0.344845176 0.088424996
0.102846004 0.339531958 0.087286584
0.105376005 0.345098317 0.088804647
0.120935902 0.350284815 0.078431003
0.130044192 0.347248435 0.082226485
0.142694652 0.349272698 0.090322867
0.158760294 0.352308661 0.089942999
0.170904100 0.355344445 0.086906992
0.187602490 0.360657573 0.090702280
0.205818862 0.360784054 0.086274996
0.229095504 0.366350353 0.090828799
0.247311980 0.366350353 0.089690447
0.271093994 0.369007200 0.093864970
0.294876367 0.373814344 0.090828583
0.317646950 0.374446571 0.091081612
0.340417594 0.380518556 0.094117999
0.370271921 0.383554816 0.097153611
0.411891192 0.395192981 0.091587774
0.457431912 0.406578183 0.093358807
0.507906199 0.417963356 0.095256262
0.565591395 0.432131350 0.093231998
0.623276532 0.450221479 0.098291993
0.682605982 0.465401471 0.101074994
0.738772690 0.479822755 0.103352278
0.792030096 0.490575820 0.110562973
0.847944319 0.506009161 0.123213053
0.896521032 0.522200942 0.138393432
0.945097804 0.529791236 0.159266338
0.978494346 0.536875546 0.186084554
1.000000000 0.550284743 0.214674160
0.992789209 0.552182138 0.229348168
0.075268604 0.400379509 0.103984587
0.085009404 0.390765518 0.099177584
0.091967024 0.384440333 0.093737997
0.100569002 0.385831654 0.088930979
0.108159095 0.393801510 0.080202147
0.131941870 0.391018152 0.079696156
0.145477742 0.393042415 0.087286651
0.156483427 0.395445973 0.092473291
0.168627247 0.398481637 0.091081582
0.189879641 0.401518017 0.097153582
0.212397009 0.398734808 0.090575859
0.239089057 0.402529776 0.091714315
0.267425537 0.409487695 0.096900649
0.285894573 0.409740657 0.094370969
0.312459946 0.412776947 0.092093572
0.339278698 0.412270874 0.090828575
0.364832312 0.413409293 0.092346601
0.391651064 0.421252549 0.094117999
0.431119561 0.424288183 0.097153619
0.478937268 0.437824070 0.098671578
0.531309128 0.454269230 0.099936567
0.585704923 0.470461667 0.101201557
0.643263519 0.488551170 0.101201557
0.700442672 0.503731608 0.106261566
0.754585683 0.517646849 0.111321837
0.807842910 0.530676782 0.117899962
0.857432187 0.539279103 0.131056100
0.905629396 0.556989133 0.146362990
0.951676011 0.567235947 0.170145586
0.984946191 0.575711727 0.198482096
1.000000000 0.584819913 0.228589535
1.000000000 0.593927562 0.252877563
0.060088962 0.439848006 0.094876960
0.072232962 0.439848006 0.094876960
0.079823002 0.434535027 0.092220195
0.090955004 0.433776021 0.091461167
0.108159095 0.439342022 0.092346936
0.126375884 0.439342022 0.086274937
0.145098016 0.441619337 0.085768938
0.162555456 0.443010986 0.088425294
0.180772051 0.444022894 0.090955101
0.202024460 0.447058529 0.094117977
0.229095817 0.444275916 0.094370976
0.255914211 0.445287704 0.093612000
0.284630001 0.449968308 0.094370961
0.313219011 0.455281943 0.094370969
0.334471405 0.458317548 0.097406574
0.365844399 0.461353838 0.095129810
0.396963954 0.462365955 0.095382772
0.428083152 0.463757426 0.097153619
0.464515984 0.466793060 0.094118007
0.512333751 0.478178710 0.099936977
0.564705968 0.496268153 0.105502956
0.618342996 0.516002178 0.111068949
0.670587957 0.534092367 0.116381958
0.725236833 0.549272835 0.116381973
0.775585115 0.559898615 0.123719245
0.826059520 0.570904315 0.132321268
0.875648201 0.581783950 0.143200129
0.915117264 0.587855995 0.161416888
0.952687919 0.597596824 0.187349752
0.983048379 0.604934037 0.214421153
1.000000000 0.612144470 0.240480587
1.000000000 0.621252060 0.261985987
0.056040641 0.479317099 0.088551991
0.065401994 0.484883100 0.091334641
0.079696767 0.487033337 0.095635645
0.091461189 0.484123915 0.094497167
0.108918093 0.484883100 0.093359001
0.131941885 0.484883100 0.087286994
0.150158018 0.484883100 0.088804677
0.173307717 0.486021727 0.090702355
0.195698753 0.487539738 0.093738258
0.216951147 0.492599636 0.096774131
0.249589235 0.489816278 0.096900649
0.270841360 0.490828663 0.092852652
0.295888662 0.492726117 0.092473283
0.324604422 0.495003402 0.094117999
0.353447109 0.495509326 0.094623931
0.384313494 0.498544931 0.095256351
0.417710185 0.503099442 0.095635802
0.449335515 0.506894767 0.096774012
0.481467366 0.512081146 0.091587625
0.517900109 0.517900109 0.099684007
0.566476822 0.522454381 0.098166004
0.617330909 0.535483837 0.101707853
0.667298973 0.551676333 0.109677136
0.721947849 0.564199924 0.117647000
0.774319828 0.581656992 0.124478281
0.823402882 0.592283010 0.134977981
0.871600091 0.604048133 0.146995351
0.911068559 0.619228721 0.165211529
0.950537682 0.630613744 0.191398114
0.981783450 0.638077378 0.216951281
1.000000000 0.644149363 0.245920181
1.000000000 0.651359737 0.276660383
0.071979724 0.533966184 0.086274996
0.081088111 0.530550480 0.087413348
0.092599757 0.536369383 0.090702005
0.106514975 0.536875010 0.092979163
0.121062271 0.534977794 0.090702452
0.140796855 0.538014174 0.089184254
0.173308209 0.536116421 0.085009687
0.189879492 0.534471691 0.088045716
0.217710018 0.534977794 0.091840997
0.243516713 0.539911449 0.096015260
0.272612333 0.541050076 0.094244003
0.301581442 0.542061687 0.093991004
0.324351758 0.543959439 0.089057647
0.353194207 0.543959439 0.090829000
0.386843532 0.543959439 0.094117999
0.419607997 0.546363175 0.096015260
0.453004360 0.550916970 0.094497457
0.486400723 0.556356847 0.096141741
0.518026471 0.561163723 0.092599750
0.550158203 0.565338433 0.098545365
0.586590886 0.567615449 0.107653253
0.634155571 0.568627596 0.102593377
0.681720257 0.580139458 0.108285718
0.731056333 0.592283428 0.119164892
0.783427775 0.605186462 0.130170539
