Assets/Resources/EldamarStudio/100 Horror LUTs Pack/LUTs/cube/Benket LUT.cube
LUT_3D_SIZE 8
DOMAIN_MIN 0.000000 0.000000 0.000000
DOMAIN_MAX 0.903226 0.903226 0.903226
0.113724999 0.035294000 0.039216001
0.118026547 0.031752452 0.039595451
0.148134008 0.042378098 0.055661093
0.207969636 0.044275641 0.054901998
0.302340388 0.062492184 0.050094996
0.424667716 0.101833992 0.068564259
0.631498814 0.119924285 0.082353003
0.871347249 0.124225155 0.108538829
0.125110537 0.056419998 0.039216001
0.121948451 0.053257097 0.042757548
0.156736091 0.073244639 0.051359549
0.218595996 0.087666094 0.046679452
0.300316632 0.110436186 0.053130992
0.430487245 0.147628024 0.069702804
0.653637290 0.167994544 0.091334544
0.892472684 0.181657076 0.111954078
0.123971999 0.124605000 0.049462005
0.132574096 0.119797193 0.041113451
0.151170194 0.130803093 0.043011092
0.215433195 0.151929200 0.056419998
0.302340388 0.181657195 0.065781184
0.439089388 0.215686440 0.079949193
0.656420112 0.251360208 0.094749995
0.899557114 0.279569983 0.122327708
0.109803997 0.220366627 0.059455995
0.126628548 0.216825083 0.060215093
0.168501094 0.223149985 0.066539995
0.216951296 0.237697631 0.071220994
0.310436636 0.274889261 0.080708288
0.469196707 0.311574876 0.087666094
0.706008792 0.362175643 0.094244346
0.931941748 0.401391417 0.133965790
0.088045619 0.358507365 0.091460988
0.120935902 0.350284815 0.078431003
0.170904100 0.355344445 0.086906992
0.247311980 0.366350353 0.089690447
0.340417594 0.380518556 0.094117999
0.507906199 0.417963356 0.095256262
0.738772690 0.479822755 0.103352278
0.945097804 0.529791236 0.159266338
0.071979724 0.533966184 0.086274996
0.121062271 0.534977794 0.090702452
0.217710018 0.534977794 0.091840997
0.324351758 0.543959439 0.089057647
0.453004360 0.550916970 0.094497457
0.586590886 0.567615449 0.107653253
0.783427775 0.605186462 0.130170539
0.953953147 0.662871718 0.209614187
0.279822826 0.756356835 0.147880837
0.304743826 0.754079521 0.148892969
0.379633218 0.758760393 0.149652064
0.486906916 0.759139895 0.157874897
0.599240839 0.764199615 0.172043025
0.732068479 0.768121302 0.194813251
0.850474298 0.782163143 0.222011536
0.976217806 0.797723055 0.315369606
0.529285192 0.916887760 0.348893166
0.524857700 0.907527030 0.325616688
0.573181450 0.910436451 0.353447258
0.637191415 0.915496767 0.358886361
0.719797432 0.918279409 0.377609015
0.811132193 0.920556664 0.406830937
0.900189638 0.930423796 0.449968189
0.987222791 0.932447612 0.496521175
0.117267452 0.042757548 0.051359549
0.121948451 0.042757548 0.051739097
0.166224003 0.045034546 0.064642541
0.213915095 0.069702901 0.077546000
0.291461170 0.091587797 0.091713995
0.423402637 0.127387732 0.116381548
0.634914398 0.134977713 0.134471551
0.890828550 0.128526285 0.157621518
0.122327998 0.063883543 0.052877549
0.121948451 0.068184994 0.063883543
0.162681550 0.087792896 0.071726546
0.220619634 0.104617447 0.079949096
0.305123448 0.129664540 0.099430799
0.435041249 0.157495290 0.112713084
0.668564081 0.174825996 0.139784545
0.910562515 0.188361540 0.161037356
0.123971999 0.130044088 0.084377356
0.140037552 0.129664645 0.078810550
0.163061097 0.134345546 0.087033994
0.211511984 0.160151646 0.087666094
0.300696075 0.189120755 0.104490638
0.440607280 0.219607830 0.119671158
0.662998021 0.254142761 0.139784649
0.903478682 0.281340748 0.164199769
0.118026547 0.222896636 0.093611546
0.134092003 0.220493540 0.098798096
0.171663076 0.230739743 0.098671995
0.218975633 0.244022742 0.104237899
0.311701268 0.277293086 0.116761185
0.481467426 0.320809662 0.132194549
0.707273841 0.365718096 0.139025733
0.919038355 0.401644260 0.179000542
0.097532906 0.351423174 0.123845994
0.119671360 0.347628206 0.116634987
0.177862182 0.355724007 0.114990272
0.254396170 0.369892716 0.123339646
0.349778384 0.384819835 0.128146634
0.521695077 0.428969353 0.140670359
0.748892784 0.486907184 0.153067648
0.949146032 0.533080339 0.210373044
0.079443276 0.541303098 0.130803093
0.132827267 0.548387051 0.138140544
0.232131571 0.545856893 0.130803183
0.338014007 0.557621896 0.137887180
0.468437672 0.561037481 0.140670344
0.602277100 0.577735484 0.148007289
0.791903973 0.619354546 0.177609280
0.956862748 0.664769471 0.252371877
0.289184093 0.762428820 0.193042561
0.327893525 0.759266257 0.192915559
0.394434094 0.761290431 0.195572302
0.499177545 0.763187885 0.209740609
0.610499680 0.769513011 0.223023206
0.731688976 0.771157265 0.234029010
0.852245569 0.777103066 0.260720849
0.968754232 0.789120853 0.338393629
0.549272537 0.916128755 0.388108492
0.561163783 0.920556784 0.398228973
0.599240839 0.922201216 0.397849113
0.662744761 0.921441972 0.413662106
0.739405274 0.924225092 0.433649749
0.827071309 0.925616503 0.455281317
0.907147348 0.934724927 0.488171935
0.993295252 0.933839679 0.518153071
0.113724999 0.053257093 0.100063086
0.128146544 0.047059000 0.098924637
0.162176087 0.049336094 0.112713084
0.207969725 0.070082448 0.126882091
0.285009295 0.097785987 0.143959373
0.403162539 0.127261251 0.173940092
0.614800572 0.139784902 0.200253084
0.872738540 0.129538149 0.231246009
0.125869542 0.078304991 0.114737540
0.130929992 0.076660186 0.091461092
0.163820088 0.083744094 0.111195087
0.207969636 0.107653446 0.125996187
0.278684378 0.134724990 0.142820626
0.406451821 0.165211797 0.176596925
0.628715932 0.175964639 0.199999750
0.883618057 0.190385804 0.241999000
0.121569000 0.131562188 0.113472186
0.135230541 0.122833185 0.106008634
0.158254087 0.141682282 0.118912190
0.201644734 0.158507526 0.132700741
0.276281089 0.189500183 0.151929080
0.415433466 0.221631989 0.182163447
0.641365945 0.253890097 0.201138481
0.891713679 0.280202091 0.240986750
0.131435648 0.211385176 0.135104552
0.141555652 0.209740371 0.137001991
0.171157435 0.219987273 0.150411099
0.211891443 0.229727909 0.149145827
0.296647370 0.266666740 0.167615205
0.451739311 0.309677631 0.188741177
0.689943016 0.355977207 0.210626379
0.915875971 0.401264906 0.255660832
0.106768005 0.346742570 0.170778006
0.132574201 0.337254554 0.169512838
0.174573287 0.347501457 0.171410382
0.244149372 0.356483072 0.176091090
0.330170393 0.374193370 0.181657195
0.505503178 0.420240462 0.199620187
0.734724998 0.476660460 0.226944983
0.940923333 0.528526306 0.287286490
0.098545186 0.518406034 0.200379476
0.137760803 0.519797325 0.204048276
0.225426912 0.524857640 0.199367344
0.327008009 0.537887275 0.205819085
0.449462533 0.548513651 0.208728641
0.583681107 0.561922550 0.217204437
0.780645251 0.610119998 0.249841914
0.956356704 0.662745178 0.321694881
0.288171887 0.750917017 0.262365371
0.317773461 0.746236324 0.267046362
0.388867736 0.749272704 0.272612542
0.490828544 0.748893261 0.274256855
0.610878885 0.759519339 0.289689630
0.731941700 0.766729772 0.304490834
0.851612628 0.777735651 0.330803573
0.969765723 0.797975898 0.399873167
0.553953290 0.911827624 0.434408575
0.552814305 0.907020867 0.423908740
0.596837580 0.908032715 0.432763845
0.658317447 0.914484262 0.447944313
0.738772988 0.916635036 0.468058467
0.820366681 0.920809567 0.493232101
0.909424305 0.924351335 0.517646909
0.988614798 0.935610473 0.555597544
0.112080999 0.047059000 0.195572644
0.134471551 0.049841646 0.191650644
0.176091343 0.057178997 0.188108906
0.215180352 0.079569645 0.188868001
0.291840553 0.106514804 0.211511984
0.414800465 0.133332998 0.240354374
0.622644126 0.133839354 0.281467348
0.871347249 0.125490010 0.320430100
0.120303541 0.097279996 0.186338082
0.137887195 0.099177547 0.183428094
0.167362556 0.107400090 0.190891549
0.213535637 0.113978535 0.190386102
0.293485433 0.143706560 0.209614545
0.429348797 0.166603550 0.245920271
0.650601089 0.174826086 0.287666112
0.887918591 0.189247161 0.331309199
0.123086996 0.156483367 0.182542995
0.142314643 0.155597553 0.183048546
0.177229896 0.161796466 0.184187084
0.213915184 0.171536997 0.188361645
0.290954828 0.200126559 0.213788986
0.423908919 0.227577448 0.241113365
0.643769681 0.249588743 0.286147922
0.883997560 0.288045764 0.335104078
0.127766997 0.230866641 0.195572644
0.144338906 0.230739728 0.195445731
0.184187084 0.246806085 0.216318995
0.237065345 0.271853268 0.225300640
0.321189195 0.286780179 0.240607187
0.470588446 0.325237095 0.266034335
0.684123814 0.356609911 0.302213997
0.906388223 0.401138425 0.354079813
0.117014810 0.354964912 0.237191364
0.139911443 0.350790560 0.229854524
0.192030102 0.363061637 0.241619438
0.261480182 0.367615521 0.247438177
0.356103539 0.381657034 0.255155265
0.519544423 0.432637751 0.281593651
0.741682410 0.482226372 0.314231515
0.938266873 0.539026022 0.382289797
0.122453824 0.530044436 0.288425118
0.156862721 0.530044317 0.281214416
0.244528830 0.536242545 0.285768360
0.337001771 0.542314887 0.290448993
0.462997764 0.550664008 0.292346805
0.596837521 0.564832211 0.310056984
0.783175111 0.610246897 0.347248554
0.947375000 0.672106385 0.424794436
0.330170840 0.752434790 0.365211546
0.358633727 0.747501373 0.366856456
0.419355005 0.746236503 0.368627369
0.514863789 0.751802862 0.373561203
0.620999336 0.758127749 0.391144812
0.735230684 0.765211582 0.405439466
0.847058952 0.769765556 0.417330921
0.959013283 0.796204925 0.484629869
0.589879334 0.916381955 0.528779566
0.599114478 0.909677327 0.513219476
0.635294080 0.916761279 0.526375592
0.689310253 0.915623009 0.532194912
0.752814412 0.918152928 0.546362996
0.832763970 0.922706962 0.564199507
0.913092852 0.925616503 0.592283487
0.989879608 0.935483575 0.615939021
0.116128810 0.057052381 0.289437175
0.143580005 0.063251182 0.288298815
0.186464190 0.078178376 0.283997357
0.243137643 0.097027183 0.288424850
0.306009173 0.115875989 0.290322572
0.430613160 0.138772801 0.318026632
0.647691071 0.130423918 0.375711560
0.883364916 0.137887508 0.425806373
0.121062540 0.118912086 0.283744574
0.145350829 0.117014728 0.285135984
0.182416096 0.126375630 0.284630150
0.240733743 0.134977639 0.282858878
0.316002607 0.147881091 0.295635551
0.440860093 0.173940465 0.325869828
0.668311059 0.174066901 0.385831445
0.895382643 0.202782989 0.432890564
0.134218991 0.181530282 0.276281089
0.142314747 0.185072735 0.268816888
0.186591104 0.185452089 0.275395274
0.235673472 0.198861286 0.275015831
0.300442457 0.208222389 0.289563477
0.442757547 0.233396471 0.324731201
0.665654838 0.253004283 0.377862364
0.896394670 0.298671812 0.433143616
0.121948257 0.256419837 0.276533812
0.144971296 0.257052720 0.280076057
0.180898190 0.265654832 0.283617914
0.250094831 0.289310813 0.299810410
0.331309021 0.302719831 0.307906628
0.488171846 0.327766925 0.348387271
0.704111099 0.362175912 0.399746925
0.904111207 0.423655868 0.459076822
0.121569000 0.352814376 0.307273567
0.139532000 0.360784262 0.303098887
0.199494183 0.375585258 0.318406165
0.295635432 0.404174715 0.340038031
0.408095777 0.423402756 0.357621342
0.551676095 0.446553111 0.376850128
0.742821038 0.486780554 0.418848574
0.928526223 0.547881007 0.485515177
0.142947197 0.534851372 0.367488712
0.180898264 0.533966005 0.368374467
0.264895290 0.542188585 0.376596898
0.366097301 0.554332554 0.389120907
0.478051901 0.559013188 0.393927902
0.606831133 0.572042763 0.403541654
0.783428013 0.619102001 0.449336082
0.942820787 0.681720495 0.523212969
0.381404281 0.743073821 0.470967829
0.402150571 0.740670264 0.468058079
0.450474113 0.743073583 0.473244518
0.526881814 0.749272764 0.474383116
0.629854679 0.755850792 0.487412959
0.739658117 0.764452636 0.499557197
0.843643367 0.769892454 0.514863908
0.958380520 0.805692494 0.578621268
0.607589602 0.909550726 0.602656424
0.615812719 0.904996932 0.599873483
0.647944450 0.910942554 0.602656424
0.694750011 0.911321700 0.607210398
0.754206181 0.911827803 0.616191924
0.835420549 0.919671118 0.638329804
0.906768024 0.924351335 0.652118802
0.983301759 0.931056261 0.680581748
0.105881996 0.090195999 0.440607220
0.141176283 0.094497450 0.438709468
0.204427481 0.107399993 0.445287824
0.289310753 0.116761379 0.441239834
0.389373720 0.130929798 0.445414454
0.490955174 0.137254998 0.444149196
0.678051770 0.128020003 0.484882712
0.901960671 0.150537625 0.545983255
0.103478558 0.146489471 0.443643212
0.139278546 0.145350739 0.439089030
0.201391101 0.155597642 0.438962936
0.292852461 0.161417007 0.443137378
0.388488024 0.169639543 0.446552813
0.498671710 0.180265799 0.451612651
0.698292255 0.176091164 0.492852747
0.909297884 0.214547500 0.547121704
0.105249912 0.224161997 0.427071720
0.136116356 0.225679889 0.418342978
0.201011837 0.224541351 0.427956820
0.282605886 0.229095638 0.431372553
0.382921994 0.239721894 0.434282243
0.494370461 0.242504835 0.437950730
0.697280169 0.260341823 0.488171905
0.910562754 0.319797724 0.553573370
0.094750360 0.315749377 0.425047576
0.135863096 0.308159620 0.430486917
0.202656463 0.318405747 0.429222077
0.292473108 0.326755285 0.434281945
0.400252938 0.332068264 0.445540577
0.521315277 0.340038002 0.453636914
0.722960114 0.370651722 0.503225625
0.913092554 0.436938673 0.562808454
0.099177450 0.426312834 0.451486439
0.140923381 0.421505302 0.448071122
0.228589475 0.430993021 0.454902172
0.333712786 0.441998720 0.462618440
0.462365329 0.456799805 0.478557914
0.591777384 0.472106367 0.494623452
0.766223848 0.513092875 0.541808724
0.926249087 0.579126775 0.597722709
0.167615458 0.548007488 0.471473694
0.206072271 0.548007488 0.477292657
0.287792444 0.555850446 0.481467456
0.402023852 0.574699521 0.494623572
0.550157905 0.601391435 0.526881456
0.675142229 0.620367169 0.547880948
0.803415596 0.647438407 0.580392003
0.937128544 0.698798239 0.637444258
0.413915277 0.745983064 0.573308289
0.443643302 0.747754753 0.574699461
0.497912735 0.749778569 0.578115344
0.573434532 0.753320575 0.586717010
0.663504183 0.760784090 0.604300916
0.750158012 0.766729832 0.610879183
0.841745794 0.774952352 0.623403192
0.958633721 0.812650084 0.681593776
0.653510511 0.909424722 0.691207647
0.662744939 0.911195338 0.694370568
0.690828264 0.906767845 0.700948775
0.730550408 0.912207305 0.708412349
0.776091039 0.915496767 0.715496421
0.843769491 0.921315491 0.719671309
0.912334025 0.923971832 0.740796924
0.977356017 0.933459878 0.750411272
0.071600296 0.129032284 0.654649138
0.135483786 0.131056443 0.651739836
0.244781762 0.136242703 0.654902101
0.366350204 0.140164286 0.655660808
0.503099382 0.136242703 0.661353827
0.633396506 0.128779247 0.654775381
0.777861834 0.125110283 0.651739836
0.926375866 0.178873777 0.675901532
0.070208549 0.186211273 0.655155063
0.142567798 0.189500287 0.654775739
0.250347883 0.188235536 0.657685101
0.374320120 0.191397533 0.662492275
0.502340376 0.190638632 0.662492275
0.648323894 0.183175266 0.657684803
0.783428073 0.187476531 0.659582555
0.923212826 0.229601622 0.667425632
0.055534575 0.270714581 0.648829520
0.133839086 0.266286910 0.636938334
0.241366461 0.273750365 0.644781828
0.370524943 0.275395095 0.647944391
0.506894648 0.278557986 0.651739597
0.643516541 0.278937548 0.651865900
0.782542527 0.284630179 0.655787528
0.927767158 0.335357130 0.677292883
0.086780548 0.377482623 0.644908249
0.153700188 0.376976550 0.639215767
0.262997925 0.384187281 0.648450255
0.387602895 0.388614625 0.647185266
0.519544423 0.389753282 0.647311807
0.657179058 0.395192683 0.653257191
0.785578489 0.402150542 0.653383851
0.927640736 0.456799209 0.681593895
0.175331905 0.507653534 0.643010855
0.225932553 0.503478885 0.646679401
0.322074652 0.509424567 0.650094926
0.434914589 0.513472676 0.654775321
0.556103706 0.514990449 0.653636754
0.675901055 0.521695197 0.661606431
0.798608661 0.531309485 0.669323325
0.930803180 0.587096810 0.705882370
0.299304277 0.632131755 0.659582853
0.333965957 0.631246209 0.661100626
0.396837264 0.631119490 0.659962177
0.497280180 0.635041177 0.663630605
0.611258447 0.644528925 0.671853125
0.715749502 0.657305300 0.681340754
0.827071548 0.668184996 0.691714287
0.942694545 0.723086655 0.743200243
0.443895817 0.755724251 0.680581808
0.458697140 0.759013295 0.683744073
0.512460351 0.758127630 0.687665999
0.592789233 0.758507192 0.691840649
0.678937614 0.772422552 0.702466547
0.783048749 0.789626837 0.731056273
0.866540611 0.800505579 0.743326843
0.954459310 0.835547149 0.783175349
0.660214841 0.909930170 0.781404316
0.682985425 0.908665359 0.774573028
0.700315833 0.907020688 0.780012608
0.743074000 0.912586868 0.786590636
0.802783012 0.915749371 0.799240947
0.855660737 0.921062469 0.812270403
0.911575139 0.925869823 0.821252465
0.975711346 0.934471726 0.836053371
0.119417772 0.205692768 0.868690431
0.193674713 0.204300776 0.867678881
0.306641281 0.208981678 0.867552280
0.441619277 0.211764619 0.863503933
0.585831761 0.220493436 0.863630772
0.726249278 0.234408438 0.869955599
0.861859679 0.262365699 0.864642620
0.979506612 0.306767374 0.860720634
0.146236107 0.260215044 0.870967686
0.204554200 0.257558793 0.867552161
0.320303798 0.258317769 0.867931545
0.454396099 0.261859328 0.863124371
0.590891778 0.270714790 0.868185043
0.725996256 0.283111960 0.865654588
0.859835744 0.306641459 0.858190596
0.975964487 0.345730245 0.857558608
0.194939747 0.354711890 0.858823538
0.247185588 0.348386884 0.858949721
0.351043820 0.353699863 0.860088468
0.474889219 0.359645784 0.865022182
0.604174554 0.370271981 0.861353517
0.740290821 0.383048594 0.858823538
0.859709024 0.403668284 0.858190596
0.979000688 0.434155405 0.860594511
0.296267986 0.477166206 0.851739168
0.338899493 0.474889427 0.851233304
0.416192055 0.478304833 0.858064353
0.514737248 0.486148238 0.857431769
0.634534955 0.490828454 0.852751434
0.751170158 0.500189841 0.855281413
0.864895701 0.513345838 0.854649007
0.970398486 0.533459544 0.851486206
0.415180206 0.601138353 0.853636801
0.440986753 0.603795171 0.858823180
0.502466857 0.609361053 0.853889883
0.581910014 0.612776816 0.853130877
0.674256980 0.616698086 0.854142785
0.770651340 0.624921083 0.854901671
0.871979713 0.631878555 0.854395747
0.969006777 0.641872108 0.855534434
0.517899990 0.719924212 0.860214829
0.534218669 0.723845601 0.865907729
0.576597154 0.727008164 0.858443737
0.643136978 0.725743353 0.857305467
0.713978410 0.730297565 0.856672704
0.795192719 0.735610247 0.863251209
0.884882808 0.741049767 0.864136577
0.964073420 0.752055347 0.867046237
0.610499740 0.829348207 0.872485399
0.616824746 0.834028840 0.865907609
0.650474131 0.828083038 0.866919875
0.696394742 0.831625521 0.872865260
0.756862879 0.833143711 0.868944049
0.819607794 0.838456988 0.871094465
0.892219782 0.842884243 0.875648618
0.965464890 0.851106822 0.887033105
0.688171566 0.924730718 0.888045788
0.698165774 0.927008033 0.888298273
0.722580612 0.925869584 0.888171554
0.758380771 0.925995886 0.886780202
0.800126255 0.927134573 0.889689803
0.861353755 0.925995886 0.893484592
0.913851976 0.932827115 0.904743850
0.971536756 0.949398756 0.931309640
