Assets/Resources/EldamarStudio/100 Horror LUTs Pack/LUTs/cube/Brainhunt LUT.cube
LUT_3D_SIZE 8
DOMAIN_MIN 0.000000 0.000000 0.000000
DOMAIN_MAX 0.903226 0.903226 0.903226
0.000000000 0.000000000 0.000000000
0.003036094 0.001517999 0.001138547
0.089943193 0.026691901 0.014168003
0.228209913 0.000000000 0.018469356
0.368754178 0.005439805 0.007843000
0.559645414 0.015813004 0.005945744
0.776596844 0.002277288 0.001644712
0.971789777 0.002656833 0.000000000
0.000000000 0.028083093 0.014168002
0.012523999 0.042251997 0.007463549
0.100569546 0.074003547 0.020113552
0.220746279 0.090828896 0.006704646
0.366350353 0.114737444 0.004807003
0.547248483 0.127261341 0.003542452
0.768500984 0.115749352 0.000000000
0.965465069 0.120303646 0.004807297
0.010247001 0.175332189 0.000000000
0.004301451 0.190765545 0.003542452
0.100316100 0.177735180 0.004680902
0.214927644 0.205565840 0.003542452
0.361669451 0.227197990 0.000759096
0.553067863 0.240101352 0.000000000
0.773561060 0.249209389 0.000000000
0.970904469 0.260721087 0.002530012
0.000000000 0.303731620 0.002276998
0.000379548 0.299683720 0.000000000
0.020746186 0.302340180 0.000759096
0.195192918 0.301581264 0.000000000
0.348513782 0.328273207 0.004301451
0.549778283 0.346616030 0.000000000
0.773307860 0.362175912 0.002783356
0.962681592 0.384566277 0.000000000
0.005439805 0.432384580 0.002403808
0.000758999 0.435547173 0.010246808
0.015180379 0.430866390 0.000000000
0.219228014 0.433522940 0.001138644
0.370018572 0.430866390 0.001518192
0.567741990 0.458570808 0.000379548
0.790006518 0.484124094 0.001518192
0.967741609 0.513725340 0.000000000
0.000000000 0.587476492 0.000000000
0.004553996 0.591397464 0.008602193
0.152687997 0.589626431 0.000759096
0.327640891 0.591397464 0.002024260
0.492346555 0.589753270 0.000379548
0.643643200 0.593295217 0.000000000
0.826565266 0.615686476 0.004048004
0.980139017 0.637444615 0.001517991
0.194813401 0.755724251 0.000000000
0.255154639 0.761037111 0.001897740
0.352814645 0.755218387 0.000000000
0.481341183 0.760151923 0.007211004
0.610499561 0.759013295 0.000000000
0.743959785 0.751296341 0.000758999
0.860974312 0.755724311 0.002277288
0.985198975 0.760531247 0.054522343
0.474003404 0.908918619 0.173434392
0.515496135 0.912586868 0.196710646
0.559392571 0.909550726 0.202909648
0.628083587 0.908918619 0.204427555
0.721189141 0.910436451 0.216824740
0.813535690 0.908918619 0.228336394
0.904870391 0.911195338 0.254775673
0.987222791 0.903604984 0.275521517
0.003542452 0.012523999 0.010120095
0.002656546 0.012523999 0.010120095
0.093865089 0.023908550 0.031246094
0.189753637 0.037570998 0.037571192
0.324984163 0.060974188 0.042631544
0.500189424 0.082985476 0.059076544
0.734598041 0.054016266 0.068817280
0.947375059 0.026691915 0.084377080
0.011765000 0.023403093 0.011258545
0.012523999 0.036306545 0.017963095
0.078557640 0.064516544 0.034788545
0.176091284 0.097027086 0.030866545
0.317140996 0.119797379 0.037950739
0.497912645 0.139405280 0.047691092
0.713219285 0.140037537 0.058950122
0.940543592 0.132321373 0.077798963
0.003922000 0.141682193 0.031625543
0.003162904 0.148386747 0.026565097
0.061353639 0.152688190 0.036812093
0.178114727 0.177735269 0.028968995
0.316888243 0.210246757 0.031245995
0.504111469 0.233396471 0.039089192
0.733586311 0.246426553 0.053004280
0.954585910 0.257938027 0.085388802
0.000000000 0.268057823 0.021378640
0.000379548 0.272106528 0.019101739
0.024794284 0.271727055 0.015560093
0.164200187 0.277166188 0.015559997
0.312081277 0.308539063 0.011385086
0.503731728 0.330043942 0.023782544
0.739784956 0.358633459 0.029474989
0.949019492 0.379759282 0.069829054
0.000379548 0.408475727 0.015686097
0.004680806 0.409740567 0.008475899
0.023150189 0.409234822 0.008475996
0.202403352 0.409993827 0.010879094
0.338646561 0.412776560 0.006451736
0.535863638 0.440480739 0.009740643
0.771537185 0.475395471 0.010879094
0.958001494 0.509424508 0.059329513
0.000000000 0.564452589 0.005313091
0.013662546 0.562555194 0.009993801
0.132827282 0.568500578 0.005313092
0.307274103 0.570524812 0.005692640
0.469070196 0.573561192 0.004174544
0.614926934 0.573940635 0.005313286
0.803921700 0.602277160 0.006072091
0.972675323 0.636306047 0.080708243
0.195319206 0.742061973 0.013282901
0.252751380 0.744085848 0.011132348
0.348133802 0.742061973 0.013030088
0.473877430 0.742441535 0.020240532
0.599873364 0.744085789 0.025806438
0.725237012 0.743706346 0.021631625
0.855154991 0.745983124 0.044402376
0.977356255 0.758507073 0.131941900
0.482605934 0.897533059 0.210499495
0.504111111 0.904111266 0.222390652
0.552055478 0.899177790 0.228463113
0.623655796 0.898798227 0.226691589
0.712586820 0.899304330 0.238583311
0.808728933 0.898671508 0.251612455
0.902087033 0.906514823 0.279063642
0.986463785 0.907273889 0.297027051
0.003922000 0.034408998 0.101707995
0.012523999 0.039595451 0.112840094
0.112081096 0.024288097 0.110436186
0.201265186 0.041492999 0.124984451
0.314105213 0.080581993 0.134724900
0.461986452 0.116761386 0.152688086
0.680834770 0.121694908 0.180139378
0.932447553 0.103226081 0.199620187
0.001517998 0.070967644 0.083618186
0.013283000 0.073624104 0.093231998
0.081467196 0.081087641 0.090449452
0.172296092 0.105755903 0.111195184
0.291334361 0.134345353 0.131309554
0.449083000 0.167615190 0.154712364
0.677798867 0.170904383 0.167994648
0.916508436 0.163693711 0.193548322
0.009487907 0.142568097 0.082226098
0.003921904 0.156356663 0.091587998
0.076787099 0.166856200 0.112839997
0.162935093 0.179759741 0.111954093
0.285009474 0.212270901 0.133839086
0.464642733 0.243263736 0.151422933
0.695003152 0.257052183 0.172295809
0.930423439 0.273624212 0.203415662
0.001517998 0.263630629 0.108665183
0.001138547 0.268437654 0.123845905
0.043643191 0.263630658 0.122580543
0.153699920 0.269450068 0.115876086
0.292346627 0.296774179 0.133080184
0.473750979 0.331688643 0.152688086
0.714863896 0.353953242 0.169007197
0.932574511 0.384313732 0.196964160
0.001517998 0.388615012 0.135483995
0.003162904 0.392789662 0.144971192
0.037697468 0.392410100 0.133712992
0.196205273 0.396331459 0.137760907
0.316761464 0.401897371 0.136242896
0.508159220 0.429222286 0.146868840
0.751549602 0.469955474 0.166856393
0.953193903 0.506768167 0.203289255
0.005819255 0.558127642 0.153826833
0.012903187 0.561543286 0.156609997
0.172928557 0.553320706 0.155724198
0.311827749 0.561163902 0.153447196
0.460847557 0.559519053 0.158633649
0.600885808 0.564579427 0.153826833
0.798608661 0.597596407 0.173560977
0.970271766 0.636432707 0.228083417
0.236685812 0.737128377 0.181530461
0.291967034 0.739278615 0.183048666
0.378367841 0.737760782 0.191650793
0.485515207 0.740670204 0.189879462
0.602023959 0.739405274 0.187096998
0.732574046 0.737001657 0.194307536
0.849968314 0.738393545 0.198482275
0.972422361 0.759772360 0.259202719
0.520303309 0.896900773 0.325236946
0.553573728 0.899557054 0.334977686
0.583175004 0.899050832 0.340543568
0.654143035 0.904617310 0.342315048
0.732700825 0.897153437 0.348007530
0.822517335 0.896268010 0.355850309
0.904870212 0.901327968 0.370271683
0.986590683 0.899050891 0.380771607
0.002783356 0.040354352 0.223782271
0.004174544 0.032258004 0.223276630
0.124857739 0.018342644 0.217583984
0.196331277 0.044908643 0.199620277
0.306135178 0.087286547 0.214548081
0.466160715 0.118658833 0.236306250
0.676913202 0.125490278 0.264136642
0.907779932 0.138899326 0.299051285
0.000000000 0.086780287 0.198735178
0.016824547 0.085136183 0.200379282
0.098924734 0.102087446 0.194433734
0.175205290 0.104364626 0.179127187
0.287286401 0.136116281 0.201264992
0.440101087 0.165591538 0.225427076
0.659709096 0.182669178 0.260721266
0.898671687 0.190259084 0.299051374
0.000000000 0.172548831 0.179506734
0.000379548 0.183554634 0.182289273
0.081341006 0.183554739 0.175205380
0.154458925 0.187856078 0.176091090
0.277039975 0.217584088 0.203542173
0.433017015 0.249841988 0.234535009
0.661100626 0.271473736 0.267805159
0.904743671 0.291461170 0.304870516
0.000000000 0.250094920 0.182795644
0.000000000 0.256040365 0.180771366
0.064262733 0.266919255 0.188615069
0.181277573 0.290449291 0.204174280
0.280329049 0.301455081 0.215306997
0.439848214 0.330803037 0.234788284
0.672612071 0.359392554 0.265907556
0.909424424 0.391397744 0.308918267
0.000000000 0.380518377 0.216192186
0.001517999 0.380139023 0.214421377
0.097659722 0.385704935 0.219607636
0.207463905 0.386843562 0.217584088
0.313851923 0.390006363 0.215559840
0.488425225 0.424035639 0.242251724
0.720050633 0.465654731 0.272232711
0.932195008 0.507779777 0.317141116
0.025806651 0.532700717 0.258191258
0.069449909 0.531941772 0.251612931
0.191650644 0.533459783 0.253510267
0.312460661 0.536622167 0.255914271
0.448070824 0.543326676 0.257937819
0.576091051 0.546489477 0.262618631
0.781657219 0.586464345 0.285515666
0.954079509 0.633270025 0.342188269
0.264263153 0.719924212 0.301075637
0.306388199 0.722327948 0.302593380
0.380518556 0.718026459 0.302340209
0.480961472 0.718785524 0.302972913
0.599367678 0.720050693 0.305376202
0.720556557 0.723972321 0.313598990
0.837697804 0.730550587 0.320935905
0.962175667 0.753826916 0.373687536
0.552308440 0.889184117 0.419101715
0.565211535 0.888298333 0.424541205
0.602403522 0.887412667 0.431372672
0.665148556 0.887665927 0.429348528
0.737381279 0.886780620 0.438203841
0.816824675 0.888298452 0.443390012
0.907906413 0.891587377 0.462239057
0.983680964 0.898418367 0.481720388
0.007210811 0.048576806 0.364453197
0.008602193 0.038709544 0.361923188
0.139405191 0.051612996 0.347881198
0.241999090 0.077166446 0.330550402
0.334345162 0.101707801 0.315623194
0.478937268 0.128525987 0.332574636
0.698038876 0.127134711 0.366350383
0.918279469 0.145603985 0.408855200
0.000000000 0.115876094 0.329284817
0.002656546 0.128526092 0.330802977
0.127767101 0.135104343 0.326375753
0.226818442 0.141808897 0.313851863
0.305755705 0.153953537 0.298165649
0.460847706 0.172675744 0.317267179
0.679696083 0.183934554 0.359519154
0.904617190 0.199367449 0.398482174
0.002403808 0.216192096 0.303099096
0.002656643 0.223402902 0.291334391
0.111954190 0.222390994 0.289816290
0.198355541 0.227577537 0.289816290
0.289563477 0.231119379 0.283491284
0.446805537 0.252624631 0.312713623
0.679190457 0.273497880 0.361669660
0.907147348 0.300569147 0.409361273
0.005186551 0.299304277 0.287413001
0.003036094 0.305629194 0.296647638
0.107906185 0.303478628 0.287413180
0.213915005 0.314864069 0.283744544
0.303478658 0.317646831 0.292346627
0.465022206 0.344718188 0.324351847
0.684503496 0.369639486 0.362681806
0.898797989 0.411511719 0.417710632
0.003035997 0.376849979 0.282479167
0.007337352 0.385958523 0.293737978
0.136748999 0.392536163 0.289690197
0.267552286 0.410499364 0.313978195
0.389626563 0.430866361 0.334345192
0.521062434 0.442631394 0.342947185
0.720809817 0.470714569 0.374952674
0.929284990 0.515622795 0.432764351
0.078937188 0.533080041 0.345730454
0.150031820 0.533712864 0.347501546
0.251359820 0.536875010 0.349905163
0.359013528 0.544718504 0.356609732
0.467425704 0.543200731 0.359392673
0.596204698 0.551296473 0.363314182
0.784946084 0.588108540 0.405819088
0.946362913 0.639089227 0.466540158
0.332321018 0.713345528 0.409993440
0.378241628 0.711827815 0.424541265
0.428336561 0.713472426 0.417836666
0.507526755 0.711954236 0.417457193
0.612649918 0.714358091 0.422897100
0.724098504 0.713472247 0.423656106
0.831751883 0.723466456 0.432637483
0.959013343 0.755344987 0.489943147
0.600126624 0.884123743 0.535736740
0.618342638 0.881087780 0.539658308
0.641366303 0.882858753 0.544212341
0.696015418 0.880961239 0.537001789
0.757242262 0.885262430 0.550537646
0.829601288 0.890069544 0.559772253
0.908412039 0.888045788 0.571157694
0.984692752 0.893484950 0.587855399
0.000000000 0.085894987 0.518532693
0.003795093 0.089057282 0.507526815
0.173940733 0.099557243 0.506767750
0.296268344 0.117393985 0.490702450
0.420872658 0.125743449 0.474003941
0.537761152 0.135230735 0.458064437
0.721821368 0.127387732 0.474509567
0.930044472 0.155091703 0.522960365
0.000000000 0.158507347 0.476913005
0.009740644 0.163441077 0.481973648
0.154585361 0.169007286 0.478937358
0.281720281 0.173687384 0.465654552
0.401517898 0.180139273 0.455914110
0.516761184 0.180518731 0.439974666
0.694623768 0.185072809 0.460215449
0.922453761 0.204174459 0.519417882
0.001138644 0.264642447 0.454016477
0.013662376 0.262112379 0.459709018
0.157621652 0.262618750 0.445288062
0.274256825 0.263503999 0.443264008
0.392157018 0.265148759 0.434788167
0.504364491 0.266034365 0.425300300
0.701454461 0.276407450 0.460594803
0.917646646 0.305502832 0.523592472
0.001138644 0.346995622 0.437697709
0.034535095 0.351043642 0.436685443
0.175585166 0.350284725 0.424794644
0.272739083 0.353826463 0.418595463
0.386337399 0.351549536 0.418848991
0.499177456 0.351170123 0.411511481
0.706514835 0.370777816 0.460594714
0.916002452 0.421631932 0.520176947
0.010119998 0.443516940 0.421631724
0.084503382 0.439468712 0.432890654
0.202909544 0.439974457 0.424541175
0.313852012 0.448323727 0.427704096
0.438962400 0.456167102 0.432764351
0.562555671 0.460088611 0.449841708
0.745097995 0.486653924 0.485641927
0.919797301 0.544971466 0.547375202
0.128146440 0.538140237 0.430487454
0.177861989 0.539658189 0.434535205
0.275648445 0.544085920 0.438836336
0.393548101 0.553953171 0.454396009
0.542061865 0.573940456 0.482099652
0.667299151 0.593168676 0.501075447
0.799873531 0.611891031 0.525743425
0.937634468 0.654522419 0.576723516
0.365338296 0.708285809 0.509297729
0.391018301 0.705123305 0.510689259
0.455787271 0.707020521 0.518532932
0.543326676 0.709550619 0.527767301
0.657305419 0.715876162 0.543200672
0.738140762 0.719417810 0.542947471
0.834028840 0.721062779 0.552688181
0.952687919 0.764705777 0.613029659
0.645667315 0.873497665 0.634408355
0.656166911 0.871347368 0.634028971
0.688930809 0.869070351 0.645034552
0.730550289 0.874889374 0.648070693
0.774193287 0.875015616 0.647185326
0.838962615 0.877039850 0.651612639
0.901201308 0.886401057 0.664010227
0.975837946 0.895256042 0.677672505
0.003289004 0.154838577 0.696268260
0.026565341 0.154585540 0.694370508
0.222643852 0.159772292 0.690828443
0.380265534 0.159266353 0.683997154
0.532068491 0.154965088 0.672612548
0.675015688 0.146362990 0.658190787
0.814168155 0.130043998 0.642631292
0.939152598 0.171284065 0.649588704
0.000379548 0.213662282 0.680581808
0.046678916 0.215053543 0.671094298
0.225553438 0.213409245 0.671853364
0.377103388 0.214800626 0.662745178
0.521948338 0.211258650 0.654269278
0.664768994 0.202403545 0.649968266
0.794940114 0.194054276 0.633143544
0.936875105 0.219354600 0.641872406
0.006831093 0.310815781 0.654016495
0.109550849 0.309171170 0.657811403
0.249335542 0.307779819 0.656166852
0.385958195 0.308539093 0.649336040
0.525869608 0.302973002 0.645034790
0.664895296 0.295129359 0.640480518
0.789752901 0.291334689 0.626059651
0.926754951 0.317267627 0.641619086
0.098924756 0.416571558 0.630866826
0.178874090 0.413409352 0.631498992
0.280708194 0.409867227 0.628589511
0.399493814 0.409866899 0.628589511
0.532194912 0.407084256 0.619607687
0.664010227 0.400505930 0.621758282
0.783428073 0.396457911 0.614674211
0.926881552 0.430739880 0.643010914
0.189626828 0.512207508 0.619734466
0.243895993 0.511701643 0.624541163
0.333586365 0.513725281 0.617583632
0.444149524 0.513725281 0.616445065
0.556989014 0.508159339 0.614547849
0.675395250 0.505123258 0.612270594
0.790512025 0.504870355 0.616824508
0.931562126 0.553320527 0.659203172
0.308159739 0.618595779 0.622770309
0.337507844 0.619987071 0.629095197
0.408349186 0.618469119 0.621631861
0.502719879 0.614800751 0.623782277
0.618469357 0.621505201 0.632890344
0.730550468 0.626185775 0.634155869
0.830360532 0.635294497 0.645161331
0.939911187 0.679949343 0.689816296
0.403288841 0.718785524 0.632131815
0.429981261 0.712966263 0.632637501
0.484629631 0.714104652 0.626185775
0.569386542 0.717014611 0.630866826
0.674003839 0.723719239 0.645920277
0.783428311 0.738772810 0.669956028
0.866540551 0.761922538 0.694623590
0.952434957 0.785072684 0.731688976
0.652118921 0.870588422 0.720303357
0.669196606 0.873497844 0.727767348
0.690322578 0.874003947 0.724225163
0.739278913 0.873497784 0.729159057
0.800759017 0.875774682 0.745097995
0.851992071 0.882099628 0.756103992
0.904111505 0.885135889 0.762428641
0.960910320 0.890069604 0.770145357
0.121442184 0.244908437 0.867172599
0.206704229 0.245161176 0.868058205
0.331435710 0.248956442 0.858317614
0.466287225 0.248956248 0.861985743
0.621126175 0.248829767 0.854269564
0.750537336 0.252624750 0.849715471
0.882352769 0.264010310 0.845414162
0.987349629 0.285768390 0.838456750
0.160783708 0.291967154 0.864389658
0.229222104 0.292852759 0.862618446
0.342820704 0.289689839 0.854395926
0.477925509 0.295509040 0.851992369
0.620999157 0.293105513 0.852498233
0.756862700 0.300442457 0.845287919
0.879190385 0.304111302 0.840480387
0.988235235 0.322833121 0.833017170
0.252371490 0.386843801 0.850347519
0.304237485 0.385958165 0.849209130
0.397343516 0.384946048 0.847058892
0.513346016 0.381404191 0.845414162
0.639848113 0.384946048 0.843263626
0.765591443 0.390764952 0.839595437
0.881340861 0.395193160 0.835926473
0.987349570 0.406577796 0.835294187
0.371916652 0.493738234 0.834408224
0.403921217 0.492599607 0.838330269
0.471220285 0.493864447 0.837950706
0.567109227 0.495509028 0.836053252
0.664263010 0.496900707 0.828083158
0.777482331 0.495509028 0.825679719
0.881973445 0.499430776 0.828209877
0.978241742 0.507400215 0.821378827
0.463630229 0.594307125 0.828589618
0.493484914 0.599114478 0.831498921
0.546362698 0.603541791 0.827071190
0.622896612 0.604680419 0.824035227
0.707400501 0.604680419 0.824414790
0.795825362 0.606578052 0.823402882
0.887033224 0.605692565 0.820999205
0.974193215 0.610119939 0.823782563
0.546362936 0.693358719 0.832637310
0.565211892 0.696900666 0.829727709
0.610120058 0.700063348 0.825679779
0.672105968 0.702340305 0.824288607
0.742567956 0.706135213 0.820999146
0.819987535 0.707779527 0.822896600
0.890954792 0.712460220 0.825300455
0.959518850 0.713598788 0.820240438
0.618975163 0.791144609 0.841872394
0.631372571 0.791398048 0.832004905
0.662239313 0.791398048 0.829348505
0.713598847 0.793927729 0.829348207
0.773181438 0.794939637 0.831625342
0.836559474 0.796837330 0.827324510
0.898418546 0.802782595 0.832637489
0.963061512 0.812270880 0.836559296
0.674003422 0.894623578 0.831878603
0.677672267 0.887539625 0.835546851
0.708791792 0.886147857 0.841239452
0.751423061 0.885515451 0.837065101
0.797469795 0.882732391 0.838330269
0.858190894 0.884756327 0.843769729
0.914610982 0.894244015 0.858443916
0.967615783 0.911574721 0.877672434
