Assets/Resources/EldamarStudio/100 Horror LUTs Pack/LUTs/cube/Brainhunt LUT.cube
DOMAIN_MIN 0 0 0
DOMAIN_MAX 1 1 1
LUT_3D_SIZE 32
0.000000000 0.000000000 0.000000000
0.000000000 0.000000000 0.006072000
0.000000000 0.000000000 0.007843000
0.000000000 0.000000000 0.005313001
0.003036094 0.001517999 0.001138547
0.027324868 0.013661998 0.010246934
0.049083319 0.018216323 0.011765000
0.068690993 0.022896998 0.013409289
0.089943193 0.026691901 0.014168003
0.120304003 0.023655506 0.008096005
0.162302732 0.006072003 0.016571870
0.196710974 0.000000000 0.019608000
0.228209913 0.000000000 0.018469356
0.261353999 0.000000000 0.015433032
0.291713953 0.000000000 0.012397422
0.329285383 0.002403804 0.009361196
0.368754178 0.005439805 0.007843000
0.410752684 0.009107992 0.007210585
0.462365955 0.015180004 0.004174971
0.508412361 0.018469358 0.006704647
0.559645414 0.015813004 0.005945744
0.612270474 0.009741003 0.002909872
0.661227465 0.003795488 0.000126512
0.718911886 0.000759096 0.003162904
0.776596844 0.002277288 0.001644712
0.832890272 0.002530328 0.000000000
0.886021197 0.000000000 0.000000000
0.931562304 0.000000000 0.000000000
0.971789777 0.002656833 0.000000000
0.993548214 0.012776729 0.012397162
0.999114394 0.039468370 0.035420571
0.996078014 0.094117999 0.062744997
0.000000000 0.000000000 0.000000000
0.000000000 0.003036387 0.000000000
0.004300999 0.000885613 0.003921774
0.006072000 0.001265161 0.003542226
0.007210547 0.004933837 0.000379548
0.018216480 0.019733999 0.004174934
0.047565252 0.021758001 0.025932997
0.071979985 0.025933029 0.020114008
0.096774086 0.028969197 0.012650387
0.129411608 0.023655513 0.011132389
0.156862482 0.020619869 0.013788517
0.192662984 0.013156130 0.018595869
0.225174025 0.011005646 0.018469356
0.258823663 0.009108387 0.015180000
0.294750363 0.009108387 0.009361035
0.329917997 0.016318575 0.003921618
0.368754178 0.025173996 0.001771000
0.408222526 0.034029182 0.002403577
0.450221181 0.042504393 0.004174971
0.504617691 0.045793742 0.006704647
0.556609809 0.046932384 0.004048004
0.611258626 0.042125262 0.000885613
0.664136589 0.034029007 0.000126512
0.718911886 0.028083483 0.003162904
0.772042811 0.015939105 0.001644712
0.826818287 0.008855306 0.000000000
0.880455136 0.003036387 0.000506064
0.928525865 0.003036387 0.003036387
0.974067032 0.011005529 0.000379554
0.993042171 0.036053173 0.005313199
0.996963620 0.067552105 0.025933169
0.996078014 0.109297611 0.059709385
0.000000000 0.000000000 0.000000000
0.000000000 0.000885613 0.000000000
0.000000000 0.001771226 0.004300999
0.007337161 0.003795161 0.004807387
0.011891320 0.008602452 0.002909773
0.024541710 0.016698062 0.007716935
0.044908635 0.027830549 0.009108223
0.073624693 0.029474836 0.020240227
0.099177867 0.034282327 0.011132225
0.129791275 0.032384582 0.013915228
0.159518868 0.037823871 0.016824903
0.188867494 0.036812000 0.015812518
0.223276511 0.033902422 0.017457226
0.257685035 0.031625770 0.014927032
0.292220026 0.035420772 0.006957781
0.330803603 0.040480733 0.003036004
0.370272368 0.048070543 0.000000000
0.411005884 0.058317568 0.000000000
0.451992571 0.067425586 0.001518195
0.501075447 0.073118128 0.002403648
0.555724442 0.074256770 0.007336996
0.608349264 0.072232768 0.002277002
0.660847485 0.064263046 0.000000000
0.717520595 0.056166772 0.001012130
0.772042811 0.049715266 0.001644712
0.825047255 0.037317887 0.000000000
0.878684103 0.029727999 0.000506064
0.927260816 0.029727999 0.003542448
0.971030653 0.041998688 0.001265167
0.993548214 0.061732691 0.005313199
0.996963620 0.096141569 0.021505563
0.998228788 0.128778771 0.056673225
0.000000000 0.007589999 0.005059999
0.000000000 0.010120321 0.000000000
0.000000000 0.011385159 0.001771000
0.003795161 0.012650320 0.007843000
0.013282998 0.020620160 0.005566387
0.027577775 0.022770386 0.010753000
0.050348155 0.033396639 0.009234678
0.073624693 0.044402447 0.012902999
0.101707995 0.046679158 0.010626098
0.129538327 0.049209490 0.014168164
0.155976996 0.056799289 0.016065871
0.188867494 0.062365480 0.015053745
0.221505284 0.063503839 0.012017647
0.257432073 0.061480157 0.011638130
0.289816529 0.067552149 0.004554268
0.328020215 0.074889317 0.004048196
0.369007200 0.079696156 0.000000000
0.411511928 0.085768312 0.001264991
0.454016834 0.094244294 0.002529998
0.502087593 0.098039329 0.001265161
0.551929295 0.101581156 0.002530158
0.608602345 0.101581156 0.007590031
0.658444107 0.096015170 0.002277007
0.714990735 0.088045418 0.000000000
0.770398557 0.079949163 0.000000000
0.821252406 0.077545814 0.000000000
0.875901282 0.069449410 0.001011999
0.925996006 0.068690315 0.004807287
0.969259739 0.080708288 0.002530328
0.993042171 0.096647456 0.001518038
0.997343183 0.122200906 0.019481394
1.000000000 0.148766324 0.053636838
0.000000000 0.028083093 0.014168002
0.000379548 0.033017319 0.005059999
0.000379548 0.037318323 0.001138547
0.002656613 0.039974704 0.001771000
0.012523999 0.042251997 0.007463549
0.024667997 0.042251997 0.010499937
0.049462318 0.051992543 0.009614226
0.074762858 0.064136542 0.012523544
0.100569546 0.074003547 0.020113552
0.130929559 0.074003555 0.011005936
0.154458880 0.079822548 0.011385452
0.183933944 0.085895061 0.008981745
0.220746279 0.090828896 0.006704646
0.256673068 0.093864575 0.003668968
0.287033796 0.099810094 0.000632584
0.326122761 0.109044895 0.004427544
0.366350353 0.114737444 0.004807003
0.408475578 0.118405700 0.000505992
0.450980455 0.124478482 0.006577998
0.498671770 0.125363991 0.005060352
0.547248483 0.127261341 0.003542452
0.599114418 0.128905535 0.004174870
0.659709454 0.128779054 0.007084001
0.714611292 0.122960091 0.001517999
0.768500984 0.115749352 0.000000000
0.820872962 0.111068763 0.000000000
0.866793573 0.113852024 0.000632548
0.921442270 0.110815644 0.006704542
0.965465069 0.120303646 0.004807297
0.990259409 0.132068500 0.002150783
1.000000000 0.145730585 0.009234556
1.000000000 0.166983008 0.048703004
0.000000000 0.064515866 0.002024001
0.003036387 0.061480254 0.014168001
0.003415935 0.066413932 0.011511773
0.002150774 0.069449872 0.006451773
0.003415613 0.069576383 0.001391549
0.018595999 0.066539995 0.004427936
0.043390319 0.074130319 0.009994000
0.067425698 0.085388929 0.007969938
0.091461256 0.096014932 0.005692843
0.121821955 0.101327933 0.001897552
0.158000931 0.107146926 0.007337064
0.181783244 0.113219440 0.004301069
0.212396994 0.118153282 0.002150645
0.250601083 0.121188954 0.003668968
0.280961812 0.124225341 0.000632584
0.328146756 0.137381673 0.002403804
0.370145380 0.143959865 0.002909744
0.408222526 0.145730793 0.000000001
0.447944075 0.151802868 0.000506004
0.493232191 0.155091584 0.003795357
0.541176498 0.157621741 0.002024260
0.591777265 0.158633739 0.000506065
0.647564590 0.156103462 0.001012001
0.705249846 0.153067827 0.001012001
0.755597591 0.151802868 0.000000000
0.810752690 0.147501811 0.000000000
0.866414070 0.144465804 0.000506064
0.912333906 0.147248417 0.003668929
0.956356704 0.152181864 0.001771104
0.981151044 0.161037192 0.000506065
0.992409647 0.171536908 0.006198581
1.000000000 0.185198992 0.030487003
0.000000000 0.111068636 0.000000000
0.000506065 0.110562697 0.002024001
0.001391678 0.113978311 0.005566002
0.001391678 0.117520317 0.004174679
0.001517999 0.116761312 0.000000000
0.014547612 0.111574702 0.000885613
0.037318315 0.108538955 0.001391678
0.071220696 0.116002634 0.005819387
0.098545186 0.126375645 0.003922001
0.125363976 0.135989636 0.002656840
0.159013316 0.139531970 0.005818999
0.191397816 0.145603955 0.007843000
0.218722284 0.151676312 0.002783001
0.254902035 0.156103671 0.001391678
0.287539482 0.159140050 0.000632584
0.327514261 0.166982830 0.000000000
0.372675568 0.177355990 0.001391678
0.412017852 0.180012569 0.000000000
0.455281347 0.184187323 0.000000001
0.502846122 0.184946284 0.000253035
0.552182198 0.186084643 0.003289418
0.604427636 0.186464190 0.001518194
0.660468102 0.183554322 0.000000000
0.713345706 0.182921901 0.000000000
0.773308098 0.182163000 0.000000000
0.824288249 0.183554679 0.001391672
0.879569769 0.181910321 0.003542321
0.927134395 0.182922184 0.008602448
0.962428927 0.188614637 0.001265167
0.987223268 0.198228598 0.000000000
0.994054317 0.211637899 0.014168152
0.994939983 0.228715628 0.050221317
0.004933705 0.146489412 0.000000000
0.000000000 0.151423112 0.001644708
0.000000000 0.152435109 0.001644708
0.001265161 0.158507109 0.001644708
0.001265160 0.158886567 0.002783159
0.007084005 0.154079393 0.006577994
0.030992936 0.150537714 0.000000000
0.068437688 0.145856977 0.001644708
0.104111195 0.152688071 0.004680903
0.128399983 0.163946703 0.005566290
0.158127874 0.169006854 0.006831129
0.189500496 0.174066976 0.006198711
0.220999643 0.181277633 0.005060067
0.254396051 0.187602729 0.000253032
0.287792385 0.190639108 0.001644708
0.326754868 0.196837589 0.000000000
0.370777845 0.202909201 0.000000000
0.411132395 0.209487274 0.000632576
0.455661029 0.214547664 0.001644707
0.505629480 0.213156402 0.000000000
0.556103468 0.214800701 0.000253032
0.609740615 0.215812832 0.002277292
0.667299211 0.214294598 0.000000000
0.720429897 0.215812400 0.000000000
0.775585115 0.214168116 0.000000000
0.833523273 0.215559438 0.000000000
0.884376764 0.218595758 0.003289291
0.931814849 0.219734401 0.009361286
0.970398486 0.225047395 0.003795180
0.991397977 0.229728073 0.000000000
0.999114394 0.243643090 0.012397162
0.993801296 0.264136404 0.059456002
0.010247001 0.175332189 0.000000000
0.002656613 0.183681473 0.002277291
0.000000000 0.185578987 0.004680902
0.001265161 0.185832083 0.003162904
0.004301451 0.190765545 0.003542452
0.002024063 0.187729150 0.011891163
0.018975222 0.184693411 0.006325098
0.055534400 0.181530863 0.000885612
0.100316100 0.177735180 0.004680902
0.124604888 0.186843574 0.007716515
0.153320774 0.192283183 0.007084097
0.181910321 0.198355198 0.005060164
0.214927644 0.205565840 0.003542452
0.248324037 0.214168161 0.000506064
0.281720400 0.217204422 0.002530320
0.320682853 0.223403081 0.001518196
0.361669451 0.227197990 0.000759096
0.409108162 0.231498763 0.000759095
0.452119082 0.240607157 0.003668965
0.501455069 0.240101352 0.001138643
0.553067863 0.240101352 0.000000000
0.606704473 0.242378131 0.000759096
0.664389551 0.245414510 0.000632584
0.719670832 0.248450294 0.000000000
0.773561060 0.249209389 0.000000000
0.828210175 0.248197511 0.000759096
0.881341100 0.251233250 0.000759096
0.926881492 0.254269660 0.006325090
0.970904469 0.260721087 0.002530012
0.991397977 0.265781224 0.000000000
0.998355508 0.272486061 0.012397160
0.995319128 0.290702105 0.054901998
0.004174999 0.217836976 0.000000000
0.001138612 0.223908976 0.000000000
0.000000000 0.223655730 0.004427513
0.001265162 0.220746174 0.005186514
0.004301453 0.218089938 0.000506064
0.007337061 0.215053558 0.003542453
0.012649992 0.212017834 0.004301484
0.037697617 0.210626513 0.002150777
0.076028079 0.211132377 0.001644515
0.109424502 0.214167982 0.007716512
0.142441377 0.217457354 0.004933869
0.171536759 0.222643986 0.002024227
0.203541949 0.229854628 0.001265160
0.242252037 0.238456950 0.003542450
0.275648415 0.241492569 0.000506067
0.316255569 0.249335811 0.000126516
0.357115656 0.253763497 0.001518191
0.399999768 0.255787581 0.003795482
0.454649448 0.264895976 0.003795481
0.500442863 0.268437654 0.001138643
0.550031722 0.269323051 0.000000001
0.603668869 0.269449532 0.001012129
0.661353946 0.269702554 0.003668970
0.719038427 0.272738934 0.000632580
0.772042811 0.278052002 0.000000000
0.825173795 0.280961514 0.001391673
0.878304720 0.281594068 0.003795485
0.923845828 0.284630448 0.003795483
0.977356017 0.292979121 0.001391651
0.999494016 0.300189495 0.000000000
0.998229027 0.308791608 0.012397160
0.992283463 0.324098468 0.054901991
0.003922000 0.234155864 0.000000000
0.000885613 0.240227863 0.000000000
0.000000000 0.248450637 0.000000000
0.002529999 0.247185275 0.002024001
0.006072129 0.243643075 0.000758999
0.001518066 0.248197660 0.006325063
0.002024001 0.242630959 0.004301452
0.025426693 0.242504701 0.003922000
0.065654442 0.244528964 0.004427868
0.105502628 0.247565120 0.010499866
0.127260998 0.244781733 0.002024001
0.160657883 0.247818112 0.001012129
0.196584493 0.251866102 0.000000000
0.239089161 0.256926030 0.001012129
0.272485524 0.259962320 0.000632583
0.313092709 0.267804921 0.000000000
0.358633488 0.278431356 0.000000000
0.402909100 0.284630150 0.001012129
0.448450208 0.289183974 0.001012129
0.503099740 0.292726338 0.001012129
0.552814603 0.297659755 0.001897740
0.603415370 0.299683750 0.001897743
0.655407786 0.299810231 0.001012129
0.713092864 0.302845895 0.000759096
0.770777822 0.303604990 0.000000000
0.826438963 0.308412373 0.002782990
0.881593943 0.311954677 0.005819130
0.929538310 0.314990431 0.001012130
0.964452744 0.320682973 0.001012129
0.992536128 0.327766836 0.000000000
0.997090161 0.334724486 0.009740562
0.995066106 0.345856875 0.046173129
0.001897744 0.269576222 0.000000000
0.000885613 0.265528500 0.000000000
0.002024256 0.271727026 0.000000000
0.000759095 0.275775075 0.000000000
0.003795004 0.271220505 0.000000000
0.001012001 0.274003863 0.002783003
0.002024256 0.274003863 0.009361319
0.003668545 0.271220505 0.003036291
0.043896142 0.273118258 0.001897744
0.093991265 0.274889469 0.005439746
0.130296856 0.274130374 0.003036130
0.157621488 0.273118258 0.000000000
0.191018373 0.277292967 0.000000000
0.232257813 0.280961245 0.000000000
0.267425388 0.282226384 0.000000000
0.306008846 0.294117719 0.002024256
0.353067428 0.300189704 0.003542061
0.402150095 0.308918655 0.002783005
0.447438002 0.311954290 0.000000000
0.497026920 0.317014337 0.000000000
0.547881424 0.320050716 0.000000000
0.599367380 0.324984133 0.001897744
0.649588466 0.326122493 0.000126512
0.711068690 0.329158574 0.002024256
0.766729593 0.331941754 0.002024256
0.821631730 0.334724754 0.003415574
0.876533806 0.341303170 0.006831001
0.925110579 0.347374797 0.000759007
0.966476738 0.349019229 0.000000000
0.989247143 0.356862426 0.003541982
0.998102248 0.364073098 0.009361194
0.998102248 0.373181492 0.037065264
0.000000000 0.303731620 0.002276998
0.000000000 0.300316364 0.001138644
0.001012130 0.300822616 0.000000000
0.002656839 0.301961094 0.000000000
0.000379548 0.299683720 0.000000000
0.001138644 0.300442636 0.000000000
0.001391678 0.299304277 0.004174680
0.003289291 0.301581293 0.006831295
0.020746186 0.302340180 0.000759096
0.081467681 0.302719623 0.001138644
0.127007991 0.301581293 0.000000000
0.161416501 0.301581293 0.000000000
0.195192918 0.301581264 0.000000000
0.228842273 0.307400227 0.000000000
0.265274793 0.308285624 0.000000000
0.304111421 0.315749437 0.003542158
0.348513782 0.328273207 0.004301451
0.399493724 0.332574576 0.006072072
0.448070645 0.336622328 0.000506004
0.498924375 0.342441291 0.004553996
0.549778283 0.346616030 0.000000000
0.602403820 0.350664288 0.000000000
0.654522240 0.354079396 0.000000000
0.715243340 0.359139532 0.002024260
0.773307860 0.362175912 0.002783356
0.824288011 0.366603643 0.003036320
0.874889195 0.372169703 0.005566002
0.922833502 0.380012482 0.000759007
0.962681592 0.384566277 0.000000000
0.986970127 0.389879465 0.002403628
0.998608351 0.398102283 0.019101808
0.998861372 0.406957626 0.039342638
0.000000000 0.320683062 0.007337000
0.000253032 0.326502025 0.005313387
0.000000000 0.330170780 0.001771226
0.000253032 0.329917997 0.000253032
0.000126516 0.324984491 0.000253032
0.003162903 0.328020126 0.000253032
0.001391678 0.326249361 0.000000000
0.000253032 0.327388018 0.000253032
0.014421218 0.332447946 0.000506064
0.075142033 0.335483551 0.003542450
0.124477737 0.333206922 0.001012129
0.161922500 0.332195044 0.000000000
0.195192918 0.331942022 0.000000000
0.234156027 0.332195044 0.000759032
0.270588011 0.335230649 0.000759032
0.308918357 0.338266879 0.004554028
0.353700370 0.345098019 0.006072163
0.402277082 0.356862575 0.003289425
0.450854003 0.365970969 0.000253045
0.504996717 0.372296065 0.010120009
0.559645414 0.376723766 0.008096008
0.616065443 0.381278038 0.000505999
0.676533937 0.387350023 0.000379519
0.731182814 0.396331161 0.000253032
0.788108766 0.401138306 0.000000000
0.840733588 0.405313045 0.000000000
0.886274159 0.410879076 0.000000000
0.931815267 0.413915455 0.000000000
0.966982722 0.422011256 0.000000000
0.985958159 0.431119204 0.001518185
0.993295372 0.439089060 0.016066128
0.996331036 0.445161045 0.058570966
0.000000000 0.357115805 0.001265006
0.003036387 0.360151410 0.010373392
0.001138642 0.361669391 0.004048220
0.001265161 0.362301975 0.001265161
0.002909868 0.361416519 0.003289416
0.000126519 0.364452869 0.003289416
0.000632584 0.364958793 0.000759094
0.001644708 0.362681687 0.001644708
0.015433604 0.362301975 0.002530320
0.066034429 0.362807930 0.000506067
0.118026294 0.365844280 0.000632583
0.162934497 0.365591377 0.000000000
0.199493915 0.364452749 0.000000000
0.234156027 0.362554997 0.000759032
0.267552406 0.365591407 0.009867410
0.301581234 0.368627638 0.005060414
0.348387152 0.371663630 0.003036230
0.402277082 0.378494352 0.000632584
0.450854003 0.390258938 0.000253033
0.504996717 0.396584690 0.000000002
0.559645414 0.402656794 0.002530012
0.615306377 0.410120398 0.002023998
0.673497558 0.420746386 0.006451514
0.728146434 0.426818401 0.003415896
0.785072386 0.433522791 0.001012128
0.839974523 0.437571049 0.000000000
0.889310479 0.441239744 0.000000000
0.934850872 0.444275409 0.000000000
0.972422183 0.449968636 0.000000000
0.990512013 0.458443969 0.000000000
0.996331215 0.465781003 0.013029745
0.999367416 0.469449818 0.055534583
0.002403804 0.395951778 0.002403804
0.000632583 0.394181013 0.001897587
0.001518196 0.395066410 0.004554200
0.000000000 0.397596419 0.003795161
0.001897744 0.399493873 0.007969996
0.002909869 0.398481727 0.003922000
0.000000000 0.398987800 0.001391678
0.000000000 0.398987800 0.000000000
0.014421481 0.397469610 0.001518196
0.064643003 0.397469610 0.000126516
0.118532665 0.397975683 0.000000000
0.166097045 0.398987800 0.000000000
0.207842916 0.396710783 0.000000000
0.243770018 0.392915606 0.000000000
0.277166367 0.395952016 0.002656610
0.315369785 0.398987800 0.004554200
0.350284368 0.400505990 0.001518196
0.401770860 0.403288782 0.000000000
0.455660999 0.411890805 0.000000000
0.507400513 0.423276484 0.000000000
0.567741990 0.431246042 0.001897740
0.623908877 0.437824249 0.003415674
0.679949284 0.446932584 0.007590008
0.732321441 0.453004599 0.002277099
0.786970139 0.456799299 0.001518196
0.838962376 0.464136422 0.000000000
0.888045311 0.469702780 0.000000000
0.935483396 0.474636137 0.000000000
0.968247592 0.480328649 0.000000000
0.992283165 0.489942938 0.000000000
0.996710837 0.497912377 0.015053760
0.995193005 0.500948787 0.062112797
0.005439805 0.432384580 0.002403808
0.002403805 0.427830398 0.002403805
0.000000000 0.429981381 0.000000000
0.000000000 0.431246221 0.002529999
0.000758999 0.435547173 0.010246808
0.004933740 0.431372464 0.006451806
0.004427675 0.427830398 0.002909870
0.001518192 0.430866390 0.000000000
0.015180379 0.430866390 0.000000000
0.067552485 0.430866390 0.000000001
0.126628920 0.427830398 0.001518192
0.173687622 0.432384580 0.000000000
0.219228014 0.433522940 0.001138644
0.259456098 0.428336322 0.001265160
0.295382768 0.426312417 0.000000000
0.330550164 0.429348588 0.000000000
0.370018572 0.430866390 0.001518192
0.407716304 0.431498975 0.000885616
0.460973948 0.436685562 0.000000000
0.514610887 0.445287913 0.000000000
0.567741990 0.458570808 0.000379548
0.629475236 0.466666549 0.002403808
0.684377015 0.472865671 0.005059995
0.734598517 0.480328977 0.004553996
0.790006518 0.484124094 0.001518192
0.841872275 0.488551378 0.001518192
0.886527240 0.497533232 0.001012128
0.932067811 0.504617333 0.000000000
0.967741609 0.513725340 0.000000000
0.986211121 0.515749156 0.004554189
0.998734951 0.527893364 0.019607725
0.995193005 0.532827377 0.071220800
0.007210584 0.464516550 0.000000000
0.005439803 0.460973918 0.003668801
0.002403802 0.461606532 0.001771227
0.001264990 0.467046380 0.001265009
0.000505992 0.470082074 0.006578010
0.005566008 0.464769095 0.006578009
0.007210584 0.458064526 0.005313322
0.007463718 0.457938105 0.002277292
0.025806719 0.462492108 0.001264990
0.080455542 0.462492108 0.001264992
0.140038162 0.457938105 0.002277295
0.191524461 0.460721225 0.002530320
0.232637778 0.467552483 0.001138643
0.277925223 0.470841140 0.003922000
0.317773759 0.463630289 0.001265160
0.353700340 0.461606354 0.000000000
0.388235331 0.463124543 0.000885616
0.427703679 0.461859554 0.003289424
0.470208555 0.464895964 0.000253032
0.520682752 0.470714986 0.000000000
0.573434174 0.481214702 0.000000000
0.626438797 0.493991524 0.000000000
0.684250414 0.500063539 0.000000000
0.734851360 0.508665264 0.005060012
0.787729204 0.513851821 0.004933717
0.841872275 0.519544542 0.003289424
0.890449107 0.525616586 0.003795487
0.930296957 0.534598351 0.001012127
0.966476560 0.544465542 0.000000001
0.986970186 0.550284505 0.005313204
0.993295372 0.550410748 0.026818544
0.999367416 0.562555552 0.078431010
0.004174964 0.491841018 0.000000000
0.007210585 0.497913003 0.006071994
0.005439810 0.496521175 0.003289032
0.004933804 0.498039067 0.000000005
0.006577995 0.503478587 0.000506007
0.000506001 0.506514966 0.000506004
0.003036319 0.498671681 0.003036320
0.007464001 0.496394724 0.002277290
0.033270355 0.498924971 0.001517997
0.119924024 0.498924971 0.007336995
0.165844634 0.498924971 0.001518004
0.216951236 0.500442743 0.002277290
0.260973960 0.503984690 0.003668967
0.296142042 0.507274032 0.003921997
0.338646799 0.513346016 0.003921997
0.378494799 0.506135225 0.001265163
0.412903398 0.502593040 0.000000000
0.445920497 0.501328051 0.000253032
0.485388994 0.495256037 0.000253032
0.525110424 0.501075089 0.000000000
0.573434234 0.509044826 0.000000000
0.626059294 0.518659174 0.000000000
0.681214035 0.527387977 0.000000000
0.741935670 0.533460021 0.000000006
0.790259242 0.539785028 0.000506007
0.839595020 0.548387051 0.000253036
0.890449107 0.559013009 0.000759095
0.939025819 0.565085053 0.003795477
0.973560750 0.568753898 0.001012140
0.993042231 0.576091230 0.005313217
0.998608410 0.583301902 0.026818572
0.996331036 0.589880049 0.078431047
0.001138643 0.544212759 0.000000000
0.012523614 0.541935384 0.000505997
0.006957779 0.541556180 0.004427770
0.002656839 0.543579936 0.004048196
0.002276996 0.549651742 0.005186553
0.001012000 0.545477331 0.002783358
0.000000000 0.548513710 0.000253035
0.047185436 0.543706417 0.001138643
0.095762402 0.545224369 0.000000000
0.163567573 0.549272418 0.002023998
0.210878998 0.549272418 0.004807357
0.248324141 0.549272418 0.002783357
0.293105692 0.551549375 0.002783356
0.333839446 0.553826749 0.001138643
0.376344174 0.549778759 0.001138643
0.416445166 0.551043749 0.001138643
0.454395771 0.549145877 0.000000000
0.489184082 0.549778342 0.000000000
0.528653085 0.545857131 0.000000000
0.568121493 0.548133731 0.000000000
0.609487534 0.550410748 0.000000000
0.659455955 0.556862533 0.000000000
0.713851690 0.565970898 0.000252992
0.763946652 0.574699759 0.005566003
0.815559506 0.580771804 0.005566004
0.858823359 0.586843789 0.002783014
0.902340472 0.595698774 0.000000000
0.941809237 0.604048073 0.000759091
0.977103114 0.607463241 0.006451630
0.994560361 0.612270832 0.023276364
0.999114394 0.622138083 0.054522507
0.996078014 0.633902371 0.111827731
0.000000000 0.587476492 0.000000000
0.010246743 0.584440053 0.005692737
0.007337035 0.590891480 0.000253034
0.004554260 0.586590767 0.005819420
0.004553996 0.591397464 0.008602193
0.007589993 0.588361502 0.002530196
0.056925911 0.587981999 0.005186674
0.078304596 0.592662692 0.000505999
0.152687997 0.589626431 0.000759096
0.210373208 0.591144443 0.001897740
0.250727326 0.593295217 0.001012130
0.291966736 0.591397464 0.002024260
0.327640891 0.591397464 0.002024260
0.370904505 0.593674719 0.000000000
0.410120279 0.592536449 0.000000000
0.448323965 0.591271460 0.001897740
0.492346555 0.589753270 0.000379548
0.530297160 0.592030048 0.000000001
0.568500936 0.591524422 0.000000004
0.604174852 0.592156887 0.003794996
0.643643200 0.593295217 0.000000000
0.686147988 0.592283070 0.000000000
0.736495733 0.597849250 0.000000000
0.777988553 0.606957674 0.002530005
0.826565266 0.615686476 0.004048004
