Assets/Resources/EldamarStudio/100 Horror LUTs Pack/LUTs/cube/Brainhunt LUT.cube
LUT_3D_SIZE 5
DOMAIN_MIN 0.000000 0.000000 0.000000
DOMAIN_MAX 0.903226 0.903226 0.903226
0.000000000 0.000000000 0.000000000
0.068690993 0.022896998 0.013409289
0.291713953 0.000000000 0.012397422
0.612270474 0.009741003 0.002909872
0.971789777 0.002656833 0.000000000
0.004933705 0.146489412 0.000000000
0.068437688 0.145856977 0.001644708
0.287792385 0.190639108 0.001644708
0.609740615 0.215812832 0.002277292
0.970398486 0.225047395 0.003795180
0.000000000 0.357115805 0.001265006
0.001644708 0.362681687 0.001644708
0.267552406 0.365591407 0.009867410
0.615306377 0.410120398 0.002023998
0.972422183 0.449968636 0.000000000
0.000000000 0.625933290 0.001012128
0.158254057 0.631119251 0.004554003
0.443770021 0.633143663 0.001012128
0.709424376 0.632764101 0.000000000
0.984440088 0.666034102 0.005313164
0.474003404 0.908918619 0.173434392
0.546742439 0.911574781 0.195572317
0.670461833 0.908286035 0.214041382
0.838836253 0.907653451 0.232890397
0.987222791 0.903604984 0.275521517
0.001644708 0.033649713 0.071347401
0.077925399 0.025806291 0.078557983
0.248956069 0.052371986 0.103099108
0.512587130 0.117014416 0.138013825
0.935483575 0.085768394 0.172801957
0.004933705 0.112207696 0.057937697
0.049462695 0.133459404 0.077925399
0.221125811 0.174319699 0.101075277
0.516255260 0.223023415 0.132194415
0.934977829 0.241998553 0.171537057
0.001897590 0.317520678 0.101707697
0.012144282 0.322454363 0.104997113
0.228716090 0.335863084 0.099430986
0.556230068 0.390132934 0.129537985
0.949272513 0.445414394 0.172169790
0.012397118 0.601138651 0.118153267
0.164579168 0.599873245 0.127893522
0.420366615 0.606071949 0.122327819
0.673244834 0.607590258 0.122707278
0.965212047 0.667046070 0.198482051
0.509677112 0.897912741 0.293358266
0.556862414 0.893990993 0.308412254
0.681973279 0.895888746 0.311954379
0.838709652 0.897279739 0.325237274
0.986590624 0.901074946 0.356483340
0.000000000 0.039848424 0.282479823
0.103984982 0.022264414 0.285768807
0.258317381 0.068690568 0.253763795
0.517520666 0.128779411 0.292726099
0.913092554 0.142694801 0.354458958
0.000000000 0.176849693 0.236052990
0.069323413 0.176217705 0.237697691
0.220113680 0.188361824 0.229222119
0.492346525 0.235420659 0.276660383
0.900695562 0.272485912 0.357874781
0.000000000 0.312586963 0.224288404
0.047564685 0.323339671 0.238709822
0.277419776 0.355723977 0.269449800
0.527387500 0.393042207 0.297280252
0.918911994 0.452624798 0.375584781
0.100695826 0.577482700 0.308032840
0.232511073 0.574193835 0.309424400
0.413662642 0.576849818 0.313345790
0.645161211 0.590259492 0.324098676
0.956103623 0.664516211 0.401391506
0.564073443 0.882858753 0.481087983
0.606957674 0.881087959 0.477798760
0.710309684 0.884756148 0.492219716
0.851359785 0.884756148 0.501960993
0.978747368 0.896521151 0.535483539
0.001012128 0.102086999 0.566097379
0.143580258 0.115496539 0.561163664
0.385072947 0.128526121 0.528905928
0.606578231 0.134218872 0.500569284
0.931309581 0.156862661 0.551549613
0.002656578 0.250474393 0.516508520
0.143706679 0.256040305 0.512080848
0.366856366 0.253130972 0.499810249
0.582036853 0.249082983 0.475901544
0.924224973 0.288298666 0.559266090
0.004933870 0.413029969 0.472612113
0.187602788 0.415306836 0.471979707
0.385831952 0.414294541 0.469449520
0.592283547 0.409108102 0.469449520
0.921568573 0.483111918 0.560278416
0.188867494 0.585705101 0.474004120
0.301707834 0.592915952 0.485388815
0.498545051 0.598482251 0.507021248
0.730044246 0.636685431 0.548640430
0.942188799 0.688425124 0.616191983
0.654016256 0.875015616 0.658697248
0.692219734 0.871094286 0.663757026
0.764579415 0.876281023 0.680075884
0.855913818 0.878051758 0.679696023
0.969006777 0.895003080 0.697659731
0.121442184 0.244908437 0.867172599
0.298039168 0.247438446 0.858823597
0.540417433 0.250094622 0.854775190
0.787982225 0.252877593 0.844149232
0.987349629 0.285768390 0.838456750
0.233902261 0.361543328 0.860720634
0.354332983 0.360910475 0.851865888
0.569259644 0.359898627 0.846679270
0.793421805 0.366223723 0.839595139
0.988614738 0.384313583 0.837318420
0.431878567 0.548133731 0.823908806
0.500063062 0.551802278 0.832257688
0.645287395 0.551549196 0.829348445
0.812650383 0.553573549 0.826186001
0.976976573 0.560784161 0.821631789
0.567362547 0.720429957 0.833396435
0.608095944 0.723845959 0.834028900
0.719670951 0.728020072 0.824541330
0.842251778 0.732574046 0.825173914
0.955217779 0.740164280 0.820999563
0.674003422 0.894623578 0.831878603
0.705755591 0.889690042 0.841239452
0.768374383 0.882858574 0.838583469
0.873877168 0.886780620 0.848576784
0.967615783 0.911574721 0.877672434
