Assets/Resources/EldamarStudio/100 Horror LUTs Pack/LUTs/cube/Brardram LUT.cube
LUT_3D_SIZE 5
DOMAIN_MIN 0.000000 0.000000 0.000000
DOMAIN_MAX 0.903226 0.903226 0.903226
0.180391997 0.058823999 0.078431003
0.227830693 0.072865292 0.100316294
0.324984401 0.111827567 0.093485415
0.493485123 0.175585121 0.114737131
0.791650414 0.218342826 0.141302824
0.159139723 0.198734999 0.100316294
0.211131990 0.198734984 0.100695990
0.309929967 0.222643688 0.115116984
0.481087714 0.270082414 0.119291708
0.786337614 0.305629700 0.139531717
0.063124619 0.353826374 0.118279584
0.133586302 0.367236078 0.130802989
0.257558823 0.370778233 0.126122579
0.462492228 0.432257980 0.130676582
0.792789459 0.472738534 0.127387583
0.003922000 0.622011244 0.113724999
0.002909872 0.630486846 0.112460002
0.210879192 0.635040879 0.110815868
0.496647507 0.647438288 0.104870126
0.827450573 0.672865272 0.131309003
0.000000000 0.909044743 0.168880641
0.005312988 0.917773485 0.192536369
0.331562370 0.916761637 0.185325369
0.644529045 0.921062469 0.200505599
0.910562515 0.911574781 0.203162432
0.177102998 0.080708295 0.183428109
0.218342990 0.091208287 0.186717108
0.293232113 0.132447690 0.195193112
0.443137139 0.179759577 0.218722701
0.757621527 0.202277288 0.239721522
0.167615294 0.177861989 0.178494409
0.197722718 0.190638676 0.196837410
0.283491701 0.209614113 0.198861405
0.443769723 0.252119094 0.214801133
0.764452696 0.293611646 0.239342228
0.081846900 0.343959808 0.204300702
0.140417159 0.348893076 0.206957281
0.245793998 0.356103659 0.204933286
0.437950701 0.413662136 0.213409439
0.781783819 0.462997973 0.234408692
0.000000000 0.606957376 0.209614113
0.001012128 0.611258566 0.208601817
0.190259486 0.614547968 0.207969666
0.475142092 0.628842592 0.208601832
0.821125805 0.668311238 0.236052826
0.000000000 0.905249596 0.262365371
0.000000000 0.910056710 0.263757199
0.332447529 0.907779694 0.278557926
0.630613446 0.911954343 0.279569745
0.904111266 0.908032894 0.294244349
0.153573588 0.094117999 0.355597973
0.209487706 0.113092996 0.343832970
0.284377396 0.143832996 0.321694970
0.449083090 0.180771708 0.359392524
0.757621408 0.192789420 0.393042386
0.140164301 0.210499570 0.337381393
0.183301702 0.212144285 0.326249421
0.264768988 0.221252710 0.320050687
0.432384670 0.255028397 0.353447258
0.753953099 0.288045704 0.398228794
0.017330788 0.345857412 0.311827570
0.109677605 0.352435380 0.322960436
0.243263826 0.382542402 0.343959838
0.437317967 0.412017405 0.352814674
0.770651519 0.459076822 0.389120549
0.000632584 0.601644278 0.360657692
0.004554003 0.600632548 0.357874870
0.165844262 0.609740496 0.354332596
0.466160715 0.623529553 0.362302393
0.816065669 0.671347082 0.403162509
0.003289416 0.895888805 0.429728210
0.004933705 0.893611491 0.423150063
0.366096973 0.903099179 0.435673624
0.649841905 0.903731763 0.448071063
0.909930110 0.906388581 0.461353183
0.077292874 0.148007870 0.572802007
0.178115129 0.152309000 0.573181570
0.327261120 0.175205827 0.562428892
0.498545259 0.192157000 0.544465423
0.779886425 0.197090134 0.571284115
0.005186583 0.249462277 0.557748258
0.138519570 0.256926000 0.554206133
0.305755705 0.261859268 0.547628105
0.481847107 0.268058419 0.535989702
0.778874040 0.294623524 0.570018947
0.003289416 0.415559560 0.534345388
0.004301125 0.423782408 0.539279103
0.255408257 0.430613518 0.536622107
0.473371416 0.429980934 0.531688988
0.789247274 0.473497808 0.576217771
0.000000000 0.614168286 0.536496103
0.004807289 0.620620012 0.538520157
0.214168340 0.630107522 0.546995163
0.534977376 0.659203291 0.567109287
0.824920535 0.689057410 0.594181120
0.027956650 0.891081452 0.620114088
0.203035742 0.896900594 0.620872796
0.457684785 0.896774054 0.637065232
0.670082211 0.901454449 0.632890761
0.907906413 0.902719617 0.638203740
0.000000000 0.230360791 0.850221395
0.002023991 0.233522967 0.847438395
0.317141384 0.245414212 0.854269564
0.576596975 0.257558495 0.837191582
0.851739526 0.259202778 0.838583291
0.001644708 0.323845625 0.851233244
0.005566128 0.325490355 0.848956585
0.312334090 0.334977776 0.840860307
0.585199356 0.347121894 0.838583410
0.853383660 0.355597496 0.833016872
0.001265006 0.518785179 0.836558998
0.005945571 0.518405855 0.837571025
0.325490177 0.522580385 0.839974582
0.593421638 0.530550182 0.833902180
0.862239242 0.529285014 0.831498981
0.002909872 0.716508508 0.832763851
0.074130252 0.716508508 0.831498981
0.390638739 0.719418228 0.836053371
0.636432767 0.719165087 0.836685419
0.876913428 0.723086774 0.838583291
0.184440151 0.907779634 0.852751434
0.309803486 0.906388581 0.846805751
0.506894350 0.901201725 0.854395747
0.712460637 0.909044802 0.856672764
0.920809805 0.922074616 0.877798557
