Assets/Resources/EldamarStudio/100 Horror LUTs Pack/LUTs/cube/Brardram LUT.cube
DOMAIN_MIN 0 0 0
DOMAIN_MAX 1 1 1
LUT_3D_SIZE 32
0.180391997 0.058823999 0.078431003
0.180391997 0.058823999 0.078431003
0.182542771 0.060974225 0.080581777
0.185578838 0.064010158 0.083618164
0.189373553 0.067425996 0.087033994
0.198481932 0.073497996 0.093106002
0.212650314 0.074510001 0.099178001
0.227830693 0.072865292 0.100316294
0.242251992 0.072106004 0.099556997
0.254395992 0.078178011 0.105628990
0.272358984 0.084250741 0.100062996
0.282479525 0.088298738 0.096015260
0.290829003 0.093611643 0.092979357
0.303732038 0.102719970 0.090449028
0.324984401 0.111827567 0.093485415
0.346236795 0.120935798 0.098924994
0.364453197 0.131561995 0.101961002
0.382795960 0.143706143 0.103225991
0.413156033 0.155850947 0.109297998
0.432384729 0.156863004 0.109803997
0.460088730 0.164452985 0.111701258
0.493485123 0.175585121 0.114737131
0.527134478 0.184693471 0.117773511
0.566603720 0.193801105 0.120809905
0.603794992 0.202909291 0.123845704
0.644401968 0.209234685 0.125489995
0.689943075 0.212270945 0.126501992
0.735483408 0.215306535 0.132573992
0.791650414 0.218342826 0.141302824
0.845793545 0.219607994 0.152181968
0.901834130 0.218722388 0.163440600
0.968626976 0.215685993 0.172548994
0.177356377 0.061859611 0.072359003
0.177356377 0.061859611 0.078431003
0.183807611 0.068311386 0.084882773
0.189879611 0.073118225 0.087160155
0.196204543 0.076154165 0.086274996
0.210625917 0.079569995 0.087034002
0.217204005 0.083112314 0.098166004
0.224288329 0.086907387 0.097027294
0.235420704 0.088045679 0.092726097
0.254395992 0.087286398 0.096521385
0.266539991 0.093358383 0.096774384
0.280455530 0.101454869 0.092979133
0.291967362 0.106514737 0.089943260
0.306514680 0.111827642 0.086907357
0.324984401 0.120935947 0.084377035
0.339025974 0.132447377 0.094623610
0.359898984 0.140670374 0.100442804
0.380898565 0.149146184 0.101961002
0.404048413 0.158886567 0.103226006
0.431625754 0.171031326 0.109297998
0.458190978 0.173940644 0.113598995
0.491460830 0.181657121 0.115749255
0.527007997 0.190638989 0.114863634
0.563567340 0.196837500 0.120809905
0.605313182 0.205945686 0.126122996
0.646046698 0.213662386 0.132700697
0.689943075 0.218342930 0.137128070
0.735483408 0.221378535 0.135610387
0.781024456 0.224414825 0.141682386
0.833649516 0.223908782 0.146869212
0.887919128 0.224414825 0.153447375
0.950410962 0.227830768 0.160405010
0.178621218 0.075648546 0.079190545
0.176470995 0.079949543 0.083111770
0.180772007 0.079949550 0.076280773
0.188614771 0.086527616 0.091713995
0.194686785 0.089183778 0.095888771
0.204553932 0.090448938 0.090576001
0.218595773 0.093485318 0.092093997
0.226312473 0.098165989 0.099304289
0.232637763 0.104237996 0.094497003
0.249715492 0.105376296 0.096141711
0.257937998 0.106767774 0.094117999
0.278178513 0.108791776 0.090070002
0.293105990 0.116381995 0.090322770
0.308791816 0.121188767 0.090322971
0.321315825 0.132194415 0.087286584
0.339025974 0.141555756 0.091966994
0.357242376 0.149145961 0.098039001
0.380265981 0.156483561 0.101707794
0.400000215 0.168627605 0.106262006
0.431119591 0.178367957 0.111828007
0.456546694 0.184819967 0.112207264
0.487412900 0.188867763 0.116508357
0.522833526 0.196963981 0.116002284
0.561290026 0.207084000 0.120050810
0.597975791 0.213282511 0.126122996
0.641872168 0.219607905 0.128020316
0.685642064 0.224920988 0.134092063
0.731182396 0.229601309 0.137634456
0.781024456 0.230486825 0.146868989
0.837191522 0.235293970 0.149398997
0.892979145 0.236052766 0.151170224
0.953700006 0.242125213 0.154712230
0.176596835 0.096394993 0.088804998
0.177356377 0.099936992 0.091840610
0.180771992 0.101707995 0.085389160
0.185578823 0.102973163 0.079570003
0.192409933 0.106008776 0.101581000
0.200253174 0.106894158 0.096900776
0.208855152 0.109424479 0.096648000
0.223276526 0.112839989 0.094497450
0.233143821 0.118911989 0.095256157
0.245287836 0.124983996 0.094244160
0.252878010 0.125237003 0.090069547
0.268564165 0.127767324 0.091334842
0.288298935 0.128905669 0.087539837
0.306262016 0.135104194 0.093358837
0.318406224 0.146236315 0.093358584
0.337255150 0.153446808 0.097532995
0.354712039 0.160784349 0.101834163
0.380265802 0.165718138 0.102466576
0.401012033 0.180265978 0.110309809
0.428083360 0.187349647 0.114104845
0.457052290 0.196457893 0.117014423
0.484376967 0.201518014 0.117014155
0.517899871 0.207843021 0.120303512
0.556229949 0.217710316 0.123339906
0.595951557 0.226565152 0.127387837
0.636558950 0.229980677 0.131815478
0.682100058 0.233522996 0.128273159
0.727640390 0.239594996 0.133586451
0.781024396 0.239089161 0.144085810
0.833396375 0.242631137 0.151676163
0.896268249 0.246046558 0.155218139
0.956989169 0.250979990 0.156736165
0.169006541 0.120683096 0.093359001
0.175458774 0.120683096 0.095635615
0.180012986 0.120683096 0.091587774
0.185199380 0.121189155 0.088298835
0.189753100 0.124605000 0.089437000
0.201897874 0.127640605 0.095509008
0.207210690 0.130297318 0.099810325
0.215306699 0.132574379 0.098672003
0.230486989 0.136369094 0.093738444
0.242631003 0.142441094 0.087666437
0.251865864 0.143453091 0.081973352
0.266286969 0.146742508 0.084503256
0.282226264 0.152435452 0.090575546
0.295382977 0.155471057 0.091334514
0.313851982 0.164326414 0.097532995
0.335357487 0.169386283 0.102086999
0.355471373 0.173940375 0.106641188
0.373054594 0.180518970 0.109677412
0.403415412 0.192662999 0.112713031
0.425806373 0.197216734 0.112966001
0.451612711 0.205566019 0.115622737
0.480202138 0.215939417 0.119291544
0.513724983 0.224920541 0.125237018
0.550157785 0.230993256 0.128273353
0.590764999 0.239721805 0.132068247
0.635420382 0.244655102 0.133965671
0.680961609 0.245667100 0.137002006
0.726501942 0.251739085 0.130930007
0.781530380 0.250221401 0.137001678
0.834281743 0.251739532 0.143959343
0.884503305 0.256293505 0.152182430
0.945224941 0.253257096 0.164326459
0.172042936 0.144971862 0.087286994
0.181151330 0.144971862 0.084250614
0.179001004 0.144971862 0.086527780
0.180012986 0.143706709 0.090069838
0.186717480 0.142820999 0.095509008
0.201897874 0.148892999 0.083365008
0.211511672 0.149398938 0.091967322
0.216318712 0.148260713 0.095129997
0.225173995 0.148513868 0.094876900
0.242631003 0.154585868 0.096774064
0.251865864 0.160657883 0.093611933
0.262997985 0.161669880 0.090069614
0.276154280 0.166097641 0.091334641
0.289310992 0.173687831 0.094370902
0.313598990 0.176723450 0.103478499
0.327260971 0.185578808 0.100063004
0.344465524 0.192156866 0.100569189
0.363440901 0.198228985 0.103605412
0.388235033 0.204807013 0.106641024
0.413029790 0.214168355 0.106894001
0.442504734 0.222264603 0.112586737
0.472865134 0.229854792 0.118659131
0.501581013 0.234028921 0.122201413
0.538013816 0.240100935 0.125237018
0.576723218 0.250727624 0.132827342
0.622264028 0.256799877 0.133965954
0.671853244 0.257811844 0.131435990
0.717394352 0.263883859 0.137002006
0.765591502 0.264642864 0.136243001
0.817457080 0.264136940 0.139531702
0.866792858 0.266919911 0.146615729
0.914864123 0.271473855 0.161290064
0.164958686 0.176850319 0.096395001
0.174067065 0.176850319 0.093358614
0.178874448 0.176850319 0.092473000
0.179000989 0.176850319 0.095129833
0.185452446 0.175079092 0.100189775
0.196331292 0.174699321 0.094497003
0.206451684 0.178241640 0.089943320
0.217203990 0.179885924 0.094117999
0.224414766 0.179380000 0.094876900
0.237318009 0.181909993 0.097912528
0.251865864 0.182921991 0.102719545
0.262997985 0.186970264 0.101707675
0.276280642 0.189753324 0.099177644
0.290322691 0.197217003 0.099430971
0.310056657 0.202529892 0.103984565
0.329538286 0.205566123 0.108285800
0.344971299 0.212903306 0.108665317
0.364452809 0.219607890 0.110816009
0.388741344 0.227577657 0.108159356
0.418090045 0.236432359 0.116002642
0.446173310 0.243643463 0.114104904
0.479949266 0.251107335 0.119670995
0.512207329 0.255914122 0.123972192
0.548640132 0.264389336 0.122201420
0.587349594 0.268184602 0.127514303
0.630992532 0.276787013 0.134977981
0.681467175 0.279570073 0.134977937
0.731056273 0.283618301 0.139025673
0.784313560 0.284377307 0.139784679
0.834661543 0.286148071 0.143327117
0.887159765 0.288677990 0.148893014
0.937634289 0.294750005 0.160784006
0.159139723 0.198734999 0.100316294
0.169892386 0.202023983 0.098924614
0.173055053 0.200379699 0.101327993
0.172296286 0.204174533 0.102593154
0.179127291 0.204174533 0.104870446
0.194560066 0.198608473 0.101834059
0.200379327 0.198988020 0.100442603
0.211131990 0.198734984 0.100695990
0.220999092 0.204047695 0.098418899
0.228336498 0.207589701 0.097912528
0.246552870 0.205945402 0.105502702
0.259708971 0.206324965 0.107526705
0.271853000 0.209361061 0.107526705
0.287539303 0.215180025 0.106515028
0.309929967 0.222643688 0.115116984
0.324857622 0.226312503 0.111574799
0.343073994 0.232384488 0.114611186
0.364452541 0.239215553 0.119924121
0.391777247 0.248323962 0.116887994
0.418343037 0.257432044 0.118153363
0.448703706 0.262997746 0.121315971
0.481087714 0.270082414 0.119291708
0.517646790 0.276913494 0.123972192
0.555597842 0.286021501 0.123972185
0.594307303 0.292219967 0.126122996
0.637950242 0.296647698 0.130803317
0.686527073 0.301707715 0.135610282
0.737001538 0.303605437 0.137507543
0.786337614 0.305629700 0.139531717
0.840859830 0.305756152 0.143073723
0.894244015 0.307906389 0.150031880
0.949652016 0.312460423 0.159139723
0.155345008 0.214674100 0.101834096
0.165211916 0.219987184 0.101074994
0.168753907 0.221125767 0.100822002
0.170019001 0.219354942 0.104870066
0.166224003 0.227703646 0.109044902
0.188994005 0.220114037 0.107906058
0.195572332 0.217078105 0.105123095
0.204301089 0.216951385 0.107526705
0.216445088 0.214674100 0.109803997
0.219481498 0.226818100 0.100695617
0.238456875 0.225173876 0.106767870
0.253637016 0.224161997 0.109044902
0.264263004 0.226818547 0.109044902
0.276913077 0.230360225 0.109803930
0.302719504 0.239468604 0.123972304
0.319544524 0.244528905 0.122960292
0.337761074 0.247564897 0.119924091
0.357242048 0.257937670 0.122327901
0.390258998 0.267299056 0.125237033
0.417583644 0.276407450 0.124225348
0.445667386 0.283238322 0.123086996
0.478052080 0.287539333 0.122327901
0.514610589 0.296394676 0.122454412
0.554079592 0.304237902 0.125490189
0.594307303 0.311828077 0.128526181
0.637950242 0.316382080 0.130044416
0.687033176 0.322960168 0.134598091
0.735862911 0.323719203 0.135610089
0.783301532 0.326375812 0.136748731
0.835673392 0.328400075 0.143832967
0.887412727 0.329158992 0.148513496
0.945097983 0.329158992 0.157621905
0.149273008 0.241998494 0.117014475
0.152308628 0.245034903 0.113978088
0.153573513 0.248197198 0.104617007
0.157368675 0.247184992 0.098292015
0.166224003 0.242884040 0.099936530
0.178368002 0.245920449 0.112080514
0.183428317 0.240860492 0.105882332
0.193042696 0.239974782 0.105376482
0.207337484 0.241998494 0.109803997
0.219481498 0.241998494 0.109804004
0.234155864 0.242504507 0.109424487
0.247565001 0.242378011 0.107779749
0.257431984 0.245793656 0.106008522
0.264769077 0.254649013 0.106767550
0.282985836 0.263757378 0.115875922
0.301581472 0.270461947 0.120430321
0.325616896 0.271853298 0.122960284
0.354206443 0.273118079 0.125363514
0.378494501 0.288298488 0.125363514
0.411511391 0.297659874 0.128273353
0.442630976 0.306767762 0.129158989
0.475015759 0.314610749 0.128146857
0.511574984 0.320683450 0.125490025
0.551043391 0.323719084 0.128526419
0.592789054 0.331562281 0.131562188
0.637950242 0.336369485 0.131815195
0.687033176 0.338140547 0.131562471
0.738646269 0.347248942 0.143706471
0.790132880 0.350664139 0.142061651
0.846805811 0.353700221 0.149904698
0.901960671 0.356609881 0.160277992
0.945097983 0.359519005 0.160657525
0.149020001 0.254775733 0.111827999
0.152055621 0.257811397 0.108791612
0.152941003 0.262998015 0.116508551
0.156736165 0.264263034 0.115496740
0.165085450 0.260974199 0.115117192
0.169639125 0.264009953 0.114610866
0.181783766 0.259455979 0.114104547
0.190891996 0.259961993 0.110689126
0.202530131 0.262744963 0.112713128
0.210373148 0.260594755 0.112713136
0.231245995 0.260594755 0.118532866
0.242378384 0.262618482 0.118532866
0.254775643 0.264642507 0.117520742
0.266160876 0.270208895 0.116761707
0.273750961 0.279317260 0.109930411
0.296774119 0.290828854 0.119038798
0.322074503 0.299430668 0.121569000
0.350537688 0.303225458 0.123213291
0.372549027 0.309297889 0.125489995
0.405186385 0.321694881 0.125489995
0.436685473 0.329032004 0.122707129
0.469070226 0.336116135 0.122707129
0.505629480 0.342188865 0.125489995
0.545097947 0.348007828 0.125743032
0.589120865 0.351043463 0.124225423
0.636432469 0.356103659 0.125996202
0.686021149 0.359645873 0.127514124
0.732827246 0.371157408 0.134851113
0.779126763 0.372295976 0.144338951
0.833775818 0.371537089 0.144085869
0.890701890 0.374067247 0.153573602
0.939279020 0.381150872 0.163693875
0.132827505 0.279063970 0.113851994
0.135863632 0.286148101 0.114864118
0.144845009 0.283238500 0.110436037
0.146109849 0.288045347 0.121315643
0.153320596 0.286527544 0.123592734
0.158001333 0.286274582 0.122201055
0.172675386 0.285768509 0.121188931
0.184819743 0.282985508 0.118152969
0.193927750 0.286780506 0.116255321
0.197469756 0.285009742 0.113724999
0.216065884 0.282858968 0.117520489
0.235293999 0.284883231 0.125616997
0.246679395 0.286780506 0.123339996
0.261859775 0.289437234 0.120809965
0.273244977 0.298545122 0.111701585
0.291714251 0.310057253 0.121062785
0.317520469 0.316129267 0.125616997
0.345477551 0.323086500 0.124984413
0.366730005 0.327514261 0.125237033
0.395066381 0.338899285 0.125489995
0.428462744 0.349146008 0.127387732
0.459962130 0.355344504 0.120683126
0.495509505 0.361290514 0.121442005
0.534977913 0.365465283 0.121442005
0.579000354 0.373307973 0.123213291
0.624541461 0.379126906 0.125743300
0.674383104 0.382922262 0.130549997
0.721442044 0.388994247 0.136621982
0.777102768 0.394560248 0.139278561
0.827956736 0.394560248 0.141302973
0.882732391 0.394433975 0.145477593
0.933207035 0.402403265 0.160658002
0.114231355 0.303731620 0.118785642
0.117267743 0.310563028 0.119544744
0.123339720 0.312334001 0.119544737
0.133965835 0.310057133 0.118658803
0.137381002 0.312713295 0.125869647
0.143453583 0.310436577 0.124351643
0.156230360 0.309930652 0.123213001
0.173434347 0.312207639 0.124984063
0.184819445 0.312207639 0.123466447
0.185958013 0.312207639 0.118532315
0.203415737 0.311574787 0.117773511
0.222770631 0.310309887 0.123719253
0.239848003 0.313345999 0.129411995
0.254522383 0.313599020 0.123592965
0.267931759 0.320935845 0.116255581
0.290196121 0.331309229 0.122960143
0.314484537 0.339658648 0.129411995
0.341808885 0.342188627 0.126881853
0.364073366 0.349272639 0.122327395
0.390891999 0.359772265 0.124351643
0.424288362 0.370019019 0.127387732
0.459708750 0.380139261 0.130423859
0.493864834 0.386337757 0.122200996
0.535357594 0.389373899 0.122200996
0.579379916 0.395825624 0.122201279
0.628336191 0.402656287 0.124604948
0.673877358 0.411764711 0.132700577
0.721821487 0.413662285 0.138139993
0.778747201 0.417836636 0.140037641
0.832510769 0.422643930 0.141682237
0.888045728 0.422643930 0.143073976
0.937381625 0.428209931 0.158001363
0.102592967 0.320430040 0.121315971
0.105629355 0.323466420 0.119291641
0.108918227 0.327261299 0.120050743
0.115243129 0.329538196 0.123593003
0.123465970 0.332195044 0.128652990
0.129537970 0.332195044 0.122580998
0.139405325 0.332195044 0.120050676
0.153193951 0.335231066 0.121441990
0.169386089 0.339532018 0.124984056
0.178494498 0.339532018 0.128020450
0.196584716 0.342694193 0.123845972
0.217331216 0.341682345 0.125869960
0.236053348 0.340670466 0.129158959
0.251486063 0.343453079 0.129158959
0.260594428 0.346489459 0.126122579
0.283617795 0.354079813 0.129790992
0.310689181 0.362429053 0.131309196
0.338519514 0.369260043 0.127893910
0.365844011 0.381404042 0.115749136
0.393928051 0.390765339 0.119544685
0.428083718 0.399873734 0.125616953
0.467805147 0.409487993 0.129917860
0.507526517 0.421632022 0.132953510
0.553067744 0.425047189 0.133080035
0.599114299 0.430107564 0.131309256
0.648323596 0.435041338 0.129411995
0.701708078 0.438583106 0.129664972
0.747248411 0.447691470 0.132700577
0.799999654 0.451486200 0.135230795
0.849841535 0.456293464 0.141050011
0.899430692 0.460848004 0.148639977
0.957115948 0.460848004 0.160784006
0.063124619 0.353826374 0.118279584
0.066161007 0.356862783 0.127387971
0.071347617 0.366350383 0.125363633
0.081847027 0.369006783 0.123592734
0.095888607 0.365591377 0.122834004
0.096141621 0.365591377 0.122580998
0.117394254 0.365591377 0.129158676
0.133586302 0.367236078 0.130802989
0.148639798 0.369386733 0.127513990
0.160278514 0.366856396 0.112840086
0.181024879 0.372675389 0.124604583
0.205692828 0.372043073 0.128905565
0.226059586 0.370145828 0.130423576
0.239342079 0.370778233 0.126122579
0.257558823 0.370778233 0.126122579
0.276281208 0.376217812 0.125489995
0.300316423 0.387476563 0.125237197
0.327134550 0.398861796 0.124098994
0.359772027 0.405692816 0.127893895
0.395445764 0.415053457 0.124098465
0.426186025 0.424161732 0.128652558
0.462492228 0.432257980 0.130676582
0.504490852 0.439847976 0.126881510
0.550031304 0.451992780 0.129917905
0.600126386 0.455407947 0.132321119
0.649082661 0.460467994 0.131309256
0.698924661 0.465401471 0.129411995
0.747248411 0.468943834 0.129664958
0.792789459 0.472738534 0.127387583
0.843769550 0.477545798 0.138013989
0.897659361 0.482732773 0.151043788
0.960151613 0.485135972 0.160784006
0.023656223 0.389626592 0.124857798
0.021885000 0.392663002 0.121948391
0.022770613 0.395698845 0.126755223
0.029601779 0.402023792 0.126755163
0.044402428 0.399367332 0.125996441
0.056546420 0.401391596 0.123972185
0.074383259 0.398987800 0.124351680
0.103605300 0.400632501 0.128526002
0.124098405 0.401391804 0.127767101
0.139532194 0.396711111 0.117773801
0.170019060 0.399999797 0.123845793
0.189247191 0.402023792 0.127893806
0.214294672 0.399367630 0.130929798
0.232005000 0.397849768 0.127387807
0.250221193 0.395698994 0.123086810
0.263630986 0.407716811 0.123086810
0.290955395 0.412270993 0.124604613
0.319797546 0.422011763 0.122707196
0.353194028 0.428083777 0.121695206
0.389373749 0.436938435 0.129032448
0.429601461 0.449841499 0.127893806
0.465022117 0.458949775 0.129917666
0.506261706 0.465148270 0.125363514
0.551802754 0.475015789 0.123845905
0.599620342 0.482605994 0.126881704
0.648323953 0.488551438 0.127134681
0.696900904 0.495129526 0.125616997
0.749272645 0.498165399 0.129411995
0.799999654 0.496394753 0.133965969
0.850853980 0.501201570 0.138014004
0.902213752 0.506388605 0.153447360
0.958380818 0.509424627 0.165591002
0.002403808 0.426059365 0.127893806
0.000885613 0.429095775 0.130929798
0.001518192 0.427577436 0.117647231
0.000253031 0.434408516 0.120682843
0.007210811 0.433902472 0.124478169
0.018595815 0.431245923 0.125996053
0.031751953 0.430739880 0.127008185
0.055028521 0.434028894 0.127008185
0.092978917 0.433270186 0.127008185
0.119544595 0.425680190 0.124731481
0.146236479 0.429854512 0.125869811
0.175585002 0.435420573 0.130929798
0.197216645 0.434281945 0.130929798
0.222137839 0.431246221 0.130423799
0.244148985 0.428210139 0.124351807
0.268184781 0.433522999 0.124604993
0.284882993 0.444149196 0.126122802
0.316381931 0.446552992 0.128525987
0.347122043 0.450853974 0.124224998
0.383301765 0.459709048 0.124478161
0.422011286 0.471093923 0.127893806
0.466540068 0.483238190 0.126881942
0.507906020 0.489563197 0.124225184
0.554838538 0.500063241 0.125363901
0.599620342 0.505376160 0.122327901
0.648197412 0.511448205 0.123972192
0.694371104 0.519924045 0.122074932
0.746995807 0.523971736 0.127134800
0.798987687 0.524730980 0.134724990
0.849335313 0.527008176 0.141050011
0.902213752 0.532194793 0.145730823
0.950790584 0.535231173 0.156483009
0.000000001 0.461227119 0.126754984
0.000632576 0.464895934 0.134471595
0.001518198 0.462112576 0.125236988
0.003289415 0.461732864 0.113598980
0.000253028 0.473118544 0.115875594
0.000000000 0.462491810 0.123971932
0.003795008 0.458570123 0.127387732
0.014674289 0.461606264 0.128779411
0.040101584 0.468564123 0.128147006
0.091713995 0.456420124 0.128147006
0.119291320 0.461100549 0.125869706
0.151675925 0.466666788 0.128273010
0.180265650 0.473118484 0.132700577
0.207590058 0.470841140 0.132700577
0.234914422 0.468943983 0.127387568
0.267046273 0.469449729 0.124731250
0.294370830 0.472738534 0.128399819
0.318785131 0.476913124 0.132068008
0.343073994 0.476913124 0.132067993
0.378494740 0.484629899 0.128399566
0.416824698 0.495003134 0.126754984
0.456799269 0.505755544 0.125110537
0.505502522 0.511827588 0.121821910
0.554585397 0.522960365 0.125363857
0.599873185 0.528905869 0.123592846
0.646426022 0.533965528 0.120303847
0.695003510 0.540037692 0.121821910
0.743580222 0.546109736 0.125110537
0.794813275 0.549525380 0.131562263
0.845287502 0.554965138 0.140164405
0.893231750 0.559519172 0.145856991
0.941808581 0.562555552 0.139784977
0.000000003 0.491587996 0.132826984
0.003036388 0.497659981 0.123719387
0.001518194 0.497027248 0.120683193
0.001518193 0.496268153 0.120936155
0.003289420 0.500443041 0.128020376
0.000253033 0.506515026 0.124983981
0.000000000 0.498418659 0.125489980
0.000506000 0.495002985 0.125743017
0.008602243 0.496521115 0.124984115
0.034029499 0.498925000 0.122074984
0.079822823 0.501328111 0.122074984
0.129411444 0.500569284 0.123845696
0.170651272 0.501961052 0.127134621
0.195446014 0.507274032 0.129664943
0.222770393 0.513346016 0.129664943
0.254901797 0.511448205 0.117141172
0.282226264 0.510435998 0.114105031
0.306641132 0.510309577 0.119923994
0.343074024 0.507274032 0.125995994
0.378494769 0.512840033 0.128779352
0.416824728 0.521062791 0.131056204
0.455281258 0.530423880 0.130802989
0.493358493 0.539152086 0.124857508
0.544971764 0.545224845 0.115749121
0.594054520 0.551803052 0.114737064
0.644908249 0.559013307 0.114231065
0.698039174 0.567362189 0.115749136
0.746615887 0.573434889 0.124857500
0.797849417 0.576850116 0.125490010
0.849462509 0.583428264 0.133333012
0.899051487 0.589627028 0.144085646
0.944844961 0.589880049 0.151929021
0.002783357 0.541429400 0.124984346
0.003036388 0.541935384 0.124225385
0.001771226 0.541556180 0.119418226
0.001265161 0.541049957 0.118912160
0.003542452 0.543326914 0.123466447
0.000506065 0.542188704 0.120430052
0.000000000 0.545730412 0.119923994
0.000000000 0.544212461 0.118279286
0.000759097 0.546110034 0.117899731
0.010879604 0.549145818 0.118912116
0.019355122 0.552182198 0.113219634
0.079063714 0.551169872 0.117267631
0.141302809 0.550410986 0.119923994
0.190133065 0.554332733 0.120809600
0.230107740 0.555344760 0.118279278
0.257432133 0.559013546 0.118279278
0.290069550 0.559772253 0.117140837
0.319544494 0.561037123 0.122580588
0.355977356 0.560151696 0.122201361
0.392410129 0.559898734 0.125489995
0.434535086 0.564073503 0.120935902
0.476786613 0.571410596 0.120429769
0.517267346 0.580518246 0.119797483
0.566223741 0.589247167 0.116002090
0.620114207 0.595319390 0.113724999
0.671094358 0.598608375 0.115116671
0.722327471 0.603541791 0.118026420
0.766350210 0.611891270 0.127134785
0.814926982 0.615307212 0.133586347
0.864642322 0.620114088 0.142694533
0.915243387 0.625553727 0.155850694
0.964579344 0.625553727 0.166856363
0.003922000 0.583554447 0.117773518
0.002024260 0.583554447 0.113978520
0.001771226 0.585199237 0.115623228
0.001265161 0.584693313 0.115116842
0.003542452 0.587349474 0.116635069
0.000506065 0.585831642 0.110563077
0.001897740 0.585958183 0.115749262
0.001897740 0.588994205 0.112460263
0.003415738 0.590512395 0.112966195
0.007590480 0.591270983 0.119418211
0.004048263 0.594307303 0.108033009
0.043010741 0.597090244 0.110056996
0.108665183 0.594054103 0.113852002
0.173434615 0.595572412 0.113852002
0.220873058 0.597216725 0.112460323
0.268437773 0.597722769 0.113724999
0.297280371 0.599240959 0.112207197
0.331562281 0.601897299 0.117900006
0.369260013 0.603162467 0.116129234
0.409487754 0.605060220 0.112966657
0.444022715 0.606957495 0.116002262
0.488551259 0.608981729 0.108918130
0.531435490 0.615180016 0.110310003
0.581783533 0.620746374 0.112586834
0.631119370 0.627577484 0.115622737
