Assets/Resources/EldamarStudio/100 Horror LUTs Pack/LUTs/cube/Brardram LUT.cube
LUT_3D_SIZE 8
DOMAIN_MIN 0.000000 0.000000 0.000000
DOMAIN_MAX 0.903226 0.903226 0.903226
0.180391997 0.058823999 0.078431003
0.189373553 0.067425996 0.087033994
0.242251992 0.072106004 0.099556997
0.290829003 0.093611643 0.092979357
0.364453197 0.131561995 0.101961002
0.460088730 0.164452985 0.111701258
0.603794992 0.202909291 0.123845704
0.791650414 0.218342826 0.141302824
0.169006541 0.120683096 0.093359001
0.189753100 0.124605000 0.089437000
0.230486989 0.136369094 0.093738444
0.282226264 0.152435452 0.090575546
0.355471373 0.173940375 0.106641188
0.451612711 0.205566019 0.115622737
0.590764999 0.239721805 0.132068247
0.781530380 0.250221401 0.137001678
0.155345008 0.214674100 0.101834096
0.166224003 0.227703646 0.109044902
0.216445088 0.214674100 0.109803997
0.264263004 0.226818547 0.109044902
0.337761074 0.247564897 0.119924091
0.445667386 0.283238322 0.123086996
0.594307303 0.311828077 0.128526181
0.783301532 0.326375812 0.136748731
0.114231355 0.303731620 0.118785642
0.137381002 0.312713295 0.125869647
0.184819445 0.312207639 0.123466447
0.239848003 0.313345999 0.129411995
0.314484537 0.339658648 0.129411995
0.424288362 0.370019019 0.127387732
0.579379916 0.395825624 0.122201279
0.778747201 0.417836636 0.140037641
0.002403808 0.426059365 0.127893806
0.007210811 0.433902472 0.124478169
0.092978917 0.433270186 0.127008185
0.197216645 0.434281945 0.130929798
0.284882993 0.444149196 0.126122802
0.422011286 0.471093923 0.127893806
0.599620342 0.505376160 0.122327901
0.798987687 0.524730980 0.134724990
0.003922000 0.583554447 0.117773518
0.003542452 0.587349474 0.116635069
0.003415738 0.590512395 0.112966195
0.108665183 0.594054103 0.113852002
0.297280371 0.599240959 0.112207197
0.444022715 0.606957495 0.116002262
0.631119370 0.627577484 0.115622737
0.822896600 0.645287812 0.132827252
0.003289004 0.740417540 0.107526712
0.002277288 0.747248292 0.096015297
0.001644712 0.751170278 0.096394897
0.045920547 0.753447533 0.100316286
0.320683271 0.759139538 0.099557191
0.496521175 0.758507252 0.099430740
0.669070065 0.760657549 0.100316286
0.851865888 0.764073312 0.131815434
0.000000000 0.909044743 0.168880641
0.005819156 0.919797301 0.183427945
0.003795000 0.917520523 0.188741505
0.217836305 0.920935988 0.191018268
0.432004780 0.919291615 0.194307610
0.602024257 0.920809746 0.198481858
0.756989181 0.920303524 0.207083762
0.910562515 0.911574781 0.203162432
0.175711900 0.082732551 0.135989547
0.193674996 0.074889451 0.124605000
0.230107546 0.088551998 0.130803078
0.262998462 0.116381735 0.146995649
0.329158992 0.144591838 0.154459193
0.425174177 0.170398742 0.159898996
0.573940277 0.200632572 0.178241551
0.762808383 0.211385459 0.184819549
0.176850453 0.116761096 0.128526092
0.185452446 0.127767101 0.117899641
0.207716897 0.130044088 0.137507632
0.261480331 0.152055994 0.146615908
0.315369844 0.174319923 0.154838741
0.413409263 0.203668281 0.164958730
0.557748079 0.227957278 0.172928259
0.747754395 0.246932372 0.183175161
0.160025001 0.192663088 0.148134097
0.178494543 0.201011643 0.143453091
0.211385459 0.201391190 0.149778903
0.244908541 0.217078015 0.152435541
0.311701357 0.240481079 0.155977100
0.418089449 0.267425627 0.166476741
0.565464973 0.303605556 0.169512823
0.762808323 0.321568727 0.182036817
0.126502007 0.286147833 0.145983532
0.148513824 0.291713923 0.159519449
0.178874001 0.290954828 0.157115638
0.224541441 0.293611258 0.153573915
0.299304157 0.321821451 0.163440555
0.404680520 0.354712278 0.162681550
0.566856384 0.385705203 0.170145184
0.761796355 0.412144184 0.177229807
0.003415545 0.412776560 0.163061097
0.012397363 0.421505183 0.177482724
0.102466635 0.416698277 0.158254087
0.192536458 0.421379179 0.167109102
0.281087995 0.424161911 0.166603550
0.406704724 0.456546545 0.160278365
0.581151187 0.497406662 0.164326563
0.783681273 0.523718953 0.177229807
0.003922000 0.563440800 0.157115743
0.000379548 0.567615271 0.156609744
0.003162904 0.569259763 0.160911009
0.111954346 0.567615271 0.158507288
0.281973600 0.581404269 0.151676461
0.427197933 0.587602913 0.158381000
0.612397254 0.614041746 0.155091807
0.812523663 0.642378330 0.172043011
0.001897740 0.734851062 0.147121981
0.003794997 0.738772988 0.147248372
0.002024260 0.735863268 0.143200353
0.037444647 0.736116409 0.148766384
0.305882275 0.740923405 0.148893192
0.488425016 0.748513520 0.146489382
0.651992261 0.751170278 0.152308553
0.835673571 0.756609857 0.172043264
0.002024167 0.904996991 0.195825502
0.002024167 0.907147586 0.205945671
0.001138555 0.904617548 0.202656791
0.166476801 0.904490650 0.201644257
0.402276784 0.911068916 0.212523520
0.586337447 0.908918262 0.222770154
0.747754633 0.907653451 0.230233878
0.906641603 0.905502856 0.236306161
0.171789899 0.079190098 0.209994003
0.185831994 0.078431100 0.207716912
0.228210092 0.098798096 0.214041904
0.271726549 0.119038187 0.209740639
0.326881886 0.152182102 0.224920899
0.416066080 0.176470995 0.240227729
0.556609809 0.191271007 0.243010908
0.755344450 0.200000003 0.257685095
0.184440017 0.130929992 0.205060452
0.170904085 0.145477548 0.195572555
0.200252637 0.142694101 0.201517999
0.252877623 0.159519464 0.210119992
0.323466361 0.183427989 0.221125990
0.411005735 0.203795001 0.227197990
0.548387170 0.221505538 0.240860537
0.741176426 0.241239741 0.259203285
0.160025105 0.199114203 0.196711004
0.174952909 0.213283017 0.203795090
0.200759098 0.220240191 0.221125990
0.240986735 0.223403007 0.213535652
0.304743975 0.246173203 0.224161983
0.412397146 0.264516354 0.236052990
0.560531378 0.296141684 0.246932089
0.763693750 0.313092798 0.261353731
0.118658900 0.297786087 0.217457443
0.138266921 0.300569445 0.227071553
0.177735448 0.301707983 0.220619738
0.225426644 0.305249721 0.222264454
0.291840613 0.323592275 0.222517282
0.401264906 0.352055848 0.233523279
0.564579427 0.384566545 0.241239801
0.761542976 0.408855259 0.254269332
0.000759096 0.413788885 0.226439089
0.007210811 0.414294451 0.228589550
0.089183830 0.418343067 0.225806296
0.182289645 0.420240641 0.230107456
0.270335197 0.424668103 0.224920899
0.404300898 0.454269290 0.230866551
0.575964630 0.493485093 0.238330007
0.784946203 0.517520428 0.257431924
0.002783356 0.575838387 0.227830455
0.003162807 0.576597154 0.231246188
0.002783356 0.578874290 0.232384533
0.100316264 0.577988565 0.237318277
0.281720251 0.581530631 0.228083193
0.424541116 0.592915595 0.230866358
0.614674151 0.614548028 0.239342451
0.814294636 0.643263757 0.254016429
0.003036190 0.736495554 0.233523190
0.003162710 0.744212389 0.237570912
0.001518193 0.744971573 0.240733996
0.040227909 0.743832886 0.237697840
0.312207460 0.743326783 0.236559182
0.490069360 0.745477736 0.235927001
0.654142797 0.748134136 0.239595190
0.846046865 0.759772360 0.268943727
0.000000000 0.907273591 0.288171977
0.003036284 0.914231300 0.297785819
0.002277113 0.913851738 0.297659904
0.253257573 0.913472354 0.302972883
0.435167849 0.912966609 0.302972972
0.602024257 0.912713587 0.308918357
0.757368624 0.913092971 0.315243542
0.908412457 0.908791602 0.319291860
0.156863004 0.082985289 0.304491282
0.177609444 0.093231998 0.298292279
0.218342632 0.106894545 0.296015292
0.263377994 0.128905639 0.279696286
0.314990401 0.156609982 0.298545182
0.411132455 0.172422469 0.310562730
0.555091798 0.187729344 0.325616628
0.753700256 0.197596192 0.349398971
0.161669999 0.144465551 0.284629822
0.174573258 0.149145737 0.277545750
0.205692545 0.156230450 0.279570073
0.250347763 0.162555441 0.269323200
0.305882543 0.181783900 0.288298160
0.401391536 0.203288734 0.302340358
0.541935444 0.220619828 0.325489998
0.734092355 0.225047380 0.339152396
0.148134276 0.208728746 0.285136074
0.156483456 0.216066092 0.280328989
0.192915991 0.223655641 0.282352626
0.234788358 0.225932837 0.279316634
0.296394706 0.244022638 0.285895050
0.397343636 0.263124496 0.305123419
0.553447366 0.289943188 0.326249212
0.753826678 0.307147294 0.346236259
0.105629727 0.290449262 0.268564284
0.129032016 0.289310634 0.279696286
0.160151809 0.300696075 0.278431535
0.220746353 0.316761643 0.292599648
0.293737978 0.325743288 0.292093277
0.390512496 0.347754359 0.303984880
0.546363235 0.372295916 0.317900270
0.756103456 0.404554099 0.341935635
0.007590359 0.403415471 0.289563566
0.003162904 0.408349007 0.293738306
0.071853191 0.415053368 0.294623911
0.175205439 0.413409173 0.296901077
0.267046392 0.419228196 0.292093456
0.395319283 0.450347990 0.312587112
0.570524871 0.483997375 0.324351460
0.772169173 0.516508579 0.343453437
0.003922000 0.556609452 0.310309887
0.002783356 0.558127701 0.311448425
0.002656643 0.559772432 0.310562819
0.085136354 0.564705968 0.314864188
0.274130106 0.569259882 0.309930444
0.415306747 0.583048820 0.312966526
0.604301095 0.608981788 0.326628476
0.812903285 0.639595270 0.353573710
0.000000000 0.725490212 0.322959930
0.002783356 0.731435597 0.330297172
0.001138645 0.725869596 0.325237215
0.038709544 0.732827544 0.321821570
0.303858519 0.731435776 0.330550373
0.480708718 0.734724700 0.330170929
0.652372122 0.741682589 0.334724933
0.834028959 0.759392738 0.361543626
0.004048201 0.902593434 0.380265653
0.003795180 0.900695384 0.378241390
0.057179123 0.900695384 0.383681059
0.256546289 0.902972341 0.388488293
0.443137318 0.902972579 0.393042356
0.604174495 0.907400429 0.393548429
0.758001029 0.904364049 0.400126576
0.909803569 0.907779574 0.406704426
0.141176000 0.111321799 0.417836994
0.164705917 0.118026547 0.413914979
0.211638093 0.126249090 0.405945301
0.270082474 0.145477548 0.393295377
0.324351162 0.159012988 0.386211187
0.414674014 0.177862182 0.395951927
0.565211535 0.194433704 0.418216377
0.758760214 0.198734835 0.440607220
0.140416995 0.163820192 0.395825177
0.164832205 0.170271918 0.401265174
0.208602190 0.175205544 0.393548280
0.260721356 0.183554798 0.382416189
0.314610839 0.189247340 0.369766176
0.405439734 0.206957817 0.383048564
0.553067744 0.221505448 0.411005676
0.750537336 0.228462830 0.428589344
0.114611000 0.238330200 0.387856096
0.136622101 0.244655192 0.386464059
0.182795808 0.243769988 0.385578960
0.246679440 0.248070747 0.384440541
0.305629164 0.253131002 0.369639397
0.400505811 0.266793430 0.390259266
0.565338433 0.288424999 0.415939271
0.759392679 0.309424192 0.440607011
0.029474916 0.323971927 0.378747821
0.061732922 0.329538554 0.381277621
0.133712649 0.328273207 0.372422725
0.218722180 0.330929637 0.383175254
0.287159830 0.332827181 0.370904535
0.394433677 0.354459018 0.389626712
0.557874620 0.379506648 0.410752743
0.758633494 0.408728451 0.435420394
0.000000000 0.412144393 0.363567203
0.003542452 0.414800853 0.375964463
0.033396635 0.425427198 0.375458270
0.170778096 0.436432481 0.383048385
0.296015203 0.462239385 0.402783185
0.414547920 0.464136630 0.402276725
0.582289875 0.489563257 0.419228256
0.776850045 0.518152773 0.441113204
0.000379548 0.560910463 0.392156720
0.005819450 0.566350281 0.397217005
0.001518192 0.565211892 0.403162628
0.070335269 0.577229559 0.405439645
0.278304935 0.584060967 0.409108013
0.428842664 0.589879692 0.407337189
0.619860530 0.614168286 0.430107296
0.813282609 0.643137336 0.460594654
0.001518192 0.724478364 0.424541384
0.000000000 0.730803311 0.422390997
0.003921805 0.730929673 0.426312357
0.042631544 0.732827246 0.419987440
0.314863920 0.738646328 0.429348201
0.489689827 0.735610366 0.429981202
0.651106596 0.742567539 0.434535414
0.844781578 0.762049437 0.460974157
0.000000000 0.899557054 0.484756619
0.003162807 0.897153616 0.485768616
0.124730945 0.899810076 0.492978871
0.321062207 0.903731585 0.491967171
0.479316562 0.903352201 0.495762169
0.621632040 0.904996514 0.496015191
0.769133091 0.904870391 0.506135106
0.906388223 0.903225362 0.507526755
0.098545015 0.142947733 0.538393199
0.130044267 0.145350933 0.535357416
0.201138362 0.149525374 0.531688571
0.277672529 0.161037251 0.519418120
0.361796379 0.172422469 0.513725460
0.456040710 0.186084732 0.509044945
0.580771506 0.190512285 0.513346016
0.780392170 0.196078002 0.543453455
0.080834985 0.187602729 0.512966394
0.120809548 0.190385997 0.519544423
0.192915797 0.189500183 0.514610946
0.266287178 0.197469905 0.511322081
0.347122103 0.203668281 0.505123436
0.439089268 0.216698542 0.498798281
0.562049329 0.221505538 0.502214015
0.765970826 0.230613530 0.534977555
0.029475186 0.263883561 0.513472557
0.066413999 0.266919553 0.513093114
0.163314119 0.265780836 0.507147431
0.245540828 0.269450068 0.507147491
0.337760717 0.275016010 0.503099024
0.436812490 0.279696107 0.491714269
0.568121552 0.295003444 0.507906675
0.777862132 0.307779998 0.540164530
0.000000000 0.356862366 0.499430537
0.003542258 0.355724007 0.498165786
0.086401187 0.354585469 0.492220372
0.211891636 0.355724096 0.490828365
0.317394018 0.362049013 0.492473155
0.420746446 0.360151470 0.486907363
0.569892347 0.378874183 0.502593458
0.775964320 0.412397265 0.540417433
0.000000000 0.458823442 0.490575522
0.003035997 0.460088909 0.497912645
0.002403810 0.461480051 0.493864685
0.156356752 0.467172951 0.492219985
0.296141714 0.468817145 0.501201451
0.430739999 0.473370939 0.500948906
0.590385795 0.497659922 0.514484465
0.790638804 0.530929565 0.544718564
0.000000000 0.567615509 0.501075447
0.004301451 0.575585485 0.500316262
0.007337351 0.576344311 0.504111469
0.073497817 0.586590528 0.503984749
0.302466840 0.599873662 0.514231682
0.477292418 0.622770488 0.528652489
0.636306107 0.630866945 0.542187989
0.815306306 0.653636694 0.566603303
0.001644712 0.720176756 0.521948040
0.004048101 0.727008224 0.522074461
0.000000000 0.731435835 0.527767181
0.086907111 0.731815040 0.521189332
0.346363068 0.738266766 0.541555762
0.510563016 0.744844556 0.544212461
0.666287243 0.743706286 0.545350969
0.847944081 0.770398319 0.574826002
0.025426811 0.894623578 0.586717248
0.103984669 0.895382583 0.589753151
0.197216824 0.892093420 0.593295395
0.373687387 0.894623458 0.597975910
0.491207868 0.899304211 0.599241078
0.630360484 0.900442660 0.601518154
0.768753588 0.904364347 0.605818748
0.908665359 0.903225660 0.613662481
0.000000000 0.175458282 0.681594014
0.033143736 0.175585285 0.683997273
0.165717915 0.180139184 0.680835128
0.276786983 0.188361645 0.676027834
0.387476176 0.196584478 0.672865391
0.508159280 0.202277288 0.664642811
0.642631292 0.198355287 0.660974264
0.790891409 0.198734835 0.656420290
0.001644712 0.212397292 0.671347260
0.011511724 0.214294538 0.665907562
0.152814463 0.216192275 0.668690920
0.265528083 0.223782539 0.670208871
0.379380137 0.228462920 0.660974264
0.503478765 0.233776018 0.656925857
0.635167420 0.233902544 0.647185087
0.780518413 0.235167712 0.649209261
0.003289004 0.290575564 0.666666627
0.003415545 0.295888633 0.673497736
0.106894106 0.300063074 0.664516270
0.250347942 0.299557447 0.661859512
0.370398462 0.307906091 0.658697128
0.496647716 0.308159530 0.654396057
0.639595509 0.309424281 0.657052517
0.785578489 0.315116823 0.654902101
0.004427649 0.390765280 0.655913949
0.000759096 0.392663032 0.653889656
0.007843203 0.394686997 0.649462283
0.211385280 0.398608267 0.654269159
0.355976999 0.402403355 0.650727451
0.488298655 0.406325191 0.646679461
0.630993187 0.407084286 0.645414174
0.790132701 0.416571736 0.652371764
0.000759096 0.506135225 0.646046519
0.000758999 0.512333930 0.652625084
0.002403811 0.509930372 0.653889537
0.173434645 0.514484584 0.650094688
0.342062086 0.512207270 0.647564769
0.489057750 0.515622854 0.645920277
0.633776069 0.514484346 0.642884493
0.801011980 0.537507772 0.663630903
0.007084000 0.627577484 0.653384268
0.000379548 0.632258177 0.652751327
0.001644712 0.627830446 0.654016554
0.154206350 0.629981160 0.648703575
0.356609434 0.642125010 0.652751267
0.508918285 0.639342487 0.653130829
0.661479831 0.641492724 0.658949971
0.829348445 0.665401578 0.681214213
0.006831284 0.741049528 0.645920277
0.000000000 0.737887561 0.644023001
0.000000004 0.740923405 0.649968326
0.162428811 0.744465172 0.653130591
0.375079036 0.744971514 0.653257370
0.542188466 0.754079759 0.662492454
0.709930241 0.768500507 0.686780572
0.865275204 0.785452366 0.705123425
0.049335644 0.890069604 0.704743743
0.119544372 0.894876361 0.695129812
0.245161176 0.895003021 0.694876790
0.390259236 0.895761967 0.703099489
0.526249051 0.895255983 0.716381729
0.655914128 0.902087092 0.721695065
0.774446607 0.900442719 0.720176876
0.908791959 0.902466595 0.734092355
0.000000000 0.230360791 0.850221395
0.000000000 0.230992973 0.853004575
0.032890599 0.235546961 0.847438276
0.243390277 0.239468634 0.847691417
0.390765369 0.250095010 0.849209249
0.535863221 0.255028635 0.839974761
0.699936509 0.261353344 0.839848459
0.851739526 0.259202778 0.838583291
0.000000000 0.266287178 0.842377961
0.002530012 0.263377607 0.844655156
0.022264659 0.269070029 0.843643606
0.234155372 0.273750722 0.839848161
0.394180715 0.282859087 0.842631400
0.537887454 0.287160248 0.836685479
0.692979157 0.289816499 0.836306036
0.849082708 0.296014905 0.840354502
0.002656832 0.343580157 0.846932352
0.001644716 0.347881198 0.843137205
0.004554288 0.348766804 0.844402373
0.231372535 0.352688015 0.842125118
0.390385628 0.361416698 0.846299767
0.542947292 0.366856426 0.840101182
0.699177623 0.371790081 0.836812079
0.853130758 0.375585020 0.833269596
0.001138644 0.453510046 0.835673392
0.000379548 0.457305372 0.839468718
0.009108284 0.459709257 0.844908297
0.218722075 0.461479872 0.834788382
0.393295646 0.468058139 0.833016872
0.546869099 0.471220523 0.833143353
0.700822353 0.473118067 0.831498861
0.852877915 0.471600294 0.829095602
0.003542158 0.569512963 0.836179793
0.005692824 0.578621149 0.833143532
0.029854471 0.578115046 0.836305797
0.250600845 0.577862322 0.834787846
0.413535804 0.580012798 0.830613375
0.560784101 0.584440053 0.838330269
0.714104950 0.582036853 0.830233812
0.866287231 0.582921982 0.832511067
0.001897740 0.688677788 0.836052954
0.004933723 0.689183891 0.836812198
0.102213517 0.693991184 0.836052895
0.304743767 0.692346394 0.836812139
0.456167161 0.697407007 0.834661365
0.591904044 0.693611622 0.840480506
0.730803072 0.691840708 0.834408879
0.875395536 0.693738401 0.836053252
0.005819163 0.793169081 0.842884123
0.075521611 0.794180632 0.836305916
0.196331441 0.796204805 0.845793724
0.362175941 0.801264763 0.842378020
0.494876504 0.797343314 0.842378199
0.631119370 0.800505877 0.840860009
0.758001029 0.798861504 0.839848459
0.889943004 0.800758779 0.844908118
0.184440151 0.907779634 0.852751434
0.243642837 0.910309613 0.854269385
0.341935307 0.903858542 0.847817600
0.437317848 0.906641245 0.851359725
0.555217862 0.906388581 0.850474358
0.684124172 0.907020688 0.855660558
0.797722578 0.908665299 0.859962106
0.920809805 0.922074616 0.877798557
