Assets/Resources/EldamarStudio/100 Horror LUTs Pack/LUTs/cube/Bratrar LUT.cube
LUT_3D_SIZE 8
DOMAIN_MIN 0.000000 0.000000 0.000000
DOMAIN_MAX 0.903226 0.903226 0.903226
0.058823999 0.058823999 0.058823999
0.065401547 0.059582997 0.052498095
0.160531193 0.075268902 0.084630094
0.279190630 0.065528356 0.088551998
0.399493992 0.061859995 0.091714188
0.520809472 0.093990996 0.103858255
0.668817282 0.128399700 0.142441571
0.843769729 0.174066812 0.183174968
0.075648546 0.088551991 0.059203450
0.090828992 0.084629998 0.075268999
0.174699187 0.100695640 0.083112098
0.286274552 0.104617447 0.088298552
0.395572364 0.112460546 0.087919004
0.522454143 0.136622354 0.116761386
0.672738850 0.169512823 0.141302839
0.836812019 0.210878909 0.188487962
0.160658091 0.178621188 0.079190098
0.179000542 0.178621083 0.067299187
0.215560094 0.165338203 0.096521005
0.284377098 0.170398548 0.086147994
0.394813269 0.187223092 0.103352092
0.516129076 0.209867194 0.130423725
0.669576526 0.241113186 0.162808090
0.845667481 0.275268823 0.206198707
0.243263632 0.264010280 0.102592997
0.265654981 0.261226922 0.105376355
0.285515636 0.264769197 0.108538635
0.308285624 0.248323992 0.115496635
0.396458000 0.257305562 0.131435990
0.516508639 0.287539274 0.161796555
0.666666865 0.324098587 0.181657284
0.847311616 0.364832252 0.223023266
0.340670377 0.369892389 0.149652198
0.354838580 0.366982728 0.141935632
0.377482384 0.370525181 0.148133993
0.408475727 0.372042984 0.150284380
0.434788376 0.352435380 0.177735373
0.526628733 0.369133413 0.187981993
0.686021447 0.415053666 0.214674085
0.854142725 0.463504165 0.258570790
0.473750472 0.505123436 0.186084732
0.479949266 0.508159459 0.194433913
0.504996538 0.511574805 0.195698991
0.546742439 0.516002357 0.194686830
0.580645263 0.515243292 0.204427481
0.612776697 0.499051183 0.225047722
0.719165266 0.516888201 0.253383726
0.869196832 0.566856444 0.298038960
0.632890284 0.682858586 0.257431984
0.640228033 0.688425303 0.249336019
0.672612548 0.685894728 0.257431984
0.708032787 0.690701962 0.265780926
0.743959427 0.695256531 0.271726876
0.782669306 0.686527491 0.284756541
0.816824555 0.662618518 0.306768268
0.894117534 0.669323325 0.354079515
0.794054627 0.851612747 0.395319432
0.809867203 0.851107001 0.404301018
0.818469465 0.854901791 0.407336771
0.853636801 0.853004336 0.421631724
0.887159765 0.856925786 0.428083420
0.937507808 0.860467792 0.448829591
0.949525595 0.851866007 0.476913124
0.983427942 0.826691747 0.513345540
0.063883543 0.067805447 0.076786995
0.072865091 0.063883543 0.070082545
0.162935108 0.074889451 0.097153991
0.248703539 0.099556997 0.116381735
0.356356472 0.112839893 0.135610089
0.488298506 0.137001798 0.155850992
0.634408534 0.162935004 0.188867792
0.819101870 0.200379655 0.225932822
0.063883543 0.085009545 0.070461996
0.088551991 0.081467092 0.085009545
0.147627741 0.105376542 0.108538635
0.241998985 0.123845994 0.114737540
0.351296842 0.137507737 0.139658198
0.486401200 0.161290288 0.161796346
0.635420680 0.190259293 0.191777080
0.812524080 0.224288538 0.224667981
0.141429543 0.148007199 0.121062540
0.154332995 0.163820103 0.120303541
0.175458282 0.157874644 0.120303541
0.249462545 0.167615190 0.131562084
0.356736034 0.193168640 0.144845083
0.479696542 0.216192201 0.168753833
0.639215946 0.248956084 0.205186382
0.824414849 0.289689988 0.239088893
0.218469173 0.248323992 0.144591644
0.235800177 0.244402289 0.144971192
0.260847241 0.245920181 0.143706635
0.286274642 0.237697631 0.147627831
0.368500739 0.254522204 0.165591538
0.492979109 0.286274642 0.190385804
0.645034730 0.322200835 0.216824993
0.817710340 0.363187641 0.251992285
0.324604809 0.353953183 0.180139095
0.331941545 0.353699952 0.183681339
0.365844369 0.355218023 0.184566543
0.395192713 0.359519154 0.191524550
0.416445643 0.346615732 0.200885639
0.506135106 0.364073366 0.213282734
0.669070184 0.409487575 0.235547185
0.841492832 0.458570719 0.285389006
0.453763515 0.492093742 0.222391188
0.461100489 0.497532994 0.218722090
0.488930911 0.497153461 0.220240086
0.525237381 0.501075447 0.222517177
0.565211654 0.503858089 0.239721984
0.594560325 0.487286717 0.248070985
0.701075315 0.511701524 0.277166486
0.866666734 0.565844238 0.330297083
0.612776697 0.668438017 0.270588547
0.624794602 0.672106087 0.278431565
0.638962626 0.667425811 0.272738636
0.681593895 0.669070125 0.282858998
0.724478424 0.676913142 0.285262614
0.760404706 0.668564141 0.298418999
0.791271329 0.651359975 0.322580576
0.872992039 0.653257549 0.358886808
0.789373636 0.844655335 0.417583972
0.796584606 0.843263805 0.425553113
0.798987746 0.844149172 0.419987589
0.837318420 0.842504799 0.420872927
0.882352948 0.847564816 0.444149107
0.923213065 0.854648769 0.458064377
0.947248340 0.847564578 0.489057422
0.980138958 0.820240617 0.516128778
0.074510001 0.083871000 0.173940092
0.093991093 0.085895449 0.163314551
0.167741999 0.081467189 0.166856200
0.255028635 0.099936545 0.168880552
0.349399000 0.121442087 0.174699381
0.450474381 0.159012988 0.215053737
0.590385675 0.208349288 0.259329468
0.786590695 0.243137226 0.300696075
0.099936545 0.107779540 0.156356543
0.119544543 0.112460442 0.155977100
0.150031537 0.119544543 0.153574005
0.238583535 0.133586451 0.167741984
0.325743258 0.161037549 0.189626992
0.442504466 0.194307089 0.228336543
0.597469747 0.225300342 0.258444279
0.782922328 0.260974109 0.301328182
0.111321993 0.160658091 0.156863004
0.129664630 0.165338188 0.155092001
0.184946179 0.178621188 0.180265903
0.242884189 0.186464086 0.186464101
0.327514112 0.208349288 0.207590193
0.445287734 0.241619438 0.234661818
0.601391613 0.270208895 0.266287297
0.795319557 0.311321914 0.310815990
0.187982187 0.244022727 0.176976189
0.213915184 0.240480989 0.190765545
0.239721984 0.245667532 0.194307089
0.269450068 0.240101546 0.200126544
0.344212651 0.261606455 0.223276079
0.458823562 0.293738097 0.243516997
0.619228542 0.333206743 0.287033647
0.802150190 0.378874272 0.318659157
0.300063282 0.345477164 0.219987184
0.307653248 0.343073994 0.233396471
0.334472090 0.346995354 0.231752172
0.364579648 0.347754270 0.236559197
0.394813269 0.335231185 0.242758095
0.489816815 0.365338504 0.268184751
0.648323655 0.412650287 0.299177915
0.824414611 0.468311191 0.348513663
0.427324712 0.489816725 0.286653996
0.441745371 0.483112156 0.287413180
0.466160744 0.489057630 0.281087995
0.500695705 0.491334617 0.283997655
0.541049778 0.495762199 0.291461200
0.576344311 0.477925181 0.301960826
0.689436853 0.513599038 0.332827389
0.855028272 0.572422445 0.386717260
0.590512216 0.670335293 0.335104078
0.609614253 0.664769471 0.340164721
0.633523226 0.670335412 0.346869111
0.669576466 0.670587957 0.342062265
0.715243518 0.677419364 0.348640114
0.754206479 0.673244953 0.362302423
0.786464512 0.657052636 0.382922381
0.877672553 0.667425513 0.421632111
0.774066925 0.846679509 0.482985616
0.778874099 0.846299946 0.481467128
0.794939578 0.843390286 0.476533592
0.835294366 0.849082887 0.488930613
0.871979773 0.851992369 0.502213717
0.913092732 0.858949780 0.516255498
0.940543950 0.847059011 0.542188108
0.968880475 0.829854429 0.563187599
0.070082352 0.083491646 0.279190630
0.110056542 0.077672102 0.288298190
0.177862003 0.084629998 0.266287178
0.248323992 0.101454638 0.249462634
0.346615732 0.123339541 0.248703644
0.455407828 0.160530984 0.261859626
0.590385854 0.192283347 0.301581264
0.774319828 0.240860328 0.357748270
0.118279278 0.122960187 0.241492629
0.142567992 0.131182641 0.245035082
0.172675535 0.136748642 0.242378533
0.233016819 0.142947555 0.231752172
0.328652740 0.160531193 0.246805996
0.441745460 0.193421990 0.264769197
0.579633296 0.230234265 0.304237813
0.759012997 0.270588517 0.357494920
0.139152452 0.180518642 0.242758080
0.167235747 0.178114831 0.237697735
0.198608652 0.197849557 0.238583535
0.241619557 0.194560647 0.233396366
0.328146487 0.218089744 0.248576835
0.433143258 0.247438177 0.286654204
0.577356100 0.293358535 0.331309378
0.765591323 0.346995473 0.383554637
0.155850992 0.242757991 0.225427270
0.181784004 0.245161265 0.229980618
0.223655730 0.261606276 0.248703629
0.289310634 0.284250289 0.279822886
0.345351279 0.286653966 0.286653966
0.434155643 0.315622896 0.309803605
0.583175242 0.349272549 0.343706548
0.761922598 0.396710753 0.389753461
0.256419927 0.340290844 0.264642566
0.269323289 0.342947394 0.273371249
0.311828077 0.348893017 0.293358564
0.348893017 0.350410789 0.299557447
0.378620923 0.351676285 0.304617167
0.469070345 0.379000366 0.333586365
0.622770190 0.425300479 0.369766116
0.800126314 0.484630167 0.421505004
0.390638560 0.470841080 0.340290815
0.403542012 0.475142360 0.341302991
0.425426900 0.477545470 0.347754568
0.466919780 0.479063541 0.346110284
0.513219655 0.487792403 0.353953272
0.546869099 0.481973737 0.364073336
0.666160822 0.519797683 0.401264995
0.837571323 0.582542598 0.462492228
0.552814543 0.651486576 0.412650287
0.565591097 0.654016376 0.417963386
0.583934247 0.646552861 0.408602178
0.629095435 0.654395819 0.414421201
0.678557932 0.659961820 0.418469101
0.723213255 0.662112594 0.426945001
0.751802564 0.649841487 0.444022536
0.849715412 0.669323027 0.484630048
0.749019444 0.839595377 0.546236217
0.750031650 0.840733707 0.536369085
0.770271778 0.840859950 0.550031364
0.799999952 0.843137264 0.549399197
0.845034778 0.843516767 0.559013069
0.887033343 0.853257298 0.573561132
0.923845589 0.847817957 0.594307184
0.951043367 0.836559474 0.617583394
0.107400186 0.089310996 0.410626203
0.143327191 0.096647538 0.394433707
0.202909291 0.109677285 0.387729198
0.261226803 0.133586347 0.371410370
0.344592005 0.145730197 0.352435380
0.462871641 0.169892281 0.355724394
0.605945766 0.204554006 0.381404400
0.787982464 0.246173322 0.431498975
0.151297003 0.154712543 0.373307735
0.172422186 0.156230360 0.369892389
0.214294642 0.164579198 0.360784560
0.264389753 0.171916649 0.349778712
0.334472179 0.184566557 0.345224649
0.446426272 0.200506091 0.350031465
0.592409849 0.233396575 0.376343906
0.772422194 0.273371190 0.431119531
0.186464190 0.214547992 0.340038180
0.209993899 0.225680083 0.339911371
0.238204077 0.225679994 0.342441171
0.269070506 0.229854628 0.329664558
0.334472060 0.235800281 0.328146487
0.441998929 0.256546646 0.349399090
0.593548357 0.293738097 0.387602448
0.770651400 0.337760717 0.443389982
0.190638736 0.280961424 0.328526020
0.215812638 0.280455291 0.334851623
0.253763288 0.284756541 0.332827181
0.307021081 0.299557626 0.343833178
0.350537837 0.305123627 0.341429204
0.445793927 0.329284996 0.368754059
0.587855637 0.370904356 0.417457193
0.756609261 0.420619786 0.470335215
0.228083193 0.350917161 0.332827389
0.240480885 0.352814615 0.326881707
0.281214178 0.362808257 0.339152396
0.347754478 0.384187013 0.372043192
0.420620203 0.416698188 0.401012182
0.482605904 0.418975383 0.412776560
0.613915265 0.451233268 0.451107204
0.784819603 0.512460291 0.506388485
0.316128850 0.484250516 0.360278457
0.335736752 0.483491719 0.371410280
0.379127175 0.488171816 0.394686967
0.447185397 0.499683470 0.425047636
0.501581073 0.505882323 0.437444746
0.542694271 0.499810010 0.438456655
0.663124800 0.540670097 0.481594205
0.818089962 0.606451750 0.547754586
0.497406632 0.653130829 0.470714569
0.517647266 0.651486337 0.479317278
0.548260570 0.653889716 0.491081476
0.587096870 0.655155063 0.502087355
0.648576617 0.661733329 0.504237533
0.695382357 0.667805135 0.510816097
0.737760723 0.651612878 0.522454023
0.844275892 0.692093611 0.570018768
0.713598728 0.836938560 0.625173807
0.719797552 0.836938798 0.625173986
0.736369133 0.837697744 0.622390687
0.773687363 0.840100944 0.628589630
0.817710400 0.847438395 0.637571156
0.872359157 0.853510320 0.648450017
0.906514943 0.856546402 0.661986113
0.938393593 0.839595437 0.683364630
0.164326474 0.131056249 0.542314708
0.194940180 0.135863349 0.534851253
0.249083087 0.149525374 0.532321453
0.309677631 0.166856289 0.520809472
0.374193460 0.187222987 0.501834452
0.481340438 0.195825472 0.493232459
0.612144589 0.210373253 0.496015221
0.798608482 0.254396051 0.531941652
0.196837544 0.186084539 0.518406332
0.219354793 0.184440359 0.518026710
0.252119184 0.195699185 0.508412063
0.311195612 0.205945268 0.495762169
0.367488891 0.215686530 0.481846929
0.470208913 0.226439178 0.479696721
0.597975731 0.235800281 0.483871162
0.780138969 0.277925462 0.521189034
0.234534815 0.263124466 0.482985348
0.247058630 0.260721296 0.481846809
0.273877382 0.265907854 0.482479185
0.324984193 0.267046183 0.480708331
0.379506737 0.274889171 0.472865373
0.468690813 0.280834764 0.464010447
0.599620521 0.298798352 0.486148059
0.784819365 0.349778712 0.536242664
0.249082983 0.312713623 0.470335364
0.263377547 0.318279743 0.471726745
0.307653368 0.331688732 0.460974395
0.352688074 0.337887526 0.461100549
0.392030448 0.344844818 0.462998122
0.461227119 0.344465345 0.451612651
0.596711040 0.368247926 0.482985348
0.764452815 0.427956939 0.543580055
0.253763467 0.409614176 0.470081985
0.276534170 0.405060112 0.468690455
0.312966436 0.408349037 0.469070375
0.376470506 0.413409263 0.479190290
0.443263441 0.436559141 0.491334915
0.509804189 0.441366106 0.492473364
0.630992830 0.478051752 0.521442354
0.780012608 0.533459902 0.585452318
0.289689988 0.495256186 0.461859435
0.309930354 0.498292178 0.467172474
0.345351160 0.498165786 0.467299432
0.405566365 0.512460589 0.477925211
0.491334707 0.541049659 0.524604619
0.589120746 0.579506457 0.573561251
0.677672029 0.594307244 0.589626729
0.808981478 0.644781709 0.640733659
0.381530523 0.659329593 0.483491451
0.403415620 0.663630724 0.495635718
0.444908172 0.658950031 0.509171009
0.520556629 0.663756907 0.547248483
0.611385465 0.678178310 0.595319450
0.680961132 0.681214511 0.604301035
0.722200990 0.674003541 0.613156021
0.830739915 0.718026519 0.659709096
0.649462461 0.841998637 0.656546474
0.663377345 0.843643188 0.654142737
0.690828323 0.840733767 0.673497736
0.732827306 0.840733767 0.693358481
0.780645013 0.840227485 0.715749562
0.833016753 0.850600719 0.720050573
0.885262311 0.857558310 0.733839273
0.910562754 0.847311616 0.746109664
0.229348570 0.178367987 0.718153000
0.254143029 0.185958445 0.713598967
0.303099096 0.198102474 0.715116978
0.375079274 0.209740281 0.707526922
0.453510404 0.224668086 0.695382416
0.533080220 0.246553168 0.689563751
0.662238836 0.254522264 0.670082271
0.804807007 0.266286790 0.668564379
0.246173546 0.230487019 0.695256531
0.271726787 0.233270437 0.704111457
0.313598841 0.237697825 0.700442910
0.375964463 0.249462426 0.688677907
0.448703468 0.258696824 0.681720257
0.523972273 0.275268823 0.670335472
0.651359558 0.273624539 0.661479831
0.787729204 0.284123987 0.654142737
0.292093366 0.306261808 0.683617830
0.307779789 0.310942382 0.683997273
0.338140279 0.317900270 0.681087494
0.397343636 0.320683122 0.676533759
0.461100578 0.328905553 0.668437719
0.529664993 0.338140279 0.657305300
0.650474489 0.338266969 0.655154884
0.792156756 0.357242197 0.666919708
0.322959930 0.390258938 0.656167209
0.346995473 0.391777009 0.658443749
0.376090914 0.397343546 0.653131127
0.415432930 0.400885284 0.648197532
0.475648105 0.404680461 0.646932125
0.535483778 0.413029730 0.648577213
0.648829818 0.410499632 0.641113460
0.785578489 0.436052978 0.655787408
0.317140996 0.453384072 0.649588823
0.346995264 0.459582746 0.661227226
0.386084467 0.463377655 0.654395819
0.450727314 0.485768557 0.657305300
0.508159339 0.491714299 0.644149482
0.557874799 0.498798162 0.645540953
0.652371585 0.504237533 0.646046758
0.791018605 0.544591963 0.676786542
0.321695268 0.593042016 0.661859334
0.347248524 0.593042016 0.664769292
0.390385628 0.586464345 0.660847545
0.457685113 0.587223291 0.662998080
0.543706417 0.589500427 0.666287541
0.620999455 0.615053713 0.671726525
0.699051261 0.620872557 0.683744311
0.816065609 0.665148735 0.710815966
0.358759999 0.682858527 0.634787858
0.378494799 0.684123814 0.638582945
0.422264278 0.682226539 0.635294020
0.482099622 0.675521910 0.640860140
0.557748258 0.683871269 0.650980294
0.658190966 0.710309744 0.689310551
0.747628033 0.745983243 0.738140285
0.830486953 0.765970826 0.761416554
0.565085173 0.849588633 0.678431332
0.580644667 0.845414340 0.686780274
0.600758970 0.847691476 0.696141303
0.652118683 0.849082768 0.716002226
0.718405843 0.850221395 0.751802623
0.803036094 0.856672764 0.786970258
0.855787158 0.858950078 0.799241066
0.898924470 0.858950019 0.815685987
0.321947753 0.268310964 0.872359455
0.334471762 0.273624629 0.876028061
0.380392045 0.280328810 0.879696488
0.439595282 0.294370562 0.875015616
0.519418001 0.314610779 0.867046356
0.604807258 0.338646412 0.867805481
0.692093670 0.360531509 0.864262998
0.841113567 0.370524585 0.854142785
0.336369127 0.305882066 0.872864962
0.355850309 0.312586695 0.867804945
0.391018003 0.315117031 0.870461762
0.451233178 0.326501966 0.865401626
0.520683169 0.340164602 0.861606658
0.600505531 0.355470955 0.855407655
0.686021388 0.378873855 0.848577023
0.832890153 0.386843771 0.837824106
0.386084676 0.389373809 0.866413534
0.397596538 0.394434124 0.868564248
0.429221869 0.399873614 0.855660737
0.482099801 0.406831264 0.859709084
0.547248363 0.418469310 0.856925786
0.620493293 0.433523118 0.853763580
0.696268082 0.447438508 0.848956585
0.839089334 0.454648823 0.846299767
0.441619068 0.489184231 0.855787396
0.454395890 0.493105233 0.849588573
0.480202675 0.495888412 0.850853741
0.519291401 0.497912586 0.842504561
0.570904136 0.504111230 0.843263745
0.632384539 0.508791983 0.842504501
0.704237819 0.522201061 0.836685538
0.830234230 0.522074521 0.832890332
0.468437761 0.558760583 0.853130937
0.491460949 0.568500936 0.845161378
0.520556331 0.586211205 0.843137324
0.567994833 0.597849607 0.841239810
0.614421308 0.602150440 0.839974523
0.665275216 0.604806840 0.836558998
0.725363731 0.613535762 0.834535062
0.833522916 0.615180314 0.837571144
0.495509148 0.663124502 0.845414400
0.506894290 0.663124502 0.849588573
0.544085681 0.664136291 0.851992548
0.590006471 0.669323444 0.845414460
0.657052457 0.688930690 0.839974761
0.716128767 0.701960742 0.839721441
0.758760214 0.708791912 0.834787905
0.841113627 0.713092506 0.836559057
0.493231863 0.791650653 0.847438455
0.512333870 0.789373755 0.844275832
0.545350909 0.783301651 0.841366291
0.596963882 0.779759705 0.843643188
0.659582615 0.773940146 0.843390346
0.725869775 0.772801638 0.841998875
0.789500296 0.785199344 0.847311854
0.854648590 0.791144609 0.838709474
0.578621209 0.884376705 0.827956676
0.588994265 0.874889314 0.833775759
0.612650275 0.878431320 0.837318420
0.655028403 0.875268936 0.837318420
0.701960742 0.870967805 0.836052895
0.765464723 0.870588362 0.848323643
0.829981029 0.878178656 0.862871468
0.902466595 0.902466595 0.894623578
