Assets/Resources/EldamarStudio/100 Horror LUTs Pack/LUTs/cube/Bratrar LUT.cube
LUT_3D_SIZE 5
DOMAIN_MIN 0.000000 0.000000 0.000000
DOMAIN_MAX 0.903226 0.903226 0.903226
0.058823999 0.058823999 0.058823999
0.134724990 0.074510001 0.077799000
0.339405388 0.062744997 0.087540001
0.559266269 0.101075128 0.110942118
0.843769729 0.174066812 0.183174968
0.140923694 0.154332399 0.076154292
0.184440404 0.147121996 0.084376991
0.345604122 0.160531282 0.087919287
0.556609631 0.197217122 0.130170584
0.846426547 0.254775524 0.200885803
0.282479823 0.312586993 0.117014416
0.323086828 0.315876395 0.120303832
0.369513214 0.296900839 0.135989994
0.558254123 0.335863531 0.181783572
0.846299589 0.410752803 0.244781792
0.510183275 0.542568088 0.198228985
0.538393617 0.551043570 0.210879132
0.602150500 0.560278356 0.215179980
0.662365377 0.542568147 0.244276121
0.876786768 0.594181120 0.315749109
0.794054627 0.851612747 0.395319432
0.814168334 0.854142725 0.405312806
0.869070232 0.858064413 0.423529148
0.942314625 0.859708786 0.452371567
0.983427942 0.826691747 0.513345540
0.074510001 0.082353003 0.148133695
0.144212693 0.076154292 0.140290692
0.297912687 0.103984565 0.156609699
0.486907303 0.174952537 0.215812832
0.795698762 0.230233818 0.279949546
0.100695990 0.140923694 0.134092405
0.159898683 0.152055681 0.155977115
0.277292788 0.183428109 0.179506689
0.482732266 0.225933120 0.220999569
0.801644266 0.288045526 0.284503400
0.247185394 0.289057791 0.204680398
0.277292818 0.289057821 0.196837410
0.328272969 0.283491671 0.200758979
0.518026710 0.332953632 0.251865983
0.820872605 0.422517210 0.317899972
0.473624408 0.529537976 0.278304696
0.495256066 0.532827377 0.276027977
0.568501055 0.541302979 0.286527425
0.632257998 0.528272986 0.302213967
0.864389777 0.593928039 0.376596928
0.775078654 0.845920444 0.460974306
0.796204865 0.840354204 0.453510165
0.849209368 0.846552908 0.470208257
0.921694934 0.858949900 0.501581013
0.968880355 0.826312482 0.548513591
0.085009828 0.082985587 0.339405388
0.171663284 0.090575702 0.323339701
0.296900809 0.119671412 0.297533423
0.491840661 0.171663120 0.305123121
0.779759467 0.244022533 0.387222946
0.161163718 0.183428109 0.292979389
0.197469980 0.189626992 0.276913673
0.277925432 0.195825279 0.276660413
0.472612113 0.248197541 0.314610809
0.767362118 0.319544524 0.405565798
0.192282975 0.296900809 0.278558016
0.230487108 0.302466661 0.292726099
0.351802796 0.350537807 0.344592422
0.479443252 0.369259536 0.363693804
0.778367758 0.463883162 0.453384042
0.402276844 0.512839854 0.372169405
0.440860003 0.517773569 0.394687116
0.514737308 0.521315277 0.397975683
0.591651082 0.528272986 0.423529118
0.829222202 0.615812778 0.513472378
0.732574463 0.839721620 0.576344192
0.740037680 0.834787846 0.572422564
0.805060148 0.840986609 0.589500010
0.892346621 0.853763282 0.612776756
0.939658225 0.835167348 0.643769622
0.181530863 0.144212127 0.584819496
0.248576820 0.157621577 0.576850295
0.360784531 0.182795703 0.557748377
0.526881337 0.206957862 0.535737276
0.797090232 0.257178962 0.564832091
0.231498823 0.250474393 0.545224547
0.275901586 0.255028397 0.535610259
0.365338087 0.266540110 0.524984002
0.508665562 0.277292997 0.513851941
0.789879739 0.334345371 0.568121374
0.271094561 0.364326388 0.508033097
0.317520261 0.370904386 0.501075268
0.401264668 0.397090197 0.504364252
0.519417882 0.406198382 0.505756080
0.787602842 0.485641927 0.591018379
0.307906032 0.538773119 0.504364252
0.356736541 0.546489358 0.514358163
0.465275258 0.566097558 0.534092069
0.636685431 0.624035239 0.619102120
0.814800620 0.674636126 0.670335054
0.624162138 0.845287919 0.655281425
0.656420052 0.845034838 0.676027894
0.743326843 0.846932590 0.722833157
0.839088976 0.853130817 0.739531755
0.907273471 0.852118731 0.761037111
0.321947753 0.268310964 0.872359455
0.369006634 0.277545601 0.879949510
0.481467605 0.303731769 0.870462000
0.625300646 0.343959332 0.868311286
0.841113567 0.370524585 0.854142785
0.373687595 0.367109179 0.870461762
0.410246789 0.376597166 0.860974014
0.508285761 0.392283499 0.864895463
0.637950540 0.417836457 0.854016185
0.841113567 0.440480590 0.849335849
0.473877579 0.535230577 0.852877617
0.510183096 0.548007429 0.840354145
0.571157157 0.554206014 0.843769729
0.669829190 0.568627596 0.844022870
0.837824166 0.579127192 0.845793784
0.493232101 0.693991065 0.842378438
0.534977913 0.697533071 0.851486385
0.622517288 0.698292375 0.840480566
0.734598160 0.721188903 0.840227544
0.844655454 0.734344900 0.838076890
0.578621209 0.884376705 0.827956676
0.603036165 0.876407564 0.836558998
0.675142467 0.873118162 0.837191582
0.783175111 0.872106493 0.850853801
0.902466595 0.902466595 0.894623578
