Assets/Resources/EldamarStudio/100 Horror LUTs Pack/LUTs/cube/Bratrar LUT.cube
DOMAIN_MIN 0 0 0
DOMAIN_MAX 1 1 1
LUT_3D_SIZE 32
0.058823999 0.058823999 0.058823999
0.055787612 0.055787612 0.055787612
0.054901998 0.054901998 0.054901998
0.057431996 0.056167159 0.053636838
0.065401547 0.059582997 0.052498095
0.086653933 0.065655001 0.064642869
0.110436641 0.071727000 0.071727000
0.134724990 0.074510001 0.077799000
0.160531193 0.075268902 0.084630094
0.190891981 0.078304522 0.093738474
0.221252739 0.075521871 0.088298999
0.249589249 0.070462003 0.086274996
0.279190630 0.065528356 0.088551998
0.312081009 0.062744997 0.093612000
0.339405388 0.062744997 0.087540001
0.369133592 0.060341805 0.088678189
0.399493992 0.061859995 0.091714188
0.430486709 0.068564408 0.094750419
0.463883936 0.077672049 0.097786039
0.488931030 0.086780362 0.100822359
0.520809472 0.093990996 0.103858255
0.559266269 0.101075128 0.110942118
0.601265013 0.110183500 0.125742987
0.631625831 0.119291902 0.131815001
0.668817282 0.128399700 0.142441571
0.712460279 0.138899326 0.153194308
0.759519219 0.150537938 0.162302062
0.798988283 0.159645543 0.171410441
0.843769729 0.174066812 0.183174968
0.889310539 0.189247176 0.197090179
0.932194948 0.205312967 0.214927197
0.968626976 0.223528996 0.239216000
0.046679225 0.058823999 0.055787612
0.052751228 0.052751228 0.052751228
0.054016389 0.054016389 0.049715389
0.059961997 0.058697160 0.052625161
0.070714541 0.065275446 0.057052772
0.086653933 0.068690613 0.058570869
0.115496635 0.072232932 0.070714995
0.137507990 0.076154292 0.079443701
0.160531193 0.076786712 0.084630288
0.190891981 0.075268909 0.084630102
0.221252739 0.078304522 0.090828605
0.251612991 0.077545613 0.091334864
0.279949248 0.074636266 0.091208354
0.309550703 0.071600355 0.091334641
0.342441797 0.068816997 0.093612000
0.369766176 0.068816997 0.085136198
0.399493992 0.070967615 0.084123999
0.429854125 0.077039771 0.086907178
0.460847586 0.083744816 0.094750434
0.497027367 0.095635779 0.103352040
0.524225116 0.103099376 0.104996607
0.558254123 0.110183507 0.110942118
0.598481596 0.119291857 0.125742987
0.634661436 0.128399506 0.131815001
0.674130142 0.135230601 0.142441571
0.715749264 0.146362647 0.154585987
0.759519219 0.159645677 0.164832398
0.798988283 0.168753922 0.171410441
0.838456750 0.177862212 0.180518821
0.883238077 0.194054335 0.197596550
0.927893400 0.209613979 0.215306982
0.968626976 0.223528996 0.233144000
0.051739547 0.063124999 0.054901998
0.055660773 0.057052776 0.051865615
0.057431776 0.057431776 0.053130776
0.065528162 0.057938162 0.052625161
0.078557774 0.064263448 0.059582997
0.091966935 0.074383065 0.063124999
0.117646866 0.075268552 0.071094230
0.143073916 0.078304939 0.076660231
0.163314193 0.082099773 0.085009634
0.190891981 0.083238482 0.088931300
0.221252739 0.083870903 0.092473008
0.251612991 0.084882773 0.094497003
0.280834645 0.083744422 0.093991227
0.308159024 0.080708742 0.089690000
0.337760687 0.077672362 0.087033644
0.370651782 0.079190545 0.089057967
0.394940197 0.083744347 0.087539777
0.425932884 0.089183778 0.088172197
0.462365746 0.092220180 0.091208205
0.493990988 0.106009007 0.102466650
0.526628673 0.112460740 0.109676994
0.557242274 0.118279770 0.114231251
0.595698714 0.126375988 0.128020242
0.636179566 0.137507871 0.136115998
0.670714557 0.144338772 0.144591793
0.711827576 0.151802436 0.152561903
0.755091429 0.164958775 0.163441002
0.801138520 0.175711438 0.176090986
0.844908476 0.189120829 0.178368047
0.886148095 0.198229209 0.194560394
0.928652525 0.217077747 0.215812817
0.968626976 0.234281778 0.233523220
0.063883997 0.072992161 0.056167159
0.064389609 0.066919833 0.059455935
0.069070160 0.067299388 0.059455935
0.070335321 0.069070160 0.061227158
0.086274616 0.066793546 0.062745452
0.101074994 0.078431383 0.064389840
0.123339318 0.084756166 0.075521834
0.147374690 0.085135706 0.079696164
0.169386193 0.088172093 0.080455258
0.193674982 0.093738161 0.091081969
0.221252739 0.093991160 0.091967136
0.252878159 0.093991160 0.095509000
0.283238173 0.095129512 0.094370648
0.310436070 0.092599832 0.088931158
0.336748570 0.090575583 0.084883168
0.366350234 0.092346802 0.086021647
0.397470206 0.094623961 0.085515834
0.421885133 0.104364142 0.094117813
0.463124961 0.106894173 0.095509037
0.493232191 0.115749530 0.103858009
0.524857461 0.125869572 0.112207316
0.557242274 0.129918098 0.117267191
0.593801498 0.136116624 0.128399819
0.635167658 0.147122011 0.136369109
0.673371434 0.155977160 0.145477295
0.710815907 0.162175670 0.158127517
0.750284433 0.171790004 0.161163896
0.798861325 0.183933988 0.175584987
0.843896270 0.198734805 0.185451999
0.888930976 0.211638361 0.190259174
0.931435823 0.221632138 0.215939179
0.968626976 0.244402170 0.239089161
0.075648546 0.088551991 0.059203450
0.074130163 0.083238326 0.071727000
0.079696320 0.083238319 0.074889451
0.086654164 0.084629998 0.074130453
0.090828992 0.084629998 0.075268999
0.112080604 0.087666377 0.066160604
0.131814867 0.095003217 0.075395323
0.152687699 0.099177547 0.082353003
0.174699187 0.100695640 0.083112098
0.198987991 0.103732027 0.086148478
0.223656192 0.104237996 0.083365135
0.253637224 0.104237996 0.085642003
0.286274552 0.104617447 0.088298552
0.316128612 0.107906088 0.085768931
0.340417355 0.108159088 0.085895449
0.367488772 0.110183343 0.087919191
0.395572364 0.112460546 0.087919004
0.426059574 0.113851979 0.085388981
0.462492436 0.125995994 0.103605010
0.491334826 0.130550355 0.111448005
0.522454143 0.136622354 0.116761386
0.556483269 0.145097718 0.122580871
0.593168974 0.151423469 0.125995979
0.632890463 0.160784200 0.132574007
0.672738850 0.169512823 0.141302839
0.712081194 0.177609071 0.152687967
0.754459500 0.184313536 0.170271605
0.793927848 0.196457535 0.173308000
0.836812019 0.210878909 0.188487962
0.881087661 0.223908857 0.199367210
0.924604177 0.236432970 0.209487617
0.967108965 0.248576999 0.245920449
0.084756933 0.106767997 0.062239062
0.093864553 0.106767997 0.077419452
0.100948706 0.105755866 0.079190224
0.108791932 0.104996771 0.075395063
0.115116991 0.102845997 0.072232611
0.127260998 0.102845997 0.081340998
0.138393253 0.105882376 0.079822935
0.154458925 0.108285934 0.082353003
0.174699187 0.110563032 0.083112098
0.198987991 0.118912414 0.086148478
0.226185873 0.121948056 0.083365135
0.255028576 0.122453995 0.082353003
0.287033647 0.121315643 0.082226358
0.319164991 0.120050870 0.079696164
0.343453735 0.126122862 0.082732551
0.372548908 0.126375869 0.082859069
0.399367392 0.129917935 0.086400993
0.425300539 0.134345353 0.090448998
0.453384042 0.138140008 0.097533017
0.487033457 0.147501349 0.110183008
0.519417763 0.151802734 0.113724999
0.552814424 0.157874733 0.117773257
0.587096989 0.166603073 0.125995979
0.629601836 0.178747877 0.138140008
0.671600521 0.185831875 0.149272576
0.708032966 0.193801597 0.156736255
0.742441237 0.202403814 0.164832130
0.784819484 0.211637914 0.182416379
0.832257628 0.223782584 0.190765068
0.878051579 0.234661624 0.204933181
0.920050502 0.246046647 0.218089595
0.954964995 0.260720998 0.236812070
0.114105314 0.130043998 0.070335321
0.118152931 0.132574320 0.075395070
0.125110328 0.132574320 0.081973456
0.132574320 0.131309152 0.080961324
0.138267100 0.128652319 0.078178324
0.143959329 0.128652319 0.080834940
0.153573647 0.126122639 0.077293001
0.167615309 0.127514318 0.077293001
0.185831517 0.128273219 0.079570092
0.206578314 0.133839160 0.086148478
0.236305863 0.139658764 0.088425130
0.263630778 0.138646379 0.087412998
0.291208327 0.139278963 0.086274646
0.319924027 0.139532283 0.083491646
0.346489489 0.143326998 0.084250733
0.373181462 0.146995813 0.089690313
0.403415382 0.150158316 0.091461122
0.430993140 0.155597746 0.096520990
0.460215300 0.158633366 0.102593012
0.488045692 0.164705992 0.114231654
0.521442056 0.171916634 0.120682895
0.555850625 0.177609190 0.123339318
0.591018498 0.186716825 0.130802989
0.631119490 0.196457818 0.138140008
0.671347558 0.206325278 0.150284573
0.714990616 0.211258635 0.161037311
0.752561510 0.218089744 0.167868122
0.793042481 0.227197856 0.182036877
0.840860188 0.236432657 0.197343782
0.885894954 0.248576954 0.209993377
0.930676818 0.260214925 0.225173593
0.970651329 0.275395334 0.240354002
0.140923694 0.154332399 0.076154292
0.142315030 0.154079378 0.080835029
0.155724108 0.153320700 0.083870769
0.155470952 0.155850694 0.076786838
0.160404980 0.155091405 0.076786846
0.167235762 0.157621399 0.085641995
0.170398310 0.150158018 0.075648293
0.184440404 0.147121996 0.084376991
0.199620411 0.146363094 0.082858995
0.214294970 0.147627935 0.087539770
0.240859985 0.151929021 0.089184128
0.264263034 0.155218437 0.086907007
0.290449291 0.154459044 0.089184001
0.315496385 0.157495320 0.087919287
0.345604122 0.160531282 0.087919287
0.371283770 0.165211797 0.092726283
0.398608178 0.169765979 0.100316480
0.429475009 0.175837979 0.104870267
0.460847974 0.179885745 0.111954421
0.488425374 0.184060708 0.118659005
0.521188974 0.190132990 0.125110969
0.556609631 0.197217122 0.130170584
0.593675017 0.206198394 0.137001500
0.631625652 0.213788614 0.144591704
0.672738850 0.224541277 0.155217856
0.712207615 0.233649656 0.167362615
0.757242203 0.237697408 0.176217407
0.798988283 0.245667145 0.186084881
0.846426547 0.254775524 0.200885803
0.888171911 0.265654683 0.214421451
0.931562364 0.278684288 0.230486676
0.977102995 0.293864697 0.246425986
0.160658091 0.178621188 0.079190098
0.163694099 0.176343888 0.085262671
0.172675669 0.173307866 0.087666325
0.185072839 0.174067095 0.085895032
0.179000542 0.178621083 0.067299187
0.191524088 0.183175102 0.085895032
0.194307193 0.177103102 0.079822779
0.201138407 0.168374389 0.080581702
0.215560094 0.165338203 0.096521005
0.221632093 0.162302583 0.090448998
0.242883980 0.163567215 0.089437097
0.263124496 0.167362273 0.088425107
0.284377098 0.170398548 0.086147994
0.308665097 0.173434153 0.091461025
0.340544045 0.176470414 0.090955094
0.369007081 0.180391997 0.096520990
0.394813269 0.187223092 0.103352092
0.422137648 0.193927675 0.112460464
0.455281854 0.200126201 0.121568874
0.484630287 0.204933554 0.127387643
0.516129076 0.209867194 0.130423725
0.552055299 0.215433136 0.133206964
0.591524422 0.224288508 0.142314598
0.628589809 0.229728103 0.151423007
0.669576526 0.241113186 0.162808090
0.712966681 0.251865655 0.174193323
0.753447115 0.260974079 0.186844066
0.798988163 0.267299086 0.193675086
0.845667481 0.275268823 0.206198707
0.887918890 0.287666142 0.222644046
0.926248670 0.299936682 0.234282151
0.971789896 0.315117091 0.252498180
0.175838500 0.202909991 0.082226492
0.187982500 0.202909991 0.088298477
0.188867718 0.200632691 0.087919287
0.190638527 0.201391488 0.086401477
0.197216555 0.205945492 0.085515961
0.212396935 0.199873507 0.085515976
0.217330813 0.199367493 0.083871163
0.221884981 0.193927795 0.085262485
0.227704108 0.186590597 0.090449005
0.230740488 0.183554977 0.090449005
0.245540604 0.180518627 0.087286875
0.263124496 0.183807492 0.090449482
0.284756631 0.188614652 0.094876841
0.311701477 0.191650942 0.097533032
0.335989475 0.194686562 0.094497427
0.367868423 0.195319012 0.101201676
0.397849679 0.200126216 0.108664997
0.425174028 0.209108084 0.115496084
0.452498466 0.218216479 0.124604493
0.485641897 0.227198333 0.136495531
0.516887963 0.234155983 0.142567739
0.548513591 0.239215851 0.144592002
0.582415998 0.242504522 0.145351008
0.621885240 0.245540917 0.154459417
0.663504541 0.257811785 0.165844485
0.708792269 0.270082295 0.176597148
0.756483495 0.279190063 0.186844066
0.802023888 0.288298428 0.202024430
0.844908118 0.294623464 0.211511627
0.885894656 0.307906389 0.229727894
0.926122189 0.324098945 0.249083087
0.968753517 0.336369485 0.258570969
0.205565989 0.215559989 0.091081873
0.200252995 0.218469128 0.079696134
0.203795001 0.222770676 0.087918900
0.207842872 0.220746413 0.089184128
0.217203960 0.219860554 0.090702124
0.224794671 0.221378863 0.100822121
0.232384741 0.217836544 0.088172443
0.239089146 0.219101712 0.091840863
0.246426180 0.216571644 0.098924875
0.251613349 0.213535473 0.098924875
0.248830006 0.204680875 0.098924868
0.264010102 0.203668743 0.101960994
0.283618003 0.205692738 0.103478998
0.309171140 0.207210869 0.101454869
0.336115986 0.212903321 0.106388420
0.362808406 0.220746547 0.115369990
0.393674999 0.222264603 0.115875676
0.423655838 0.227198154 0.116887562
0.455534846 0.236305982 0.130549967
0.488425225 0.242631003 0.136875004
0.519923866 0.251612842 0.146868736
0.551296473 0.257685125 0.152940989
0.584819853 0.261100739 0.157115504
0.621505737 0.272485793 0.166223913
0.663251519 0.277798891 0.168500990
0.709930599 0.288298637 0.178114980
0.759013236 0.297912747 0.189753190
0.802150428 0.309424311 0.204933554
0.845034599 0.315875858 0.217457101
0.885768116 0.327261031 0.228589416
0.927007794 0.343453556 0.244782001
0.971536875 0.357621878 0.255914122
0.225806251 0.237824246 0.096141741
0.231878236 0.238836125 0.092093475
0.224035501 0.241998792 0.088930771
0.230360657 0.243010923 0.095509157
0.241366208 0.238456339 0.095509253
0.242504865 0.243137434 0.097786263
0.250601262 0.243137434 0.099304058
0.256673247 0.240101054 0.095635727
0.264642507 0.240860149 0.103984736
0.270714968 0.237823755 0.103984736
0.272106618 0.233017117 0.106008992
0.277166247 0.225933254 0.106008992
0.291207969 0.225933254 0.110942349
0.311195016 0.226186216 0.108538799
0.331435382 0.230486989 0.114611246
0.366856396 0.234914795 0.117394254
0.392663002 0.244023174 0.126502246
0.421378553 0.247438654 0.123718917
0.451992422 0.256546289 0.136115968
0.485389382 0.262871265 0.146995515
0.516887963 0.265148252 0.147374779
0.548260391 0.273877144 0.154964998
0.582036972 0.279316962 0.161163509
0.622264802 0.291460991 0.170271903
0.665275216 0.303099513 0.178621247
0.711954653 0.307779819 0.182795554
0.761543334 0.316635072 0.193801075
0.802529871 0.330297232 0.205945432
0.845034599 0.341176242 0.218468979
0.885768116 0.349019438 0.230613410
0.924351215 0.362808228 0.245414585
0.966476738 0.376850009 0.260974258
0.243263632 0.264010280 0.102592997
0.250853628 0.264010280 0.102592997
0.254775405 0.265022427 0.101454645
0.252372146 0.266540587 0.102719516
0.265654981 0.261226922 0.105376355
0.263377726 0.265781522 0.100822344
0.269323319 0.266793638 0.101201676
0.277925640 0.266287565 0.102466635
0.285515636 0.264769197 0.108538635
0.292346656 0.262491792 0.109297641
0.294370890 0.258317500 0.112207510
0.301454991 0.253257632 0.113219641
0.308285624 0.248323992 0.115496635
0.320176661 0.248071030 0.118785284
0.333586037 0.249335870 0.124857828
0.362302393 0.253510445 0.128399998
0.396458000 0.257305562 0.131435990
0.422011137 0.265781492 0.136242986
0.449841648 0.274383307 0.143832684
0.483871073 0.280708283 0.153447077
0.516508639 0.287539274 0.161796555
0.548892915 0.289563268 0.161796287
0.582669497 0.298798144 0.167741776
0.624162138 0.311954290 0.174825907
0.666666865 0.324098587 0.181657284
0.712713301 0.334345609 0.190765589
0.763820469 0.338393360 0.200379282
0.805186391 0.352308691 0.210120097
0.847311616 0.364832252 0.223023266
0.888045371 0.376343817 0.236306041
0.928399444 0.386337608 0.250221610
0.965338290 0.398481637 0.271221012
0.264263064 0.288298994 0.113978028
0.265022010 0.288045973 0.113724999
0.271473795 0.288298994 0.112586766
0.278052002 0.288805008 0.111827865
0.284124047 0.288298994 0.114484027
0.284124047 0.288298994 0.114484027
0.289943069 0.288552016 0.114231065
0.296900749 0.288552016 0.112839743
0.306008995 0.288804948 0.112081021
0.318152994 0.291840553 0.118153028
0.319924027 0.286907077 0.121568866
0.325996280 0.281341046 0.122833967
0.332574427 0.276154399 0.124604963
0.336116076 0.272612065 0.129917994
0.345224440 0.269576460 0.135989994
0.365338594 0.273245037 0.141808957
0.391904026 0.278304815 0.148133993
0.421758115 0.281973153 0.153447002
0.452118963 0.288045943 0.153447017
0.488045722 0.293612033 0.158507019
0.522833705 0.303479016 0.168627441
0.557495236 0.313852042 0.178747952
0.593927979 0.320177048 0.184819952
0.633269906 0.335230947 0.187982097
0.673244834 0.347881079 0.191271320
0.714990616 0.358886689 0.197090626
0.760531127 0.368248075 0.206451997
0.809107840 0.377356440 0.218595982
0.852371633 0.388868004 0.233902797
0.893611550 0.401011974 0.248324141
0.933966160 0.412903041 0.264642954
0.976471007 0.425047070 0.282859027
0.282479823 0.312586993 0.117014416
0.291587442 0.309550583 0.113978028
0.298798174 0.311448336 0.120176770
0.300316244 0.315117002 0.122959986
0.296647519 0.318405956 0.123592407
0.305376381 0.312586993 0.123592407
0.318026721 0.315117300 0.121062733
0.323086828 0.315876395 0.120303832
0.325743288 0.315117300 0.121189408
0.330296963 0.313092917 0.127261400
0.345350862 0.316129267 0.133333400
0.353320658 0.315243810 0.136748731
0.359013408 0.311701506 0.138013572
0.360404849 0.306008399 0.139025614
0.369513214 0.296900839 0.135989994
0.381024778 0.296268404 0.139658198
0.400253177 0.302087188 0.146362782
0.424035400 0.309297532 0.154205993
0.449082583 0.315370321 0.159519002
0.485009342 0.315876395 0.159519002
0.521442056 0.324731380 0.170271739
0.558254123 0.335863531 0.181783572
0.596963584 0.344465792 0.187855572
0.633396387 0.356609821 0.193927586
0.677292824 0.367109686 0.199367568
0.718785644 0.378241807 0.206198722
0.760025144 0.389753371 0.215306640
0.803035855 0.401644409 0.224667981
0.846299589 0.410752803 0.244781792
0.890575528 0.422264338 0.255913973
0.933966160 0.433522999 0.268311143
0.976471007 0.443263829 0.288931012
0.310309976 0.344085783 0.134471789
0.309804231 0.336243004 0.129032210
0.321062595 0.339658380 0.128146604
0.327893615 0.340417415 0.130170792
0.324857324 0.342694312 0.129032254
0.329917699 0.342694581 0.135103986
0.341682315 0.337002099 0.130170509
0.348639995 0.341682762 0.133712888
0.350158006 0.343200773 0.135230899
0.354838312 0.341809094 0.136369184
0.367109448 0.342188656 0.137634188
0.376217574 0.343200773 0.139658198
0.382669151 0.342062145 0.142314643
0.384693027 0.337254584 0.144085810
0.393801391 0.330297202 0.147501409
0.402909756 0.323592782 0.156482980
0.410499573 0.322074592 0.159518972
0.429601312 0.327007771 0.166223779
0.460973859 0.333080113 0.172295794
0.486780554 0.338393778 0.172801793
0.525110543 0.347881019 0.180391788
0.563061357 0.360531241 0.190005988
0.602530122 0.371031255 0.193421498
0.641239583 0.380897999 0.201770812
0.679949045 0.390765280 0.205566093
0.725237131 0.402656645 0.214294970
0.767235935 0.415306866 0.224414870
0.809740663 0.425553560 0.233523250
0.849841595 0.437444597 0.248450592
0.892346323 0.448323727 0.266160548
0.934598386 0.460467994 0.280328542
0.974067211 0.471094579 0.304616988
0.340670377 0.369892389 0.149652198
0.337634385 0.369892389 0.143580198
0.345351368 0.362428963 0.140290990
0.352435380 0.368500978 0.146616146
0.354838580 0.366982728 0.141935632
0.356736302 0.370019108 0.144212261
0.367362380 0.368501186 0.145224378
0.375964373 0.365971178 0.141302690
0.377482384 0.370525181 0.148133993
0.383554399 0.370525181 0.145856708
0.392409742 0.370525181 0.144212380
0.403542370 0.372042984 0.150284380
0.408475727 0.372042984 0.150284380
0.411764354 0.368880212 0.152435154
0.419607580 0.361543387 0.154711992
0.430234164 0.356989175 0.164073184
0.434788376 0.352435380 0.177735373
0.439721555 0.349398971 0.178241625
0.469070166 0.352814376 0.179885998
0.495888710 0.357368916 0.183427989
0.526628733 0.369133413 0.187981993
0.566097379 0.382289320 0.199114129
0.605692983 0.393927962 0.201011702
0.646553099 0.404427290 0.210120097
0.686021447 0.415053666 0.214674085
0.728272796 0.424161702 0.220493466
0.773813963 0.439089060 0.233017057
0.817330837 0.450221419 0.244149446
0.854142725 0.463504165 0.258570790
0.896900535 0.471094340 0.267678738
0.936748803 0.484123766 0.286400557
0.972549021 0.496900797 0.313724995
0.369765967 0.392536521 0.157495424
0.367362142 0.399114311 0.155218557
0.373814106 0.394433528 0.150031790
0.382163554 0.391144693 0.152055576
0.382542998 0.396078169 0.165338427
0.382795990 0.398608446 0.156989053
0.392283529 0.398482114 0.156736314
0.401138544 0.398482114 0.157748267
0.407843113 0.399114519 0.156103566
0.413915128 0.399114519 0.156103566
0.419987142 0.399114519 0.154459432
0.429475069 0.401138425 0.158380985
0.439468890 0.402403116 0.166603580
0.443010569 0.402656138 0.166350543
0.449462116 0.395066530 0.163314164
0.459709138 0.389500290 0.172422349
0.466413975 0.386464149 0.181404173
0.467678934 0.382795960 0.192789420
0.479822993 0.379759550 0.183681026
0.502719939 0.381024897 0.187855572
0.531941712 0.390385807 0.193927571
0.566097379 0.404174268 0.201011702
0.605946004 0.413282603 0.209993571
0.649462819 0.424920559 0.218595892
0.689690292 0.436432570 0.223782271
0.731941760 0.449083000 0.229601234
0.775458217 0.458190650 0.239215568
0.820493281 0.473117977 0.254269421
0.856040359 0.486400813 0.268184811
0.896520972 0.497027159 0.279443324
0.937887609 0.502340496 0.287033141
0.971284032 0.517520130 0.314357579
0.394054055 0.432005018 0.160531059
0.394054055 0.428969413 0.172675818
0.398102552 0.424794406 0.168248206
0.404681027 0.425806344 0.164705828
0.409867465 0.435547382 0.168374047
0.412903070 0.432511002 0.168374047
0.420746356 0.429981351 0.165085346
0.428462982 0.428842992 0.165844306
0.435294092 0.429601908 0.168374106
0.444276005 0.432511032 0.171283975
0.450347990 0.432511032 0.174193844
0.458444238 0.434535295 0.172675714
0.467805356 0.435294330 0.173181653
0.476407051 0.433017015 0.175458938
0.485515416 0.436053395 0.172422558
0.494370759 0.428463191 0.188614756
0.500695825 0.422896802 0.198228970
0.504111052 0.419228077 0.198861435
0.510183036 0.413156062 0.195825055
0.522327781 0.410120398 0.197849378
0.543326974 0.415180266 0.203035980
0.571410358 0.425806254 0.210120112
0.605946004 0.437571436 0.219101965
0.654522777 0.446679085 0.225173980
0.695762277 0.456040293 0.231499016
0.738013983 0.469576359 0.238709643
0.781531036 0.485515863 0.248323977
0.814927340 0.494623452 0.260467947
0.851992548 0.501581013 0.270208836
0.893485069 0.513725221 0.285135955
0.934598207 0.526122630 0.301201582
0.965211987 0.535736978 0.317394018
0.435040742 0.468690753 0.174699366
0.435040742 0.468437791 0.175711423
0.437191516 0.467552394 0.179253638
0.440101385 0.465275109 0.175838009
0.443137378 0.469449818 0.176976353
0.448576808 0.466413438 0.176976353
0.451613069 0.468437701 0.179506674
0.460215002 0.467552394 0.178621367
0.468943566 0.468311489 0.179759711
0.480076253 0.471347600 0.180771843
0.489057422 0.477040112 0.186590880
0.501201630 0.475015849 0.185578749
0.511828005 0.476534039 0.182542652
0.520430028 0.476787090 0.182543010
0.524477780 0.474762797 0.187096953
0.533586204 0.475395381 0.188867569
0.539658606 0.470461935 0.200253025
0.543327093 0.466160864 0.203415781
0.549399137 0.457938105 0.204680398
0.563820481 0.454648733 0.207210720
0.570272028 0.449715376 0.214041606
0.591397703 0.454395890 0.220999271
0.625047863 0.464895874 0.228336826
0.665654778 0.479317188 0.237065017
0.705123544 0.492978781 0.243137002
0.748260617 0.504490733 0.250600666
0.793675125 0.517900348 0.259709060
0.829348743 0.524731219 0.269576341
0.865401924 0.536495686 0.287033319
0.905376196 0.546362698 0.300063193
0.946362793 0.561416626 0.320809543
0.978621364 0.576217771 0.345477730
0.473750472 0.505123436 0.186084732
0.473750472 0.508918464 0.187981993
0.468311250 0.507020712 0.187981993
0.476407319 0.508285880 0.193042308
0.479949266 0.508159459 0.194433913
0.484503478 0.503605247 0.189879730
0.491840780 0.507526755 0.194307312
0.494876742 0.510562778 0.195698991
0.504996538 0.511574805 0.195698991
0.518279672 0.514611185 0.195698991
0.527514338 0.514863968 0.193928003
0.534977734 0.516761482 0.197723210
0.546742439 0.516002357 0.194686830
0.555597782 0.518785715 0.192915991
0.565211833 0.517394066 0.202276975
0.573055029 0.516761482 0.205945671
0.580645263 0.515243292 0.204427481
0.587223470 0.512207568 0.208349422
0.598355472 0.505629480 0.211385041
0.601391852 0.500189841 0.218216345
0.612776697 0.499051183 0.225047722
0.619860590 0.491967082 0.232131332
0.647438467 0.495509267 0.237318248
0.676280916 0.503605664 0.244655102
0.719165266 0.516888201 0.253383726
