Assets/Resources/EldamarStudio/100 Horror LUTs Pack/LUTs/cube/Brutal LUT.cube
LUT_3D_SIZE 5
DOMAIN_MIN 0.000000 0.000000 0.000000
DOMAIN_MAX 0.903226 0.903226 0.903226
0.027450999 0.054901998 0.133332998
0.079443701 0.072232708 0.136621997
0.154965416 0.108538993 0.156863004
0.247185260 0.163820133 0.181404129
0.391271621 0.247311965 0.238076970
0.100695990 0.118026696 0.152941003
0.129791275 0.128146991 0.160784006
0.190638691 0.154965416 0.181404293
0.274383128 0.196204826 0.208602414
0.411131918 0.289183974 0.257305712
0.207969829 0.227577820 0.205312997
0.224035099 0.241998821 0.208222717
0.270714790 0.268817395 0.232763991
0.343959242 0.308412522 0.258570701
0.474889606 0.408222616 0.332320958
0.323845237 0.432764113 0.305250108
0.341809124 0.438329816 0.325996280
0.385578543 0.467425525 0.349398822
0.452372104 0.513219416 0.388615012
0.575205445 0.607463777 0.487539768
0.548386574 0.736495733 0.602150559
0.558633685 0.745730460 0.600758553
0.598734975 0.762049198 0.624921024
0.665148735 0.788488269 0.664136589
0.756356418 0.821505547 0.726249218
0.046425998 0.070588000 0.152309000
0.092852995 0.085641995 0.157874703
0.164452702 0.119671412 0.175838411
0.259962142 0.175585121 0.208601996
0.397090644 0.260973990 0.262238830
0.111827984 0.125869706 0.167995006
0.144844696 0.139911413 0.185325712
0.200126410 0.169007123 0.199746713
0.283870846 0.215180263 0.226565704
0.419607520 0.300569087 0.285515696
0.218722284 0.234408706 0.226818413
0.239341974 0.248830110 0.227198109
0.287413090 0.279949397 0.253383696
0.352182090 0.320809692 0.278305113
0.483111918 0.422011375 0.354585379
0.338646263 0.441872120 0.336875230
0.349905252 0.447818100 0.342441559
0.391144812 0.474636376 0.367994934
0.457811683 0.521062434 0.408602148
0.577608824 0.613915205 0.509044766
0.551675975 0.745097578 0.612776577
0.564452648 0.748007476 0.622137725
0.606198311 0.764958918 0.637950838
0.668058276 0.788488269 0.674889445
0.756230235 0.829348564 0.726122737
0.089563578 0.089563578 0.199367419
0.120303407 0.102972701 0.198734999
0.188994408 0.138645992 0.217077985
0.270082414 0.189626575 0.237697706
0.411511332 0.278052211 0.306134969
0.148134112 0.145477280 0.212776706
0.163441002 0.153320715 0.213409275
0.220999405 0.179506689 0.229474992
0.291967273 0.226565272 0.261859715
0.433649808 0.316634774 0.334598511
0.224920988 0.253763795 0.262239397
0.247185409 0.262871414 0.268058419
0.297533393 0.296268404 0.296900839
0.375079274 0.343706518 0.331941545
0.493864357 0.438962370 0.405565798
0.345604122 0.454269379 0.389879823
0.358001143 0.462871522 0.397090673
0.405819118 0.500063121 0.427198231
0.477419257 0.549146116 0.472612113
0.588741183 0.637191594 0.556356490
0.560151577 0.744338751 0.638583243
0.575205088 0.756103754 0.654522300
0.608475566 0.769133449 0.661353171
0.674510002 0.795698881 0.703984976
0.768880010 0.833902121 0.760910809
0.148134127 0.120683126 0.284503251
0.181151405 0.138899282 0.288804561
0.236432537 0.171030700 0.301202118
0.320809126 0.223655984 0.331688970
0.438330054 0.301328123 0.396205097
0.192283407 0.180518568 0.295003414
0.211891398 0.189626843 0.297532976
0.265527964 0.213535696 0.320556253
0.346236140 0.259329706 0.353193820
0.456166953 0.343453556 0.423655957
0.264769405 0.292978972 0.354585797
0.274636239 0.301834255 0.359139651
0.325363666 0.325743377 0.381404400
0.394433826 0.367615402 0.418342948
0.503352344 0.453384221 0.487033665
0.366856247 0.484756261 0.485642135
0.372801840 0.494876564 0.485009372
0.416951507 0.520683289 0.507653654
0.490575224 0.568121433 0.551423311
0.604806960 0.646299958 0.616951227
0.563061416 0.750031710 0.702087402
0.569639325 0.762049198 0.693738043
0.606830895 0.776723504 0.706767797
0.686906576 0.808475554 0.749651849
0.782795548 0.846932411 0.798355401
0.223655820 0.183174968 0.507779598
0.246552825 0.196963802 0.517014563
0.313978642 0.232890651 0.528146982
0.404174805 0.298671693 0.562428892
0.510309577 0.395319462 0.604553759
0.242251709 0.241998821 0.527387619
0.266792953 0.253510684 0.526502252
0.323719412 0.284630209 0.547374904
0.417077512 0.344844818 0.572675407
0.522706747 0.435167611 0.618216395
0.294243991 0.369006783 0.573054790
0.305376381 0.376217365 0.569892168
0.363566995 0.403668225 0.586844027
0.451739341 0.459329605 0.618975163
0.563946605 0.541808546 0.665402055
0.420240283 0.589120746 0.665781021
0.425932944 0.594054222 0.666034162
0.461859643 0.604174554 0.676407635
0.521062553 0.629981220 0.691461205
0.641745806 0.691840947 0.737128377
0.613788426 0.788867772 0.788994253
0.621378541 0.796963692 0.790512502
0.658317566 0.805818617 0.804553568
0.719417870 0.833902597 0.820493340
0.824414372 0.880328596 0.875268519
