Assets/Resources/EldamarStudio/100 Horror LUTs Pack/LUTs/cube/Brutal LUT.cube
DOMAIN_MIN 0 0 0
DOMAIN_MAX 1 1 1
LUT_3D_SIZE 32
0.027450999 0.054901998 0.133332998
0.027450999 0.054901998 0.133332998
0.031751998 0.054901998 0.131182775
0.039089162 0.056167159 0.130676836
0.048197545 0.059203450 0.133332998
0.057305932 0.062239062 0.133332998
0.068944000 0.067805000 0.133332998
0.079443701 0.072232708 0.136621997
0.088551901 0.076028004 0.141176000
0.097659528 0.082100011 0.141176000
0.109677002 0.088172004 0.144085869
0.119797252 0.092220254 0.149145991
0.131182641 0.096395001 0.154079646
0.145857036 0.102467000 0.156863004
0.154965416 0.108538993 0.156863004
0.164073184 0.112207189 0.161669999
0.176217183 0.118279189 0.166223809
0.190765142 0.127387568 0.169892147
0.202909946 0.136495978 0.175964937
0.217836648 0.142821014 0.179253638
0.233016729 0.152687997 0.180391997
0.247185260 0.163820133 0.181404129
0.259709477 0.172928497 0.184693471
0.280961901 0.182036906 0.193801105
0.299936980 0.191144705 0.200632572
0.319544643 0.201644331 0.208096310
0.340797067 0.214295074 0.217204064
0.362049431 0.229475439 0.226312444
0.391271621 0.247311965 0.238076970
0.418089926 0.267299175 0.251992166
0.444149196 0.290322572 0.267172575
0.474510014 0.317647010 0.282353014
0.030487388 0.051865615 0.127260998
0.030487388 0.054901998 0.139404997
0.036938611 0.059202999 0.137254775
0.043896001 0.060973998 0.130424008
0.052371711 0.062618606 0.126122847
0.069449931 0.068311065 0.139404997
0.073497675 0.071347319 0.131815314
0.082479313 0.075268678 0.136875376
0.092346609 0.078304708 0.142694399
0.103731528 0.082100011 0.138140380
0.112839878 0.091081873 0.146869257
0.122833639 0.095256127 0.152182385
0.133080393 0.098292254 0.155977398
0.146109998 0.102719970 0.157115966
0.158001035 0.111574605 0.159898624
0.169513226 0.112839609 0.157495424
0.182289571 0.118279189 0.164705992
0.196204573 0.128019974 0.172928378
0.205945566 0.139531597 0.179000556
0.220872983 0.148639977 0.176723972
0.234155387 0.154964998 0.183048636
0.247185260 0.163820133 0.187476128
0.259835958 0.172928497 0.190765500
0.283997506 0.182036906 0.199873880
0.302972585 0.193421990 0.208981469
0.322580248 0.204680368 0.214421287
0.344338745 0.216824740 0.220240459
0.368121415 0.229475439 0.229348838
0.389373779 0.244655117 0.241113365
0.418595970 0.267805189 0.251486570
0.447185338 0.290702373 0.265907973
0.477545619 0.311574996 0.285389394
0.037824225 0.059582546 0.127640769
0.039974999 0.060468160 0.141935542
0.042125225 0.065654777 0.139025778
0.051233158 0.069196776 0.138519838
0.058949772 0.069196776 0.131941780
0.073624097 0.071726769 0.136495844
0.074889451 0.077419326 0.135736540
0.086147763 0.078811005 0.134851217
0.096774101 0.082858868 0.145224318
0.107526779 0.088678263 0.146110013
0.116761640 0.093232103 0.148134097
0.125869513 0.098292485 0.151170224
0.136116505 0.101328127 0.156989232
0.148007736 0.104617223 0.159013227
0.158253998 0.111827567 0.160151586
0.170398608 0.120176770 0.162681803
0.184060797 0.123212770 0.164199993
0.197975576 0.131055981 0.172548994
0.207084000 0.140164018 0.175585002
0.223909140 0.149525359 0.184060588
0.235294029 0.156736001 0.182922229
0.248197123 0.164832264 0.190258995
0.261986226 0.175079241 0.194686726
0.286274791 0.184187129 0.203795135
0.306008756 0.195572764 0.208602473
0.324224740 0.209108070 0.217710078
0.343706071 0.222011119 0.222770348
0.363061100 0.234155878 0.230234444
0.393295586 0.246805906 0.239848197
0.421631902 0.270841122 0.255534619
0.449715585 0.297659934 0.267552584
0.476280779 0.318405986 0.286274999
0.049462158 0.069196999 0.133206829
0.052498545 0.069196999 0.139532059
0.055534385 0.073498003 0.143833071
0.057305161 0.078305162 0.135989845
0.067172542 0.078305162 0.139405012
0.080202162 0.078305162 0.139025778
0.084756479 0.083365165 0.138519838
0.086906992 0.087412998 0.139152318
0.102087006 0.087412998 0.144465223
0.110689327 0.095003322 0.152561486
0.121062867 0.099557132 0.152941003
0.131435901 0.103858091 0.156736165
0.140543804 0.106894478 0.155597523
0.152308956 0.109930187 0.161290005
0.161416575 0.114990316 0.163314000
0.172928602 0.123465799 0.165717810
0.185325965 0.129791155 0.169007167
0.199240744 0.137128145 0.174446583
0.208349168 0.144465178 0.175079003
0.225806564 0.152055353 0.182416171
0.239595249 0.159265995 0.188235000
0.250727147 0.167362258 0.190258995
0.266034007 0.179506972 0.196457505
0.288045794 0.189753264 0.205565915
0.309045166 0.198608413 0.211385131
0.325995982 0.210879296 0.215939313
0.345730186 0.226059064 0.225553125
0.363946736 0.238962725 0.233143881
0.391271293 0.254901975 0.240607306
0.423403114 0.275142372 0.252498239
0.453257591 0.303731948 0.270715028
0.474510014 0.328020006 0.286274999
0.064262994 0.076407544 0.140796542
0.066919833 0.076407544 0.135863006
0.070335321 0.079949550 0.138772547
0.073244549 0.084377162 0.140164107
0.073624089 0.087792993 0.134092003
0.088804476 0.087792993 0.140164003
0.098545320 0.092852995 0.144085869
0.104364283 0.096521288 0.146742716
0.108159095 0.099177547 0.149778903
0.114231102 0.099177554 0.152814522
0.126122743 0.104616992 0.153700009
0.138266996 0.110689089 0.159772247
0.149272650 0.115622640 0.164326370
0.158381045 0.118659027 0.162049055
0.167488664 0.121695414 0.168121085
0.179000601 0.129538193 0.171410352
0.190385997 0.135989740 0.174067184
0.203036025 0.140164524 0.177862421
0.212144449 0.152308568 0.180898041
0.229222029 0.159266025 0.183934361
0.243643075 0.165338099 0.186970264
0.257178664 0.172675252 0.190638542
0.272485524 0.184946492 0.196963534
0.290702254 0.197343558 0.206324905
0.311195731 0.205692559 0.213535547
0.329664826 0.213788524 0.219228074
0.345730186 0.227197617 0.226312131
0.373055339 0.242377982 0.238456890
0.398102522 0.262112349 0.245667547
0.425932795 0.285135835 0.255281508
0.454396129 0.309424520 0.268817186
0.475648552 0.333712548 0.287034005
0.076407000 0.091587931 0.137760937
0.076407000 0.091587931 0.140796557
0.081214614 0.091587931 0.146615773
0.088045709 0.092599936 0.150158092
0.094876483 0.093864992 0.146236777
0.097912870 0.099936999 0.140164003
0.105502933 0.104996994 0.146236643
0.110436291 0.106135286 0.148513943
0.114231199 0.105629094 0.149778903
0.120303877 0.108285934 0.152814522
0.132194862 0.111195065 0.158760011
0.144338995 0.116761506 0.165844262
0.155344650 0.121695220 0.170398355
0.164453045 0.124731027 0.168121055
0.173561409 0.127767414 0.174193829
0.185072854 0.135610178 0.175458863
0.194180995 0.143200383 0.175964937
0.203794971 0.148766920 0.178368405
0.221252039 0.155344963 0.186970040
0.235926434 0.164705589 0.190006360
0.249715477 0.171410471 0.193042263
0.263883889 0.177482858 0.196078137
0.281593919 0.184946492 0.199999928
0.299809933 0.200126916 0.212143943
0.320303321 0.212523937 0.221505284
0.338772714 0.220872909 0.227324605
0.354459077 0.230487004 0.232384861
0.373055339 0.251486361 0.244528890
0.400379777 0.266666740 0.254016817
0.428968847 0.288171858 0.264389902
0.458443880 0.312460274 0.277419508
0.484756917 0.336748928 0.293105990
0.088551641 0.104237996 0.147375003
0.088551641 0.104237996 0.147880942
0.095002867 0.106388226 0.153067321
0.098924674 0.106767677 0.158001006
0.103478543 0.107526772 0.156230226
0.106514931 0.113599323 0.152308777
0.114611320 0.114611320 0.153826326
0.120683312 0.119038604 0.154965401
0.126122549 0.119291410 0.155598000
0.133965641 0.122327797 0.160404846
0.138266996 0.125363439 0.163819999
0.150410995 0.128399581 0.169892505
0.161416650 0.133965999 0.175079316
0.170777991 0.138393357 0.173940599
0.182163090 0.141429737 0.177735507
0.191271484 0.146869317 0.179000676
0.201771200 0.154332638 0.179000676
0.210752890 0.160404995 0.179633245
0.227071658 0.166477010 0.184946358
0.239974692 0.175332293 0.188488036
0.253257334 0.180644900 0.197217152
0.266413808 0.188108936 0.203162640
0.283238500 0.197343796 0.207716808
0.303858310 0.207716584 0.212650001
0.319797605 0.218342960 0.220239997
0.340543956 0.231625646 0.229095340
0.359519303 0.242631391 0.235420749
0.381783575 0.259835750 0.245540991
0.405439764 0.278304815 0.252498507
0.432764143 0.298798382 0.266919613
0.463250875 0.322201222 0.283238262
0.493864685 0.344845325 0.301707685
0.100695990 0.118026696 0.152941003
0.102340281 0.116381988 0.152941003
0.105502933 0.118532635 0.158886716
0.113345705 0.119038247 0.159898728
0.114484243 0.119038247 0.159519181
0.117520630 0.123845860 0.159013227
0.125616610 0.126502290 0.169260085
0.129791275 0.128146991 0.160784006
0.136622369 0.131182596 0.160025284
0.145730227 0.134218767 0.166097283
0.153952852 0.138899535 0.170904547
0.158127695 0.141935259 0.172675505
0.167994708 0.143832996 0.177609354
0.177103028 0.149146035 0.178368315
0.190638691 0.154965416 0.181404293
0.198734805 0.157115996 0.180391997
0.209360987 0.164706185 0.181910187
0.217963442 0.170904696 0.183301702
0.230107978 0.176976711 0.187349960
0.249082997 0.182542637 0.193675056
0.261226982 0.191144958 0.197469756
0.274383128 0.196204826 0.208602414
0.289690018 0.207716987 0.215306997
0.309424609 0.218342796 0.219860792
0.326122552 0.229095280 0.221884713
0.344085932 0.239595324 0.230739698
0.365338355 0.255028725 0.239594996
0.388487965 0.271347433 0.247564733
0.411131918 0.289183974 0.257305712
0.437191844 0.306008667 0.267172635
0.466287255 0.333839446 0.287159652
0.499683708 0.358886987 0.309170991
0.114357993 0.132448003 0.155218095
0.116634704 0.130170703 0.155218095
0.121188864 0.131435856 0.160151675
0.123213001 0.131941929 0.163694009
0.129664555 0.129664645 0.159898996
0.133459941 0.132701039 0.164073154
0.138519868 0.135736778 0.172928452
0.144971102 0.138772815 0.177482784
0.146489084 0.142568097 0.165338188
0.155597493 0.145603716 0.171410188
0.166097194 0.150790632 0.175205633
0.173687264 0.154079735 0.177988991
0.177862003 0.156736091 0.177609354
0.184440061 0.156989127 0.180897996
0.199114501 0.165085509 0.184440315
0.208602086 0.169260010 0.184187278
0.216951177 0.172296196 0.184946179
0.229095176 0.180771992 0.186717421
0.235420957 0.186844006 0.192409918
0.255155027 0.190891743 0.201265261
0.272612095 0.197722822 0.206578359
0.285009146 0.206072122 0.211638033
0.300189495 0.215306982 0.220619917
0.317773730 0.227451012 0.226692095
0.335230798 0.240354076 0.230486989
0.352434844 0.252498239 0.236053169
0.373687267 0.265148968 0.247691125
0.394939601 0.283111989 0.254016072
0.419227988 0.300569087 0.264642656
0.442504585 0.318532258 0.279064059
0.468564570 0.339152157 0.291714072
0.501960993 0.375584990 0.316002101
0.132574007 0.144592017 0.164326489
0.132574007 0.144592017 0.164326504
0.139152274 0.146616250 0.166476712
0.142947331 0.147122338 0.167235687
0.141808569 0.144845039 0.165971011
0.150916934 0.147881448 0.178114995
0.149652332 0.150917172 0.172169164
0.153700262 0.153953224 0.172422439
0.161669493 0.157748491 0.177482963
0.167741492 0.163820490 0.183554977
0.173940748 0.166856095 0.180898100
0.182289705 0.167994529 0.182289779
0.190006018 0.169259652 0.182922348
0.196584076 0.172169536 0.180897996
0.208728850 0.175205916 0.186969995
0.220999494 0.183301687 0.190512329
0.231372684 0.188994199 0.194813475
0.241239965 0.192916006 0.198861435
0.253383994 0.198988035 0.195825055
0.265275031 0.205060020 0.204300880
0.279822737 0.212903231 0.209614262
0.293864489 0.220999494 0.214674354
0.306261510 0.227450997 0.223655537
0.321441919 0.239595026 0.229728326
0.341302782 0.254016280 0.238077193
0.360910833 0.267678469 0.248197332
0.379760057 0.280328572 0.259835899
0.401012391 0.295508921 0.268943489
0.432890743 0.310815811 0.277925313
0.458697140 0.329664648 0.294244140
0.480202585 0.354206026 0.312460452
0.501960993 0.387728989 0.325110495
0.150790751 0.156736001 0.173434868
0.147880867 0.162554994 0.176344007
0.145730644 0.158253998 0.176344007
0.150537863 0.161543295 0.178621039
0.153573751 0.165085316 0.179253876
0.160151809 0.163061067 0.181277871
0.164199546 0.163567126 0.178241864
0.166856542 0.167868406 0.177735731
0.173940733 0.171410874 0.183048904
0.180012733 0.173181862 0.186970115
0.188993871 0.176344007 0.184313998
0.197090387 0.183428124 0.189373598
0.205059856 0.186084747 0.191903770
0.211384907 0.187349826 0.188867837
0.220872819 0.190385550 0.186969995
0.233016998 0.195825741 0.195445806
0.242124990 0.201391548 0.197975993
0.251106679 0.205059990 0.201897576
0.265528023 0.211132020 0.207969785
0.277672708 0.219987363 0.210499391
0.287918985 0.228083611 0.215559736
0.301075131 0.236179858 0.220620126
0.315243363 0.242504850 0.229601726
0.330423772 0.254648864 0.235673815
0.347880840 0.269070178 0.246299982
0.367109329 0.281467527 0.254648864
0.386844069 0.292599648 0.263757110
0.412903428 0.307779431 0.275268525
0.434155762 0.325616658 0.287033647
0.464769363 0.348134011 0.301707834
0.491208464 0.371663451 0.318279624
0.516508877 0.396963865 0.328399867
0.162934735 0.172928512 0.186590731
0.161922604 0.174952507 0.183554620
0.162934765 0.178494245 0.186464250
0.163693979 0.174952254 0.183934256
0.169386536 0.180644989 0.185452446
0.173814252 0.179253310 0.190385729
0.179380178 0.184819505 0.189373732
0.182415783 0.183174789 0.186590731
0.187349826 0.187349826 0.189626828
0.192156985 0.188614994 0.190132782
0.201138645 0.193548366 0.193421870
0.206198245 0.196584508 0.190385729
0.216445282 0.203415602 0.198355287
0.224035472 0.204806983 0.198229253
0.229601413 0.209613830 0.196964100
0.245161489 0.213029593 0.203541785
0.252751321 0.217584178 0.209614187
0.258949816 0.221252501 0.210120246
0.271347255 0.227324516 0.215053961
0.283744454 0.234155610 0.218595654
0.297786444 0.243263990 0.221631736
0.308159232 0.252372116 0.225679994
0.322454005 0.259582490 0.233649731
0.339532167 0.269829273 0.239721745
0.356989235 0.284250528 0.252371967
0.375205219 0.298039228 0.263124645
0.393927783 0.308792055 0.270335317
0.418216139 0.323972046 0.280961514
0.442251801 0.343832910 0.293105662
0.468817353 0.365591168 0.308791935
0.498292565 0.392662764 0.327893585
0.525617003 0.416192502 0.341556013
0.174319640 0.191144988 0.194939643
0.174319640 0.191144988 0.191144645
0.176470414 0.193295509 0.191524133
0.178494632 0.195066288 0.193042353
0.183807641 0.195066288 0.187729344
0.186084941 0.195066288 0.194560066
0.190512359 0.200379312 0.197216645
0.198355570 0.205186576 0.197216645
0.202150285 0.204427287 0.198734641
0.205566123 0.207843125 0.196837485
0.212144226 0.211511642 0.200252995
0.219481379 0.215559900 0.203668371
0.225932628 0.219734639 0.202909276
0.237824380 0.222770244 0.208981991
0.242631212 0.227956638 0.210752994
0.253130943 0.232763797 0.214547828
0.267173082 0.236938819 0.219481185
0.271473706 0.240607619 0.221884996
0.280581981 0.246679649 0.221884996
0.292473018 0.252751648 0.226944923
0.306514710 0.259582728 0.232257724
0.320683241 0.268691093 0.236306250
0.333080262 0.277925283 0.242125288
0.351296812 0.288045526 0.246173292
0.367235988 0.300569266 0.255660921
0.385452271 0.315496594 0.268058002
0.404680282 0.328652620 0.278684497
0.426565051 0.344465435 0.289690435
0.451612622 0.364958793 0.302593619
0.478304684 0.387982190 0.318279564
0.507780194 0.412270457 0.340923190
0.535104632 0.439342648 0.363187641
0.189753070 0.209361061 0.193168998
0.190006033 0.209614038 0.193928033
0.192409769 0.211258814 0.195319280
0.193928033 0.213536039 0.197343037
0.193928033 0.213536039 0.197090060
0.193928033 0.213536039 0.197090060
0.196457714 0.216318741 0.199114323
0.204174414 0.219101742 0.200759038
0.214295000 0.222391024 0.201771036
0.220366985 0.228463024 0.207843035
0.224035189 0.228968993 0.208602041
0.230613247 0.231246293 0.211890996
0.240607023 0.235167995 0.217077598
0.252498060 0.241493031 0.220619991
0.261606425 0.244528651 0.226691991
0.268564045 0.249715030 0.227704033
0.277672380 0.255787402 0.228462994
0.288931459 0.261860013 0.228716031
0.298039079 0.267932028 0.228716046
0.310183078 0.273751020 0.236812353
0.323718727 0.280076027 0.245414302
0.337887228 0.287160158 0.253257215
0.350284994 0.296268493 0.259329945
0.368501008 0.308286011 0.259582967
0.382669061 0.320936054 0.265149027
0.397596329 0.334471703 0.272612333
0.416825056 0.350158036 0.282985151
0.441113025 0.368374050 0.301201910
0.467551857 0.388740867 0.316508770
0.495129168 0.412017405 0.333712935
0.522200763 0.436306238 0.355597585
0.549525976 0.460595042 0.388994038
0.207969829 0.227577820 0.205312997
0.211005434 0.230613440 0.214421377
0.215559393 0.228716180 0.210879400
0.217204124 0.230740398 0.210499674
0.215180397 0.234788403 0.212143958
0.215180397 0.234788403 0.209234834
0.217710078 0.239848405 0.206704512
0.224035099 0.241998821 0.208222717
0.231498986 0.242631406 0.209867418
0.232510984 0.243643403 0.210879415
0.241492867 0.246805534 0.216951415
0.245287552 0.251233488 0.215686142
0.251865625 0.255534738 0.217962995
0.261606425 0.259709001 0.223655611
0.270714790 0.268817395 0.232763991
0.279823184 0.271853000 0.231625795
0.289816797 0.277039766 0.235294223
0.300695986 0.283112377 0.241239578
0.307147443 0.289184362 0.243896425
0.321821779 0.292473018 0.249462411
0.332574069 0.299936712 0.254269719
0.343959242 0.308412522 0.258570701
0.356356978 0.317520857 0.262365550
0.374572992 0.326628476 0.268437564
0.392789543 0.343200535 0.282353133
0.409740806 0.358760446 0.293864697
0.428969145 0.374446809 0.303984463
0.453257799 0.392662793 0.319417864
0.474889606 0.408222616 0.332320958
0.502719760 0.431751966 0.350410730
0.530676603 0.457558572 0.371916175
0.555598021 0.481847376 0.398102403
0.226185992 0.245793983 0.219860792
0.224415213 0.251233399 0.216951385
0.229601592 0.252118796 0.221758217
0.235673591 0.253130972 0.218975186
0.235673785 0.257305533 0.221252084
0.231625795 0.251233786 0.224288732
0.234155476 0.261100799 0.223656282
0.237191513 0.262239099 0.222264603
0.244022802 0.262997985 0.225300789
0.247311801 0.266286969 0.228589788
0.256040663 0.266792923 0.227197990
0.263124764 0.271853298 0.233269989
0.267678618 0.276787132 0.231372431
0.275268823 0.280075788 0.233649597
0.282226384 0.287033379 0.240607217
0.291334778 0.293737978 0.244907975
0.303479165 0.298291773 0.244908378
0.315876186 0.304364324 0.251612782
0.323718965 0.310436785 0.256419957
0.333333373 0.318532407 0.264642805
0.348513722 0.323465765 0.268817037
0.359645605 0.332068115 0.271853328
0.371789962 0.341302961 0.275015801
0.385451972 0.352687895 0.281087786
0.401391268 0.364073366 0.289437085
0.422264487 0.380645424 0.307273954
0.442504793 0.396331787 0.319923788
0.462998092 0.414547771 0.333206415
0.484629989 0.432510793 0.340923607
0.511195540 0.458317548 0.361922771
0.539784729 0.485136181 0.386211157
0.564073205 0.507906795 0.412017792
0.241365984 0.270082384 0.232005194
0.241366372 0.274636179 0.230486989
0.241745993 0.276407182 0.229348406
0.246553153 0.273877174 0.227324352
0.251992643 0.279696196 0.228462830
0.249335989 0.278557926 0.237950668
0.247818053 0.279570192 0.234408990
0.255407900 0.286527485 0.237444997
0.257685184 0.284250200 0.237444997
0.262239188 0.288804203 0.241998985
0.268184662 0.290575385 0.242378116
0.276786983 0.294623524 0.243896201
0.283997625 0.298418999 0.248829842
0.290449202 0.301328182 0.246806189
0.296521187 0.307400167 0.250348181
0.304996967 0.313472152 0.255534589
0.317140996 0.321062386 0.263124377
0.330423951 0.327134371 0.265528202
0.338646412 0.333206922 0.269829184
0.350790352 0.342062026 0.278684527
0.360657722 0.350790560 0.283997416
0.374825984 0.357874453 0.287033319
0.386969984 0.367109209 0.290322661
0.399114400 0.379253566 0.297785968
0.416571647 0.392915577 0.306135267
0.433143348 0.405060321 0.318026632
0.455661058 0.421126246 0.334092170
0.472865164 0.440354377 0.344212174
0.496773988 0.461606354 0.360151857
0.520303547 0.481087774 0.375585347
0.550664186 0.515370131 0.404680759
0.576217175 0.539784968 0.433270186
0.254775137 0.297912985 0.241745993
0.257811368 0.302213728 0.245414183
0.258696973 0.303099126 0.245667145
0.259962142 0.302466512 0.244402140
0.262618959 0.297153533 0.236432970
0.265401632 0.308285564 0.250347614
0.264010280 0.308412284 0.247185305
0.267931968 0.308665425 0.244402573
0.278304964 0.312207133 0.250221580
0.278304964 0.312207133 0.250221580
0.280581683 0.314484417 0.252498269
0.287665814 0.320177138 0.255534232
0.297406614 0.324604541 0.259203047
0.306261957 0.325363576 0.261986405
0.312333941 0.331815124 0.261986405
0.320177197 0.336622119 0.266160965
0.331688941 0.342947304 0.274003983
0.345603585 0.352055520 0.285515577
0.351676375 0.358127534 0.285515577
0.365464836 0.366982907 0.292599767
0.376849711 0.376091301 0.299177796
0.387602538 0.385199428 0.303478688
0.399999559 0.394433558 0.306894541
0.413156360 0.406578332 0.316508234
0.430234253 0.420366824 0.326248825
0.450727522 0.436052859 0.336875200
0.469449639 0.449209511 0.352561533
0.484882981 0.470335394 0.359139532
0.508791804 0.492979079 0.378621191
0.536242962 0.514990330 0.402403712
0.561037540 0.535357535 0.424668133
0.591397583 0.571789563 0.458064556
0.272991955 0.316129059 0.253890038
0.276027560 0.325237423 0.259962022
0.276913017 0.327387989 0.259329766
0.278178185 0.328652829 0.259076804
0.280835032 0.330549985 0.260721028
0.280835032 0.330549985 0.260721028
0.281087995 0.331561983 0.261985987
0.284124017 0.332953721 0.259582728
0.290702015 0.336748958 0.259582996
0.296521008 0.342567950 0.265402019
0.296521008 0.342567980 0.265402019
0.302846253 0.348893255 0.267678708
0.313093007 0.355471313 0.271853030
0.324478000 0.358760029 0.277166069
0.330549985 0.367868394 0.277166069
0.336622000 0.369512975 0.279569894
0.345983446 0.371537179 0.284377038
0.357748389 0.376344413 0.291587591
0.366856039 0.385451972 0.300696015
0.378494799 0.394307375 0.303478658
0.388994217 0.403415740 0.310815811
0.400126159 0.412523866 0.319418132
0.415180027 0.421757996 0.328146994
0.433396816 0.433902800 0.340290993
0.446552992 0.446047008 0.352181971
0.463630676 0.462618619 0.362681627
0.484630078 0.482605994 0.373813987
0.505882382 0.500822008 0.392029971
0.523971975 0.519291699 0.403921664
0.551802516 0.541555882 0.425933152
0.581783891 0.564452648 0.450980604
0.606577933 0.586970031 0.473245025
0.291207999 0.353826404 0.274383396
0.291460961 0.354585409 0.274889380
0.294497132 0.359392792 0.278811157
0.295129716 0.360025376 0.278305382
0.296647817 0.361543298 0.279823154
0.299051017 0.363947093 0.282226384
0.299051017 0.363947093 0.282226384
0.303984731 0.363947093 0.283871084
0.311195374 0.366603732 0.285389364
0.317267388 0.372675747 0.291461378
0.320303738 0.378494740 0.283365011
0.322327465 0.380518466 0.285389274
0.329917639 0.385831654 0.289563745
0.339911371 0.389120758 0.295129716
0.345983386 0.395698756 0.295129716
0.352055371 0.402403355 0.299936712
0.361163765 0.407716572 0.306388557
0.372043371 0.413915396 0.313725710
0.379000783 0.420872748 0.320683360
0.393675089 0.427197725 0.327008367
0.405819356 0.436306119 0.333839476
0.418848693 0.445414513 0.341935724
0.435673386 0.454775572 0.349146366
0.448577195 0.469576538 0.355977386
0.466793358 0.481720746 0.370398641
0.482732356 0.496647716 0.385831684
0.501581073 0.515496433 0.400126427
0.518279433 0.531435728 0.416065723
0.542188644 0.549651682 0.431625545
0.565970838 0.569639206 0.449209541
0.593801558 0.593801141 0.474509954
0.616192341 0.618849099 0.499557376
0.305628985 0.393295199 0.288045734
0.315116704 0.389500201 0.297532976
0.305882007 0.397343248 0.299683779
0.311448395 0.395319313 0.297659844
0.312966555 0.394560277 0.295382798
0.312966555 0.400632650 0.295382828
0.317267478 0.399240971 0.305376470
0.320556462 0.400885671 0.303731769
0.327893645 0.401897818 0.304743886
0.332827002 0.406831473 0.307400256
0.335989833 0.411005735 0.306514889
0.344718486 0.416951180 0.305503011
0.348892748 0.421125472 0.309677750
0.357242018 0.424920738 0.316002727
0.364958704 0.429348469 0.320935994
0.374825716 0.433523178 0.325743467
0.380898088 0.439595222 0.331815451
0.391651154 0.447691470 0.339279115
0.398987979 0.453763455 0.344085962
0.409614354 0.461733222 0.348260760
0.420999706 0.469702482 0.356230497
0.434155852 0.478810877 0.366350740
0.451359928 0.487919241 0.374067187
0.465275049 0.499557644 0.378367960
0.480075985 0.514357984 0.391271263
