Assets/Resources/EldamarStudio/100 Horror LUTs Pack/LUTs/cube/Brutal LUT.cube
LUT_3D_SIZE 8
DOMAIN_MIN 0.000000 0.000000 0.000000
DOMAIN_MAX 0.903226 0.903226 0.903226
0.027450999 0.054901998 0.133332998
0.048197545 0.059203450 0.133332998
0.088551901 0.076028004 0.141176000
0.131182641 0.096395001 0.154079646
0.176217183 0.118279189 0.166223809
0.233016729 0.152687997 0.180391997
0.299936980 0.191144705 0.200632572
0.391271621 0.247311965 0.238076970
0.064262994 0.076407544 0.140796542
0.073624089 0.087792993 0.134092003
0.108159095 0.099177547 0.149778903
0.149272650 0.115622640 0.164326370
0.190385997 0.135989740 0.174067184
0.243643075 0.165338099 0.186970264
0.311195731 0.205692559 0.213535547
0.398102522 0.262112349 0.245667547
0.114357993 0.132448003 0.155218095
0.129664555 0.129664645 0.159898996
0.146489084 0.142568097 0.165338188
0.177862003 0.156736091 0.177609354
0.216951177 0.172296196 0.184946179
0.272612095 0.197722822 0.206578359
0.335230798 0.240354076 0.230486989
0.419227988 0.300569087 0.264642656
0.174319640 0.191144988 0.194939643
0.183807641 0.195066288 0.187729344
0.202150285 0.204427287 0.198734641
0.225932628 0.219734639 0.202909276
0.267173082 0.236938819 0.219481185
0.306514710 0.259582728 0.232257724
0.367235988 0.300569266 0.255660921
0.451612622 0.364958793 0.302593619
0.241365984 0.270082384 0.232005194
0.251992643 0.279696196 0.228462830
0.257685184 0.284250200 0.237444997
0.283997625 0.298418999 0.248829842
0.317140996 0.321062386 0.263124377
0.360657722 0.350790560 0.283997416
0.416571647 0.392915577 0.306135267
0.496773988 0.461606354 0.360151857
0.305628985 0.393295199 0.288045734
0.312966555 0.394560277 0.295382798
0.327893645 0.401897818 0.304743886
0.348892748 0.421125472 0.309677750
0.380898088 0.439595222 0.331815451
0.420999706 0.469702482 0.356230497
0.480075985 0.514357984 0.391271263
0.560025334 0.578115165 0.459709287
0.397975981 0.561922550 0.410626262
0.406830996 0.561669946 0.412650079
0.417963356 0.568247736 0.421505451
0.438456565 0.583175540 0.442504913
0.471347362 0.598102391 0.456166655
0.508285940 0.619354546 0.483617842
0.557368517 0.653763294 0.524984241
0.633902848 0.697533488 0.579253316
0.548386574 0.736495733 0.602150559
0.551043391 0.739152551 0.596710742
0.565464735 0.745224476 0.607842803
0.583428264 0.755977213 0.616192222
0.612776637 0.769639611 0.633775949
0.654522300 0.782669306 0.657305479
0.701201558 0.804680169 0.687159896
0.756356418 0.821505547 0.726249218
0.039216001 0.066666998 0.144338995
0.052877545 0.063883543 0.138014004
0.096015453 0.083112001 0.157242447
0.138266638 0.104617447 0.162681639
0.183681339 0.129284993 0.168121547
0.238456532 0.164958552 0.194054261
0.302719802 0.201264992 0.215053737
0.390259176 0.254269361 0.247691512
0.065781087 0.090195999 0.131688997
0.088931441 0.096015446 0.153699994
0.113219544 0.104996994 0.158380911
0.150031656 0.124984443 0.163061112
0.193927750 0.147754654 0.180645451
0.247817934 0.173560917 0.195192814
0.316255569 0.208601832 0.217710093
0.401391506 0.266160369 0.252624810
0.127008080 0.130803198 0.168121547
0.130803093 0.136748627 0.180771545
0.157495081 0.146489188 0.172422200
0.183302000 0.162175998 0.184566543
0.222896740 0.179759637 0.197975650
0.266287208 0.204806730 0.212017640
0.336622477 0.247438088 0.232637286
0.419987172 0.303984791 0.274383307
0.176217288 0.193421990 0.194307193
0.191650555 0.196584284 0.194307193
0.207210630 0.207590178 0.204174638
0.235800177 0.222011656 0.207969636
0.267046154 0.244022727 0.226439089
0.312460303 0.265528291 0.243769810
0.376723260 0.305629313 0.271347344
0.457305431 0.372928619 0.310309798
0.241745532 0.276786745 0.238709539
0.253131211 0.283111840 0.238204002
0.260467917 0.286906868 0.247311741
0.288677841 0.303858310 0.254649192
0.318785369 0.323845714 0.267425627
0.364200175 0.354332626 0.290575445
0.421631724 0.396457821 0.318659097
0.503858209 0.467931837 0.379633158
0.310183465 0.397216707 0.301834524
0.318026453 0.397723168 0.301201701
0.326628357 0.408602476 0.306135297
0.351296544 0.421631932 0.314737260
0.385704905 0.443516731 0.335357010
0.423276544 0.471979618 0.359266251
0.480075985 0.513092816 0.399493814
0.560531437 0.582289696 0.467678696
0.401391745 0.560278296 0.416318566
0.409361273 0.567488849 0.416698098
0.423529476 0.573813677 0.430739939
0.440354228 0.586590886 0.444781899
0.480961293 0.604301035 0.470208526
0.516255498 0.628589749 0.494370550
0.564832091 0.661227226 0.535736799
0.632764161 0.704617500 0.587349951
0.549904823 0.739531994 0.594939709
0.556862772 0.746742249 0.596204579
0.569259763 0.747754455 0.609740376
0.586337626 0.756609678 0.620872915
0.617330849 0.770777941 0.638583004
0.656040311 0.784187317 0.660341680
0.699936390 0.803035796 0.686654031
0.751043379 0.821885049 0.735357225
0.053257097 0.070588000 0.157621905
0.071726546 0.075648449 0.161163554
0.104237907 0.092473090 0.166983098
0.144591749 0.109297641 0.174067095
0.187982187 0.136368990 0.183428183
0.243517086 0.169260085 0.204301357
0.312460482 0.211385280 0.227830559
0.400379777 0.265021920 0.269323081
0.092093542 0.098418549 0.153194442
0.104996994 0.093231998 0.159898996
0.124604903 0.112080991 0.176850453
0.158254191 0.131309360 0.179127440
0.199747086 0.151170105 0.189247459
0.257685184 0.186464190 0.214421257
0.322200835 0.227198184 0.239342242
0.404301077 0.282858789 0.280455381
0.130044192 0.139532089 0.177102998
0.142188549 0.141429558 0.181024984
0.164579093 0.154333100 0.195192993
0.194307089 0.166856095 0.197090447
0.235040992 0.191144899 0.211638093
0.284377068 0.218216449 0.229601368
0.342947304 0.254396170 0.253889918
0.430739999 0.313978076 0.300948918
0.198355287 0.202909291 0.204047635
0.195066184 0.209993899 0.217963189
0.221758276 0.223276272 0.227324083
0.248324081 0.239342645 0.238330081
0.281720549 0.253763199 0.242884085
0.319923848 0.276786745 0.258444011
0.380771369 0.318279535 0.286653966
0.459456235 0.380265534 0.337760925
0.253131211 0.288172007 0.252245367
0.258570284 0.289310634 0.260721326
0.275774986 0.302214086 0.264895827
0.297659993 0.314737380 0.271473646
0.329791188 0.339152157 0.285895079
0.370525181 0.366856456 0.309044719
0.429222077 0.407843292 0.336749166
0.509677291 0.476786762 0.399241060
0.326248825 0.410246551 0.323466092
0.326248914 0.412523627 0.324604630
0.337508053 0.419228107 0.334092438
0.362682223 0.432511032 0.344085932
0.389626831 0.450094551 0.365591347
0.434787989 0.479569733 0.387349725
0.488045484 0.522833526 0.421884537
0.562681675 0.587096751 0.486780316
0.405819178 0.569006860 0.439974368
0.411385089 0.572422445 0.437697828
0.428336471 0.579253674 0.450727671
0.449082911 0.592536271 0.466793180
0.478304565 0.608981609 0.485135853
0.518279254 0.630992830 0.505882204
0.565970838 0.660720825 0.542314768
0.639341891 0.705502689 0.594307303
0.559519470 0.741302669 0.614547491
0.556989253 0.745856762 0.606451571
0.572042584 0.748513579 0.624414563
0.590765595 0.759898901 0.633143544
0.620493412 0.771410465 0.649082839
0.658444166 0.784693420 0.673118472
0.701581001 0.802782834 0.702466786
0.756989121 0.830107450 0.732447863
0.080708288 0.080708288 0.179379985
0.096015349 0.087413445 0.183807641
0.117520288 0.103478998 0.187729344
0.158633634 0.119923994 0.190006644
0.201770842 0.145730287 0.204933539
0.247817829 0.173434630 0.218216538
0.316761643 0.212523639 0.245540932
0.409740567 0.271979630 0.298291981
0.109803900 0.105376542 0.188108891
0.119417734 0.113219544 0.184946194
0.135863528 0.121062540 0.196711004
0.172296017 0.134725004 0.200632200
0.211891353 0.161037356 0.214421451
0.260341614 0.187982187 0.229095638
0.325237095 0.226312563 0.257685304
0.410120249 0.288424999 0.302213788
0.141049996 0.147754461 0.203921810
0.154712439 0.151549637 0.204174638
0.173560724 0.157874733 0.212776735
0.200506091 0.174699187 0.221378729
0.238456622 0.195445836 0.230739832
0.286274612 0.225173831 0.250727296
0.350410789 0.268943727 0.277546018
0.432131559 0.325996220 0.327261090
0.197849646 0.210752994 0.233649984
0.200506091 0.213409543 0.241872445
0.223276183 0.221632093 0.238583535
0.249462634 0.241619632 0.251106650
0.283491373 0.260341644 0.261732996
0.328273296 0.286527395 0.281593710
0.390765280 0.330802917 0.311195642
0.474130094 0.399114460 0.370524764
0.258190751 0.299557626 0.279443622
0.266034335 0.299937010 0.270968080
0.283744276 0.311321825 0.284376979
0.311448634 0.329285026 0.300316453
0.344592005 0.351549357 0.317900181
0.381783903 0.383301944 0.341429263
0.441619366 0.427451283 0.378115177
0.516381979 0.488931090 0.430866718
0.328652620 0.411764443 0.349651814
0.335231006 0.415686280 0.352435261
0.345477372 0.429348618 0.359392405
0.370904714 0.448956192 0.374572992
0.405060083 0.472865254 0.401264995
0.443010747 0.498292089 0.425553709
0.497280270 0.540923297 0.458191007
0.568753779 0.600505769 0.515116870
0.409866899 0.573687553 0.469955921
0.418848842 0.580898285 0.470588177
0.433396727 0.588235199 0.482479125
0.458064556 0.600505531 0.500189900
0.489437163 0.617710352 0.518279552
0.526881635 0.642378151 0.541682482
0.576976597 0.671094596 0.571410596
0.648197412 0.717267394 0.620999277
0.558254242 0.746995568 0.631751776
0.563946784 0.749651730 0.629474998
0.576217234 0.758633673 0.636559069
0.592662930 0.763820231 0.651359677
0.623276472 0.773560643 0.668943763
0.663630605 0.787349999 0.685641646
0.707147241 0.810246766 0.712966323
0.760531425 0.833649457 0.743579507
0.105629191 0.098039001 0.215433195
0.115117185 0.099557191 0.217457443
0.139405176 0.113599092 0.217836991
0.181024998 0.134724990 0.224794373
0.220872998 0.159012988 0.238329992
0.270968169 0.185578793 0.257052392
0.323339462 0.223150283 0.278811008
0.413282424 0.281720638 0.323718995
0.133586541 0.120176829 0.217077896
0.146236554 0.132953659 0.219860539
0.159392640 0.137507543 0.226818547
0.191145092 0.152435452 0.235167801
0.232257828 0.171157554 0.250474542
0.279949516 0.202909291 0.261606276
0.336242825 0.238709360 0.287033707
0.422643811 0.295888662 0.341429442
0.163693890 0.166097283 0.236685902
0.176596835 0.169260085 0.238330081
0.191903993 0.179506809 0.237318084
0.219355091 0.190385997 0.251233637
0.258570373 0.209993988 0.259329289
0.303605556 0.234535009 0.280834943
0.358760387 0.274889350 0.307906270
0.438583165 0.332700640 0.353826612
0.212776646 0.224794284 0.264642537
0.217710182 0.228336528 0.259962201
0.238963082 0.234155461 0.273497999
0.260847360 0.249082983 0.282099962
0.292472810 0.270967960 0.298039615
0.341176450 0.299178004 0.321189165
0.398608565 0.334724724 0.345730633
0.474762678 0.400379628 0.402656794
0.264010012 0.309297949 0.315623164
0.276154518 0.315243632 0.310183376
0.290702105 0.320303291 0.321821451
0.315369725 0.338646531 0.332447797
0.350284368 0.359392375 0.348513335
0.389626920 0.387602478 0.374825716
0.445667386 0.432131380 0.413409144
0.521568477 0.496521175 0.462618560
0.330297559 0.422390908 0.381024718
0.335736811 0.427071512 0.386084467
0.347754359 0.436812371 0.393548638
0.376091182 0.458064556 0.408728451
0.409614354 0.484756470 0.438077122
0.453637183 0.520683467 0.465528011
0.506767988 0.560151935 0.501075387
0.582922101 0.613662302 0.553067684
0.415939450 0.583301544 0.500442445
0.419987172 0.583934546 0.496268451
0.436053365 0.592536390 0.511068642
0.458823472 0.607084095 0.524478137
0.499430537 0.631751835 0.548639894
0.539405465 0.658823311 0.573687494
0.589373767 0.684123755 0.605692565
0.657811582 0.726249039 0.651992500
0.555091619 0.749778509 0.640607178
0.554458976 0.749398589 0.652245224
0.571916401 0.758127630 0.653889954
0.598734796 0.769006789 0.669829130
0.633016825 0.780012608 0.690069199
0.667299032 0.798102379 0.705882132
0.716887593 0.814168334 0.731562018
0.768374443 0.837571084 0.764452755
0.141049996 0.117647000 0.262238979
0.149145931 0.123845801 0.263883293
0.173813984 0.133079991 0.269070327
0.208348989 0.154332906 0.279190630
0.251486182 0.175964534 0.287033707
0.301580995 0.207463473 0.305376470
0.355976850 0.241998702 0.332068264
0.430233806 0.295508802 0.379000664
0.163314342 0.143706739 0.266666561
0.170019001 0.151676267 0.267425567
0.189247355 0.155850813 0.276786834
0.217710391 0.168248102 0.281088084
0.257178932 0.189120546 0.295635730
0.311321706 0.222011730 0.313472539
0.361290336 0.256420046 0.344592184
0.434788078 0.311954588 0.392030448
0.196584180 0.187602833 0.283111721
0.204047918 0.189500287 0.287413090
0.215433091 0.197722822 0.288930982
0.244402170 0.208728731 0.297533303
0.281214297 0.229095444 0.307653368
0.329791099 0.260847390 0.336748987
0.379380018 0.294370562 0.360404819
0.455661058 0.349525601 0.409234613
0.234155461 0.245161369 0.311574966
0.243643284 0.251865745 0.316761643
0.256167084 0.254522175 0.317014545
0.278051913 0.270588636 0.331562012
0.316128701 0.289310634 0.349272579
0.355977118 0.318279713 0.367488801
0.410120040 0.353446990 0.397216916
0.488298684 0.413662285 0.452371716
0.280581981 0.332953930 0.357368708
0.293358654 0.336242944 0.368627429
0.306008726 0.342947394 0.375458717
0.326375544 0.353953183 0.384313494
0.357621938 0.375838339 0.403289169
0.397469908 0.403668821 0.424414963
0.449841946 0.442378193 0.457938135
0.525236964 0.501075447 0.505249679
0.346615732 0.444275707 0.442125469
0.345604002 0.442631006 0.439848274
0.360404998 0.455914199 0.450094432
0.382289469 0.470082194 0.460341454
0.413029909 0.494370729 0.480201989
0.454142988 0.522580743 0.508918464
0.512334168 0.559013188 0.542694271
0.583807766 0.611385405 0.583301544
0.422264546 0.593674839 0.537001550
0.422770292 0.591018260 0.550031722
0.438835949 0.606451571 0.553067803
0.462491930 0.617710352 0.566476882
0.496900737 0.636306167 0.583681226
0.545350850 0.669956028 0.614547491
0.606325328 0.701201797 0.648576975
0.678684533 0.743959606 0.688804209
0.561037421 0.747754514 0.693738341
0.557874799 0.756103635 0.672485828
0.571157515 0.758001506 0.684629858
0.593042493 0.769006610 0.693231702
0.624920726 0.785072923 0.706641257
0.674256802 0.801138520 0.738266647
0.725489855 0.827071667 0.761417031
0.782542586 0.844402552 0.794054389
0.181656986 0.148007289 0.353826284
0.190006554 0.147754744 0.356735826
0.216192275 0.162935004 0.359266281
0.248323992 0.180518642 0.369006902
0.289689988 0.202024281 0.379506469
0.339911282 0.231499016 0.401138723
0.396964282 0.274763256 0.427324563
0.462618351 0.326375663 0.463124812
0.192536280 0.166730002 0.355218291
0.205692559 0.172675744 0.358760297
0.225427285 0.183302000 0.366350263
0.260847300 0.198229000 0.376723468
0.296268016 0.219987482 0.390132904
0.346742570 0.254396170 0.412523746
0.402023822 0.293864548 0.434661806
0.468311071 0.343326926 0.475521773
0.219354987 0.210752904 0.379633367
0.230360463 0.217710376 0.375331819
0.249209374 0.223149896 0.384187549
0.276534081 0.239595279 0.391650856
0.317900091 0.260721385 0.406325281
0.362555474 0.288804352 0.427197933
0.418216586 0.329538375 0.457811356
0.480329007 0.377608925 0.495129406
0.253383934 0.277545929 0.406072259
0.263377726 0.279822648 0.408854902
0.279316723 0.290448993 0.416065931
0.307147264 0.302213997 0.423908889
0.344212532 0.325237006 0.441872090
0.387602627 0.350284934 0.462492168
0.441872209 0.390258908 0.490196198
0.502719402 0.444275826 0.530423701
0.295256257 0.371789962 0.452245265
0.304364443 0.371536732 0.462239027
0.322074294 0.380392283 0.466413647
0.341682374 0.387096733 0.472359091
0.375205249 0.405439645 0.486780554
0.420872748 0.437950641 0.509930074
0.473624259 0.474256456 0.533712864
0.539531529 0.526628375 0.577482462
0.358507246 0.488551259 0.525616705
0.367362261 0.495129704 0.529917777
0.378241479 0.500695825 0.538519681
0.399873734 0.506894290 0.540164292
0.432004720 0.525237441 0.558633983
0.466793478 0.545224428 0.572675347
0.526375532 0.583554685 0.600759268
0.593927681 0.625300765 0.636306107
0.450853556 0.616824567 0.612903535
0.447311997 0.617078006 0.611258805
0.459456086 0.629348636 0.615939379
0.481214583 0.641998827 0.632005155
0.511195362 0.659203053 0.642757714
0.559645534 0.682732582 0.663504004
0.612903595 0.710942566 0.691967070
0.688045621 0.746362627 0.723971903
0.575078547 0.759392619 0.727261484
0.579506516 0.764579415 0.727514207
0.583807707 0.767362595 0.728146613
0.605566025 0.779126763 0.739405096
0.636179805 0.791777611 0.750284553
0.678431332 0.810120285 0.765338182
0.736369550 0.834028900 0.791903734
0.795951784 0.857684910 0.824921012
0.223655820 0.183174968 0.507779598
0.228968993 0.186463997 0.508538604
0.253383905 0.203542069 0.518532574
0.291081637 0.218342766 0.523339391
0.335610539 0.250474155 0.534218788
0.389500290 0.287539810 0.557368457
0.448576659 0.334851533 0.579380035
0.510309577 0.395319462 0.604553759
0.226818725 0.212776646 0.516635180
0.237191543 0.212776646 0.506261885
0.257052362 0.218848810 0.513978601
0.292599529 0.238709554 0.530676961
0.341176540 0.270967692 0.550411105
0.393927872 0.305502743 0.563820422
0.456546366 0.357874781 0.583428085
0.519797325 0.413788617 0.609613955
0.244022727 0.255660802 0.526375592
0.254016101 0.257938087 0.531941891
0.276407152 0.274003953 0.531056464
0.310562938 0.284883261 0.542441130
0.349525720 0.310183406 0.557748079
0.406451464 0.348893046 0.574699402
0.464768797 0.394813299 0.598608494
0.527260780 0.446805626 0.624541521
0.273370981 0.326881826 0.551802218
0.280834824 0.329538256 0.555977225
0.300190002 0.337381154 0.559519410
0.337634265 0.355724096 0.569765568
0.378873825 0.381277651 0.585578382
0.425300539 0.414294660 0.600758851
0.483491689 0.456673086 0.623149812
0.551929116 0.507147372 0.650221467
0.320303380 0.428842366 0.589247584
0.323212832 0.428083360 0.596457839
0.335231096 0.425300300 0.597975671
0.358633727 0.436812371 0.602403224
0.402530164 0.463377625 0.614294767
0.452877998 0.494623512 0.631246150
0.512460470 0.532953739 0.654142797
0.577229202 0.576849997 0.675395489
0.392662704 0.556989014 0.647311568
0.398861498 0.559013367 0.650094867
0.410246670 0.561922491 0.649335682
0.430613458 0.564958513 0.657558382
0.451866090 0.569386303 0.659202814
0.492472947 0.593548357 0.674003482
0.558507264 0.628589749 0.699936569
0.625553489 0.666540265 0.723466516
0.495256275 0.680455506 0.709803581
0.498165816 0.682859063 0.720177054
0.504364073 0.684503317 0.719038188
0.523972094 0.694497287 0.727008224
0.554079533 0.702846110 0.736369252
0.597723067 0.721821725 0.752687931
0.643010736 0.737254679 0.760658026
0.714104772 0.771410465 0.790638566
0.613788426 0.788867772 0.788994253
0.612523794 0.788867772 0.780012310
0.627703786 0.795951843 0.794054627
0.642378032 0.798734784 0.795066416
0.670588076 0.811258793 0.811005771
0.705755651 0.826565444 0.816192567
0.765338182 0.852118671 0.845288038
0.824414372 0.880328596 0.875268519
