Assets/Resources/EldamarStudio/100 Horror LUTs Pack/LUTs/cube/Chaffette LUT.cube
DOMAIN_MIN 0 0 0
DOMAIN_MAX 1 1 1
LUT_3D_SIZE 32
0.074510001 0.019608000 0.019608000
0.074510001 0.019608000 0.019608000
0.078811005 0.019608000 0.021758227
0.084883004 0.022138000 0.026059322
0.092472993 0.028589547 0.032891002
0.110688999 0.037697934 0.045034997
0.126375318 0.044275999 0.054649319
0.143200412 0.050347995 0.062112994
0.160658091 0.056419998 0.068943895
0.175838500 0.062491998 0.078051515
0.199746996 0.065654866 0.069702871
0.222011253 0.072738737 0.072738737
0.244402289 0.082985289 0.081846647
0.268438041 0.094876967 0.090195999
0.289690375 0.103984565 0.090195999
0.318152964 0.117899790 0.099809989
0.350031555 0.133080184 0.114990376
0.384060949 0.147627980 0.130676985
0.420493037 0.159772024 0.136749029
0.454143077 0.169133365 0.153953016
0.493232459 0.180138990 0.164579004
0.537761271 0.192283258 0.171663120
0.586464465 0.204554468 0.181151003
0.638076901 0.219734102 0.199367821
0.685135841 0.232637569 0.210752696
0.736242950 0.244781986 0.224035323
0.792916059 0.257937998 0.241746068
0.844528377 0.276153982 0.256926417
0.893484592 0.299683630 0.277419806
0.943832517 0.323971927 0.305756122
0.984819591 0.354458779 0.340038180
1.000000000 0.400000006 0.376471013
0.071473613 0.016571613 0.016571613
0.077545613 0.019608000 0.028716389
0.079696387 0.021758227 0.030866612
0.084883004 0.026438773 0.032637388
0.093232095 0.034661546 0.037065160
0.116761774 0.043769933 0.057178997
0.127387449 0.050347999 0.056673322
0.139911413 0.059708994 0.065401994
0.156863004 0.067046002 0.071221001
0.178874120 0.068564005 0.068943910
0.196964368 0.077545874 0.075142384
0.220999375 0.086906992 0.076786995
0.243263632 0.094750032 0.082606032
0.265654653 0.101201996 0.087919354
0.289690375 0.113092951 0.096267998
0.313345969 0.124604374 0.103478797
0.342441380 0.139152184 0.113472573
0.375585139 0.153699979 0.127767548
0.414421082 0.165844008 0.145857409
0.450853765 0.180771366 0.151929393
0.492093801 0.188487992 0.165338367
0.536749125 0.197343126 0.174699515
0.583428085 0.207590118 0.184060887
0.635041296 0.222770497 0.199367821
0.688930929 0.237950668 0.215306699
0.740923226 0.249462664 0.228715643
0.795445740 0.260974377 0.245793685
0.844528377 0.279190391 0.266034037
0.890828431 0.300063193 0.286527395
0.933712482 0.327514350 0.309551001
0.973181188 0.357874721 0.340038180
0.996963620 0.396963596 0.376471013
0.072738774 0.026438773 0.024288548
0.078810774 0.031625386 0.032131776
0.080581777 0.032511000 0.035674002
0.086148165 0.038076933 0.041239612
0.095003322 0.046426319 0.044655096
0.117520869 0.051992707 0.057052705
0.129158676 0.062871769 0.058064546
0.143200412 0.068943769 0.061606929
0.158634096 0.077798873 0.070967898
0.181530789 0.079190552 0.069070235
0.199999973 0.087918870 0.076787002
0.216192469 0.095003001 0.080835260
0.238962635 0.105755642 0.086780772
0.260468066 0.111322030 0.090576001
0.284756809 0.121568754 0.093991339
0.315496743 0.133712754 0.107400030
0.342820764 0.145856768 0.118026607
0.373813957 0.159772143 0.127134994
0.410246789 0.171916559 0.140797213
0.449082762 0.186843365 0.156736240
0.487412721 0.198228732 0.162808225
0.532447815 0.205565900 0.175458342
0.578620970 0.214674279 0.187096715
0.636305988 0.225806683 0.202277139
0.685894787 0.240986496 0.211005703
0.741935194 0.254775554 0.227577329
0.796331108 0.266160995 0.244528845
0.844907820 0.284376979 0.265781194
0.890828431 0.309550792 0.291334569
0.938140333 0.334345132 0.317899674
0.972548783 0.367868394 0.342061818
0.996078014 0.406830788 0.372169465
0.075774841 0.047944322 0.038962997
0.081847161 0.048956320 0.041239839
0.084883004 0.051992159 0.045541160
0.088678166 0.053257320 0.043010838
0.098165996 0.061986156 0.052118547
0.116761774 0.065907933 0.059076708
0.130423844 0.076533996 0.058823675
0.144465253 0.084124163 0.062365703
0.161164030 0.090196162 0.069955900
0.180898502 0.093738481 0.072991528
0.200506166 0.100063123 0.079316869
0.220493242 0.107147314 0.085642099
0.235673636 0.115496315 0.089816839
0.257432073 0.124984160 0.095888838
0.283744812 0.135104403 0.097912833
0.312713802 0.145351142 0.107400343
0.342061996 0.157495156 0.119797379
0.373687118 0.169639140 0.132574558
0.407716811 0.181783795 0.140544191
0.446679562 0.194180816 0.156483009
0.488677889 0.204300731 0.167109326
0.531182408 0.213409126 0.175205305
0.577355921 0.222896963 0.190132663
0.635799825 0.235420734 0.205313087
0.687412500 0.247818023 0.216192156
0.736369073 0.260341167 0.227830157
0.794054210 0.273497999 0.245034963
0.844907820 0.291714132 0.264010429
0.892093301 0.316634804 0.288045794
0.934345186 0.345224291 0.318406075
0.975838065 0.376090705 0.349651724
0.994813144 0.418216020 0.372422159
0.080328546 0.076786995 0.055281546
0.085262768 0.072232999 0.053004161
0.089184225 0.072232775 0.055661000
0.094370611 0.074889161 0.057052772
0.103478998 0.077925541 0.051739097
0.115622997 0.083997540 0.060847484
0.130676776 0.094370544 0.063503996
0.146362990 0.101581253 0.067299157
0.163820192 0.105376542 0.074889451
0.175964981 0.111448541 0.077925071
0.196458325 0.114990219 0.081720419
0.218595996 0.120050505 0.086401001
0.240986645 0.127640992 0.092473000
0.256673038 0.139532030 0.099304035
0.286654264 0.151549548 0.105755538
0.314611256 0.162049353 0.114990339
0.341555983 0.172295988 0.124098733
0.367235571 0.184060529 0.132954016
0.403668433 0.196204573 0.148134440
0.443643540 0.206704453 0.163314193
0.486148208 0.213535547 0.172422469
0.532700717 0.220619664 0.180518985
0.581150949 0.229854524 0.192536503
0.635040820 0.247564554 0.207210898
0.686274052 0.261227012 0.220872998
0.736369073 0.272359401 0.235420525
0.784946620 0.283364683 0.253763139
0.842630923 0.301581442 0.265907913
0.891207576 0.323971957 0.286021799
0.934597909 0.351422906 0.313599110
0.968247652 0.382542551 0.346236557
0.992536426 0.422010988 0.379632980
0.095508933 0.095002994 0.058317933
0.092473321 0.101074994 0.061353546
0.095256224 0.100821987 0.061226934
0.099556997 0.101327926 0.060974225
0.106514610 0.102213539 0.057811871
0.115622997 0.105249926 0.057811871
0.132826999 0.111321934 0.066919610
0.145603761 0.116761640 0.069575995
0.158507198 0.120556928 0.071853161
0.175964981 0.126628935 0.074889459
0.193928003 0.132700935 0.083744802
0.210626304 0.138266861 0.087792672
0.231878638 0.144338995 0.092473000
0.256673038 0.151676029 0.099304035
0.277925402 0.160784423 0.114484400
0.305502862 0.175205722 0.128146723
0.335863262 0.186337739 0.139279127
0.366476536 0.195951581 0.147122353
0.394560039 0.205312967 0.151170045
0.439342171 0.223023653 0.166350424
0.480075806 0.230234131 0.173940673
0.523592353 0.235800058 0.180518985
0.572042584 0.245034918 0.192536503
0.617583811 0.257178932 0.201644912
0.673750818 0.270334929 0.218595982
0.731309175 0.282479405 0.234408647
0.787476242 0.295635939 0.251107007
0.833523333 0.316761822 0.271979898
0.875268698 0.332321048 0.292093813
0.923339546 0.356103599 0.316888154
0.966223896 0.383048892 0.345224559
0.995572090 0.409866989 0.373560995
0.095509320 0.128399640 0.071473673
0.095003389 0.129411638 0.071979612
0.098419003 0.131182641 0.072865002
0.104364157 0.132447794 0.074130163
0.112460092 0.133333415 0.074383542
0.123719253 0.132068247 0.076534316
0.132826999 0.132574320 0.074004002
0.149398699 0.137002021 0.081467316
0.163314089 0.141556218 0.084756315
0.183301643 0.149398997 0.089563482
0.193928003 0.152941316 0.090828545
0.214168251 0.161037579 0.097912662
0.232637629 0.168753982 0.103731640
0.256926060 0.176723376 0.111448348
0.280455709 0.188109055 0.122074716
0.308918297 0.194813639 0.132447511
0.337887377 0.208096310 0.144338876
0.371536851 0.218216211 0.153447255
0.406451344 0.227324635 0.160278380
0.447944105 0.239721730 0.169386685
0.493485183 0.252245724 0.186464310
0.537254870 0.257558644 0.193674996
0.586084604 0.265148818 0.202782989
0.638836026 0.274889648 0.214294583
0.686653852 0.289310336 0.227956951
0.743579924 0.303098977 0.244528651
0.800126433 0.317394137 0.260215133
0.843643308 0.336622745 0.279443741
0.883870721 0.360151768 0.300695449
0.923339546 0.380645007 0.330803007
0.965717971 0.409867495 0.362175792
0.996078014 0.440733969 0.392789632
0.099051282 0.153320700 0.083364703
0.099051282 0.153320700 0.083364703
0.100063287 0.158254400 0.083364703
0.109930441 0.159519240 0.083364703
0.118658699 0.161037430 0.086780541
0.125743151 0.155471042 0.092346929
0.141935378 0.154964983 0.091967382
0.149398699 0.156609699 0.088930994
0.165338203 0.160404980 0.094244093
0.185705200 0.168627217 0.099430710
0.200252876 0.173560858 0.101327993
0.212523535 0.180645257 0.105375990
0.233775914 0.188614994 0.113725282
0.255534410 0.197216734 0.123339668
0.281214803 0.207969815 0.132447690
0.307020992 0.216951698 0.136622190
0.337381393 0.226059705 0.148766190
0.370272100 0.238203675 0.159392565
0.410752743 0.248323962 0.170524970
0.454648733 0.258570701 0.176344365
0.500695467 0.270461738 0.191144988
0.547248542 0.279570132 0.206325129
0.595825255 0.286654204 0.213156208
0.647438586 0.298798591 0.223782420
0.700822234 0.310816109 0.236558989
0.749398947 0.324604392 0.251739353
0.804301083 0.339531779 0.267425686
0.847944140 0.356609881 0.285642177
0.889436781 0.380139351 0.311448544
0.935483575 0.402783066 0.331688344
0.967868567 0.429728270 0.365464568
0.994433701 0.465402007 0.397343576
0.106641091 0.172296196 0.095509090
0.105123095 0.172296196 0.091714002
0.108159095 0.176470876 0.094749995
0.112207159 0.182290033 0.093231998
0.126628548 0.183807641 0.092852548
0.127767086 0.174699262 0.100442939
0.141682327 0.174699187 0.103478998
0.154712006 0.175584808 0.103352293
0.163061112 0.178621188 0.102593191
0.181277886 0.184693187 0.105629578
0.199493915 0.190765187 0.107147224
0.215180084 0.198102340 0.112207092
0.232257724 0.206831202 0.119797289
0.253510118 0.213156164 0.131435990
0.279823124 0.222264409 0.140037671
0.306262076 0.232131884 0.144971102
0.334345400 0.241999000 0.151802376
0.367236108 0.254143149 0.164452612
0.409740984 0.266287208 0.179126963
0.454269499 0.276407450 0.186970443
0.500189543 0.285895079 0.196458086
0.548766375 0.298545241 0.211638033
0.597849071 0.307653576 0.220872909
0.648956537 0.321568817 0.230613902
0.700569451 0.334472090 0.242758080
0.753194273 0.348134071 0.256293565
0.801265180 0.361290246 0.272485971
0.846805573 0.376723617 0.290954977
0.890448630 0.397596538 0.316002518
0.935230434 0.423150241 0.344592124
0.977735460 0.447944641 0.366982758
0.992915869 0.481341094 0.394307196
0.109677479 0.202656969 0.116761483
0.103605486 0.202656984 0.101581104
0.110689484 0.202656984 0.106388003
0.119797483 0.203036502 0.110436007
0.126628548 0.202024430 0.104996562
0.135736927 0.192916065 0.101960950
0.141935483 0.196457982 0.107021004
0.148640007 0.198987991 0.111195296
0.156989098 0.199873596 0.114737198
0.172169492 0.202909976 0.120809972
0.190385520 0.208981976 0.118026622
0.208602026 0.215053976 0.121315487
0.229981109 0.222391143 0.128526136
0.256546527 0.231372938 0.137508005
0.277798891 0.240480557 0.143580005
0.306515098 0.251992613 0.154585496
0.338140666 0.262492299 0.166223884
0.373308122 0.272359192 0.176597387
0.415812999 0.284503996 0.179633036
0.458317757 0.296647996 0.197090730
0.500948906 0.304870516 0.207084492
0.545730710 0.314231634 0.214674354
0.594813466 0.328905970 0.223908529
0.655534327 0.338013619 0.236053333
0.706641018 0.349652112 0.250348270
0.756862462 0.364579439 0.265401781
0.807337165 0.382542610 0.281593591
0.852878273 0.400759369 0.302845955
0.898418725 0.416192114 0.318658799
0.940290570 0.442378104 0.348640084
0.974952102 0.475269049 0.385452539
0.995951533 0.508665502 0.418595970
0.112713128 0.212650120 0.117647000
0.112460122 0.221378997 0.117014483
0.110689126 0.221378997 0.108285867
0.119797453 0.222644165 0.118405864
0.129538313 0.225047871 0.125489861
0.138646051 0.228589803 0.119923927
0.142694443 0.224541426 0.119417995
0.153320700 0.226185873 0.124730989
0.164705873 0.226185873 0.127513960
0.177735507 0.227071494 0.127134964
0.190006003 0.227198005 0.130297124
0.210246250 0.235294253 0.135357246
0.229348406 0.243390515 0.142314866
0.250854045 0.252498835 0.149398997
0.272106379 0.261606455 0.155470997
0.305376589 0.270714670 0.166350603
0.339784980 0.283871174 0.175458729
0.375837833 0.295762151 0.184819967
0.416065991 0.305629104 0.194686919
0.458570749 0.320556492 0.200505883
0.502972722 0.329032004 0.210626125
0.547501445 0.337128252 0.216698125
0.594054461 0.350411355 0.224161491
0.640859962 0.365085721 0.239088938
0.699303925 0.376470596 0.258064389
0.752561271 0.388614833 0.275901467
0.804174304 0.403795004 0.293611795
0.847311556 0.422011763 0.314864159
0.890195906 0.445540816 0.333459705
0.935483694 0.465021878 0.359518975
0.971916437 0.492093533 0.391397715
0.993168890 0.521441996 0.416698128
0.113724999 0.241998747 0.131815240
0.111701258 0.247058630 0.127767250
0.119797252 0.247691497 0.137634486
0.121062413 0.247691497 0.129032165
0.130929992 0.249589249 0.137760550
0.141682327 0.252372265 0.136622250
0.151802316 0.250853926 0.137634501
0.156482980 0.251106948 0.135989800
0.170524836 0.252245396 0.140164346
0.183934003 0.253510237 0.139658734
0.198102251 0.253510237 0.144465625
0.210246250 0.255534500 0.145477504
0.231498629 0.264642864 0.153447255
0.251106799 0.274004251 0.159772292
0.274130404 0.284883082 0.167615503
0.309424311 0.296015054 0.172422349
0.344339281 0.303605258 0.183048934
0.380265504 0.315369964 0.189626992
0.418342680 0.323086292 0.198988020
0.462618738 0.337760627 0.209614009
0.501328468 0.349146008 0.215685993
0.546489358 0.358380646 0.223782241
0.592283249 0.371410728 0.232258007
0.641619146 0.382795632 0.247438416
0.700316072 0.395699263 0.263124287
0.753826559 0.412017882 0.280202329
0.804680288 0.426565558 0.298165977
0.845666826 0.443264157 0.320936143
0.892219543 0.462745190 0.341555983
0.929411530 0.483491212 0.363314390
0.970398605 0.508032799 0.395951837
0.996204972 0.537634492 0.421758264
0.114863642 0.274636626 0.150790647
0.114105031 0.276533902 0.144718647
0.118405998 0.277545750 0.149146140
0.130170509 0.276913643 0.159772322
0.133586437 0.277293086 0.148766190
0.144212648 0.278052002 0.150284588
0.156356648 0.275521964 0.153320670
0.168627277 0.274636328 0.154206276
0.176976383 0.278431654 0.152688086
0.192156777 0.281846792 0.155724481
0.206198514 0.283111632 0.161669999
0.222770274 0.283997267 0.163693994
0.236052915 0.288172275 0.164832637
0.257811308 0.297027647 0.171157598
0.282985449 0.307400644 0.180265754
0.315875798 0.318405986 0.184566841
0.351169914 0.330929637 0.190638840
0.385832071 0.337634206 0.197849646
0.422770351 0.344212294 0.202909663
0.467552096 0.358633637 0.216824651
0.513093114 0.372296035 0.226312280
0.553573906 0.382416278 0.233396411
0.599620223 0.397343636 0.245414615
0.652245343 0.407463372 0.259582907
0.707273841 0.419987202 0.274762958
0.765211880 0.432890624 0.290828317
0.812270701 0.453131050 0.303984970
0.851739049 0.468311429 0.327007979
0.894623220 0.488425255 0.350917101
0.935483575 0.510056853 0.378494382
0.967109561 0.530929506 0.407210767
1.000000000 0.563820660 0.441113293
0.118658997 0.296395034 0.165971041
0.121189386 0.297407031 0.160405040
0.125490248 0.298545241 0.160278261
0.131056055 0.302087188 0.165338069
0.142441094 0.304870516 0.169259548
0.148513868 0.307906151 0.166223943
0.159899041 0.306641370 0.168247730
0.172928706 0.305250049 0.169639051
0.188362062 0.305756032 0.170398086
0.203542471 0.311828017 0.173434481
0.216319025 0.315243185 0.179127038
0.234282240 0.316508085 0.181910068
0.253510624 0.318279296 0.183048636
0.269703001 0.324099004 0.186085016
0.297027379 0.330170989 0.195192635
0.326249003 0.338646263 0.199240848
0.357621402 0.350537211 0.205566198
0.390132695 0.365211636 0.213789001
0.429601967 0.374320060 0.213789031
0.474130362 0.388488352 0.228716061
0.522960186 0.403415769 0.241492733
0.573561251 0.417584032 0.250854105
0.622390926 0.429981023 0.260088980
0.677039802 0.442378014 0.272233039
0.727387547 0.456799299 0.287160218
0.776596963 0.470587999 0.303478956
0.825933099 0.483491123 0.322201073
0.865401447 0.498671502 0.340417057
0.902719617 0.521568656 0.366603494
0.938899338 0.547122180 0.398481935
0.972169578 0.574193597 0.435546756
0.999494016 0.601518035 0.475015998
0.130802989 0.323719412 0.181151405
0.127767369 0.335863382 0.181151405
0.141049981 0.330423594 0.177735627
0.147248566 0.331435531 0.183554560
0.148513839 0.338140368 0.193042278
0.154585868 0.338266879 0.178367928
0.168248311 0.343832821 0.180392310
0.177862406 0.344718397 0.181783825
0.188868001 0.343200386 0.182542726
0.206578091 0.339152396 0.185578480
0.224668324 0.345224410 0.188614860
0.241619408 0.348640084 0.196331665
0.260468006 0.349905223 0.201265186
0.278810591 0.351423353 0.204301029
0.306134969 0.354458958 0.207337409
0.331056148 0.362934768 0.209234834
0.365717769 0.373560786 0.215939403
0.405692518 0.387602538 0.227450967
0.447817922 0.404680789 0.238076985
0.487286389 0.413788468 0.235294342
0.531815171 0.426059455 0.246173412
0.579633296 0.438836366 0.257685006
0.628462970 0.451233357 0.269196600
0.683111846 0.469449371 0.281341374
0.735483825 0.484123677 0.300316095
0.782289684 0.497912377 0.317520201
0.825680077 0.511068523 0.334851116
0.862365782 0.529032230 0.358633816
0.904490948 0.549525619 0.384819597
0.940417528 0.571410596 0.412144125
0.970904589 0.594813347 0.444022566
0.993421972 0.619733989 0.481087983
0.145350799 0.360657781 0.203541979
0.147122175 0.367994785 0.198734984
0.146236792 0.371536791 0.194433987
0.160404816 0.368247747 0.197469801
0.163820535 0.375079125 0.208475545
0.167868793 0.381151378 0.197343662
0.176723510 0.371789783 0.199747115
0.196837589 0.374572784 0.199494079
0.209740877 0.375331879 0.200252980
0.226312608 0.374193579 0.204933301
0.242125526 0.379759610 0.207969651
0.260341793 0.379759341 0.206957519
0.279696405 0.382036626 0.212270826
0.299430609 0.383554816 0.215559795
0.322454005 0.386590958 0.220746413
0.347374558 0.394433588 0.226185992
0.371663362 0.402023792 0.229221985
0.411385089 0.412396938 0.237697572
0.460973978 0.427071720 0.244528815
0.503099203 0.439342231 0.252372146
0.546362996 0.454142570 0.260721058
0.593927920 0.467299223 0.271347255
0.643895984 0.479570061 0.280835062
0.693990827 0.495508760 0.295255989
0.739531517 0.506894052 0.309677452
0.787982166 0.524604440 0.330676436
0.830993056 0.540290654 0.349398941
0.869323015 0.556609631 0.373687685
0.903858542 0.575078726 0.403035760
0.942820847 0.598102331 0.433902562
0.974193394 0.620872974 0.465148509
0.996963978 0.645161450 0.501580954
0.159012988 0.400126547 0.218721986
0.162049383 0.406198561 0.218722388
0.167489186 0.406451374 0.214168191
0.170019180 0.407716542 0.211891353
0.181657180 0.410373360 0.221378833
0.188108936 0.416066110 0.214547932
0.196205050 0.415053725 0.218089998
0.210499391 0.407969564 0.219228670
0.231752172 0.408728480 0.218469381
0.246173680 0.411764652 0.224541381
0.264390051 0.414674193 0.226186052
0.284630179 0.416192114 0.229728103
0.303984821 0.416571379 0.228968710
0.325237215 0.419734180 0.231245980
0.346489578 0.421505392 0.232257992
0.370145530 0.424794376 0.239848182
0.398987770 0.433902383 0.245920181
0.424541503 0.440606952 0.251359761
0.472106367 0.451866150 0.254396170
0.515622735 0.464010209 0.264516354
0.560025156 0.479949176 0.272865415
0.605566323 0.497153312 0.288045317
0.655913830 0.509930491 0.295888960
0.703098953 0.525110483 0.309677273
0.747121751 0.537254453 0.324857444
0.789626479 0.546362817 0.341429144
0.834535122 0.567109287 0.363567173
0.875015616 0.584313571 0.388868064
0.910689473 0.602150500 0.419987321
0.939784884 0.619354367 0.449082553
0.974446177 0.647185206 0.484250546
1.000000000 0.674004018 0.521315157
0.174319714 0.438962966 0.225426570
0.178620934 0.445667505 0.232131764
0.184693322 0.446552902 0.233017206
0.193801537 0.444781691 0.233776137
0.199873552 0.447818071 0.235673979
0.211511567 0.448071092 0.232384607
0.221758440 0.449968368 0.236306131
0.235167548 0.449715227 0.237444699
0.253130734 0.448830009 0.236053556
0.265275508 0.451865613 0.242125556
0.285515845 0.451992095 0.242378563
0.308792114 0.451359689 0.245161563
0.332574159 0.454269111 0.250094920
0.353573591 0.460341096 0.253636599
0.374446511 0.461100101 0.249462143
0.397470117 0.460467696 0.253510356
0.424415141 0.463756710 0.260467976
0.455914110 0.471600115 0.266540140
0.486274958 0.480708539 0.269576579
0.528399587 0.491334558 0.279696584
0.572801769 0.506008506 0.288677990
0.617077768 0.522580266 0.298418701
0.662618935 0.537760675 0.313472539
0.708159506 0.552941084 0.325616568
0.751423120 0.565844178 0.340037823
0.793927848 0.579126775 0.357874513
0.834914625 0.589753151 0.377102703
0.877039850 0.610878944 0.404301286
0.912966609 0.628842592 0.435041338
0.944212496 0.647817850 0.466793120
0.968374193 0.666033745 0.496394724
0.998735011 0.702466547 0.535863161
0.201644957 0.475395054 0.234535009
0.210752577 0.484503448 0.243643403
0.215053797 0.489057779 0.248197258
0.222391024 0.489057809 0.253257185
0.233270019 0.487286568 0.259962022
0.239342034 0.490322948 0.253890038
0.250980645 0.490575999 0.255661309
0.264516264 0.489184260 0.255661249
0.280708224 0.488425016 0.254143119
0.298672020 0.494370520 0.257305980
0.316635042 0.494497001 0.257559001
0.339152545 0.492473274 0.257559001
0.363440990 0.494244307 0.259203345
0.386970103 0.502846003 0.262745023
0.405186862 0.508917987 0.271853387
0.426059783 0.507273793 0.272485971
0.449083000 0.507526755 0.274762809
0.474130183 0.511068583 0.278684169
0.498419046 0.514105022 0.284756988
0.542694449 0.520430028 0.290576011
0.587982178 0.530803025 0.299051255
0.631499112 0.543453276 0.310942292
0.671726644 0.555977523 0.328652978
0.717267871 0.571157873 0.340797007
0.760531545 0.584060967 0.355218291
0.803036273 0.600379646 0.374572933
0.844023049 0.620114028 0.398355126
0.877419412 0.638329983 0.422643870
0.908918619 0.654142857 0.447185665
0.941556096 0.676660180 0.479316890
0.970651567 0.701201558 0.514104843
0.992662966 0.723719001 0.548007965
0.248450756 0.531309128 0.268690735
0.251992375 0.534851491 0.272233129
0.258949757 0.537508130 0.272738963
0.262618542 0.538646758 0.273244739
0.270208746 0.537128568 0.277039915
0.281087726 0.535357356 0.278178722
0.292219728 0.535863400 0.274636418
0.306008726 0.537508130 0.277166724
0.321947902 0.539026141 0.279443622
0.340164721 0.545098126 0.286527485
0.363946766 0.545351148 0.283871353
0.382163256 0.547374845 0.283871353
0.404933721 0.545857012 0.286148369
0.429727793 0.547881067 0.291334718
0.458064586 0.551422775 0.300442398
0.481087744 0.555091560 0.304743826
0.504237771 0.557368755 0.305123389
0.528526247 0.561037123 0.305629164
0.552815080 0.561922729 0.305249572
0.582669139 0.567741811 0.311322391
0.620620012 0.575711489 0.324984372
0.661606729 0.586970091 0.338772863
0.702845871 0.599114418 0.355091870
0.743074119 0.611638665 0.369892746
0.779506683 0.626818478 0.386590719
0.820493281 0.640860021 0.406451672
0.860468030 0.658823550 0.430234134
0.889310420 0.677040100 0.452245623
0.920050681 0.692599237 0.476533681
0.948640108 0.709550738 0.502593160
0.976470590 0.732953668 0.535989583
0.997722983 0.756103396 0.571284056
0.295129716 0.581404209 0.291840732
0.298165798 0.582542896 0.302467108
0.305249453 0.587223470 0.303099692
0.308791459 0.587223470 0.298798144
0.312713265 0.586084902 0.298292071
0.326375455 0.580012500 0.302846640
0.336622179 0.583301485 0.302720159
0.355344594 0.583301485 0.301328480
0.371283829 0.586084783 0.304870725
0.388361692 0.591018438 0.312839985
0.406704456 0.593168736 0.312207609
0.426944971 0.595192909 0.311195731
0.448577106 0.597090185 0.314611077
0.473118186 0.595066488 0.320935994
0.496900529 0.596457779 0.325110316
0.520556450 0.601391256 0.327513814
0.546362638 0.605945408 0.332068384
0.571030855 0.610752463 0.333459884
0.595319688 0.610752463 0.332953483
0.625174284 0.612523437 0.340164453
0.655534208 0.616698205 0.350031704
0.686907113 0.623782337 0.364199698
0.724730730 0.633522749 0.376850009
0.762428701 0.649209499 0.393801659
0.797343314 0.657938182 0.413156450
