Assets/Resources/EldamarStudio/100 Horror LUTs Pack/LUTs/cube/Chaffette LUT.cube
LUT_3D_SIZE 8
DOMAIN_MIN 0.000000 0.000000 0.000000
DOMAIN_MAX 0.903226 0.903226 0.903226
0.074510001 0.019608000 0.019608000
0.092472993 0.028589547 0.032891002
0.160658091 0.056419998 0.068943895
0.244402289 0.082985289 0.081846647
0.350031555 0.133080184 0.114990376
0.493232459 0.180138990 0.164579004
0.685135841 0.232637569 0.210752696
0.893484592 0.299683630 0.277419806
0.080328546 0.076786995 0.055281546
0.103478998 0.077925541 0.051739097
0.163820192 0.105376542 0.074889451
0.240986645 0.127640992 0.092473000
0.341555983 0.172295988 0.124098733
0.486148208 0.213535547 0.172422469
0.686274052 0.261227012 0.220872998
0.891207576 0.323971957 0.286021799
0.106641091 0.172296196 0.095509090
0.126628548 0.183807641 0.092852548
0.163061112 0.178621188 0.102593191
0.232257724 0.206831202 0.119797289
0.334345400 0.241999000 0.151802376
0.500189543 0.285895079 0.196458086
0.700569451 0.334472090 0.242758080
0.890448630 0.397596538 0.316002518
0.114863642 0.274636626 0.150790647
0.133586437 0.277293086 0.148766190
0.176976383 0.278431654 0.152688086
0.236052915 0.288172275 0.164832637
0.351169914 0.330929637 0.190638840
0.513093114 0.372296035 0.226312280
0.707273841 0.419987202 0.274762958
0.894623220 0.488425255 0.350917101
0.159012988 0.400126547 0.218721986
0.181657180 0.410373360 0.221378833
0.231752172 0.408728480 0.218469381
0.303984821 0.416571379 0.228968710
0.398987770 0.433902383 0.245920181
0.560025156 0.479949176 0.272865415
0.747121751 0.537254453 0.324857444
0.910689473 0.602150500 0.419987321
0.295129716 0.581404209 0.291840732
0.312713265 0.586084902 0.298292071
0.371283829 0.586084783 0.304870725
0.448577106 0.597090185 0.314611077
0.546362638 0.605945408 0.332068384
0.655534208 0.616698205 0.350031704
0.797343314 0.657938182 0.413156450
0.924604654 0.720682919 0.504996657
0.523339570 0.760657549 0.427956551
0.542694807 0.763061285 0.439848572
0.580518603 0.760531306 0.447438240
0.641492963 0.769639194 0.465022206
0.696774364 0.770777822 0.474636257
0.777229309 0.779253542 0.496394724
0.852498293 0.787096858 0.522707522
0.943326652 0.822390676 0.600632787
0.773307562 0.907526970 0.659582615
0.778873980 0.920303464 0.671473861
0.795825481 0.916002572 0.672106147
0.821252227 0.920682907 0.681846738
0.856546462 0.920682907 0.696520925
0.893105626 0.926375508 0.714990318
0.937507749 0.934724927 0.734724522
0.983427942 0.940290630 0.759013236
0.077672005 0.036052998 0.053257097
0.098797999 0.032511450 0.057938091
0.148892999 0.065401547 0.093232088
0.206072092 0.100948989 0.119038284
0.296015203 0.147248194 0.153194442
0.445793897 0.194560736 0.190765545
0.653257251 0.239342257 0.243010521
0.872232854 0.308791816 0.312207639
0.083491549 0.065401539 0.056672644
0.106640995 0.078304991 0.077545993
0.140670553 0.102593087 0.098292448
0.202150181 0.132321104 0.122580543
0.292852283 0.176976383 0.157115743
0.445034921 0.221631974 0.200885534
0.646299839 0.267931789 0.247311994
0.864642620 0.329411656 0.315622807
0.106641091 0.151549652 0.115876094
0.126628548 0.156230554 0.114737540
0.148513541 0.164073557 0.126502544
0.205945283 0.190259293 0.144845083
0.305629641 0.234914392 0.180518523
0.459835917 0.281593770 0.217583984
0.667805254 0.333586276 0.263377637
0.876280546 0.400759339 0.338899553
0.121062540 0.257937908 0.169133291
0.139911458 0.259582609 0.166730002
0.173055097 0.264642388 0.171410292
0.224668190 0.274762958 0.175711647
0.324731201 0.316761732 0.213915095
0.483870894 0.366477072 0.243896529
0.689816415 0.419607550 0.295382708
0.883238494 0.489184260 0.372042865
0.162428841 0.395572364 0.229601189
0.181909919 0.402150840 0.235293731
0.228589371 0.399367362 0.233396277
0.298165381 0.406451464 0.241998985
0.382669181 0.421631932 0.252624720
0.535989761 0.465781361 0.286527276
0.733206928 0.531309009 0.341176391
0.901075244 0.603036046 0.433270007
0.289184272 0.563693762 0.302340269
0.311827540 0.569892645 0.315370053
0.364705980 0.571536720 0.314737380
0.437571108 0.579759896 0.328020394
0.533712745 0.590006232 0.337001830
0.637444258 0.603289008 0.357115924
0.785072982 0.652371585 0.415812999
0.922453880 0.716508329 0.514104724
0.524098396 0.748007417 0.441998661
0.530297399 0.746742129 0.450347602
0.565464854 0.751802742 0.446932167
0.622137845 0.759266198 0.461479843
0.689689755 0.766350269 0.479822993
0.769006729 0.766097426 0.505502820
0.844022930 0.782922268 0.533839285
0.935104489 0.822390676 0.598608315
0.768121421 0.903478384 0.654395700
0.774446070 0.909677625 0.654775620
0.782036602 0.908159375 0.664769173
0.811005592 0.910816014 0.673497796
0.846426368 0.911195457 0.687286139
0.888298333 0.923718929 0.708918333
0.933586359 0.928905487 0.733459711
0.976849794 0.937760592 0.761796415
0.069702998 0.055661093 0.143326998
0.106641091 0.052118547 0.144591659
0.155218109 0.072865091 0.147375092
0.213156104 0.109677188 0.156230539
0.296141893 0.162934989 0.197470084
0.420872718 0.214674085 0.237065345
0.618975341 0.264010012 0.295003086
0.853383660 0.333333045 0.363440901
0.098039098 0.102720000 0.122580543
0.114863642 0.104617447 0.132448003
0.143073633 0.116381541 0.143832639
0.195825189 0.145350739 0.163314447
0.283491284 0.195572451 0.206072077
0.416445434 0.243263632 0.252371967
0.624162018 0.286274552 0.301075339
0.844908535 0.356483072 0.363566995
0.112966098 0.166097105 0.152941003
0.134851098 0.182669014 0.175964534
0.159898996 0.197470099 0.184946179
0.207969636 0.207969651 0.198987991
0.295256317 0.249083087 0.225553274
0.440733492 0.290575475 0.264389843
0.647944391 0.345351279 0.314737380
0.863377452 0.419986904 0.391017914
0.140670642 0.271853268 0.215939447
0.161922544 0.274257064 0.214674190
0.190006554 0.280455202 0.225300550
0.236179724 0.285894990 0.228336632
0.330423564 0.321441919 0.254649103
0.477545887 0.366476864 0.290954918
0.678051889 0.426312745 0.340796709
0.874256730 0.502973020 0.422011375
0.182416081 0.395572186 0.267931968
0.208349198 0.402530283 0.271347553
0.241113171 0.404174268 0.274889410
0.304490983 0.410373151 0.277672529
0.387476355 0.418216169 0.295382977
0.537634552 0.468563914 0.329664350
0.727387607 0.536369264 0.388361573
0.889057517 0.613409042 0.474383175
0.322327465 0.572549284 0.353699923
0.343453586 0.571663558 0.356483310
0.390765190 0.575205624 0.360657811
0.455407739 0.583428383 0.373181731
0.540670574 0.593674481 0.381024718
0.639595389 0.603289187 0.400126368
0.787096679 0.658570707 0.459709197
0.917647123 0.724478364 0.552182198
0.546742678 0.750411212 0.480328649
0.562176049 0.754838943 0.487159997
0.596204817 0.756736219 0.496268272
0.644781888 0.759392917 0.504617214
0.704490840 0.764579535 0.518153191
0.772295773 0.770018756 0.534471631
0.843769610 0.783301711 0.558001339
0.938899219 0.824035227 0.632384598
0.772675335 0.906135261 0.682985425
0.787602782 0.910056829 0.689563274
0.799240768 0.910183787 0.689689636
0.824541390 0.916002572 0.704490662
0.853383780 0.919924021 0.714737475
0.896268010 0.923592687 0.729538441
0.936748862 0.928652763 0.754459083
0.982415855 0.936369598 0.777735353
0.075648353 0.055534288 0.240606919
0.110942543 0.068058088 0.231372640
0.159013182 0.092726439 0.228715986
0.205186278 0.115496635 0.212523639
0.294497192 0.165211990 0.249462634
0.419860810 0.215432987 0.292093396
0.622011542 0.265780926 0.349905282
0.838456750 0.359772414 0.426059246
0.100822359 0.120430186 0.208601832
0.119797185 0.132321090 0.205439731
0.154712439 0.140543640 0.211005732
0.195699185 0.147501543 0.206578285
0.285009295 0.194560543 0.245035082
0.408096075 0.244781733 0.290069699
0.610626161 0.294244081 0.346742570
0.826059282 0.378747523 0.426312596
0.122707352 0.191018194 0.212903187
0.135484084 0.196078643 0.211637825
0.159266531 0.212650552 0.226691812
0.212144285 0.225932732 0.238836184
0.298165470 0.257558376 0.268564254
0.427577078 0.306261986 0.315496475
0.628210068 0.360657752 0.372675449
0.838077188 0.444149286 0.452118695
0.144085988 0.266919285 0.247817636
0.159772187 0.271220714 0.260467827
0.209867194 0.302973092 0.280708641
0.263630271 0.320177287 0.289310634
0.335989833 0.338646710 0.308918417
0.464895368 0.378115267 0.342568040
0.659076154 0.439089566 0.403795272
0.854522467 0.519544244 0.482099712
0.200126559 0.400505811 0.326249033
0.234661371 0.405945718 0.322580367
0.269070268 0.412650377 0.335610628
0.323466003 0.418469191 0.334598124
0.398987561 0.428210169 0.348387271
0.538393676 0.478810847 0.385704905
0.718279421 0.542567611 0.444655329
0.882985473 0.620366752 0.521315396
0.348134100 0.562049448 0.400759250
0.367362440 0.561543286 0.398355544
0.406704575 0.568754017 0.413662076
0.461859494 0.575331807 0.417204261
0.543200433 0.589120984 0.430107623
0.635420859 0.605313480 0.450221360
0.778747439 0.656925678 0.504111171
0.909930289 0.731435597 0.598608434
0.563820064 0.740670264 0.528779209
0.577862084 0.743579924 0.528652787
0.604680598 0.743579984 0.532447994
0.646046877 0.750663877 0.540037811
0.699810445 0.756989181 0.550916851
0.769260168 0.771157265 0.571663320
0.840227842 0.781530857 0.598861575
0.934345067 0.826312482 0.667678654
0.781783283 0.902087033 0.695888579
0.786590755 0.902213573 0.701581120
0.800632477 0.904111207 0.707400322
0.823529243 0.909930468 0.721315503
0.853510678 0.911954641 0.732953966
0.889057398 0.919291556 0.743074059
0.930929601 0.930423796 0.772801995
0.977356136 0.940164387 0.798482060
0.077546000 0.104110993 0.351802200
0.117140733 0.113219544 0.343326986
0.180265903 0.133965984 0.334598184
0.239342451 0.154332995 0.320809633
0.306261957 0.180139184 0.318026394
0.433649451 0.226691917 0.355597675
0.637065113 0.278178394 0.418089449
0.845540583 0.372042745 0.487666160
0.108159184 0.164579198 0.315876007
0.142188713 0.171663180 0.326628625
0.179380074 0.177103177 0.316128731
0.234282091 0.190006450 0.312207580
0.293737978 0.208475992 0.311068982
0.424288273 0.251865923 0.352435172
0.627324462 0.302719802 0.412270725
0.834155440 0.391777396 0.490955144
0.131688893 0.229475081 0.296015203
0.147627831 0.245414197 0.314104974
0.187350005 0.243643284 0.313472182
0.241239980 0.251486301 0.312966526
0.302973002 0.264010191 0.320303261
0.446932375 0.311701179 0.373181641
0.644022584 0.373561174 0.436179698
0.848576903 0.465274960 0.512333810
0.163314447 0.305882424 0.324225187
0.182795644 0.315369725 0.327766955
0.229854628 0.327387452 0.335989982
0.291587621 0.346869111 0.352308452
0.358254492 0.367741913 0.368500829
0.492979378 0.406451374 0.408349037
0.672991812 0.463883728 0.468058228
0.850727260 0.549272418 0.547248304
0.228715986 0.404933572 0.362682164
0.250221521 0.416318744 0.378114820
0.306894183 0.429222286 0.392536372
0.407463819 0.470714390 0.431119829
0.472865164 0.490322560 0.444781363
0.573687613 0.506641150 0.462745160
0.730676472 0.556736171 0.513093114
0.877925456 0.639721811 0.587982297
0.394054204 0.574826360 0.459202975
0.413915247 0.577988684 0.462998092
0.458570361 0.586211085 0.476533890
0.514990330 0.594433606 0.489563257
0.581657171 0.608602285 0.500822067
0.667172670 0.620366633 0.515243411
0.789626777 0.673497736 0.573434234
0.907906532 0.744465172 0.649841487
0.600379467 0.744085789 0.582542479
0.615939558 0.746109962 0.587349534
0.634914577 0.747375190 0.587349653
0.671473980 0.753194094 0.597975910
0.718153358 0.761416614 0.603795171
0.775332034 0.773181319 0.620113909
0.839848459 0.784693480 0.638203502
0.933586240 0.834282041 0.714357853
0.791144729 0.900569201 0.742314816
0.795445800 0.901707768 0.740543962
0.803288817 0.907653153 0.742820978
0.831878364 0.909297824 0.752814412
0.859708786 0.913978577 0.763061404
0.896268010 0.922580659 0.774319649
0.934471965 0.930044115 0.799240649
0.968754172 0.941682577 0.817203939
0.093990996 0.152561471 0.483238220
0.138899535 0.165085480 0.475774646
0.217963442 0.176850080 0.470714808
0.299683362 0.196078733 0.458191127
0.390385658 0.218469366 0.450853556
0.480961412 0.244781733 0.448323727
0.652877986 0.289690256 0.499178022
0.862618387 0.387223393 0.571789682
0.115496539 0.203921735 0.452877939
0.149904817 0.213409528 0.461100459
0.213914931 0.219607741 0.452751398
0.292219937 0.232637286 0.446552783
0.371031106 0.243769914 0.440354139
0.462112665 0.265907735 0.440986931
0.642125070 0.311195731 0.486527711
0.848829746 0.408602059 0.568121254
0.165211990 0.286527485 0.437697679
0.187602550 0.287666023 0.437824190
0.235420451 0.292093486 0.443643361
0.306641370 0.301075339 0.436306000
0.383681029 0.310056984 0.436306000
0.481846809 0.328905582 0.447311819
0.666919887 0.381530702 0.505375981
0.853889942 0.478051603 0.587729514
0.206451461 0.366223842 0.436432451
0.225047469 0.368627518 0.444908023
0.277166098 0.376470566 0.442125350
0.340164363 0.382795364 0.450094819
0.420619756 0.392030448 0.451866090
0.517773747 0.414041638 0.464895457
0.691334188 0.469576269 0.527007997
0.858064532 0.569765866 0.609740376
0.275015444 0.461100668 0.453130752
0.303605229 0.464516103 0.464769453
0.354585916 0.474383354 0.472359002
0.433776289 0.495635450 0.496774018
0.523972094 0.514864087 0.519671082
0.614800870 0.543453395 0.533585966
0.744339228 0.588867486 0.583428442
0.881214559 0.662492216 0.649082720
0.416319191 0.583175421 0.522707164
0.437697917 0.584060490 0.531435609
0.482985288 0.598987937 0.535989702
0.554838717 0.616698205 0.558001220
0.653130651 0.652877927 0.599873662
0.720556378 0.671600223 0.612903237
0.804300785 0.702466547 0.647691488
0.904237568 0.758886456 0.704111457
0.617330551 0.743579745 0.636179745
0.628842592 0.748007417 0.636179745
0.655661047 0.746362567 0.644402325
0.692852497 0.759266317 0.654648662
0.744339168 0.773181379 0.672612488
0.794307470 0.780139506 0.677672088
0.846173525 0.799999952 0.695382714
0.939025879 0.844781995 0.760404825
0.802403331 0.901454687 0.779379964
0.807083845 0.904490829 0.781657040
0.823149681 0.900822401 0.790132523
0.840480626 0.906767905 0.794180810
0.862745285 0.910689175 0.799493730
0.895508945 0.922580719 0.812017560
0.936116397 0.928399622 0.830613732
0.979253769 0.937128544 0.852877557
0.149272278 0.217583984 0.659329534
0.198735267 0.221632004 0.654775560
0.290322393 0.235673368 0.655407548
0.396584541 0.253383934 0.649209499
0.514737666 0.269323260 0.636559486
0.628968835 0.291966975 0.635041296
0.743580163 0.326375276 0.630866826
0.875142455 0.403162420 0.658317506
0.165212020 0.264642388 0.635547101
0.219860971 0.262492061 0.644149244
0.296521068 0.276407391 0.637318254
0.395951658 0.288677901 0.631498992
0.512840033 0.302213788 0.628589630
0.623655736 0.325237125 0.624288082
0.730043828 0.351675808 0.621631980
0.867931545 0.429221988 0.656166911
0.224415079 0.350790471 0.625679851
0.259582669 0.356356680 0.635673761
0.326249361 0.363314182 0.625553370
0.418089837 0.366350353 0.625173807
0.526628554 0.378115147 0.625553370
0.629854620 0.395951658 0.622264385
0.737254739 0.417963356 0.625300527
0.867931664 0.498798072 0.668311000
0.309803903 0.446932256 0.618342876
0.338646263 0.448197097 0.617077768
0.386211544 0.451612651 0.613409162
0.458949864 0.459835887 0.612903595
0.550663888 0.471473724 0.617583871
0.646679163 0.485262424 0.625173926
0.744085848 0.504743814 0.632510841
0.872865260 0.583301485 0.689184070
0.404680461 0.548007548 0.627703965
0.424667835 0.552814484 0.628210068
0.468437731 0.556609631 0.630992770
0.535610378 0.562554955 0.631119490
0.608981550 0.570777833 0.632637620
0.684123933 0.587223470 0.643137097
0.770651519 0.610752583 0.653889537
0.886653662 0.677292526 0.718405843
0.529285252 0.657938182 0.656040728
0.547375143 0.661100745 0.659835756
0.577608705 0.663884044 0.658064365
0.622390807 0.670081973 0.668943644
0.691967249 0.689689994 0.681467414
0.759519279 0.703858256 0.694370747
0.825427055 0.728020191 0.717647254
0.916255474 0.777862132 0.768247783
0.642631292 0.752434850 0.693611801
0.648197532 0.757368505 0.689816356
0.672612548 0.758127630 0.699304461
0.713092923 0.769133508 0.713599265
0.762934685 0.783428431 0.730044425
0.832257986 0.808348835 0.765085220
0.872738898 0.830613613 0.775331795
0.939405680 0.863757074 0.822517276
0.810499489 0.904743850 0.814674139
0.814547837 0.905629456 0.826312065
0.823402941 0.906641245 0.824794471
0.848197281 0.908032894 0.829601467
0.877039790 0.918785512 0.847944260
0.908538759 0.927767038 0.861100495
0.931941390 0.928525925 0.872865379
0.976470351 0.944212556 0.888804555
0.290828407 0.327387571 0.841113567
0.330929726 0.326755017 0.836559057
0.409740686 0.339278579 0.840480685
0.513725042 0.360784233 0.832384586
0.635420799 0.389247566 0.832384586
0.750663996 0.424414665 0.835167348
0.849462092 0.473118305 0.827703834
0.944338739 0.519797564 0.817583621
0.323972404 0.367488682 0.838709712
0.359645814 0.368501008 0.830613434
0.422264218 0.380012602 0.831498861
0.530297160 0.397596240 0.826565266
0.637064815 0.421758324 0.829601228
0.749651968 0.458570421 0.825047135
0.852371752 0.495509177 0.817583680
0.935863554 0.537761033 0.822517157
0.406198502 0.458317667 0.822770417
0.427071512 0.467931598 0.821125984
0.486906767 0.473876834 0.819228530
0.567868531 0.484882981 0.821252227
0.664769113 0.498544961 0.817836940
0.762175739 0.527893603 0.822011352
0.852624834 0.554964960 0.818216324
0.939658344 0.590765536 0.823655665
0.502339840 0.567489088 0.816065431
0.525110722 0.569259763 0.809234262
0.563187897 0.574193358 0.816192269
0.623402834 0.583301246 0.815053582
0.700442612 0.594054461 0.813915253
0.780139267 0.608349264 0.814294696
0.859456003 0.628842473 0.815686285
0.931309640 0.653004169 0.818975568
0.590765297 0.663504183 0.815939248
0.611132026 0.668437600 0.821252227
0.632131577 0.670967698 0.814674377
0.677039862 0.674762487 0.811132252
0.735104382 0.681720376 0.809993625
0.795066059 0.694370627 0.819355011
0.865022361 0.706135392 0.821505547
0.931182742 0.729664743 0.836179733
0.680075586 0.754459202 0.830613613
0.685768425 0.762175977 0.829221666
0.707020819 0.762681663 0.827830493
0.738646328 0.761543334 0.828462720
0.777988613 0.769765615 0.830739796
0.827450752 0.777103364 0.836306155
0.885262370 0.787855864 0.844149470
0.939405501 0.803162336 0.849588692
0.747754335 0.846046805 0.845667601
0.759519160 0.841998637 0.849335790
0.766983032 0.842757583 0.847185433
0.794054210 0.846300006 0.854269385
0.826059401 0.847438395 0.857052147
0.866919994 0.856925666 0.864768982
0.905376315 0.865781248 0.869070351
0.951296628 0.884124100 0.885768294
0.820113599 0.918279469 0.884250641
0.823149920 0.920176625 0.883238256
0.835420847 0.914990544 0.883238554
0.856672764 0.922074616 0.886906743
0.877798975 0.924478114 0.889436781
0.913851798 0.930549860 0.903099477
0.942061961 0.944718778 0.921315670
0.963566959 0.957241774 0.944338799
