Assets/Resources/EldamarStudio/100 Horror LUTs Pack/LUTs/cube/Chaffette LUT.cube
LUT_3D_SIZE 5
DOMAIN_MIN 0.000000 0.000000 0.000000
DOMAIN_MAX 0.903226 0.903226 0.903226
0.074510001 0.019608000 0.019608000
0.143200412 0.050347995 0.062112994
0.289690375 0.103984565 0.090195999
0.537761271 0.192283258 0.171663120
0.893484592 0.299683630 0.277419806
0.099051282 0.153320700 0.083364703
0.149398699 0.156609699 0.088930994
0.281214803 0.207969815 0.132447690
0.547248542 0.279570132 0.206325129
0.889436781 0.380139351 0.311448544
0.130802989 0.323719412 0.181151405
0.177862406 0.344718397 0.181783825
0.306134969 0.354458958 0.207337409
0.579633296 0.438836366 0.257685006
0.904490948 0.549525619 0.384819597
0.343706250 0.625933290 0.312080979
0.400885522 0.630866349 0.333712995
0.536875308 0.643643260 0.353320241
0.714231253 0.662239134 0.392536223
0.927134633 0.747501433 0.531056046
0.773307562 0.907526970 0.659582615
0.794307351 0.914231598 0.671094298
0.835799754 0.920050323 0.689689517
0.904996753 0.926881671 0.719038546
0.983427942 0.940290630 0.759013236
0.073497713 0.054901998 0.116761699
0.137001693 0.061479993 0.120050699
0.245920405 0.130170822 0.165464997
0.464136541 0.223023251 0.240354121
0.857937813 0.325236768 0.349019676
0.109170996 0.138013989 0.132447705
0.147754431 0.167109683 0.159898683
0.239721701 0.208349094 0.193295524
0.483238369 0.285515279 0.260341823
0.863377452 0.397469640 0.369006783
0.148766696 0.321442097 0.224288404
0.191271275 0.329664379 0.229854688
0.291081399 0.345983356 0.245920390
0.551928997 0.431119800 0.310056984
0.884883046 0.554079592 0.434787929
0.354965061 0.611258984 0.364073515
0.403921664 0.619481266 0.373055249
0.533712447 0.629601359 0.386970401
0.697027385 0.652118862 0.422644258
0.922706902 0.748513520 0.566350400
0.766856313 0.905376494 0.673624098
0.787602425 0.906388581 0.676533580
0.834535003 0.916508436 0.696267962
0.901834071 0.921062469 0.725742996
0.983427942 0.938899636 0.775964379
0.071853004 0.073244996 0.292220414
0.154964983 0.102972701 0.274635971
0.243896410 0.145857409 0.259582400
0.474003524 0.236432537 0.335863113
0.843769729 0.364453048 0.458570182
0.124225408 0.193548411 0.258950382
0.165085703 0.201391399 0.257305682
0.240986705 0.224288404 0.265781105
0.474383682 0.302087426 0.343959391
0.839848459 0.439342022 0.481214494
0.180518821 0.335483402 0.301454395
0.225300267 0.358380407 0.320050657
0.356483221 0.404174805 0.364958793
0.559013546 0.454269499 0.407843113
0.863883317 0.581530333 0.534472227
0.422011644 0.607590258 0.457178831
0.457305253 0.615180373 0.459456146
0.554459095 0.625174284 0.478431106
0.703479111 0.651106954 0.508918405
0.916761637 0.760278046 0.630233943
0.786211431 0.896521211 0.715622544
0.792030215 0.901707351 0.724225163
0.834408641 0.906261802 0.735230744
0.906261802 0.919418216 0.768627584
0.977482378 0.940290570 0.807969809
0.101075128 0.168753996 0.529791296
0.208349109 0.186970413 0.520303547
0.366476625 0.219101831 0.502467215
0.543706238 0.259962142 0.486780256
0.864389598 0.393042326 0.593042076
0.158634126 0.280202687 0.489310235
0.231119707 0.284503400 0.488171667
0.370018929 0.302846402 0.481214523
0.538519859 0.328652531 0.486021250
0.860720873 0.468184620 0.604680777
0.256799549 0.429727972 0.486021250
0.327134371 0.440227807 0.497659802
0.448197067 0.463757217 0.514104962
0.609108090 0.492220104 0.532447696
0.872991800 0.619102001 0.644275665
0.475016266 0.632764101 0.563188255
0.518405974 0.642505109 0.577229559
0.637065411 0.670335293 0.610879362
0.767109275 0.715117097 0.655408263
0.912839770 0.787729084 0.736495912
0.805439472 0.903478742 0.784440100
0.819860697 0.904617071 0.797722876
0.856926084 0.912840188 0.815686166
0.907653272 0.923339784 0.825173736
0.976470470 0.937381506 0.856419802
0.290828407 0.327387571 0.841113567
0.387223125 0.336748749 0.839468837
0.566603601 0.374446392 0.832637191
0.777735591 0.435040891 0.832131565
0.944338739 0.519797564 0.817583621
0.387476116 0.434788167 0.826818407
0.452751249 0.447311610 0.821252406
0.606957257 0.472485721 0.825173795
0.785957932 0.512207687 0.820240438
0.940164447 0.574572921 0.822643816
0.549145937 0.624161541 0.813030005
0.585452259 0.623782277 0.808222651
0.685641825 0.635926545 0.808475435
0.804553986 0.659835458 0.814420998
0.930550158 0.689563572 0.824161530
0.696015000 0.779000640 0.832131565
0.715622842 0.785199285 0.834155560
0.770145535 0.787855923 0.836559057
0.848197043 0.800885737 0.840860307
0.942947447 0.824667752 0.856166720
0.820113599 0.918279469 0.884250641
0.836685717 0.915243506 0.881467342
0.865148365 0.923339784 0.891461015
0.924225092 0.933332920 0.908665359
0.963566959 0.957241774 0.944338799
