Assets/Resources/EldamarStudio/100 Horror LUTs Pack/LUTs/cube/Chalgrax LUT.cube
LUT_3D_SIZE 5
DOMAIN_MIN 0.000000 0.000000 0.000000
DOMAIN_MAX 0.903226 0.903226 0.903226
0.109803997 0.039216001 0.039216001
0.167362422 0.041492712 0.052624710
0.294243962 0.065401994 0.050980002
0.538773119 0.114737131 0.086274996
0.915749431 0.126881987 0.132194966
0.117647000 0.145477697 0.046425998
0.164073005 0.150410980 0.057558414
0.289690375 0.179506272 0.071600288
0.540417254 0.230233818 0.097406998
0.917646587 0.264263242 0.137381136
0.088172428 0.319164962 0.093485415
0.154964998 0.328652680 0.100695580
0.292978942 0.334850967 0.103984572
0.571789861 0.402909786 0.116761543
0.927387595 0.468943357 0.165591389
0.047817491 0.627957284 0.130423859
0.231119394 0.630613267 0.131815121
0.447311759 0.633522987 0.137760699
0.687919319 0.650474370 0.156104118
0.958380759 0.700189769 0.251865923
0.531688333 0.921947777 0.398482203
0.588741124 0.927008033 0.415433347
0.688171744 0.927260756 0.434914380
0.834155798 0.932194889 0.467552215
0.980771780 0.932320833 0.512080371
0.111448288 0.053257290 0.134724990
0.164452687 0.050347995 0.128526121
0.261227101 0.090575702 0.145477280
0.479569823 0.138266861 0.185705408
0.889689744 0.131182864 0.229601562
0.127134711 0.136369705 0.120303407
0.166729972 0.153700396 0.140290692
0.262239397 0.178241268 0.161922693
0.493358672 0.220999569 0.188994572
0.892219722 0.261606395 0.245667502
0.103858009 0.304110974 0.174952269
0.158507288 0.317900211 0.174952284
0.280582219 0.322454423 0.181150988
0.545730233 0.389247239 0.208601832
0.921188951 0.466666520 0.272865176
0.072612487 0.612903059 0.225806832
0.226059645 0.611638069 0.229095832
0.435294032 0.623149931 0.233270109
0.670588255 0.633522987 0.249589115
0.948260307 0.697786033 0.341935515
0.558380425 0.920429885 0.460594445
0.601138294 0.921062469 0.466160536
0.698671579 0.922327518 0.485894799
0.836812198 0.927008092 0.514231741
0.977229476 0.931182742 0.560151696
0.107147001 0.054269414 0.320429981
0.180771276 0.076533996 0.304111391
0.285768390 0.107273981 0.289057821
0.498545259 0.142820865 0.334598541
0.885009170 0.144718379 0.406830817
0.122833580 0.180138692 0.284756690
0.171283990 0.182415992 0.280202270
0.273371398 0.195192695 0.280582219
0.498292387 0.225553572 0.332574099
0.886274457 0.270588338 0.420240521
0.102593422 0.319797397 0.295003384
0.166729987 0.330297381 0.291334659
0.329664797 0.369513214 0.338140368
0.563314259 0.399620771 0.360151947
0.900569141 0.487413019 0.445541024
0.139152244 0.602403283 0.385578543
0.261986077 0.607969999 0.395825237
0.451865941 0.610878825 0.397343099
0.670461655 0.629854262 0.415686131
0.934472084 0.707020938 0.513978302
0.604048014 0.910816193 0.582922161
0.638836324 0.906008959 0.589120865
0.722074568 0.913472354 0.607843101
0.846173167 0.918153167 0.625806272
0.974193633 0.933839679 0.668817341
0.048956003 0.115749255 0.608222246
0.204680562 0.125616997 0.601391554
0.403036237 0.129791275 0.590006649
0.626059234 0.129411995 0.580898285
0.909171581 0.165211767 0.617204189
0.045287713 0.235420406 0.580139279
0.193927690 0.238330111 0.581404269
0.396457642 0.239721537 0.572675526
0.616951287 0.243010700 0.564200103
0.911701441 0.293232352 0.626818478
0.045793697 0.421884656 0.564579248
0.210499525 0.421884656 0.569766045
0.414800644 0.426818520 0.570019126
0.634661674 0.428462803 0.570524871
0.914863765 0.506388247 0.639468491
0.254649371 0.627957284 0.591651082
0.344592124 0.637064815 0.595825672
0.520809710 0.647818029 0.602403283
0.744592130 0.689690113 0.652372122
0.929538071 0.743327081 0.691334665
0.639342248 0.912839949 0.733712733
0.679063737 0.909930289 0.743706346
0.759013355 0.916128933 0.753193915
0.855028629 0.919417739 0.758127749
0.967362463 0.926628709 0.794433713
0.129917607 0.234408617 0.911574781
0.284503311 0.238329932 0.917899847
0.502972484 0.251486450 0.907020986
0.750410914 0.283364713 0.907273591
0.960025430 0.347248554 0.902593434
0.219481096 0.349146038 0.909424305
0.330044001 0.354079455 0.902213812
0.538772881 0.365591466 0.902846217
0.758633852 0.394180596 0.902087033
0.956989050 0.445667267 0.900316477
0.431246191 0.569892228 0.894623756
0.485894978 0.568880320 0.895003080
0.619607985 0.577102721 0.890069366
0.789752960 0.595825315 0.896394432
0.955344379 0.621631563 0.898039162
0.587982059 0.758760214 0.900695741
0.621631980 0.762934446 0.895635486
0.713345885 0.771157444 0.901328564
0.824288249 0.779633045 0.897279739
0.954965055 0.795698881 0.899683893
0.701328635 0.932447553 0.906388581
0.728779137 0.924604654 0.913978338
0.788741410 0.923972189 0.916255116
0.880455613 0.931182742 0.916634738
0.968880653 0.948133886 0.946995556
