Assets/Resources/EldamarStudio/100 Horror LUTs Pack/LUTs/cube/Chalgrax LUT.cube
LUT_3D_SIZE 8
DOMAIN_MIN 0.000000 0.000000 0.000000
DOMAIN_MAX 0.903226 0.903226 0.903226
0.109803997 0.039216001 0.039216001
0.130550444 0.035673548 0.043895997
0.179507002 0.039216001 0.054142904
0.255028635 0.053257290 0.053763356
0.349399000 0.082100183 0.055534188
0.491208196 0.111701258 0.082226478
0.701454818 0.123845704 0.097027287
0.915749431 0.126881987 0.132194966
0.114484094 0.073244549 0.047438450
0.133712545 0.080708094 0.042378001
0.186970532 0.093232088 0.050980002
0.253510624 0.109297633 0.051739097
0.345097810 0.134218737 0.058696993
0.486148208 0.159013093 0.080582187
0.694370508 0.176850259 0.104237705
0.906262040 0.187982082 0.134977520
0.119164996 0.163694099 0.052498195
0.134850994 0.174699187 0.049715545
0.173181191 0.173940092 0.068184994
0.239342630 0.183302000 0.065401636
0.337508082 0.212271094 0.075142190
0.486780435 0.247185454 0.095129639
0.706767678 0.265655100 0.106514804
0.917140603 0.291334659 0.140670165
0.103605002 0.261226922 0.081846647
0.125490084 0.265907735 0.076660283
0.174825996 0.269450009 0.083744191
0.238836288 0.274130285 0.088551991
0.345730633 0.303858161 0.094370641
0.502213717 0.335104287 0.105123095
0.719544470 0.370651633 0.121694922
0.918911994 0.404807061 0.150031447
0.044275817 0.393801361 0.101961002
0.097786367 0.399747014 0.111448199
0.174826100 0.400126338 0.108159095
0.260973811 0.403668731 0.110942349
0.370904565 0.411891162 0.112839997
0.536748648 0.447817653 0.121569000
0.752308726 0.494876564 0.135357276
0.934345543 0.534598231 0.180265620
0.013409249 0.575331986 0.127387732
0.106388725 0.578494430 0.122454196
0.230613470 0.581024468 0.119671263
0.348387003 0.590006053 0.128146634
0.482732654 0.592662632 0.129411995
0.622137964 0.600885212 0.136875466
0.794433832 0.630360782 0.167362273
0.955344677 0.668058395 0.232890621
0.248450398 0.769133568 0.175078988
0.293864578 0.770777822 0.188867569
0.367994726 0.771410286 0.192030564
0.482352912 0.774193168 0.198102623
0.597090483 0.773813844 0.213915259
0.716635168 0.777988315 0.227071524
0.835800588 0.783175230 0.250221580
0.955091298 0.795066297 0.314990044
0.531688333 0.921947777 0.398482203
0.559518933 0.928652763 0.398355395
0.596584320 0.925995946 0.418469131
0.657305360 0.930044115 0.426945031
0.726122975 0.931308985 0.438962758
0.815686285 0.932447612 0.460974216
0.896773815 0.936369658 0.490069687
0.980771780 0.932320833 0.512080371
0.117647000 0.043516546 0.070082545
0.130930007 0.043136999 0.065781094
0.177482545 0.052498195 0.078684539
0.233143643 0.077166550 0.095635906
0.311701179 0.098292448 0.107273988
0.455281705 0.126122996 0.136116549
0.664389491 0.131056294 0.151423022
0.898418665 0.129538149 0.177862376
0.124351449 0.073244549 0.069323540
0.134092003 0.081467092 0.077166542
0.164199650 0.094370641 0.084630094
0.224035189 0.110436089 0.093991183
0.304237753 0.138266549 0.109297730
0.450474024 0.160910740 0.133839279
0.665022075 0.176344275 0.148766577
0.889310300 0.186211050 0.176470712
0.131056100 0.148007199 0.092093542
0.147881374 0.148386732 0.095129631
0.168121547 0.155471548 0.103858545
0.223655641 0.175837740 0.109297544
0.318279654 0.203668386 0.126122892
0.460468113 0.234534919 0.133586347
0.679949284 0.261986107 0.159772098
0.904870093 0.287286669 0.184060499
0.109044902 0.246173635 0.111448631
0.136495993 0.247817636 0.118658639
0.175585091 0.252119184 0.120176733
0.224794284 0.256419837 0.120176643
0.324477822 0.288931191 0.135104343
0.484756172 0.323719025 0.147627831
0.696394622 0.367235988 0.162049100
0.907400370 0.398482054 0.192030519
0.069449820 0.380897999 0.136748537
0.107147351 0.382163197 0.143327191
0.169639468 0.385578722 0.140923381
0.257558465 0.395446211 0.146489188
0.353573561 0.398608357 0.144465536
0.521821558 0.436053187 0.157874748
0.738520086 0.490196258 0.179886341
0.932574153 0.526881635 0.223529324
0.014421277 0.561416566 0.155850992
0.102846272 0.562808275 0.162428528
0.220493376 0.569513202 0.163314342
0.337381005 0.574193180 0.169260010
0.469702929 0.579380333 0.167741999
0.605313241 0.589500248 0.176850289
0.783301413 0.625300169 0.203035817
0.947248340 0.664136529 0.268690825
0.243010819 0.756230295 0.221252561
0.289057374 0.754838526 0.219607860
0.361796647 0.754079759 0.224667817
0.474003732 0.757621884 0.231878564
0.589753211 0.762049556 0.244908303
0.709424257 0.770398319 0.259835511
0.834408402 0.771536827 0.285515100
0.951422870 0.790259421 0.343706518
0.533965409 0.918152928 0.412397236
0.549905121 0.921821475 0.419607490
0.581403852 0.917773485 0.417963058
0.646552801 0.920683026 0.432004780
0.723592401 0.921441913 0.450347573
0.812144339 0.925995946 0.472991407
0.894370675 0.931182742 0.495888501
0.983681023 0.929285049 0.525363386
0.113724999 0.050221097 0.156736091
0.138014004 0.043516546 0.149652004
0.183428004 0.057179097 0.155092001
0.229980633 0.081846647 0.151170090
0.315749288 0.110436186 0.173055097
0.441113114 0.133206993 0.202150196
0.645540535 0.134977713 0.222896889
0.886906564 0.132194966 0.252119184
0.122327998 0.096394993 0.131182641
0.145477548 0.103858449 0.137507647
0.176850438 0.101834089 0.144591659
0.224162087 0.121062644 0.156736001
0.303605646 0.151676357 0.180265889
0.435673803 0.170778081 0.199493840
0.641998589 0.176850259 0.220746279
0.873498023 0.187602639 0.256799459
0.129411995 0.160658106 0.135483995
0.149905011 0.162175998 0.144086093
0.182669088 0.181024998 0.164579093
0.229601279 0.187223196 0.170019105
0.306894362 0.215559915 0.189627096
0.449335575 0.235420734 0.207210824
0.664263070 0.256166995 0.228589475
0.893990815 0.286148012 0.272738814
0.118785642 0.252624720 0.168374300
0.140417099 0.258570254 0.171157539
0.179127455 0.261226922 0.181024998
0.232637271 0.268311530 0.183681458
0.321821392 0.288172185 0.198228985
0.468564242 0.326122612 0.214041725
0.694243908 0.360151559 0.234914571
0.906008899 0.400505900 0.278178483
0.075395003 0.381404370 0.197343200
0.116128996 0.379759461 0.204554096
0.175458282 0.386084467 0.206072196
0.259076357 0.390385747 0.209614336
0.352941275 0.398608357 0.213156283
0.514484167 0.432510912 0.224668086
0.731941581 0.481593996 0.251359999
0.924604654 0.534092128 0.310815871
0.053637084 0.565338373 0.237697721
0.120556727 0.566477120 0.241872177
0.229095474 0.568374455 0.236686096
0.341429204 0.572043002 0.240860358
0.472232908 0.580645084 0.248324096
0.605313182 0.588488102 0.255155176
0.780898273 0.624920607 0.285262644
0.946995437 0.671979725 0.354332566
0.288551837 0.756609678 0.310563177
0.315369934 0.762175560 0.314358056
0.393042535 0.757368684 0.311322093
0.492093533 0.760531247 0.319038630
0.598734915 0.765211701 0.324604452
0.716508448 0.765211761 0.338266879
0.828842342 0.774699271 0.354332358
0.956862450 0.792283356 0.417583883
0.571283817 0.918658853 0.481340855
0.589120865 0.924098492 0.485515267
0.622390687 0.922580659 0.496267915
0.675648391 0.924983859 0.498165697
0.744971335 0.927007914 0.513725400
0.817583740 0.923718989 0.525869489
0.895509243 0.931435764 0.548007548
0.974952519 0.930423737 0.576343715
0.110942349 0.045413997 0.260721266
0.138013899 0.048070736 0.250980526
0.195193008 0.066160642 0.242757991
0.246046990 0.085768647 0.237697631
0.318405747 0.119038381 0.250600994
0.446426183 0.138519645 0.271600276
0.651233435 0.132700995 0.320177287
0.886780202 0.142314970 0.355471462
0.120809905 0.108032905 0.230613723
0.138646290 0.117014639 0.225427285
0.181784004 0.120556280 0.229348361
0.229854643 0.129158884 0.222264379
0.305123538 0.148766279 0.236052915
0.432258129 0.173560917 0.271600187
0.642631292 0.174825996 0.315496475
0.873118103 0.190512419 0.356356740
0.123086900 0.185199440 0.240733728
0.142314643 0.189500093 0.228968814
0.176723644 0.191524535 0.230613723
0.229095638 0.191397741 0.227830365
0.308791816 0.216571644 0.248576730
0.450094670 0.237697735 0.281973213
0.661859810 0.259329468 0.317140996
0.877798915 0.293105900 0.370904326
0.117014714 0.256799281 0.230993271
0.139658004 0.257937908 0.240860522
0.184187099 0.269323200 0.244275987
0.254016638 0.294370264 0.262998283
0.333712816 0.307779968 0.272865444
0.473244727 0.324477941 0.291334450
0.679822803 0.357242197 0.330297291
0.893231869 0.407716751 0.375458479
0.086527810 0.380897909 0.262871653
0.123719089 0.382922292 0.267678380
0.192283541 0.392662913 0.282352835
0.269829273 0.397343636 0.287286282
0.368880212 0.402403533 0.289310813
0.516255498 0.438077152 0.310815990
0.726628661 0.484250635 0.351549566
0.912081003 0.539278865 0.400126278
0.094117463 0.553067863 0.318532467
0.153700262 0.554965436 0.322074831
0.243390098 0.559266210 0.328399748
0.349905103 0.564073145 0.335863382
0.478051722 0.571536601 0.339911193
0.599620283 0.582542598 0.341555923
0.774952650 0.620493233 0.382162899
0.935863376 0.670082390 0.454016536
0.317014366 0.748893261 0.398608565
0.346869200 0.748639882 0.400379628
0.405566275 0.747880876 0.399240911
0.499430835 0.750157833 0.404427558
0.599620342 0.755471051 0.417710334
0.715622902 0.759266257 0.429854393
0.828589559 0.767488837 0.446426213
0.944718599 0.792410016 0.496900260
0.589753032 0.913851738 0.546868861
0.608475506 0.912333965 0.544971585
0.636811972 0.914231598 0.562049150
0.687919080 0.916887760 0.559898674
0.746868730 0.919291556 0.572296262
0.824667633 0.919417739 0.586337447
0.897153378 0.924478173 0.609993637
0.974446595 0.929664552 0.629727840
0.101961002 0.071220800 0.391651005
0.139152542 0.079443641 0.383807391
0.202150196 0.093232185 0.378241479
0.273750603 0.108158998 0.364199996
0.354838580 0.128525987 0.361164004
0.459835708 0.140416995 0.366223663
0.675395548 0.131182805 0.419607669
0.893737912 0.148386955 0.467425853
0.109424353 0.139532000 0.364579648
0.140417188 0.135104537 0.365844190
0.198229074 0.145730287 0.361164182
0.267931998 0.159139916 0.356862724
0.342694640 0.164958552 0.352055818
0.450853646 0.178368449 0.362302423
0.666793108 0.175205544 0.414674103
0.886527419 0.196710899 0.460341364
0.109044902 0.214674100 0.345351279
0.136369199 0.218595907 0.361796439
0.194433913 0.219355002 0.350917190
0.260847360 0.223276287 0.344212562
0.337381184 0.227957085 0.347754270
0.460088551 0.245667458 0.362428546
0.678431332 0.259329468 0.420366764
0.888298213 0.303857923 0.470335215
0.098671652 0.299178094 0.355471194
0.127766982 0.307147264 0.356356472
0.192663088 0.307021081 0.353573859
0.265021801 0.316002727 0.354712367
0.353320718 0.320050627 0.354332805
0.498039186 0.337128431 0.383554578
0.697153807 0.368754059 0.430360645
0.895003080 0.427577078 0.482605815
0.085009620 0.397090167 0.363314360
0.126375705 0.400632620 0.368121356
0.198102280 0.407210469 0.371916473
0.302846253 0.424161732 0.383681208
0.442757547 0.457432359 0.417330354
0.570145190 0.467172623 0.422517419
0.739152253 0.497912586 0.461986184
0.907147348 0.559013128 0.516002417
0.129538476 0.558254242 0.415433109
0.181530923 0.557874858 0.416192114
0.268563986 0.568880260 0.421631843
0.386970192 0.583048940 0.440860182
0.507526934 0.587349474 0.443137378
0.628210187 0.596710622 0.458443940
0.790259421 0.633143663 0.500316143
0.930044115 0.686400771 0.552435219
0.364579201 0.744844615 0.496268243
0.394560575 0.745350957 0.501075149
0.451865733 0.750411093 0.508918464
0.530803204 0.750917137 0.516761482
0.627703905 0.756609619 0.524604440
0.726755440 0.757495522 0.531309187
0.826312244 0.763693750 0.543959439
0.943326652 0.799367309 0.597343445
0.627071202 0.909677386 0.640227795
0.646552563 0.910436392 0.639088988
0.666666806 0.908412218 0.636432528
0.709424436 0.912333965 0.645034850
0.764705718 0.916761637 0.654395998
0.833523214 0.921442032 0.666540205
0.900948644 0.923213005 0.679190457
0.974572837 0.929917574 0.699303925
0.063124530 0.105628990 0.561669707
0.129411995 0.108032800 0.555597425
0.225932822 0.116255634 0.547501206
0.325616360 0.124225348 0.539658189
0.437065095 0.129411995 0.532573998
0.555217922 0.131435737 0.528273463
0.698924541 0.125110552 0.528399765
0.905123591 0.161669523 0.587096751
0.072992265 0.161290288 0.532573998
0.128652990 0.163314536 0.540923595
0.217330739 0.167235553 0.531814992
0.321695358 0.171537101 0.524225354
0.429474831 0.176344186 0.523592532
0.552434742 0.176723734 0.520177007
0.691713989 0.168121457 0.521315753
0.900442600 0.205945790 0.585198998
0.063757278 0.247817829 0.528020203
0.127640545 0.249968722 0.521062613
0.209360927 0.254016817 0.522707462
0.315370172 0.252119094 0.515243292
0.425426751 0.258949935 0.517394364
0.546868861 0.257685095 0.517900109
0.699177444 0.262365669 0.530297041
0.910689533 0.314737827 0.594939888
0.049589276 0.344971359 0.507653534
0.114484191 0.346236736 0.514104962
0.212270811 0.347501367 0.508159280
0.313852012 0.353447080 0.509297729
0.429980844 0.353826553 0.507020772
0.558001161 0.358127713 0.516129196
0.711701453 0.374067158 0.539152443
0.905882418 0.438077241 0.596205115
0.072612114 0.459202915 0.514863729
0.137254462 0.462238938 0.521695197
0.238709822 0.461100578 0.526375830
0.354332656 0.466919750 0.524857819
0.475268900 0.473624378 0.529538214
0.598608613 0.477165908 0.537887275
0.754838765 0.507906556 0.564073086
0.912586808 0.571157396 0.621758342
0.182795927 0.581404209 0.544085920
0.226944730 0.585831881 0.542314827
0.315243214 0.586717188 0.543959439
0.419860691 0.598987937 0.553067863
0.552814603 0.613788486 0.570777833
0.690955162 0.644149244 0.606831491
0.806831479 0.666413426 0.621631742
0.925742805 0.705882370 0.660468161
0.385072827 0.744212270 0.600632310
0.413788795 0.745477438 0.600632310
0.466539919 0.747501314 0.605566263
0.553320527 0.750284612 0.616951466
0.655661106 0.758886576 0.629474759
0.744718730 0.766476810 0.641113460
0.831499040 0.772295594 0.648829997
0.944085658 0.813282967 0.694623590
0.639595211 0.908285856 0.712207258
0.648829818 0.908791900 0.718406260
0.678810835 0.909424543 0.722960174
0.723845363 0.912207305 0.725110412
0.780139089 0.911068618 0.734218657
0.837318540 0.919417739 0.735610306
0.901454687 0.922327340 0.759392619
0.967109561 0.931941926 0.769892216
0.019608000 0.148640275 0.739405274
0.133839086 0.151929289 0.743959248
0.251359999 0.158127993 0.737001836
0.381910264 0.158127993 0.738899231
0.522201240 0.158127993 0.731435537
0.659582496 0.156103730 0.721315324
0.791650832 0.157748267 0.726628542
0.922453880 0.184693515 0.720809698
0.029475261 0.199873537 0.725743115
0.134724781 0.204680815 0.728652537
0.252498627 0.203668565 0.730297089
0.380898029 0.205186382 0.723592758
0.513978601 0.203542084 0.720935941
0.652625024 0.205819279 0.722074509
0.791271269 0.208728552 0.715116978
0.909424126 0.229980871 0.712839901
0.042251654 0.290575564 0.723719239
0.138013735 0.297660112 0.727640688
0.257938057 0.303099304 0.724225342
0.388867676 0.296647370 0.720682979
0.522833407 0.302214116 0.718785584
0.658064306 0.299303919 0.719671369
0.786084533 0.310436457 0.714231491
0.917014599 0.328399420 0.717267215
0.123972118 0.407084256 0.712080896
0.193295553 0.408602238 0.712839842
0.287033588 0.409740806 0.712839782
0.410626531 0.410499603 0.710942268
0.541935146 0.414800733 0.711448193
0.665275037 0.417836547 0.708159208
0.791650832 0.426818192 0.708791912
0.915116906 0.453383803 0.719165146
0.233017027 0.525363564 0.699304461
0.283365011 0.531309009 0.716508269
0.360910654 0.536369264 0.710309744
0.460973889 0.537507892 0.710942268
0.573687375 0.537887454 0.707147479
0.685009599 0.543200374 0.711701453
0.802023768 0.548639953 0.712586820
0.918532431 0.586590886 0.734978020
0.364199549 0.651992023 0.720176816
0.388614565 0.657052636 0.721948445
0.446426451 0.657432079 0.723466277
0.535736859 0.660594761 0.721695006
0.636053205 0.666793048 0.727893829
0.726755500 0.677419305 0.723719239
0.828462839 0.681340694 0.732700944
0.934724927 0.715622842 0.764579237
0.471979827 0.760657489 0.727893531
0.484503835 0.762934804 0.732953966
0.529664516 0.762808383 0.728399754
0.595572591 0.769133508 0.731056213
0.677292824 0.772422552 0.737128496
0.775205731 0.782542825 0.750790775
0.866540551 0.809361279 0.778621256
0.946995497 0.834661722 0.802656531
0.650095046 0.908539057 0.802150309
0.666792870 0.907400370 0.801138341
0.690955102 0.904111266 0.803668439
0.733712614 0.909550786 0.807210863
0.785578609 0.917014539 0.816824794
0.843643188 0.919038355 0.827450991
0.905755937 0.925616503 0.838203490
0.963693798 0.932827115 0.850347877
0.129917607 0.234408617 0.911574781
0.197596624 0.234281793 0.909298062
0.311574876 0.238329932 0.915622592
0.439215451 0.243263781 0.909171224
0.581657112 0.256925792 0.910183430
0.714990497 0.274762601 0.905249596
0.842125297 0.305882573 0.908159196
0.960025430 0.347248554 0.902593434
0.158886805 0.274383336 0.909677446
0.224541456 0.282099903 0.901834011
0.325996310 0.278305024 0.906388342
0.449082911 0.289816499 0.904237986
0.584819555 0.300822020 0.908918262
0.716255546 0.320176780 0.905882359
0.841745853 0.344212294 0.894623578
0.959898651 0.383048683 0.893738210
0.233902305 0.378747553 0.907906413
0.281973243 0.376596868 0.906388462
0.371283889 0.382416040 0.907020867
0.482985228 0.385578632 0.906641245
0.602150261 0.396457791 0.901581109
0.732574403 0.415939122 0.903605282
0.847438276 0.436811775 0.896014929
0.956229985 0.467678517 0.903352261
0.358380824 0.501708031 0.899809778
0.386337489 0.503858507 0.899936736
0.449715137 0.505249619 0.898418367
0.540417373 0.511954248 0.898418367
0.642504811 0.519417703 0.893611431
0.747627974 0.526755035 0.892093599
0.851992369 0.545097768 0.889689803
0.953446925 0.560784042 0.893611372
0.475142181 0.624920964 0.895509183
0.500568926 0.629728258 0.898418367
0.543832719 0.632890463 0.894370556
0.608222425 0.632510960 0.890448570
0.688804626 0.637570977 0.891966760
0.773434401 0.645793498 0.892093599
0.864010334 0.651233375 0.890069127
0.952688158 0.667298973 0.888551414
0.562934458 0.732447684 0.898671746
0.578747690 0.736748576 0.899556994
0.615306497 0.741176128 0.897659540
0.675395370 0.742820859 0.898545206
0.734598160 0.746995687 0.895635605
0.801770687 0.754079580 0.893231809
0.883364975 0.758001506 0.897912681
0.955218017 0.769639432 0.901201725
0.638709664 0.830613017 0.894623101
0.650347888 0.834155500 0.898292184
0.676154196 0.832257748 0.900442660
0.719671071 0.839215875 0.903731823
0.772549093 0.841619074 0.903352380
0.833523214 0.845920503 0.905502498
0.894876659 0.847564876 0.906009018
0.960911036 0.854522526 0.906135321
0.701328635 0.932447553 0.906388581
0.722833574 0.921821475 0.919671178
0.738140583 0.922074616 0.916255653
0.770524621 0.925869823 0.917014599
0.811385334 0.927514076 0.916635156
0.866793275 0.931182742 0.916381717
0.916508675 0.936116338 0.924098611
0.968880653 0.948133886 0.946995556
