Assets/Resources/EldamarStudio/100 Horror LUTs Pack/LUTs/cube/Chalgrax LUT.cube
DOMAIN_MIN 0 0 0
DOMAIN_MAX 1 1 1
LUT_3D_SIZE 32
0.109803997 0.039216001 0.039216001
0.109803997 0.039216001 0.039216001
0.111954227 0.037065227 0.039216001
0.118785322 0.035294000 0.040480837
0.130550444 0.035673548 0.043895997
0.139658064 0.038709935 0.049968001
0.153826326 0.041745678 0.050980002
0.167362422 0.041492712 0.052624710
0.179507002 0.039216001 0.054142904
0.191651016 0.039216004 0.051106520
0.212523863 0.042125128 0.053889871
0.233776242 0.047184996 0.054901998
0.255028635 0.053257290 0.053763356
0.276028007 0.059329998 0.050980002
0.294243962 0.065401994 0.050980002
0.322074592 0.071473993 0.050980002
0.349399000 0.082100183 0.055534188
0.376217127 0.095382988 0.063377574
0.412649989 0.101455010 0.066413976
0.449082762 0.107527003 0.075015657
0.491208196 0.111701258 0.082226478
0.538773119 0.114737131 0.086274996
0.590638518 0.117773511 0.086401477
0.648323715 0.120809905 0.089437097
0.701454818 0.123845704 0.097027287
0.754459262 0.121315330 0.104743987
0.809108138 0.114737131 0.111322060
0.863756835 0.120809898 0.120430440
0.915749431 0.126881987 0.132194966
0.963820100 0.140037939 0.144338965
0.996963620 0.158254206 0.159139588
1.000000000 0.176470995 0.180391997
0.115875997 0.036179613 0.033144001
0.106767610 0.036179613 0.030107614
0.113219388 0.038330387 0.040860388
0.125616550 0.035800390 0.042758003
0.140417442 0.033776388 0.041619387
0.133586064 0.044781934 0.053004384
0.150284648 0.045288000 0.041366067
0.169260085 0.047817677 0.047058702
0.184819892 0.049082711 0.054901998
0.194686636 0.051360004 0.054142904
0.215559483 0.054269873 0.059835386
0.234788120 0.061353508 0.054901749
0.253890008 0.066160388 0.051865615
0.273750633 0.068690643 0.051233035
0.300315976 0.077546000 0.054016385
0.316128790 0.083618000 0.051612582
0.344844788 0.091208190 0.054016385
0.375584722 0.101454988 0.061606795
0.409614384 0.107527010 0.069449589
0.451613128 0.116382360 0.072485968
0.492346853 0.122707374 0.082985379
0.537761271 0.125869766 0.088298738
0.587349832 0.126881868 0.086527988
0.639215350 0.129917517 0.092473485
0.701454461 0.130676612 0.102340378
0.757495224 0.132953674 0.110815987
0.812144518 0.131435707 0.115875997
0.866793215 0.129917502 0.117394052
0.916128993 0.135989591 0.129158571
0.963820100 0.147374794 0.141303018
0.996078014 0.166097194 0.155218348
0.996963620 0.188614994 0.174319997
0.117647000 0.041745774 0.039974999
0.114990391 0.041745774 0.034788385
0.114484549 0.046046771 0.027450997
0.123592608 0.046552837 0.040101387
0.139405236 0.042884320 0.039974999
0.139152065 0.051486772 0.048576996
0.146362871 0.055660997 0.046552680
0.166223928 0.057305705 0.042884000
0.185958326 0.060341451 0.052751224
0.197849303 0.063377492 0.052751228
0.216444865 0.068564102 0.056419995
0.233649254 0.073624730 0.056419741
0.252877861 0.079190545 0.052118644
0.271853030 0.079696544 0.052877743
0.291587412 0.086907186 0.052118640
0.322200775 0.095761999 0.056799743
0.343453169 0.104870379 0.056799352
0.376217127 0.113978766 0.062239219
0.411132216 0.120050788 0.069829047
0.448576957 0.126755357 0.077672362
0.491081685 0.132068262 0.080708742
0.534598589 0.137887493 0.089057639
0.582416415 0.140164778 0.088678218
0.638076901 0.141176641 0.094750233
0.692346573 0.144085780 0.098924994
0.754711986 0.144085780 0.106894314
0.809867322 0.146363065 0.113219351
0.861227036 0.146616101 0.119797774
0.917014599 0.149398774 0.123971976
0.960278094 0.160783961 0.143200383
0.992662609 0.179506347 0.156862974
0.993927777 0.205059990 0.172548994
0.116381839 0.054648999 0.047059000
0.116381839 0.054648999 0.043516997
0.117267452 0.056419998 0.039089385
0.125363842 0.062491998 0.032510996
0.134471551 0.059835162 0.040860385
0.141429171 0.064136706 0.046046998
0.151296318 0.070208833 0.047058679
0.165717870 0.071979702 0.046425998
0.185452253 0.075016089 0.050980002
0.200632647 0.078051843 0.050980005
0.214927003 0.082732156 0.052624710
0.234914422 0.088804349 0.052877743
0.252371818 0.093738474 0.052118644
0.273371190 0.094370991 0.054901998
0.289563417 0.100442991 0.052877747
0.316634774 0.107653350 0.054522447
0.345730335 0.119544372 0.060341805
0.374952286 0.129791573 0.064642563
0.411385149 0.135231167 0.071347170
0.447817922 0.140037999 0.076407366
0.489310473 0.145477414 0.084250741
0.533839285 0.147501156 0.087286867
0.580139339 0.153320849 0.090575501
0.637824059 0.157875165 0.097786166
0.693231940 0.157621861 0.101581126
0.744339228 0.161796167 0.107147478
0.804554164 0.161796167 0.110689156
0.855408013 0.164073452 0.121315733
0.910689414 0.168374330 0.129285157
0.962808073 0.177229509 0.139658377
0.990764976 0.192409679 0.159519374
0.993421853 0.218215987 0.171283826
0.114484094 0.073244549 0.047438450
0.113724999 0.074003547 0.047817998
0.114863545 0.073624097 0.047059000
0.120429710 0.075015545 0.046552837
0.133712545 0.080708094 0.042378001
0.142820925 0.080708094 0.045414388
0.155218005 0.087918863 0.049209226
0.169512853 0.092093542 0.050221004
0.186970532 0.093232088 0.050980002
0.202150941 0.096268475 0.050980002
0.213788673 0.099304222 0.051359549
0.231878504 0.103984535 0.051359549
0.253510624 0.109297633 0.051739097
0.275015980 0.112586990 0.055028513
0.293484956 0.118658990 0.055281546
0.318911761 0.124731094 0.055281546
0.345097810 0.134218737 0.058696993
0.371916562 0.147248566 0.065401562
0.408349454 0.150284961 0.074509971
0.445161760 0.154079735 0.076027997
0.486148208 0.159013093 0.080582187
0.532321274 0.163440555 0.087666415
0.581277490 0.163567066 0.090702027
0.638962686 0.174952805 0.099304363
0.694370508 0.176850259 0.104237705
0.746742368 0.177229524 0.109677114
0.793928146 0.183048546 0.119038545
0.851613283 0.183048546 0.125110537
0.906262040 0.187982082 0.134977520
0.958380640 0.197216868 0.148260415
0.996457577 0.210246906 0.160278469
0.996457577 0.225426540 0.169386089
0.120556869 0.094496936 0.050474066
0.114484094 0.100568928 0.053510450
0.120176770 0.099177703 0.049588997
0.127767086 0.096647710 0.048323840
0.136748940 0.095888481 0.048450001
0.136748925 0.098924868 0.036306001
0.153447002 0.103984863 0.044402387
0.165717706 0.107273929 0.045920227
0.177862167 0.108791925 0.045667000
0.193042576 0.114484474 0.050980005
0.219860941 0.117520869 0.053889871
0.236053184 0.120556600 0.054395933
0.250474632 0.125236928 0.053257290
0.262871981 0.130802989 0.051992130
0.287159979 0.136874989 0.058064897
0.312839776 0.142947599 0.058317933
0.340164185 0.149019867 0.062871739
0.368880183 0.156609923 0.071473569
0.405313075 0.162428975 0.080581978
0.444529176 0.171031356 0.086906999
0.481593996 0.177229866 0.088171996
0.522580445 0.182289734 0.090702191
0.569133520 0.184819445 0.093738414
0.626818717 0.187855840 0.096774034
0.682226539 0.194687009 0.103099063
0.739658237 0.196457937 0.108664989
0.796837330 0.198481932 0.116255194
0.851613283 0.204300940 0.128146932
0.903984725 0.206957772 0.128905937
0.952561617 0.214041620 0.143327102
0.989373922 0.225426659 0.161290586
0.999493957 0.240606934 0.175458863
0.119038679 0.123339638 0.045919999
0.118026547 0.124351643 0.046426065
0.122707091 0.130423635 0.051612679
0.131815150 0.127261311 0.049588677
0.140164226 0.123339638 0.050600551
0.142315000 0.124225251 0.044908322
0.152435005 0.124731317 0.045413997
0.169006705 0.127514318 0.049588677
0.182163194 0.129032314 0.048956096
0.199114814 0.135104313 0.053257320
0.208222881 0.138267189 0.051359549
0.231499255 0.141303062 0.056420188
0.249968633 0.146615967 0.059709318
0.265655041 0.153826609 0.061353609
0.287666291 0.157621309 0.065148510
0.311954290 0.166097119 0.068817481
0.340670377 0.172295988 0.068944000
0.370904446 0.178367987 0.073750742
0.407337308 0.184440002 0.079063661
0.446552783 0.188235372 0.090449326
0.491714120 0.199240983 0.092726320
0.533712685 0.205566123 0.093738191
0.579759836 0.208602116 0.096900672
0.637445033 0.211637899 0.102340095
0.692852855 0.216951564 0.109930284
0.751676261 0.221631959 0.116255306
0.812017739 0.223782316 0.121821381
0.864642382 0.229854316 0.127893880
0.914104700 0.238330156 0.137001678
0.958633542 0.244908527 0.144086093
0.991144955 0.255787551 0.166603565
1.000000000 0.270967960 0.191651002
0.117647000 0.145477697 0.046425998
0.119291708 0.147121996 0.049715411
0.122454062 0.148133993 0.049082708
0.130297273 0.154205993 0.050094713
0.139025554 0.149651989 0.050853711
0.144591942 0.147121996 0.054142930
0.151929006 0.148766696 0.052878093
0.164073005 0.150410980 0.057558414
0.180012494 0.150410980 0.057558414
0.198229268 0.154711977 0.059709188
0.208096281 0.156230152 0.056925833
0.222644255 0.160911143 0.056672800
0.243896633 0.165085405 0.061606929
0.265655011 0.173687667 0.067172997
0.289690375 0.179506272 0.071600288
0.311701685 0.185705215 0.071347095
0.342061698 0.193295404 0.074383482
0.373940408 0.199367404 0.077039979
0.410373300 0.205439419 0.083111748
0.444655389 0.215306759 0.087919012
0.489816457 0.219101682 0.097406998
0.540417254 0.230233818 0.097406998
0.588361800 0.234535202 0.099683709
0.646046996 0.237571210 0.102719717
0.703099549 0.239595264 0.107779577
0.757748306 0.247059003 0.115496285
0.819228411 0.251106709 0.122074351
0.871979415 0.257178694 0.127387732
0.917646587 0.264263242 0.137381136
0.967488527 0.271726876 0.148260415
0.992789388 0.282606065 0.163946971
0.995066285 0.297786266 0.195066303
0.119164996 0.163694099 0.052498195
0.119924292 0.166729718 0.057052772
0.121442132 0.166097105 0.058191225
0.129537985 0.170145288 0.055407997
0.134850994 0.174699187 0.049715545
0.142820835 0.168627098 0.059962094
0.151675999 0.167868331 0.060215320
0.158760086 0.170904487 0.062871896
0.173181191 0.173940092 0.068184994
0.191397980 0.173940092 0.068184994
0.204554096 0.174699187 0.066793129
0.219987512 0.178747505 0.065022096
0.239342630 0.183302000 0.065401636
0.260847986 0.189627036 0.068437964
0.287666291 0.198734775 0.074003898
0.311701685 0.206198707 0.074383296
0.337508082 0.212271094 0.075142190
0.375837654 0.218975514 0.078178577
0.412649989 0.225174010 0.089943096
0.445034742 0.237318471 0.092473097
0.486780435 0.247185454 0.095129639
0.535863280 0.251486212 0.101961002
0.590764999 0.260341614 0.102213994
0.649082780 0.263377994 0.103478998
0.706767678 0.265655100 0.106514804
0.763820291 0.268311411 0.109424084
0.817963243 0.276913106 0.117014155
0.872358918 0.282985091 0.126628533
0.917140603 0.291334659 0.140670165
0.963440537 0.298166066 0.153573498
0.999620497 0.305376649 0.167742059
0.990512073 0.320556283 0.192030087
0.125236988 0.191018492 0.058570970
0.119164996 0.194054127 0.058570966
0.115622751 0.190638512 0.060974225
0.122959688 0.192409813 0.062491998
0.140922993 0.202024356 0.061859548
0.140922993 0.195951596 0.058823947
0.153952837 0.189879507 0.058950495
0.162175715 0.189120725 0.063757293
0.170145586 0.192156881 0.071220614
0.191397980 0.195192501 0.074256994
0.206704870 0.198102370 0.077166125
0.221758738 0.203035980 0.075901255
0.239342630 0.206831023 0.074130483
0.260847986 0.207843050 0.074509971
0.285135984 0.216951415 0.077545583
0.311954290 0.226059780 0.080708332
0.337507904 0.233523488 0.085009485
0.366730005 0.240227908 0.090322584
0.412270516 0.249335542 0.093358979
0.449082762 0.255534738 0.099557489
0.492852449 0.265781492 0.099683747
0.541429222 0.275521994 0.099177651
0.590764999 0.281594008 0.102213994
0.651486635 0.284630418 0.108286001
0.709803700 0.289943486 0.114104994
0.767488480 0.294370830 0.117267482
0.824035168 0.298165500 0.120050550
0.875648260 0.304237515 0.135230914
0.922074199 0.318279326 0.155471280
0.967488527 0.329538226 0.172802135
1.000000000 0.338520110 0.188741446
0.999620497 0.347881496 0.207210496
0.113851994 0.212523863 0.061733127
0.116508126 0.212650359 0.058823999
0.119038679 0.213535741 0.063124999
0.123339579 0.208981737 0.065654866
0.136495560 0.210879445 0.066793315
0.144085869 0.217456996 0.073877066
0.149145871 0.211384863 0.068311125
0.163187712 0.210246578 0.067552127
0.174320087 0.213282764 0.070588000
0.191271484 0.216318384 0.071473613
0.200885862 0.216444865 0.068691000
0.218089998 0.221505508 0.073750868
0.235294119 0.227577746 0.075648353
0.255028307 0.231625736 0.077925198
0.279316992 0.238077283 0.083618313
0.306008786 0.247185662 0.091460928
0.337887377 0.256293684 0.093990996
0.369639546 0.263756990 0.096647575
0.406072021 0.270587891 0.099683978
0.448829740 0.279696226 0.102719642
0.495003194 0.289689988 0.104870126
0.544592083 0.297785997 0.103857994
0.593674839 0.300316006 0.104996637
0.654395759 0.311701775 0.108286001
0.710562646 0.317014873 0.112080708
0.766223609 0.323086858 0.120303467
0.821378946 0.328652799 0.127893806
0.872991443 0.337128609 0.138266563
0.919291615 0.345856756 0.150790781
0.961289942 0.353447080 0.164199740
0.993927717 0.362934858 0.178873837
1.000000000 0.378114998 0.199114129
0.107779741 0.235799968 0.070840992
0.110815868 0.237824246 0.071853377
0.113978036 0.237824246 0.063124999
0.121315643 0.237824246 0.067931838
0.130802989 0.234029248 0.069829285
0.141555667 0.238203570 0.078937322
0.152182266 0.240733743 0.079443254
0.161543250 0.237950742 0.075015545
0.175585002 0.239089400 0.075395092
0.189500242 0.239595026 0.076660253
0.202909619 0.241745755 0.077799119
0.216065988 0.243769497 0.076787248
0.233143643 0.249841988 0.081720605
0.251486331 0.255661011 0.085009255
0.279317081 0.259962231 0.091081567
0.310057044 0.270461798 0.089437187
0.338899255 0.279570162 0.097027004
0.373687446 0.287412912 0.098039001
0.407084286 0.292093277 0.099683724
0.446805745 0.300948620 0.104743645
0.493105441 0.308159262 0.103984743
0.544592142 0.319038391 0.105882257
0.594686985 0.322454005 0.108032733
0.655407846 0.332701057 0.111068644
0.715623081 0.344339252 0.118152961
0.767488837 0.351802915 0.121188924
0.819861114 0.358507514 0.129917935
0.869955659 0.366097689 0.135989547
0.916255176 0.375205398 0.149778396
0.958254337 0.382542670 0.165465131
0.988867700 0.389373869 0.177988485
0.997975767 0.406451255 0.198102266
0.103605002 0.261226922 0.081846647
0.105502740 0.263124675 0.081467390
0.110815875 0.266287267 0.080581993
0.116381809 0.266287267 0.074763119
0.125490084 0.265907735 0.076660283
0.136874989 0.265148640 0.081973583
0.147881001 0.267678946 0.085768647
0.161163986 0.267931998 0.085262582
0.174825996 0.269450009 0.083744191
0.187729016 0.267552137 0.086780481
0.205059856 0.268058509 0.085262865
0.219101891 0.271094352 0.086274996
0.238836288 0.274130285 0.088551991
0.254269630 0.280202299 0.091587611
0.281088173 0.284124047 0.096773997
0.314990789 0.292093635 0.096647650
0.345730633 0.303858161 0.094370641
0.377988160 0.311701566 0.099177644
0.412397325 0.314737320 0.099177659
0.453637034 0.325616628 0.107020646
0.502213717 0.335104287 0.105123095
0.550790548 0.342188418 0.106135480
0.602530122 0.351170272 0.112080999
0.662239134 0.359266520 0.114104740
0.719544470 0.370651633 0.121694922
0.774699628 0.380265653 0.129158676
0.823782563 0.389374077 0.132700995
0.872991860 0.396078646 0.136369184
0.918911994 0.404807061 0.150031447
0.960910559 0.414421052 0.168121397
0.988867998 0.422264606 0.188108966
0.997216642 0.437191278 0.206830993
0.097280033 0.288805008 0.090449028
0.097533002 0.289058030 0.084883027
0.104490772 0.292599976 0.087159999
0.112840123 0.296141982 0.091714129
0.122707449 0.296521485 0.094370998
0.131815061 0.293485105 0.088298991
0.141429320 0.295003355 0.092093967
0.153067663 0.295762330 0.094370969
0.169007048 0.293991029 0.094623931
0.187223047 0.300063014 0.097659543
0.208348900 0.297659874 0.090069838
0.224541470 0.299177766 0.087539963
0.241619632 0.301960677 0.089310966
0.268691003 0.304490983 0.094876967
0.286906958 0.310562968 0.097912580
0.318279564 0.316635042 0.100695774
0.351170212 0.325490028 0.102719970
0.381024539 0.336242586 0.103478998
0.420493037 0.339279026 0.103479013
0.466034144 0.353194356 0.112587012
0.518153191 0.366477042 0.112713300
0.573308229 0.377862155 0.109171152
0.622137964 0.386970520 0.117900029
0.679696739 0.393169075 0.117900029
0.733333230 0.403542012 0.124478281
0.783554316 0.413409084 0.132700980
0.832131207 0.419987112 0.139026031
0.883744299 0.429095477 0.145098031
0.929791451 0.437950820 0.158886805
0.972043097 0.448070973 0.177103162
1.000000000 0.461480021 0.200506002
1.000000000 0.473624051 0.224794030
0.088172428 0.319164962 0.093485415
0.091208041 0.322201371 0.093485415
0.102213778 0.320303619 0.094370641
0.109803997 0.320429981 0.096773997
0.113978580 0.321188986 0.097786129
0.131815061 0.326881438 0.100442983
0.145983323 0.323845714 0.101960659
0.154964998 0.328652680 0.100695580
0.165970787 0.331435382 0.096647680
0.184187427 0.327387393 0.094623938
0.205313295 0.327640384 0.097659551
0.228589416 0.333080202 0.100189559
0.248070866 0.337507784 0.102719560
0.268691003 0.337887347 0.103984565
0.292978942 0.334850967 0.103984572
0.313598752 0.340923607 0.104616992
0.347122163 0.348513603 0.108285576
0.384060949 0.358253956 0.113725141
0.423529446 0.366603404 0.121694967
0.474130511 0.377988398 0.110562973
0.520683169 0.390765458 0.114863999
0.571789861 0.402909786 0.116761543
0.625173628 0.414294899 0.120936416
0.679823220 0.423403293 0.120936416
0.737381279 0.431878507 0.125490412
0.789626598 0.443010718 0.134977981
0.837697864 0.453384161 0.145351067
0.883744299 0.462491810 0.154206410
0.927387595 0.468943357 0.165591389
0.970524907 0.473877162 0.180139169
1.000000000 0.485894978 0.203668550
1.000000000 0.510056853 0.239974409
0.067046404 0.354332596 0.098924994
0.077292815 0.354965180 0.096521191
0.078178205 0.362302572 0.100822188
0.095888734 0.360278219 0.105375998
0.106514998 0.358760118 0.105755545
0.120682999 0.358760387 0.096647941
0.138772517 0.362049103 0.111701474
0.158886597 0.360657781 0.108159088
0.172548801 0.365211576 0.102845997
0.190765172 0.362428576 0.101454668
0.209487855 0.362175584 0.101834126
0.228715986 0.364199847 0.104870252
0.254522294 0.369133592 0.107147157
0.278052032 0.369386554 0.106135026
0.300189763 0.370651186 0.108285800
0.326881558 0.372422397 0.108285800
0.352688164 0.376976579 0.111321799
0.390765518 0.385578334 0.114863813
0.433776021 0.398228765 0.115116984
0.477166295 0.405312777 0.121568784
0.530676663 0.417457253 0.117014796
0.580771506 0.430613905 0.121062674
0.635420561 0.444023073 0.123972185
0.690069616 0.453130871 0.123972185
0.744718552 0.464516550 0.130803466
0.796710730 0.473750710 0.137001976
0.843264103 0.484882981 0.147628069
0.886907220 0.495888323 0.160531446
0.929791451 0.499936581 0.169892788
0.970524907 0.513092518 0.197975919
1.000000000 0.519291401 0.219101742
1.000000000 0.534471810 0.247943997
0.044275817 0.393801361 0.101961002
0.053383820 0.390765369 0.103478804
0.069070198 0.394180775 0.105375998
0.074130200 0.402024329 0.107653156
0.097786367 0.399747014 0.111448199
0.115622997 0.396711111 0.099683933
0.129791006 0.397217035 0.104743809
0.151296407 0.398608357 0.115749292
0.174826100 0.400126338 0.108159095
0.193801209 0.401644349 0.107400186
0.215053543 0.400126547 0.107400186
0.239342183 0.400632620 0.107906252
0.260973811 0.403668731 0.110942349
0.290955067 0.404048175 0.108665027
0.316002578 0.405818939 0.109171413
0.340543777 0.407336980 0.112839997
0.370904565 0.411891162 0.112839997
0.401265174 0.414926946 0.118279576
0.442378014 0.426565379 0.114864193
0.488171726 0.434914589 0.115116976
0.536748648 0.447817653 0.121569000
0.590385616 0.458950311 0.121569000
0.644276023 0.473118663 0.124351665
0.696141839 0.485009283 0.128525987
0.752308726 0.494876564 0.135357276
0.802782774 0.505629599 0.145856977
0.848324001 0.514737427 0.152688056
0.891840875 0.525869548 0.165844440
0.934345543 0.534598231 0.180265620
0.972043097 0.538899183 0.199494109
0.998229027 0.557115436 0.234535187
0.996963978 0.563314378 0.254016370
0.023656026 0.435041130 0.105123565
0.029095450 0.431499094 0.109297991
0.048703410 0.429980934 0.112586804
0.069829434 0.434281856 0.113725148
0.084629983 0.439215958 0.110689439
0.112460352 0.436179608 0.104870409
0.130297139 0.436306119 0.105123252
0.149019390 0.436306119 0.109170996
0.173181668 0.437191725 0.112966098
0.194434062 0.443263710 0.109930478
0.219228148 0.441239983 0.110436417
0.246299490 0.440860510 0.110436417
0.276154190 0.441366464 0.111574925
0.303984582 0.444149107 0.114863575
0.334724784 0.444149107 0.112966396
0.361543119 0.444781691 0.115875982
0.389120549 0.446552694 0.118279576
0.422517538 0.452624679 0.118911989
0.452877611 0.455661088 0.121948376
0.498038888 0.462998331 0.117267437
0.547880769 0.475901544 0.116887912
0.599493980 0.492346674 0.122833990
0.650980592 0.501328528 0.123213463
0.699557424 0.514990211 0.132321090
0.753700197 0.526881397 0.141429275
0.807084143 0.535989761 0.150663987
0.851612628 0.545098066 0.162808135
0.896900713 0.554206371 0.172043025
0.938520014 0.565971136 0.189753115
0.976344109 0.573434472 0.212776378
0.999494016 0.579632759 0.235800192
0.993421972 0.597849548 0.260088980
0.005439999 0.471473992 0.120303974
0.008475615 0.477545977 0.117267586
0.028968805 0.474004030 0.117141001
0.053510230 0.473750979 0.117393970
0.075521588 0.478684455 0.116761461
0.108917974 0.475648075 0.113725074
0.136749014 0.477672338 0.110436365
0.161163956 0.478810996 0.111195259
0.185452223 0.479570091 0.112966105
0.209614500 0.482732952 0.109930493
0.236685872 0.482985944 0.112713136
0.261732936 0.484756708 0.113472044
0.288804322 0.486401021 0.114610687
0.319165051 0.486653984 0.117899977
0.352561355 0.486653984 0.123971954
0.383301616 0.489057809 0.124477997
0.411638200 0.490322977 0.123466201
0.440733582 0.492093951 0.121948391
0.474130064 0.498165965 0.124983996
0.512840092 0.501201630 0.122454390
0.558760405 0.508538842 0.119165212
0.608602405 0.520430148 0.120936178
0.660089016 0.534725010 0.129285485
0.708665848 0.540797055 0.138393104
0.759519219 0.554459274 0.147501305
0.811637998 0.566350698 0.155218020
0.860721052 0.575458944 0.162808165
0.900189400 0.584566593 0.174952909
0.937507629 0.596331775 0.194813788
0.974446356 0.604934037 0.221125871
1.000000000 0.612523913 0.247438237
0.999494016 0.625174046 0.266161054
0.003922000 0.521821380 0.124351643
0.009740969 0.525110722 0.121315971
0.029981129 0.526881754 0.118279584
0.058570676 0.524604738 0.120177001
0.085515715 0.526881754 0.122833550
0.116508290 0.526249170 0.119797781
0.147375003 0.528273404 0.119291715
0.178241715 0.531309426 0.118153363
0.206704468 0.532447755 0.119291715
0.233017012 0.533459902 0.118279845
0.257432252 0.536369741 0.115496486
0.288804621 0.538393497 0.120556347
0.317647010 0.540290713 0.123213001
0.348513782 0.540037751 0.125996351
0.384440452 0.537508130 0.127008349
0.417836875 0.539911270 0.128273353
0.451613128 0.542947590 0.129791155
0.482732654 0.544845164 0.128020257
0.511828125 0.548766375 0.122454397
0.550790489 0.549272358 0.125489995
0.592156887 0.552308500 0.130044386
0.637950778 0.560657740 0.133586362
0.685895383 0.573813915 0.140797004
0.734472156 0.582542777 0.147248462
0.778494954 0.595446050 0.156356648
0.825806320 0.607843399 0.168248013
0.872612238 0.616445780 0.180518717
0.912081122 0.623276651 0.197216898
0.948892653 0.632384241 0.219987631
0.978241384 0.640860438 0.241366550
1.000000000 0.648703754 0.274003863
1.000000000 0.660847723 0.311195761
0.013409249 0.575331986 0.127387732
0.034661718 0.574572861 0.116761655
0.050095238 0.579253435 0.117520489
0.077419624 0.579253435 0.118279584
0.106388725 0.578494430 0.122454196
0.133712724 0.575458467 0.116382197
0.171663374 0.579886079 0.127261251
0.198735133 0.577988744 0.120683260
0.230613470 0.581024468 0.119671263
0.259076238 0.583301485 0.119671263
0.283491462 0.586211324 0.120556869
0.313851953 0.589247167 0.125489995
0.348387003 0.590006053 0.128146634
0.380518764 0.588994145 0.129664958
0.415306777 0.585958123 0.131309256
0.449336261 0.589626670 0.129411995
0.482732654 0.592662632 0.129411995
0.517520666 0.595066488 0.131435737
0.546110034 0.596837223 0.126122966
0.586464107 0.598987937 0.131941631
0.622137964 0.600885212 0.136875466
0.662618458 0.602909446 0.143959597
0.705376208 0.611384988 0.149145991
0.750411034 0.620493412 0.155218005
0.794433832 0.630360782 0.167362273
