Assets/Resources/EldamarStudio/100 Horror LUTs Pack/LUTs/cube/Crematory LUT.cube
LUT_3D_SIZE 5
DOMAIN_MIN 0.000000 0.000000 0.000000
DOMAIN_MAX 0.903226 0.903226 0.903226
0.000000000 0.000000000 0.086274996
0.013156408 0.040860288 0.105249994
0.225047797 0.111194983 0.152308583
0.409108132 0.192283258 0.200126261
0.610878944 0.299683630 0.276027828
0.072359115 0.151675999 0.161163703
0.171410397 0.172295704 0.169639707
0.305123508 0.199747115 0.190891579
0.456166953 0.259961694 0.233776122
0.639594793 0.352181941 0.306388259
0.315243810 0.323719412 0.236053407
0.349904805 0.334851384 0.248830110
0.432890803 0.361669391 0.278557986
0.546363115 0.399873674 0.313219398
0.699051321 0.480708361 0.391144812
0.510056973 0.533712983 0.371790141
0.535230696 0.542441130 0.387855828
0.583934307 0.559519529 0.403921396
0.666034102 0.595446110 0.446426123
0.772548914 0.654016256 0.521315813
0.729790807 0.775584936 0.629348636
0.738266587 0.788108766 0.638330340
0.769006789 0.792662621 0.655534446
0.820366740 0.811891079 0.685262501
0.861732781 0.839721620 0.728779554
0.000000000 0.015686000 0.124857992
0.019734399 0.053004410 0.139278993
0.233902499 0.131815121 0.182416409
0.415559679 0.214547843 0.233143702
0.616445363 0.310436517 0.299810112
0.074383095 0.151423112 0.177861989
0.175079092 0.168753982 0.180138692
0.303478807 0.211891398 0.213156402
0.455534369 0.269449800 0.250474572
0.636052907 0.361037225 0.329411507
0.323718965 0.329917669 0.260215402
0.359393120 0.337761074 0.264136404
0.432257801 0.362302393 0.285768807
0.544085860 0.402530074 0.326375544
0.699177325 0.484376907 0.402023911
0.509424210 0.533712983 0.382289678
0.531688333 0.538267314 0.388487995
0.583048940 0.558254123 0.416065842
0.666666687 0.590259552 0.451992661
0.775584757 0.653004706 0.539278924
0.724478006 0.775331855 0.627071440
0.728779495 0.776596904 0.631372452
0.761543095 0.788741171 0.650221169
0.811131895 0.806704581 0.679064035
0.862871468 0.834281921 0.734092593
0.000632584 0.050347578 0.182416409
0.056673110 0.082099698 0.185958281
0.245919958 0.139278576 0.224288404
0.429980695 0.222011536 0.272359133
0.621378779 0.320429981 0.336115986
0.140291125 0.167741701 0.215685993
0.196204975 0.178494409 0.227830291
0.316508353 0.219354704 0.253004402
0.464009970 0.278558016 0.295256138
0.645161331 0.366603255 0.368247777
0.336115956 0.326249421 0.291587800
0.371410370 0.343959391 0.308032364
0.452498823 0.367488801 0.325616837
0.557115793 0.412649989 0.365211517
0.700316370 0.491208196 0.436938792
0.520809114 0.539405406 0.426691711
0.542061925 0.542441547 0.429601431
0.583555102 0.560152113 0.446679413
0.666920006 0.586970091 0.486906707
0.782668948 0.654269278 0.561416984
0.720556796 0.778241754 0.629095614
0.721189201 0.772296190 0.639595211
0.757874370 0.785325348 0.660594761
0.808222353 0.805945516 0.693611503
0.872359574 0.835041225 0.729790986
0.069829121 0.093232125 0.260973990
0.155091405 0.114105128 0.270967722
0.286907256 0.164832413 0.290069699
0.445414275 0.234408855 0.329664975
0.633143783 0.331941694 0.409487814
0.202782825 0.187350124 0.290322572
0.244528830 0.201391399 0.294243991
0.345983386 0.234787986 0.315243244
0.482985109 0.292346567 0.357368678
0.655660927 0.380644798 0.436938822
0.364831984 0.341682523 0.362302244
0.396584511 0.352434963 0.369512826
0.463630378 0.377988786 0.390765518
0.567615271 0.422137529 0.422517240
0.704617083 0.491461247 0.495762199
0.533586264 0.546363115 0.476913273
0.555091977 0.550284386 0.495003015
0.595952153 0.572549164 0.508791983
0.672865272 0.606198251 0.539531946
0.785831809 0.655534089 0.599367261
0.713725507 0.777229607 0.679064095
0.722833514 0.780771375 0.679949462
0.750284493 0.793928027 0.693611503
0.803289056 0.810625911 0.720430076
0.869323313 0.843263626 0.764326453
0.221252620 0.146489665 0.433269590
0.278810620 0.163820282 0.429348588
0.392662764 0.205439657 0.448323995
0.542568088 0.272106260 0.492725939
0.685515404 0.366350651 0.546995580
0.286527395 0.224035516 0.446173191
0.324730933 0.231878534 0.453763485
0.425174206 0.268437684 0.472359151
0.556988955 0.322201103 0.510689497
0.701454461 0.406577915 0.563314438
0.386464208 0.365591228 0.511701584
0.410246670 0.370524913 0.505376518
0.493105799 0.393042207 0.529917777
0.607590258 0.440860212 0.559645951
0.740290761 0.511574745 0.607716203
0.551170468 0.584693074 0.606704950
0.557748377 0.582542777 0.617457151
0.599620342 0.587603092 0.625679970
0.677039981 0.606198251 0.642378211
0.792789280 0.659582973 0.683744550
0.707526982 0.788741589 0.733965755
0.725616455 0.791650712 0.747880876
0.750031352 0.797217011 0.756736159
0.800379634 0.814547896 0.778873801
0.878937542 0.850221395 0.820366561
