Assets/Resources/EldamarStudio/100 Horror LUTs Pack/LUTs/cube/Crematory LUT.cube
DOMAIN_MIN 0 0 0
DOMAIN_MAX 1 1 1
LUT_3D_SIZE 32
0.000000000 0.000000000 0.086274996
0.000000000 0.003036387 0.089310609
0.000000000 0.006072226 0.092346773
0.000000000 0.010372999 0.095382839
0.000000000 0.017204095 0.098797999
0.000000000 0.029348871 0.104869999
0.000000000 0.036433000 0.103352323
0.013156408 0.040860288 0.105249994
0.039722092 0.046173193 0.112839997
0.073118508 0.058317974 0.124983996
0.112333864 0.067552127 0.128399864
0.141682506 0.078684509 0.135483727
0.167109638 0.089690350 0.143453285
0.194687068 0.099050999 0.149272963
0.225047797 0.111194983 0.152308583
0.253004789 0.120935798 0.160151809
0.280329198 0.131561995 0.167741999
0.308285952 0.143706143 0.173813984
0.338646024 0.155850947 0.179886013
0.360657394 0.165211648 0.185957998
0.383807480 0.178114727 0.192029998
0.409108132 0.192283258 0.200126261
0.436306000 0.204554468 0.212270990
0.460594803 0.219734102 0.224415004
0.491714269 0.234914273 0.234282285
0.519544661 0.248703331 0.243390307
0.543327093 0.261353910 0.252498060
0.579759836 0.276533544 0.261606425
0.610878944 0.299683630 0.276027828
0.646552563 0.325743139 0.296520919
0.683364928 0.352182180 0.318152577
0.713724971 0.376471013 0.333332986
0.006072000 0.000000000 0.083238617
0.000000000 0.006072000 0.101454608
0.000000000 0.013409386 0.100189775
0.001265161 0.022011386 0.095129997
0.002656839 0.031245934 0.091967382
0.000000000 0.035420869 0.113978386
0.000000000 0.045034677 0.117520705
0.016445404 0.053257316 0.115496680
0.046553191 0.059835386 0.117393993
0.082226887 0.067425586 0.124983996
0.115623251 0.076660484 0.134218872
0.146742642 0.085768640 0.137507737
0.173181638 0.095762350 0.145730287
0.201012030 0.104870036 0.155344963
0.234155416 0.114231370 0.158380583
0.257305413 0.126375377 0.159013003
0.281847000 0.137634382 0.164705604
0.306388557 0.149778754 0.171410173
0.329538405 0.161922947 0.179886013
0.362681746 0.174067006 0.191524014
0.384946138 0.185325384 0.201897472
0.408096254 0.198355258 0.209234640
0.433523357 0.210499987 0.215306625
0.463630408 0.222770497 0.227451399
0.494749844 0.237950668 0.237318099
0.523971915 0.253131032 0.247817948
0.548893034 0.266920000 0.259076774
0.582795501 0.279569954 0.270714819
0.611258447 0.302719355 0.287792355
0.648323298 0.323466003 0.299810171
0.685515165 0.346995562 0.318658948
0.713724971 0.373434603 0.342441380
0.007843000 0.019354772 0.095256001
0.006072000 0.025426771 0.098418772
0.000000000 0.029348545 0.108032770
0.000000000 0.037191771 0.107526839
0.001771226 0.047185317 0.100569226
0.000506065 0.053763706 0.107147217
0.008601999 0.057558447 0.120177321
0.029981108 0.063377485 0.121569000
0.060341772 0.072232775 0.122074671
0.091208212 0.081087783 0.129537985
0.122580864 0.087918870 0.136369094
0.153953493 0.097027257 0.143453732
0.182542771 0.103858352 0.145477548
0.210626066 0.110942028 0.153068006
0.238330156 0.120050408 0.158001363
0.266413569 0.133712754 0.165085003
0.287665963 0.144338965 0.168121383
0.312587112 0.155850977 0.175458521
0.338393778 0.167995021 0.186084747
0.364326358 0.180139005 0.195825562
0.390132725 0.192283466 0.204174548
0.413409114 0.203415409 0.211765006
0.438709706 0.214421242 0.213915244
0.462998003 0.226565778 0.224035263
0.495635271 0.238836274 0.238203704
0.526248991 0.255407989 0.247311667
0.552308798 0.271853358 0.259203285
0.584060431 0.287286758 0.272991985
0.612143815 0.305755734 0.279696196
0.648323298 0.330044150 0.301454604
0.689942777 0.350790739 0.322201163
0.722327530 0.376849979 0.355850786
0.005313001 0.047944322 0.104617156
0.005313001 0.052751161 0.105376385
0.003542000 0.052877773 0.108792000
0.002529999 0.057178997 0.117394000
0.003288999 0.063251093 0.120050162
0.005059999 0.071474090 0.115749158
0.025300317 0.076787002 0.119797476
0.043390270 0.081087865 0.126628995
0.079823256 0.084883153 0.128146991
0.104617342 0.096015163 0.136748672
0.133459896 0.101074994 0.140417159
0.162555501 0.109171249 0.147754505
0.190638989 0.118279636 0.151549995
0.220493078 0.121821322 0.152055994
0.245793983 0.129917562 0.158127993
0.268690795 0.141302958 0.166603506
0.298039168 0.154712200 0.174193367
0.318659127 0.163820580 0.180265978
0.346489966 0.175332174 0.191145018
0.371284008 0.187476173 0.201771200
0.394939899 0.198355466 0.206451833
0.417204142 0.210499987 0.213535964
0.444401979 0.219987139 0.214800984
0.469070047 0.232131645 0.225047261
0.495635271 0.244276151 0.237444267
0.526248991 0.257937998 0.251106828
0.553574026 0.275648087 0.259709150
0.583175123 0.293105721 0.272612423
0.615938962 0.312586963 0.283491313
0.647058487 0.333080232 0.292599380
0.686906755 0.358254403 0.318659186
0.725616872 0.382921994 0.359646022
0.000379548 0.077166550 0.103858545
0.000000000 0.080202155 0.111069001
0.000000000 0.077545546 0.115622997
0.003668547 0.076533549 0.123845540
0.013535639 0.082226098 0.134092003
0.019607639 0.088298865 0.134092003
0.048703182 0.094370998 0.134471551
0.075268857 0.099683993 0.135736719
0.095003538 0.105755992 0.139532000
0.122327946 0.111827992 0.145603999
0.149652421 0.115369678 0.145857006
0.176597238 0.122074351 0.151549712
0.203162536 0.130803183 0.157622010
0.226944610 0.139658540 0.158381045
0.253890216 0.145730540 0.164579555
0.275142521 0.154206350 0.172296256
0.299051195 0.164073542 0.179506987
0.330044150 0.175964564 0.186337993
0.348260969 0.185072973 0.192410022
0.372043014 0.196205020 0.203289017
0.396331459 0.206831187 0.208981559
0.420619994 0.216572002 0.211638138
0.444907993 0.228589505 0.220746502
0.474762797 0.240480557 0.232637554
0.500948548 0.253004581 0.245161086
0.526628435 0.266919822 0.256546319
0.553574026 0.282099605 0.268058449
0.580898404 0.297279954 0.274130434
0.618469298 0.317014337 0.289689958
0.652624786 0.338266701 0.303731620
0.683491588 0.360910565 0.317900091
0.716888011 0.388235003 0.348260909
0.003415935 0.098418936 0.119038932
0.000379548 0.101454549 0.134218544
0.000000000 0.102339931 0.132826984
0.006325160 0.103857927 0.135104164
0.022644026 0.109550476 0.143200383
0.059076801 0.112586863 0.140164003
0.075268798 0.118658990 0.142694324
0.096520923 0.121441990 0.143579930
0.115496159 0.123971991 0.145603999
0.137507558 0.130043998 0.151675999
0.164832667 0.136115998 0.151929006
0.190132916 0.141682446 0.155976996
0.216065645 0.148260877 0.161416709
0.242125005 0.154838935 0.164453045
0.260341763 0.160910934 0.173561409
0.287286788 0.169386730 0.177356124
0.308538914 0.176976919 0.181404248
0.330550134 0.185325906 0.186843976
0.354332954 0.197216988 0.198482022
0.378115028 0.203542024 0.204554006
0.402403474 0.214420989 0.213535741
0.426692009 0.225047186 0.220113918
0.450980008 0.234661505 0.226818502
0.475268811 0.243769914 0.235926911
0.502846301 0.257938236 0.250095218
0.529664636 0.274003983 0.260594875
0.556483209 0.291207999 0.268184930
0.580898404 0.306388348 0.277166069
0.616192579 0.321568757 0.285894901
0.649588823 0.341303080 0.301833928
0.679949224 0.363440871 0.319417655
0.710816026 0.388235003 0.342188120
0.034281995 0.129791319 0.141809002
0.041366249 0.130297244 0.146869257
0.053384185 0.131182641 0.151296645
0.061986115 0.132447794 0.148513645
0.076786727 0.136875421 0.153067783
0.096015498 0.139911249 0.154332384
0.117267638 0.145477325 0.156356648
0.135483623 0.148260325 0.157748327
0.155217826 0.149778321 0.158507228
0.178241462 0.155850306 0.162807986
0.197722599 0.156862304 0.163060993
0.220999241 0.164958566 0.169133246
0.241365954 0.171536997 0.174572960
0.262871385 0.177356035 0.177609280
0.285642147 0.181151316 0.182163090
0.301455110 0.187223315 0.186464489
0.325237513 0.196205199 0.192536518
0.345098197 0.203921735 0.198229313
0.367489308 0.214168012 0.206578344
0.389247656 0.220746651 0.213156328
0.417330623 0.232510880 0.219228312
0.440860242 0.243263572 0.227704123
0.462239116 0.250854105 0.235294312
0.488931119 0.259961903 0.241998911
0.515496552 0.273624271 0.253383994
0.542820990 0.288804650 0.265528321
0.571157396 0.305882305 0.274257064
0.601517856 0.323086411 0.287413180
0.628842235 0.335737139 0.299051136
0.659962237 0.356230229 0.313472241
0.692220211 0.380012572 0.332573891
0.727514327 0.405945331 0.353826314
0.072359115 0.151675999 0.161163703
0.084756494 0.154964983 0.157621682
0.093738236 0.158254400 0.161796287
0.106894687 0.159519240 0.160531446
0.121694952 0.162934989 0.161669999
0.137634560 0.167235762 0.168500766
0.144971699 0.167868406 0.161669612
0.171410397 0.172295704 0.169639707
0.188867494 0.174572796 0.169639707
0.210499689 0.181530416 0.171789929
0.225679696 0.181783408 0.175205410
0.245919958 0.182921946 0.176343963
0.264895320 0.190891698 0.183175072
0.280834764 0.196710736 0.186464280
0.305123508 0.199747115 0.190891579
0.322201073 0.205186695 0.193927810
0.340417475 0.212776899 0.198481992
0.361669838 0.220620126 0.207463846
0.382922292 0.227703750 0.214548007
0.404174656 0.235673711 0.217331007
0.427830696 0.245793939 0.226691991
0.456166953 0.259961694 0.233776122
0.476028174 0.267678767 0.243010983
0.503352642 0.279822797 0.252119005
0.525743246 0.290195972 0.259456009
0.551676273 0.303984672 0.268816978
0.578747809 0.318912059 0.278178394
0.609867156 0.335989684 0.292220414
0.639594793 0.352181941 0.306388259
0.668563843 0.368121624 0.318785638
0.698545456 0.394180894 0.337001681
0.737254977 0.422264427 0.357495010
0.114105187 0.169892192 0.173308089
0.124731384 0.175205275 0.166476801
0.134978190 0.180518538 0.168121189
0.141809076 0.183048934 0.170398146
0.147501633 0.186843649 0.168880552
0.166477039 0.193295196 0.180645093
0.174573094 0.191777319 0.172295868
0.188108802 0.192030475 0.168880418
0.216192096 0.195066094 0.179506987
0.231372505 0.204174489 0.179506987
0.244402096 0.206072196 0.184566885
0.262618363 0.206072196 0.187350005
0.280834645 0.207590103 0.189247444
0.296268076 0.213662103 0.192283124
0.319544792 0.217204422 0.197849199
0.338140368 0.222643986 0.202276900
0.354079306 0.230234191 0.207590178
0.376596659 0.238077581 0.211764619
0.398102075 0.241113245 0.220366970
0.417836487 0.249715358 0.223403096
0.440227479 0.259962082 0.229475081
0.463757157 0.271347165 0.239848122
0.488045901 0.283491164 0.248956501
0.514737904 0.298038989 0.260468096
0.536749005 0.309424281 0.269576102
0.557748318 0.320683062 0.277166069
0.582543015 0.333333164 0.284250081
0.609867454 0.348513514 0.296394795
0.639848113 0.364832044 0.311954290
0.671726346 0.384566486 0.325363427
0.703099251 0.404048175 0.340797186
0.739532053 0.434408993 0.359013200
0.162681997 0.206324995 0.176344499
0.159645602 0.209361389 0.176344484
0.168121561 0.212523699 0.180265963
0.178747818 0.211891010 0.182542801
0.186970055 0.208096057 0.181024551
0.190006435 0.217204422 0.190132931
0.206451491 0.216065660 0.186717480
0.222264200 0.216318727 0.183554962
0.237444490 0.219354883 0.185579002
0.249588504 0.222390488 0.191651002
0.264768898 0.228589743 0.194560125
0.283870727 0.230360985 0.197722778
0.301707476 0.231499344 0.201771021
0.314484060 0.234914497 0.207463533
0.332700819 0.240986496 0.210499927
0.353573769 0.246932000 0.216065988
0.370018959 0.254522175 0.223529682
0.385705054 0.262365580 0.229981393
0.413029492 0.265401959 0.226945028
0.428968847 0.274003625 0.235547364
0.448197246 0.283111721 0.242378473
0.469576150 0.292346627 0.248703480
0.491081506 0.301707953 0.255028516
0.515370309 0.313851982 0.264136910
0.539785028 0.326122463 0.275648504
0.563820302 0.339531630 0.287539482
0.588615000 0.354585558 0.299430460
0.615939379 0.369765908 0.311574459
0.645920634 0.382289469 0.329032153
0.679822862 0.401770860 0.343579918
0.715116799 0.424921066 0.359266192
0.748640478 0.446552992 0.383301973
0.193801746 0.219480991 0.191018134
0.193675220 0.228336394 0.182289988
0.199240834 0.231372774 0.186590999
0.204301149 0.234408587 0.190133005
0.207969755 0.234028876 0.189120874
0.223655805 0.235546932 0.190638930
0.229221866 0.237065002 0.194686681
0.245920286 0.239341870 0.196331546
0.261606723 0.242883980 0.199620768
0.273750722 0.243769377 0.203542009
0.288804621 0.246805742 0.203795001
0.299936473 0.250854254 0.208854869
0.316508293 0.254016876 0.212776631
0.332700759 0.258570731 0.217077866
0.350916803 0.259329736 0.222770423
0.369133592 0.267804921 0.228210002
0.391397864 0.272865057 0.232764184
0.409740448 0.279190451 0.238456994
0.427956849 0.286780834 0.242251918
0.446932584 0.295382529 0.247564882
0.464136750 0.300695598 0.252751738
0.484376997 0.307779998 0.257811874
0.505629361 0.316888332 0.264010340
0.527134836 0.326249003 0.273118019
0.551423013 0.340670288 0.277672410
0.574319661 0.354838520 0.290701985
0.598608315 0.370018929 0.306388080
0.630740285 0.385199279 0.320935845
0.655407846 0.397722840 0.333079845
0.683491290 0.416951239 0.350790530
0.714737177 0.438583434 0.367868453
0.746110141 0.455787867 0.390132993
0.224161983 0.247817501 0.202150255
0.228209972 0.248829901 0.199114382
0.230613723 0.253636777 0.194687247
0.238456488 0.254143149 0.198229253
0.238456786 0.255660981 0.199367702
0.248450503 0.257305264 0.204300985
0.260594517 0.259329498 0.208854929
0.271600217 0.260973781 0.210246250
0.287160158 0.266666442 0.214041740
0.298038960 0.269196749 0.215812504
0.313092828 0.270082355 0.219987512
0.328273237 0.273118258 0.219987512
0.338519514 0.276154608 0.223782510
0.354712009 0.281594217 0.226186246
0.371157229 0.286906987 0.232258245
0.391397595 0.288045466 0.240353972
0.405060172 0.295635253 0.243389994
0.425553232 0.299810112 0.245920315
0.442125022 0.307527214 0.250600994
0.460088730 0.314611167 0.258697271
0.478304982 0.321821511 0.262871504
0.496521235 0.324984133 0.266919732
0.516761780 0.332194746 0.273118228
0.538014174 0.343200594 0.282226354
0.559519529 0.356862783 0.294876516
0.585199177 0.369259804 0.297912568
0.607716560 0.383175075 0.312966138
0.635041296 0.398355424 0.329664677
0.662492216 0.412903249 0.344212502
0.690322161 0.428589195 0.358127713
0.717014194 0.451486319 0.375205636
0.745097995 0.468943715 0.394180715
0.254522294 0.277419299 0.211258650
0.257178634 0.276660383 0.211258650
0.262239039 0.276786864 0.211385131
0.267678648 0.279569805 0.211891636
0.273750633 0.276913643 0.211891636
0.277545929 0.279190361 0.218722343
0.285894990 0.281087965 0.221884638
0.298545361 0.285262555 0.226944640
0.312966645 0.288298190 0.226944640
0.322453797 0.293991327 0.226944640
0.337381124 0.296521634 0.233902737
0.350284547 0.298545361 0.237065345
0.366603285 0.300442636 0.239342630
0.378747284 0.303731978 0.239342630
0.393042058 0.311954200 0.243643627
0.411891073 0.316128641 0.249841824
0.428209811 0.319164932 0.257811278
0.438583195 0.324604332 0.257811278
0.456293315 0.330170929 0.260341614
0.474509716 0.336242974 0.267805368
0.492726296 0.343453646 0.274256885
0.511954427 0.349525630 0.280328631
0.530424118 0.352940768 0.286653638
0.551676512 0.364073426 0.294749886
0.574067235 0.377356261 0.306135267
0.594687223 0.392030597 0.319164962
0.622011662 0.402150363 0.324730784
0.644529045 0.417330712 0.342947543
0.671094418 0.431372464 0.357368797
0.699051201 0.450600863 0.373687804
0.726754844 0.469702512 0.388868004
0.750790656 0.490954906 0.404047638
0.284883082 0.296395034 0.220873028
0.281846672 0.299177647 0.221379027
0.285515577 0.300569057 0.223276287
0.293611914 0.301328152 0.227071315
0.300569028 0.303732038 0.232131958
0.306641042 0.303732038 0.232131958
0.312966049 0.304238021 0.230107710
0.322833419 0.307527006 0.232258052
0.333966017 0.312586963 0.236812055
0.346109986 0.315622568 0.236812055
0.361163884 0.321062744 0.244781911
0.372549295 0.325616777 0.250347763
0.384567022 0.327767015 0.254016250
0.402530074 0.328273028 0.260342002
0.414674073 0.334345013 0.260342002
0.431372613 0.340164036 0.262492210
0.447059005 0.345983416 0.268564194
0.459835589 0.351423442 0.276028007
0.475016057 0.354459077 0.276028007
0.492473036 0.360531062 0.281341016
0.510942519 0.368500799 0.287919044
0.529665172 0.376344025 0.295003027
0.550791025 0.382669002 0.307020545
0.571916819 0.391903877 0.313219041
0.595445991 0.403289050 0.322074354
0.617710292 0.416824698 0.332827002
0.637192070 0.431752115 0.345224142
0.664516449 0.446932465 0.363440901
0.691081762 0.459456027 0.376596987
0.718153059 0.478178352 0.393042386
0.743706524 0.502087593 0.411132455
0.764958978 0.523340046 0.426312089
0.315243810 0.323719412 0.236053407
0.312207431 0.323719412 0.242125407
0.317773610 0.328652799 0.242631406
0.330044389 0.329664648 0.243263826
0.342188239 0.327893525 0.244149446
0.327893376 0.324984401 0.241239578
0.336495697 0.330044389 0.243769899
0.349904805 0.334851384 0.248830110
0.362301975 0.339405388 0.255028814
0.364325970 0.339911312 0.255028814
0.379379839 0.340037793 0.255028814
0.392536491 0.347375214 0.262998134
0.404048383 0.352941155 0.267425418
0.417710423 0.355597407 0.269449621
0.432890803 0.361669391 0.278557986
0.447438627 0.365338206 0.278557986
0.464769393 0.369006991 0.283744603
0.481087953 0.372675806 0.291587800
0.496268392 0.375711411 0.294243962
0.508665442 0.384313732 0.297027320
0.527767122 0.392789543 0.306388408
0.546363115 0.399873674 0.313219398
0.562934995 0.403921366 0.316128910
0.581151009 0.416065395 0.325237304
0.604554117 0.427577555 0.338267088
0.630234063 0.441113442 0.352182120
0.655155063 0.455787808 0.365717471
0.679696798 0.468184829 0.375584871
0.699051321 0.480708361 0.391144812
0.722706914 0.496394306 0.412776560
0.746742189 0.518532395 0.437318176
0.767994583 0.544592381 0.459709227
0.345603973 0.348639995 0.246426180
0.342568189 0.358254611 0.252498806
0.345983595 0.351802826 0.260721028
0.354838938 0.357874930 0.262745142
0.366983056 0.358633846 0.263883799
0.359898657 0.351549715 0.262871653
0.367362112 0.356103778 0.262492120
0.374825776 0.358886778 0.262239099
0.386969984 0.362681866 0.265275270
0.390259385 0.364326596 0.263630986
0.402403444 0.366729766 0.268437982
0.413535833 0.368754029 0.272486001
0.425300777 0.375964761 0.278937429
0.437444776 0.380265534 0.280708611
0.450474381 0.384186774 0.287666202
0.468058586 0.390259385 0.291966975
0.481720775 0.393295377 0.295002997
0.498165756 0.396963984 0.303858310
0.515116930 0.401770830 0.312207639
0.527513981 0.407969326 0.312840134
0.543453515 0.415180445 0.315876037
0.562175930 0.423782647 0.326501995
0.577609301 0.429854274 0.332447499
0.598102629 0.439721584 0.341555893
0.620872557 0.451865584 0.350664288
0.643769622 0.464010298 0.365591645
0.668058038 0.477672786 0.379759520
0.690449059 0.489816785 0.388867408
0.714231730 0.501960814 0.403288811
0.732447743 0.522959948 0.423782378
0.754585385 0.543959200 0.448703378
0.775837779 0.568247974 0.471473992
0.371410191 0.375964373 0.267678559
0.374446571 0.382036746 0.269196779
0.376344383 0.382163197 0.275901407
0.381151229 0.379380316 0.277419329
0.388994545 0.387476623 0.279443622
0.388235450 0.382922262 0.280581981
0.394813389 0.383428186 0.279064178
0.403668374 0.386211187 0.280455470
0.409740388 0.387729198 0.278178185
0.415812969 0.391524494 0.275901467
0.423150182 0.391524494 0.281593978
0.436306447 0.397596240 0.286148190
0.444276184 0.399493992 0.293358535
0.456167191 0.404807061 0.296647847
0.470841169 0.409108132 0.298924983
0.483238578 0.413029611 0.304111391
0.502973139 0.420620173 0.311701149
0.515117168 0.424288362 0.316508174
0.531562150 0.430360377 0.325110734
0.544212162 0.433396399 0.329158783
0.561669528 0.440986663 0.334092438
0.579886317 0.449083179 0.338140190
0.595699191 0.458570361 0.349272192
0.615559936 0.466287076 0.359772295
0.636053383 0.477672189 0.367362469
0.658950031 0.488424838 0.377862155
0.679190338 0.499937028 0.392409980
0.698418438 0.511069179 0.402529746
0.720809400 0.524731398 0.415433198
0.741556168 0.541176319 0.435926378
0.764199793 0.567615390 0.462871552
0.787982166 0.589500368 0.486654013
0.392662555 0.405060142 0.294117987
0.403035939 0.406325132 0.294876575
0.406578332 0.404174358 0.296394557
0.412144363 0.404300869 0.298039109
0.414041519 0.409993976 0.290069968
0.416318893 0.413029611 0.292852640
0.420619965 0.413535535 0.291461289
0.427324563 0.413535535 0.291714251
0.434029162 0.414421141 0.295256138
0.440101147 0.420493156 0.295256138
0.443896413 0.419101834 0.300442547
0.454396218 0.422896862 0.303858221
0.467425972 0.430486709 0.309171498
0.473751009 0.430486709 0.317773104
0.490828514 0.435800374 0.315496385
0.501834333 0.439468741 0.318405956
0.514484584 0.444908142 0.325616568
0.535104513 0.453384131 0.337128133
0.547248542 0.459456146 0.337128133
0.560657561 0.460594535 0.343326539
0.576596916 0.466287285 0.350031316
0.596204698 0.473877549 0.358127564
0.614421427 0.486021549 0.364452541
0.632637620 0.493105531 0.376597226
0.650853992 0.503099144 0.384187579
0.670462072 0.514484227 0.392409950
0.690702438 0.524604619 0.405060053
0.705882132 0.533965945 0.417330563
0.725742757 0.547754765 0.431372613
0.745224357 0.564706087 0.449336082
0.765971005 0.582795560 0.474383146
0.799367428 0.607084394 0.507779598
0.413915038 0.429349005 0.294118017
0.429095387 0.435420960 0.309297621
0.430866778 0.434535205 0.310056776
0.435926825 0.434029132 0.309044987
0.447438002 0.437318444 0.308286011
0.441365987 0.440354049 0.308286011
0.441113025 0.440860033 0.308539003
0.446552724 0.440860003 0.309930295
0.455408096 0.441619098 0.313725203
0.464389980 0.444782019 0.319544971
0.470461994 0.447944105 0.322454095
0.480328977 0.450474292 0.323718995
0.492726028 0.456293643 0.327387661
0.504111111 0.463883936 0.335989922
0.513219476 0.463883936 0.339025527
0.523086786 0.466793180 0.339152038
0.532194793 0.471347004 0.341176212
0.544212282 0.477672189 0.346236557
0.562428951 0.483745009 0.355344951
0.580138981 0.487033635 0.363693625
0.594054461 0.493611753 0.368753731
0.607969820 0.499684006 0.373308003
0.623529136 0.501201987 0.379632980
0.641745925 0.513346076 0.391777009
0.659961998 0.522707283 0.399367630
0.679569721 0.533459961 0.406831324
0.699810088 0.545857072 0.417204142
0.714990497 0.561037481 0.432384461
0.732826948 0.573055029 0.452624828
0.751296461 0.588994443 0.471347421
0.771284044 0.606325388 0.491840929
0.796331108 0.622264087 0.516888022
0.451866090 0.467552394 0.324731380
0.453131109 0.468058378 0.325996310
0.461859733 0.469829381 0.330423713
0.463251233 0.467425585 0.329285383
0.470461369 0.467045993 0.329285383
0.469196349 0.467678428 0.329285383
0.470714688 0.475774676 0.329285383
0.474256724 0.476533741 0.330929667
0.480708450 0.477292836 0.333965480
0.485768884 0.480329245 0.338013977
0.497533381 0.480582207 0.341176838
0.507653356 0.485642076 0.348260432
0.520936012 0.489437103 0.351676017
0.534471750 0.494497031 0.356989354
0.543580174 0.494497031 0.360024959
0.550284743 0.501707852 0.360657394
0.559013546 0.505502939 0.363693774
0.570019066 0.510310054 0.367995143
0.588235319 0.516382277 0.372801960
0.600885391 0.522454381 0.381910384
0.617204130 0.529285491 0.391018480
0.631246209 0.536369622 0.397849590
0.646426260 0.538393378 0.405818880
0.661986232 0.545224369 0.415306747
0.677925646 0.557368934 0.427450716
0.697027385 0.568374693 0.438709646
0.717267632 0.580012798 0.451106757
0.732447445 0.590639174 0.464009792
0.750284672 0.605818868 0.479190201
0.772042632 0.619860590 0.498418778
0.794054270 0.637950599 0.521948338
0.818342745 0.656925738 0.553826392
0.483744711 0.501328468 0.350537747
0.481846988 0.505123436 0.352434993
0.488045722 0.499430746 0.348639995
0.492852569 0.500695884 0.349905163
0.495508701 0.499683648 0.349778742
0.495508701 0.501201451 0.346742719
0.501834035 0.506894052 0.358127713
0.504870415 0.511068702 0.356483430
0.509930372 0.511827826 0.359013110
0.512966454 0.514864206 0.362049192
0.524731457 0.513092995 0.365085572
0.534977734 0.517140985 0.370272189
0.543706357 0.522074640 0.374825835
0.555597782 0.525110483 0.376597017
0.566350400 0.526755214 0.381277293
0.573054969 0.532068253 0.385705203
0.582163393 0.541176260 0.387223005
0.592916131 0.544339001 0.392915964
0.609866977 0.547881007 0.397216767
0.618722498 0.552055717 0.402024090
0.634661436 0.560025454 0.413029730
0.650853693 0.568121731 0.422138125
0.666792989 0.572169483 0.431245983
0.680202663 0.578241467 0.440354377
0.693485320 0.585072517 0.449841738
