Assets/Resources/EldamarStudio/100 Horror LUTs Pack/LUTs/cube/Crematory LUT.cube
LUT_3D_SIZE 8
DOMAIN_MIN 0.000000 0.000000 0.000000
DOMAIN_MAX 0.903226 0.903226 0.903226
0.000000000 0.000000000 0.086274996
0.000000000 0.017204095 0.098797999
0.039722092 0.046173193 0.112839997
0.167109638 0.089690350 0.143453285
0.280329198 0.131561995 0.167741999
0.383807480 0.178114727 0.192029998
0.491714269 0.234914273 0.234282285
0.610878944 0.299683630 0.276027828
0.000379548 0.077166550 0.103858545
0.013535639 0.082226098 0.134092003
0.095003538 0.105755992 0.139532000
0.203162536 0.130803183 0.157622010
0.299051195 0.164073542 0.179506987
0.396331459 0.206831187 0.208981559
0.500948548 0.253004581 0.245161086
0.618469298 0.317014337 0.289689958
0.114105187 0.169892192 0.173308089
0.147501633 0.186843649 0.168880552
0.216192096 0.195066094 0.179506987
0.280834645 0.207590103 0.189247444
0.354079306 0.230234191 0.207590178
0.440227479 0.259962082 0.229475081
0.536749005 0.309424281 0.269576102
0.639848113 0.364832044 0.311954290
0.254522294 0.277419299 0.211258650
0.273750633 0.276913643 0.211891636
0.312966645 0.288298190 0.226944640
0.366603285 0.300442636 0.239342630
0.428209811 0.319164932 0.257811278
0.492726296 0.343453646 0.274256885
0.574067235 0.377356261 0.306135267
0.671094418 0.431372464 0.357368797
0.371410191 0.375964373 0.267678559
0.388994545 0.387476623 0.279443622
0.409740388 0.387729198 0.278178185
0.444276184 0.399493992 0.293358535
0.502973139 0.420620173 0.311701149
0.561669528 0.440986663 0.334092438
0.636053383 0.477672189 0.367362469
0.720809400 0.524731398 0.415433198
0.483744711 0.501328468 0.350537747
0.495508701 0.499683648 0.349778742
0.509930372 0.511827826 0.359013110
0.543706357 0.522074640 0.374825835
0.582163393 0.541176260 0.387223005
0.634661436 0.560025454 0.413029730
0.693485320 0.585072517 0.449841738
0.764705658 0.630486846 0.503099322
0.597975969 0.631245971 0.465907544
0.606831014 0.640480816 0.460720837
0.618848741 0.642251849 0.474636555
0.641239643 0.650853574 0.492852628
0.673118174 0.662618577 0.507273734
0.710309744 0.677293003 0.528906047
0.748260617 0.693358541 0.552814543
0.801771283 0.720683217 0.595192969
0.729790807 0.775584936 0.629348636
0.730803192 0.789247394 0.634914339
0.741808653 0.788614810 0.639342129
0.762302399 0.788488269 0.650094986
0.781277776 0.799240768 0.663630784
0.811258674 0.810120046 0.683997452
0.835294247 0.818343043 0.705376208
0.861732781 0.839721620 0.728779554
0.000379548 0.007463549 0.105881996
0.000000000 0.021125998 0.106640995
0.040481094 0.055534095 0.129285082
0.166603193 0.104111187 0.153953448
0.277166188 0.146489203 0.177482650
0.386084646 0.192283541 0.212017551
0.487919271 0.239342257 0.241872251
0.608602226 0.303858250 0.287159830
0.000000000 0.077925541 0.121062547
0.015053639 0.090069994 0.131309554
0.097280629 0.107273996 0.148513556
0.197217077 0.138266534 0.169006646
0.301201522 0.172422186 0.190638900
0.394687176 0.214547798 0.216571540
0.497279972 0.258064538 0.253004581
0.611511588 0.315369815 0.287918806
0.126755193 0.171537101 0.167741999
0.144718289 0.179380089 0.173560739
0.197217181 0.190765545 0.187729537
0.269323289 0.207969651 0.193927735
0.352814645 0.232637465 0.214294642
0.430107355 0.265148848 0.243390352
0.527387619 0.307400554 0.273371190
0.636306167 0.369892716 0.319797516
0.256040365 0.270208985 0.210246727
0.271347642 0.270967990 0.219734550
0.301834643 0.285515547 0.223276183
0.354712188 0.296394736 0.239722103
0.422264159 0.318026394 0.257431716
0.486401349 0.340670288 0.277798742
0.567488730 0.379759550 0.310562909
0.663630903 0.427324533 0.352941334
0.365464836 0.375205278 0.276660204
0.384313762 0.378747731 0.282099962
0.407716691 0.388994545 0.285641849
0.447312206 0.397976190 0.300442725
0.495509028 0.415559828 0.311448544
0.557748377 0.437444746 0.332827181
0.633396745 0.475015819 0.369259804
0.717394114 0.523972213 0.423276335
0.482605994 0.494497001 0.350537539
0.489563286 0.497659951 0.359013230
0.509298086 0.502846301 0.361416906
0.539278746 0.515370190 0.371157467
0.582415998 0.530676782 0.390006185
0.629474819 0.551043749 0.417836726
0.688425004 0.583048761 0.453384161
0.762302220 0.628083289 0.506767988
0.594180822 0.624288559 0.461100370
0.599747002 0.631752133 0.457684815
0.607084215 0.632890522 0.461100549
0.627071679 0.640228033 0.476533890
0.664389491 0.652625203 0.497533083
0.700821996 0.664768815 0.517141104
0.742821276 0.684124291 0.541682541
0.793295443 0.715243578 0.586337924
0.721315563 0.773687780 0.616698205
0.727008283 0.773561180 0.624794066
0.727134526 0.777988374 0.625933170
0.744339347 0.777355850 0.633649290
0.766603231 0.789880037 0.647058964
0.802529931 0.802909613 0.668184876
0.832131386 0.815939188 0.696900308
0.868817329 0.826059461 0.716635227
0.000000000 0.017963095 0.130170897
0.006325001 0.029348549 0.140037552
0.053131003 0.070462093 0.156736091
0.185579091 0.113978639 0.176343992
0.292093188 0.159012988 0.199114189
0.395572454 0.203668475 0.225300729
0.499683350 0.256926090 0.262492210
0.616192579 0.313472718 0.303099096
0.000379550 0.084250547 0.145730183
0.021758191 0.093611643 0.158381000
0.116255641 0.120683096 0.170524642
0.217710182 0.148893103 0.187349901
0.312080801 0.186084747 0.215560004
0.410119832 0.226059735 0.242251799
0.511448443 0.271853089 0.267552435
0.616065800 0.330297142 0.309171557
0.126755193 0.179507002 0.199873105
0.163694099 0.195193008 0.191271186
0.233523190 0.202150196 0.200632185
0.286654085 0.218596011 0.215939537
0.365085185 0.248450294 0.240733996
0.444655359 0.280075848 0.260594636
0.535863340 0.321189284 0.294623911
0.643896163 0.373181820 0.340290815
0.276534081 0.282859087 0.237824440
0.291460991 0.289184004 0.240607187
0.326248825 0.297786087 0.247691080
0.372548819 0.307906270 0.254649103
0.428968817 0.322707176 0.273877531
0.497026980 0.351676285 0.294876635
0.576597393 0.387982219 0.328146487
0.672865331 0.439595014 0.371789902
0.386337876 0.383934289 0.294623882
0.393295258 0.393295258 0.295382887
0.416825086 0.394054383 0.302467078
0.452751368 0.403415382 0.310689539
0.502214074 0.420746237 0.326628476
0.562175930 0.441745669 0.351043463
0.633902371 0.480076015 0.383048475
0.719544590 0.530550122 0.436179638
0.492979079 0.502593637 0.363567382
0.502213895 0.508412421 0.378368080
0.519544482 0.513472736 0.386211276
0.545351207 0.523339331 0.386970192
0.588867784 0.539785087 0.409740359
0.635800123 0.555344582 0.427704096
0.691334605 0.587476373 0.466666609
0.763187647 0.634788096 0.523086548
0.600126505 0.635294259 0.470714748
0.607463777 0.637950659 0.476027846
0.620620012 0.644781530 0.485642284
0.643263638 0.647058845 0.495382637
0.673877478 0.659709096 0.513852179
0.706008971 0.670588374 0.530170500
0.748387277 0.688804388 0.558633626
0.796711087 0.720809519 0.606198788
0.729791045 0.774066925 0.627577364
0.729032099 0.780518651 0.632384777
0.737381399 0.781909943 0.639468729
0.759139836 0.790132940 0.649715424
0.776470602 0.796331465 0.665148854
0.804554045 0.806198537 0.682605982
0.837191641 0.817710400 0.705502748
0.866919577 0.836305857 0.734092295
0.001138644 0.041492999 0.155850992
0.000379548 0.050094996 0.162049279
0.068943635 0.081087641 0.178241640
0.183427915 0.115496635 0.196711004
0.296394825 0.162428632 0.224541441
0.395825714 0.204047740 0.249082983
0.502340198 0.255660921 0.284756631
0.620114028 0.320303470 0.327513993
0.009994091 0.097406641 0.178621098
0.045287725 0.104870088 0.183681533
0.127387375 0.124478094 0.194686636
0.216318727 0.152308643 0.210373446
0.317141086 0.185579002 0.232005090
0.405945718 0.225932822 0.257811278
0.513092995 0.276027828 0.290575594
0.616065860 0.333965510 0.330550194
0.144592077 0.187223092 0.220619723
0.178368285 0.193042442 0.216192186
0.223402813 0.206451550 0.224541634
0.293611258 0.224414736 0.236938626
0.371663749 0.246679083 0.261353642
0.449209750 0.282732487 0.277545720
0.545477688 0.324604750 0.314484537
0.647944152 0.378620923 0.360025257
0.270841271 0.276407272 0.253383636
0.286147922 0.282352716 0.249083102
0.330550283 0.294876635 0.270335197
0.372295916 0.307779998 0.278052002
0.435926616 0.328146368 0.295762450
0.501707613 0.353194386 0.317646652
0.579633296 0.387476265 0.352055937
0.673497617 0.437697649 0.394560277
0.392536372 0.381024748 0.321062654
0.405060172 0.387729406 0.312080920
0.424541503 0.396331370 0.327514201
0.462998271 0.402530193 0.332827181
0.505629599 0.421758533 0.341935545
0.564325869 0.446046948 0.370525151
0.631498992 0.481340826 0.404554039
0.714104652 0.531688809 0.454395801
0.493990719 0.504996538 0.385705113
0.502846360 0.504364371 0.390006393
0.517014503 0.513092995 0.398355633
0.548387349 0.522454381 0.409993738
0.590765238 0.537001848 0.426945180
0.633017302 0.555344582 0.445667267
0.692978919 0.589753330 0.481594086
0.766223729 0.632890344 0.531562448
0.596964240 0.632890522 0.486780256
0.598735094 0.639089286 0.491587549
0.613788903 0.634028912 0.492220223
0.636179566 0.641872108 0.504111290
0.667552352 0.656420290 0.520683169
0.705249965 0.669449687 0.538646281
0.745983601 0.689436972 0.564452648
0.796457887 0.715243399 0.603921533
0.719544590 0.775205791 0.643137157
0.726502180 0.775332034 0.634787977
0.731941581 0.776344121 0.640480399
0.747374952 0.782795787 0.649462461
0.770524979 0.791903853 0.663630784
0.801391363 0.799367368 0.685515344
0.833649337 0.820113719 0.706261933
0.868184447 0.838203430 0.732447982
0.000000000 0.059456188 0.206071988
0.016825181 0.071346998 0.196204737
0.111195281 0.096394897 0.213156089
0.204806834 0.130423531 0.226439193
0.303858191 0.168374181 0.244402379
0.408349097 0.213788792 0.278052181
0.504364491 0.264010012 0.313345879
0.624920607 0.325489998 0.359645784
0.062239543 0.111195087 0.207969651
0.103352189 0.124984346 0.220619738
0.156989455 0.140290990 0.226438984
0.239721984 0.162555546 0.240227640
0.323212832 0.193042636 0.258949727
0.412017465 0.231878474 0.283238739
0.515875995 0.282479644 0.319671273
0.624794781 0.334598362 0.364073634
0.181657180 0.193548098 0.237444997
0.199240729 0.202656567 0.243643194
0.247691199 0.209994003 0.253131002
0.302719742 0.229221746 0.269576162
0.374446154 0.251486301 0.282859087
0.456293821 0.287918836 0.311069101
0.552182198 0.327387542 0.347754449
0.656925797 0.384946018 0.389120609
0.289436847 0.282479644 0.276533991
0.309044719 0.289184093 0.285641730
0.337254643 0.296521425 0.291840643
0.387476474 0.315369666 0.306767613
0.440227449 0.335736632 0.321568608
0.508286119 0.363061517 0.347374797
0.587223232 0.398735076 0.375079185
0.682353079 0.442504674 0.421758443
0.395825207 0.389247179 0.343074203
0.407083750 0.391777158 0.345983535
0.434914500 0.397217095 0.355724186
0.474889189 0.412903190 0.362682194
0.519544244 0.433270156 0.382289559
0.570398450 0.454775423 0.400632441
0.640101492 0.486527294 0.431752175
0.721947789 0.526881754 0.476533800
0.500948906 0.504617274 0.414421380
0.508539200 0.509550869 0.419481516
0.530043960 0.514611065 0.426059455
0.556735992 0.526881754 0.435167611
0.594433963 0.542062163 0.456672966
0.642125010 0.561289966 0.477039963
0.702466905 0.594560266 0.509424448
0.768753946 0.636432767 0.553826511
0.599240959 0.636306167 0.507779777
0.608601987 0.639089048 0.516002536
0.618343055 0.642504692 0.517773390
0.634534895 0.648323953 0.527134359
0.672359288 0.660468221 0.545224309
0.705755770 0.675774813 0.561669767
0.746995389 0.693358541 0.587602675
0.803921402 0.725110710 0.626059175
0.710815728 0.776976585 0.646426439
0.715622604 0.778241515 0.648703456
0.724731028 0.780771673 0.652624905
0.744844973 0.786717176 0.660974085
0.771790147 0.794054270 0.681720257
0.796331227 0.806957603 0.693611503
0.837950587 0.820493281 0.721189141
0.870967746 0.838203430 0.742061734
0.044528723 0.084123738 0.248829737
0.087666012 0.094370544 0.247565001
0.157115474 0.117140733 0.258823633
0.234788358 0.143326998 0.268311232
0.322200924 0.179379985 0.282352924
0.415053487 0.219228476 0.311448723
0.514611244 0.273750752 0.349146038
0.630360663 0.329664648 0.399367571
0.109298080 0.127640992 0.251233459
0.149399281 0.140543729 0.260974228
0.194054186 0.152308539 0.267172903
0.266919464 0.172295988 0.276407272
0.341682553 0.200379461 0.294497013
0.426059246 0.241998792 0.321568549
0.522833705 0.287413090 0.350790292
0.625553548 0.337381333 0.401391804
0.215686440 0.204806834 0.290575475
0.238077089 0.210878834 0.291334361
0.267298818 0.219607741 0.285388827
0.323466271 0.235800177 0.300695986
0.387602568 0.258444190 0.320809633
0.463757187 0.291840643 0.342441708
0.551802814 0.334472090 0.378621012
0.657179058 0.390258968 0.427830786
0.312713504 0.288551629 0.317014366
0.324857473 0.295762330 0.323845625
0.354332834 0.301834404 0.331562012
0.395572275 0.313978374 0.340670377
0.453510374 0.337507993 0.357494920
0.513219655 0.363693714 0.379759341
0.586464167 0.396584511 0.410246551
0.682858586 0.446932435 0.462618470
0.409614354 0.393928200 0.379506737
0.424668074 0.393548548 0.378874362
0.441492945 0.400252998 0.384946018
0.475142628 0.416698277 0.398608238
0.519291580 0.432764113 0.414294630
0.576091111 0.457052618 0.436558932
0.645920217 0.489563257 0.464010179
0.727893353 0.528399885 0.508159280
0.505249977 0.512966454 0.448576748
0.510436535 0.512839973 0.450600922
0.531562090 0.521695077 0.458823562
0.560531199 0.533839107 0.467046082
0.595825732 0.547880888 0.488551468
0.646552980 0.569765747 0.507147670
0.703985035 0.596458018 0.539278746
0.773687601 0.630992770 0.576849699
0.602782726 0.631119549 0.540670335
0.609234571 0.635293961 0.535863101
0.617710173 0.640607297 0.542567730
0.637571275 0.646932364 0.558127642
0.669702947 0.662365675 0.570018530
0.705502689 0.678684294 0.590005994
0.753700316 0.691207767 0.609740973
0.809234738 0.726376057 0.649335563
0.714231730 0.776723802 0.673750520
0.719670773 0.778621078 0.672612488
0.725616813 0.780012488 0.672612548
0.739152133 0.789120913 0.677925467
0.759139538 0.796331465 0.692346513
0.791650712 0.808854878 0.706008792
0.833776295 0.824161947 0.733333170
0.872106373 0.841492593 0.759266317
0.133586273 0.114357993 0.313346267
0.160025537 0.122580543 0.313346267
0.212903097 0.139405191 0.320303470
0.284250289 0.167615280 0.334724903
0.365591258 0.197343200 0.350031376
0.449841738 0.237318277 0.372422725
0.534851313 0.283618003 0.404807270
0.638962626 0.339152366 0.449968517
0.170651719 0.153953463 0.316255569
0.193295255 0.153573811 0.319418013
0.237571105 0.171663180 0.324604511
0.304617286 0.193548292 0.340290934
0.378115386 0.220114097 0.357874572
0.460594267 0.257431835 0.378368050
0.542314768 0.294497311 0.404427737
0.637950540 0.346109986 0.447817653
0.245034799 0.219354808 0.343833268
0.268311530 0.224414647 0.348134041
0.298418999 0.236812174 0.359772086
0.350917041 0.250600994 0.368880361
0.418216407 0.274257004 0.382922173
0.489437103 0.303858370 0.400505722
0.576470435 0.341429472 0.434535384
0.661227047 0.391397744 0.472359091
0.331309289 0.299304277 0.380139202
0.340796977 0.304364622 0.381277561
0.369006902 0.313345999 0.384946138
0.412523627 0.323466003 0.397469640
0.470841348 0.345477253 0.417330563
0.535104394 0.368627340 0.433776259
0.607084274 0.405312926 0.460974276
0.688551307 0.448197067 0.503225625
0.423023164 0.401138484 0.435294479
0.432637215 0.408602118 0.441492796
0.450601101 0.412017465 0.445667386
0.478178471 0.419101983 0.451612830
0.525743306 0.434788376 0.469955444
0.582922459 0.459076375 0.484376818
0.651106954 0.490449309 0.511322081
0.728526115 0.531056166 0.553194284
0.516129017 0.525869906 0.506388426
0.525110483 0.529158950 0.508033037
0.539531887 0.533459544 0.512840092
0.565464914 0.542947352 0.523972273
0.600632608 0.553826630 0.535989702
0.648450673 0.569892704 0.553700447
0.711069047 0.598482192 0.580265760
0.768247843 0.631372273 0.612397552
0.605186582 0.636812270 0.576976538
0.601897597 0.641745567 0.577356219
0.616698325 0.644908488 0.581910312
0.641745627 0.653510571 0.592536211
0.670082450 0.662871301 0.604807258
0.710563004 0.678304732 0.623656332
0.757115304 0.698924243 0.644655287
0.812270522 0.721948087 0.671473801
0.713598907 0.769513011 0.687666178
0.713219345 0.773308218 0.697533071
0.721568644 0.780391932 0.698038936
0.740164757 0.786084771 0.708665609
0.762428820 0.797975957 0.725489974
0.792409837 0.805313230 0.731688738
0.829728007 0.820999324 0.755218387
0.872485757 0.841872036 0.774826050
0.221252620 0.146489665 0.433269590
0.245920181 0.150790542 0.429348588
0.292219788 0.167615175 0.431878597
0.352182269 0.185325831 0.442125440
0.430487126 0.224288344 0.462365597
0.518026531 0.260721087 0.486653596
0.606325090 0.306894273 0.514484167
0.685515404 0.366350651 0.546995580
0.246299624 0.179379985 0.420999587
0.266160369 0.181151211 0.423276305
0.302846074 0.192662984 0.438203424
0.367235988 0.213788897 0.448323816
0.439089358 0.240733713 0.463630468
0.518279374 0.276027918 0.485135734
0.598228633 0.322959810 0.511701465
0.689563513 0.376470357 0.542062044
0.298924744 0.240481079 0.451739430
0.313725352 0.246805802 0.458317488
0.343453348 0.251865834 0.459582418
0.398355424 0.268690884 0.471094400
0.466287106 0.294497073 0.487159967
0.546362817 0.324984074 0.509424508
0.623276532 0.368754268 0.535736859
0.706514597 0.417457163 0.567868412
0.346110165 0.316634625 0.478431225
0.360784650 0.318911999 0.484123886
0.392789423 0.328146666 0.490195960
0.443516612 0.343706459 0.500569165
0.501960635 0.363693893 0.513345838
0.570904553 0.386464208 0.531815171
0.646932423 0.421884626 0.554206252
0.719671190 0.468058407 0.583301663
0.422517300 0.420366824 0.522960126
0.431245893 0.424920827 0.530423999
0.444782019 0.421379089 0.531562209
0.485515326 0.427324623 0.541049778
0.541808963 0.445160985 0.552688122
0.602656722 0.470335215 0.570777893
0.676786661 0.503984809 0.594180703
0.751549780 0.546995580 0.621252179
0.522327662 0.553573430 0.591018260
0.532321036 0.554838777 0.600379467
0.540796995 0.552941322 0.604300976
0.562428653 0.554079711 0.602403224
0.594433784 0.553447068 0.604807079
0.647691607 0.574572802 0.627197623
0.717393816 0.603541732 0.647817791
0.781910002 0.638330579 0.670082331
0.619481742 0.673371494 0.660215020
0.630234122 0.674256921 0.664136708
0.632510960 0.675015807 0.664516091
0.651739478 0.678178251 0.670841455
0.671600342 0.683871269 0.676786840
0.708791673 0.689690113 0.680961311
0.751929104 0.701581120 0.700316250
0.818089962 0.729538321 0.722960055
0.707526982 0.788741589 0.733965755
0.718658745 0.792030454 0.749778092
0.729158700 0.792156816 0.747627854
0.742314994 0.796584606 0.753320336
0.758759975 0.801518202 0.758760571
0.789500237 0.812270582 0.773560822
0.826692224 0.828589618 0.788741589
0.878937542 0.850221395 0.820366561
