Assets/Resources/EldamarStudio/100 Horror LUTs Pack/LUTs/cube/Crotloch LUT.cube
LUT_3D_SIZE 5
DOMAIN_MIN 0.000000 0.000000 0.000000
DOMAIN_MAX 0.903226 0.903226 0.903226
0.070588000 0.054901998 0.011765000
0.220746115 0.056167006 0.022896998
0.478684783 0.011132416 0.007210577
0.738646388 0.087413125 0.002909872
0.984692812 0.179253653 0.000000000
0.211511701 0.216698289 0.002277292
0.268691003 0.192915976 0.000000000
0.479949385 0.203036115 0.001644708
0.738646388 0.240354121 0.000000000
0.988614798 0.282858700 0.001265167
0.397596806 0.421125829 0.000632584
0.450600803 0.425427109 0.003289416
0.505502343 0.393674821 0.000000000
0.743200541 0.437444389 0.001265006
0.987982213 0.468184829 0.000632584
0.641492963 0.701328099 0.000000000
0.674003959 0.706261992 0.002277292
0.746869266 0.709551275 0.003289004
0.800379276 0.664010108 0.000000000
0.991397798 0.667932153 0.019860992
0.859329581 0.932320774 0.106261782
0.883744657 0.930802882 0.123212866
0.948007762 0.933712602 0.143579513
0.996457815 0.922201097 0.196331471
1.000000000 0.865654826 0.274256378
0.102972701 0.080708295 0.104364686
0.219101399 0.060468286 0.102719977
0.430992812 0.098798409 0.098798402
0.682732403 0.181783989 0.127513990
0.962934732 0.242125362 0.152435228
0.146489412 0.190638691 0.082099706
0.241619110 0.194560692 0.097153693
0.423782349 0.223023400 0.109930404
0.682479560 0.270082414 0.120430246
0.962555468 0.327008247 0.154206082
0.367488801 0.399241090 0.079443708
0.415939361 0.406830817 0.085388698
0.476407498 0.380645186 0.101707704
0.707021058 0.436559111 0.113219410
0.973687172 0.487539500 0.161163777
0.605945349 0.687666118 0.021758400
0.640227854 0.690954983 0.029601822
0.717140973 0.699810266 0.026692107
0.784313679 0.656293392 0.083364800
0.983554602 0.675774693 0.194813490
0.842757642 0.924604654 0.260594696
0.864389658 0.923212767 0.250221491
0.927387714 0.922580361 0.265275091
0.990132689 0.915369809 0.300569117
0.997976005 0.867299080 0.363440990
0.186969995 0.065401994 0.300063401
0.267425835 0.088931412 0.287413090
0.429601401 0.118406400 0.262871832
0.687033534 0.166477129 0.265654832
0.946868777 0.272232801 0.313346058
0.240227714 0.223908693 0.260974407
0.297153682 0.233775690 0.258949965
0.425680220 0.241619527 0.247564673
0.670335174 0.288424999 0.269829363
0.940290630 0.388867497 0.344465494
0.275900990 0.399494410 0.207210571
0.337381393 0.409993380 0.228589684
0.475395381 0.421758384 0.269449800
0.681467295 0.474130213 0.313092947
0.940923333 0.544845223 0.378874183
0.545224547 0.679823101 0.312080652
0.573181570 0.679443359 0.307147115
0.666666746 0.681720495 0.310056984
0.747374833 0.662112355 0.334977657
0.961796224 0.709424436 0.415686488
0.793042243 0.923845351 0.455787390
0.819228351 0.917646885 0.461859167
0.883871019 0.921189189 0.469070196
0.972928345 0.921189189 0.501580894
0.996078193 0.882605970 0.526628375
0.297153860 0.132447869 0.584819496
0.355723828 0.151676416 0.577482283
0.479316801 0.182542413 0.549778342
0.702340245 0.194180995 0.527008414
0.960531175 0.294876516 0.510183394
0.331688851 0.286780298 0.544212282
0.378494412 0.294497102 0.543833077
0.486527413 0.303478867 0.528779149
0.698418677 0.303478986 0.521695137
0.950790524 0.400758773 0.518026650
0.349778563 0.448956519 0.518152833
0.412144274 0.462112963 0.511069119
0.522201300 0.494117528 0.514231265
0.704617560 0.506894231 0.514231265
0.932447731 0.596457779 0.567109168
0.394307256 0.697407126 0.451486260
0.450854123 0.698672116 0.474256843
0.583554566 0.713725150 0.509550989
0.742441118 0.725869238 0.571031272
0.933712780 0.770524979 0.639342129
0.718153000 0.929411650 0.619481444
0.750917077 0.929158628 0.650094748
0.822517395 0.924731076 0.689310372
0.921315610 0.925869823 0.694244087
0.978114784 0.907779634 0.713598907
0.359645993 0.255281776 0.885641575
0.409613937 0.271347314 0.876786709
0.526249409 0.299809903 0.871853173
0.682605982 0.354079604 0.858823538
0.959898591 0.375711411 0.850347579
0.405060112 0.387349635 0.871853590
0.446932524 0.395572484 0.864009976
0.553826332 0.415812463 0.857431769
0.698672116 0.446932167 0.852877855
0.957874835 0.470208436 0.849968433
0.500316381 0.593295157 0.850853980
0.543200552 0.612270594 0.844402015
0.624541223 0.623403013 0.845034719
0.732827306 0.634155452 0.845161378
0.947501361 0.638456583 0.833269596
0.511827648 0.778494537 0.847058713
0.553826511 0.781151116 0.837444842
0.661479950 0.776850045 0.843769729
0.780771792 0.799494088 0.834155619
0.933206797 0.802656710 0.835294127
0.627830803 0.940290630 0.779759586
0.649462581 0.945477784 0.789500594
0.727893353 0.939532220 0.809108198
0.842251778 0.941429675 0.833270013
0.941429675 0.945477784 0.885515451
