Assets/Resources/EldamarStudio/100 Horror LUTs Pack/LUTs/cube/Crotloch LUT.cube
DOMAIN_MIN 0 0 0
DOMAIN_MAX 1 1 1
LUT_3D_SIZE 32
0.070588000 0.054901998 0.011765000
0.076660000 0.051865615 0.017836999
0.080581777 0.053130776 0.021758227
0.089942999 0.058697160 0.024794161
0.109677091 0.066666998 0.027071452
0.140037864 0.066666998 0.024035066
0.177988321 0.064136676 0.020999324
0.220746115 0.056167006 0.022896998
0.263251096 0.044023000 0.027450997
0.296647489 0.031878989 0.027450994
0.335863620 0.016825132 0.018722130
0.371284246 0.009740744 0.013662260
0.405819267 0.007843000 0.009488002
0.442252040 0.008096032 0.004174968
0.478684783 0.011132416 0.007210577
0.515116990 0.016571995 0.005439809
0.551549375 0.027198186 0.002403808
0.588614702 0.041745983 0.000000000
0.628083944 0.053890012 0.000000000
0.664768994 0.063251361 0.000000000
0.701201439 0.074256994 0.001897740
0.738646388 0.087413125 0.002909872
0.777988970 0.102340475 0.000000000
0.814420998 0.111448102 0.000000000
0.853130817 0.122833565 0.002277288
0.891208291 0.134977981 0.005313317
0.926629007 0.148133993 0.006831001
0.956988990 0.166349977 0.000759007
0.984692812 0.179253653 0.000000000
0.997849226 0.193169177 0.003541982
1.000000000 0.208349362 0.009613991
1.000000000 0.223528996 0.015686000
0.070588000 0.054901998 0.008728613
0.076660000 0.051865615 0.023908999
0.082732551 0.057431772 0.019228226
0.094244219 0.060973998 0.021252159
0.117267087 0.064010158 0.025933001
0.158253863 0.066666998 0.014927453
0.188614652 0.066666998 0.014421388
0.226565495 0.064136676 0.020113993
0.265528381 0.056167003 0.024415003
0.296647489 0.044022996 0.015307002
0.335863620 0.043516997 0.018216128
0.371284246 0.035041392 0.009614265
0.405819267 0.032131776 0.004554356
0.442505032 0.032384742 0.001138645
0.481720388 0.035420414 0.004174965
0.513346195 0.040859997 0.002403583
0.548513710 0.048450191 0.000885613
0.584313869 0.059961982 0.000000000
0.618975580 0.072106026 0.000000000
0.661227405 0.087033369 0.000000000
0.698165834 0.094749987 0.003794996
0.734598339 0.103605121 0.004933615
0.772042692 0.114484504 0.000000000
0.811385334 0.123592876 0.000000000
0.850094616 0.134977758 0.000000000
0.886780262 0.145730659 0.000885613
0.921062410 0.156230390 0.001771000
0.953953326 0.169386372 0.000759007
0.986970127 0.179633215 0.002656833
0.997343183 0.191397965 0.001265170
0.996963620 0.207084194 0.001771000
0.996963620 0.226565391 0.003542000
0.077039778 0.065654770 0.018595772
0.080961548 0.064769164 0.012270614
0.084882781 0.066033773 0.023150001
0.101075545 0.070082158 0.019101612
0.126502097 0.069955774 0.025300225
0.163693637 0.074762933 0.020240229
0.196078420 0.075268999 0.013915226
0.226438761 0.075268999 0.013915226
0.263630629 0.073497772 0.020240325
0.296774030 0.066919774 0.012271001
0.335863620 0.064263001 0.014674129
0.373307973 0.060215004 0.007590008
0.405692518 0.056419998 0.001771226
0.440101266 0.057179030 0.000000000
0.477672398 0.064010128 0.001138642
0.518532574 0.067299314 0.007969970
0.551929355 0.070335321 0.006451774
0.587729514 0.078810945 0.004554208
0.621125996 0.092472792 0.000000006
0.660721004 0.103099145 0.006451774
0.697533429 0.112586766 0.000759037
0.733712971 0.119670898 0.003542000
0.770144999 0.128905758 0.000000000
0.807589948 0.140037909 0.000000000
0.844908237 0.147121996 0.000000000
0.885768294 0.159266338 0.000000000
0.921947896 0.168627769 0.000000000
0.956989348 0.177482754 0.000000000
0.983933985 0.193421826 0.002656833
0.997849226 0.202530190 0.003922000
0.996963620 0.215180367 0.002150774
0.998228788 0.233902767 0.002150774
0.089942999 0.084629998 0.019861002
0.092979379 0.084629998 0.016065774
0.102340385 0.086780548 0.010499612
0.105376318 0.087286159 0.020872839
0.136496082 0.084250547 0.023149550
0.170778081 0.087666154 0.022264162
0.200379640 0.091208160 0.018469002
0.230740309 0.092473000 0.014421161
0.262618333 0.091714099 0.014421161
0.299050987 0.091208160 0.011891484
0.333333284 0.088298291 0.010879291
0.372043133 0.088298164 0.008855169
0.408475429 0.083364807 0.000126517
0.439342201 0.083491288 0.000253032
0.474762797 0.090575412 0.001265161
0.512207448 0.096141964 0.004680800
0.552941382 0.100190155 0.007969839
0.589373946 0.101455152 0.008602415
0.623402834 0.114737362 0.002024198
0.662365556 0.123086520 0.004554201
0.699304223 0.130297154 0.006072264
0.733712971 0.137381285 0.000000000
0.770271480 0.146489665 0.000000000
0.807842970 0.157495335 0.000000000
0.844275713 0.166350171 0.000000000
0.879696310 0.172675177 0.001265161
0.920177162 0.184819967 0.000759097
0.955091834 0.192410156 0.000000000
0.984693110 0.205312967 0.002656833
0.997343183 0.216951355 0.002656839
0.996457577 0.228716135 0.002656839
0.998734832 0.244276002 0.002656839
0.109677091 0.109677091 0.003922000
0.114231475 0.110056639 0.014548002
0.126881629 0.111448318 0.012397227
0.138772711 0.112713479 0.011005550
0.142568097 0.108918093 0.021252003
0.179000869 0.105882481 0.018216388
0.207084313 0.110056996 0.015939226
0.236812398 0.113725379 0.012903164
0.267931998 0.116002098 0.010626452
0.304364026 0.112966478 0.010626450
0.332826972 0.109930225 0.005566453
0.367488742 0.112586543 0.003542452
0.405439734 0.115622647 0.002783356
0.441619486 0.113346063 0.000505999
0.475015819 0.116508223 0.003668868
0.508791745 0.122327603 0.003542452
0.544465482 0.128020540 0.002783356
0.582922459 0.134092525 0.000253028
0.619354606 0.140164554 0.003289417
0.658950090 0.146236554 0.001138643
0.697280467 0.151929095 0.001138547
0.733333528 0.158633679 0.000758999
0.769765556 0.167742059 0.000506007
0.808981717 0.176850453 0.000000000
0.845414460 0.185958251 0.000000000
0.881973624 0.193295076 0.001012124
0.915623128 0.200379133 0.003415936
0.945983887 0.212523893 0.000379552
0.978241742 0.222011238 0.002277285
0.995698988 0.229348436 0.002150783
0.999114394 0.237824529 0.000000000
0.996078014 0.256040543 0.000000000
0.140037864 0.140037864 0.003922000
0.155218259 0.143074259 0.003922000
0.164073646 0.141303033 0.003795228
0.172169641 0.141809091 0.002277161
0.175964475 0.142315254 0.006072391
0.185072869 0.133206859 0.003036002
0.208855316 0.135230616 0.005060388
0.239342406 0.135483712 0.003795229
0.273245007 0.134977773 0.001518066
0.304364026 0.137254477 0.001518065
0.337887615 0.134218872 0.001518065
0.370272130 0.135230601 0.000506065
0.404680640 0.137633935 0.000506065
0.438583106 0.137634069 0.000505999
0.471979439 0.143706828 0.006577994
0.507779658 0.151675999 0.002530069
0.542188168 0.157242194 0.002024257
0.576596856 0.161416918 0.002783359
0.610247016 0.167488948 0.000253033
0.652245700 0.173560947 0.000506064
0.694244504 0.177735671 0.005692737
0.732701123 0.182289869 0.009234807
0.766729951 0.188994437 0.006578007
0.803162754 0.198102847 0.000505998
0.835546970 0.207210630 0.000000000
0.873877048 0.213535607 0.000000000
0.915876091 0.218595862 0.000506065
0.952055871 0.230739877 0.000379552
0.979759812 0.240227818 0.000000000
0.995698988 0.247564852 0.000506065
0.999114394 0.254522592 0.000000000
0.996078014 0.265148938 0.000000000
0.180518642 0.188108966 0.003922000
0.193168700 0.183555037 0.001391678
0.206198856 0.184440643 0.001391678
0.214421630 0.181783795 0.000000000
0.219101965 0.180392325 0.001391678
0.226059571 0.169133708 0.000506065
0.235167950 0.162555635 0.000000000
0.258064628 0.163946956 0.003036386
0.289437205 0.163314536 0.001771226
0.319797695 0.166350156 0.000000000
0.345477283 0.163567513 0.000000000
0.378874421 0.166603640 0.000000000
0.412270963 0.170145318 0.000000000
0.445667356 0.171789676 0.000000000
0.479063690 0.175585151 0.001517995
0.512460053 0.179253519 0.002783001
0.547248542 0.186590701 0.000000000
0.581277549 0.191271633 0.001391679
0.616571665 0.197343647 0.000253037
0.655787766 0.200885326 0.005059999
0.696394682 0.206957310 0.001265003
0.738266945 0.211638257 0.004174679
0.776344001 0.217710629 0.002909514
0.812776804 0.224415228 0.004048320
0.849209547 0.233523011 0.002530322
0.882858932 0.238456309 0.001138650
0.922960341 0.241366059 0.000506064
0.957368851 0.251486301 0.002530322
0.985831797 0.258443832 0.000000000
0.997217000 0.267552197 0.003541982
0.998229027 0.279696286 0.006830990
0.993548334 0.297026992 0.010119998
0.211511701 0.216698289 0.002277292
0.223655686 0.220493704 0.000885613
0.235800236 0.218722701 0.004933705
0.245414704 0.219987541 0.001138544
0.252625257 0.216571704 0.000379548
0.262492418 0.204427704 0.001644708
0.266161025 0.197343692 0.003288997
0.268691003 0.192915976 0.000000000
0.294497192 0.192915976 0.003795289
0.324857980 0.195066214 0.003415511
0.351043731 0.192283571 0.000000000
0.383048743 0.192030683 0.000000000
0.414168626 0.198102698 0.000000000
0.446553022 0.201391399 0.000253032
0.479949385 0.203036115 0.001644708
0.511701465 0.207716599 0.001644708
0.548133850 0.212270394 0.001644708
0.583681345 0.218342975 0.001644708
0.622137785 0.224415004 0.001644710
0.659709096 0.229348347 0.002277007
0.699177682 0.234282106 0.004048004
0.738646388 0.240354121 0.000000000
0.780265689 0.246426687 0.000000000
0.816698074 0.252498686 0.001518196
0.853130817 0.259203106 0.003922000
0.888171911 0.266919374 0.002530328
0.924351692 0.268437386 0.000000000
0.958886683 0.276407123 0.001897740
0.988614798 0.282858700 0.001265167
0.996711016 0.290701896 0.000252985
0.998481989 0.298924714 0.004554003
0.995445967 0.318658710 0.009108006
0.235800087 0.233396277 0.001517998
0.247944281 0.243263766 0.000000000
0.260088623 0.246047094 0.004174680
0.268943995 0.247311935 0.010246933
0.274257004 0.249588639 0.001138547
0.287539840 0.238583177 0.002656839
0.291587889 0.230740085 0.004933678
0.292220473 0.224794373 0.006072001
0.292979181 0.220999092 0.000000000
0.323339999 0.220999092 0.006071999
0.348513782 0.218848869 0.002024001
0.380392402 0.219355002 0.001517998
0.414168626 0.220114008 0.000000000
0.441239983 0.225933030 0.000000000
0.473118275 0.226439089 0.002530320
0.505629539 0.232005179 0.003162904
0.539785147 0.238077179 0.003162904
0.581151068 0.244149178 0.003795480
0.623908997 0.250221223 0.003921998
0.660088658 0.255534291 0.001138644
0.698418796 0.261606574 0.000000001
0.737128198 0.267679095 0.000000000
0.776723802 0.273751110 0.000126513
0.814420998 0.279823124 0.000759096
0.850853562 0.285895079 0.003036190
0.885894656 0.291208178 0.003289424
0.918785155 0.298292190 0.000759096
0.954711854 0.304870158 0.000759096
0.987349629 0.308665097 0.002277094
0.994939983 0.318026274 0.000000000
0.993927956 0.326249093 0.002277094
1.000000000 0.332321078 0.002277094
0.269196510 0.272865444 0.007589996
0.281341255 0.275901079 0.001517999
0.293485433 0.275015801 0.000000002
0.301834345 0.274636358 0.004174677
0.304617018 0.276913047 0.010246933
0.304617047 0.273877442 0.001138549
0.310309500 0.265401661 0.000126516
0.316128939 0.256419808 0.003541995
0.323339999 0.248323500 0.006071999
0.335483968 0.242251500 0.000000000
0.354205966 0.242251500 0.000253000
0.380898029 0.246172994 0.004047994
0.411511779 0.249715000 0.005313000
0.441239983 0.250221044 0.000000000
0.465527982 0.253257453 0.000000000
0.499810100 0.260974318 0.000126516
0.535989940 0.268437982 0.000126516
0.575079143 0.274509996 0.000759092
0.623656034 0.280582011 0.003795484
0.658064425 0.283871353 0.001138647
0.695382774 0.288931489 0.000000004
0.733839452 0.295003504 0.000000003
0.770650983 0.301075518 0.000126514
0.813155830 0.307147533 0.003162904
0.850853562 0.313219517 0.006072190
0.885894656 0.317900181 0.006325197
0.918785155 0.322580993 0.003795485
0.949145854 0.334724963 0.003795483
0.985072613 0.333333164 0.009108467
0.992916048 0.341302663 0.006072283
0.988108993 0.353573501 0.002656598
1.000000000 0.359645486 0.011385479
0.285135865 0.294876873 0.002024001
0.303098917 0.300822347 0.001770999
0.308791906 0.301707745 0.004300999
0.318659008 0.301960707 0.003288999
0.327387393 0.304237425 0.003036130
0.334977746 0.301201791 0.001518065
0.332447439 0.298165560 0.000000000
0.339025587 0.293105602 0.000000000
0.345604092 0.285768628 0.002024001
0.351296872 0.275395602 0.000253000
0.360531002 0.272232741 0.000000000
0.384819776 0.268184751 0.000000000
0.413156509 0.270714760 0.002024001
0.441999018 0.274762720 0.000000000
0.474256843 0.280455291 0.000000000
0.508159459 0.290701866 0.000000000
0.544592202 0.295762002 0.000000000
0.581024766 0.299050987 0.001897567
0.620493174 0.305122972 0.009487964
0.663503885 0.311195731 0.006957643
0.699177444 0.316255867 0.005818999
0.735610247 0.322327882 0.004807129
0.770144999 0.328399867 0.002909871
0.807083786 0.334471852 0.003162904
0.847311795 0.335989863 0.001644712
0.885768473 0.343579829 0.004806991
0.921188891 0.351170063 0.005819130
0.949145854 0.356103867 0.001012130
0.982162774 0.360278040 0.001012129
0.998861372 0.363061309 0.003036130
0.995066404 0.373055130 0.000000000
0.997090161 0.381150872 0.003036130
0.314484507 0.324225247 0.008095992
0.326628745 0.328273505 0.002024256
0.334092021 0.328020245 0.002277259
0.339658409 0.329285413 0.004554098
0.350284517 0.331941754 0.000379548
0.357748181 0.330550432 0.002024256
0.364832431 0.327514172 0.000000000
0.368374020 0.324477792 0.000000000
0.375964344 0.321442068 0.000000000
0.379000723 0.313093245 0.000000000
0.381783634 0.307653636 0.000000000
0.392915517 0.300569236 0.000000000
0.420240372 0.295635581 0.000000000
0.447564840 0.299051046 0.000000000
0.477419645 0.305123508 0.000000000
0.513219297 0.316002488 0.002024256
0.549652100 0.322074503 0.002024256
0.585452259 0.323339492 0.001391680
0.620493054 0.329411507 0.004933714
0.658443749 0.335483700 0.004933647
0.695255697 0.343453735 0.005692744
0.730550051 0.348640144 0.004807132
0.764452696 0.353700012 0.001897744
0.806577802 0.359772533 0.001897744
0.845287800 0.363314241 0.003668968
0.879190624 0.366097242 0.002024256
0.917141080 0.375964254 0.007337194
0.953573406 0.380518436 0.008854998
0.984187007 0.381530404 0.006072253
0.998102248 0.384566456 0.000759054
0.999114394 0.390385985 0.000000000
0.996078014 0.398355246 0.000000000
0.345224649 0.357621640 0.012270648
0.353194386 0.357242376 0.005439743
0.359139860 0.357115865 0.003922000
0.366982788 0.356609792 0.003795483
0.375332177 0.358887076 0.000759096
0.380645275 0.358127981 0.002277291
0.386970311 0.357874960 0.001391678
0.397216916 0.358254194 0.001138644
0.407842726 0.355217814 0.000379548
0.412397116 0.352182120 0.000000000
0.414800644 0.346236646 0.000000000
0.421758294 0.337002039 0.001138644
0.429348290 0.330170631 0.000000000
0.456166685 0.327134311 0.000505999
0.481720567 0.330550462 0.002276998
0.516255617 0.340290993 0.001265160
0.552688003 0.348640293 0.002783356
0.589753151 0.350537688 0.002783356
0.624161661 0.357115626 0.000253032
0.659202695 0.360910624 0.000000000
0.697153389 0.371157378 0.003036094
0.731561899 0.380265772 0.003036356
0.765085459 0.383554399 0.000000000
0.806577921 0.388614804 0.000000000
0.846426189 0.392409980 0.001138644
0.882605970 0.395698905 0.002783356
0.911448479 0.401770920 0.003289420
0.955091417 0.407842904 0.011132186
0.987349629 0.410878927 0.009614203
0.998861372 0.413788468 0.006451802
0.999746978 0.415939271 0.006198581
0.997216642 0.421505272 0.007969637
0.367236078 0.390765071 0.003668968
0.373308063 0.385958076 0.000885613
0.379633009 0.383681089 0.001897742
0.389500171 0.384946197 0.003668968
0.402909547 0.386970490 0.003542452
0.405945927 0.383934110 0.000506065
0.408981740 0.386464387 0.000253032
0.417457044 0.389880031 0.001644708
0.428842157 0.394433945 0.003162904
0.444022536 0.391397566 0.000126516
0.450980067 0.385452032 0.000000000
0.459076315 0.375838071 0.002277224
0.465275079 0.366856456 0.003036388
0.466034055 0.363314062 0.000000000
0.487286389 0.360278457 0.006071994
0.519038558 0.366097242 0.003036004
0.555471361 0.373940408 0.000000000
0.592536509 0.380645424 0.000505999
0.632005036 0.389753044 0.000505999
0.666160405 0.391271055 0.000000000
0.704743505 0.399999738 0.003288997
0.745477259 0.412397146 0.005819002
0.781910002 0.421505511 0.000000000
0.815432966 0.424794137 0.000000000
0.851359546 0.427830338 0.000253032
0.886400700 0.430866688 0.000505999
0.920050144 0.434408993 0.000253032
0.956482887 0.440480977 0.003289416
0.987349629 0.446300030 0.001265167
0.998481810 0.452118993 0.000253032
0.996457636 0.457179010 0.005945549
0.999494016 0.457179010 0.027197968
0.397596806 0.421125829 0.000632584
0.403668821 0.430234194 0.000632584
0.411891043 0.425427228 0.000000000
0.422896534 0.424415052 0.000632584
0.436179370 0.426312387 0.000632584
0.436305881 0.420366883 0.000506065
0.439342290 0.427451104 0.002530322
0.450600803 0.425427109 0.003289416
0.462238878 0.423276395 0.003162904
0.462239295 0.427830309 0.000126516
0.474509805 0.421884805 0.000000000
0.483365059 0.415812790 0.004047996
0.491334796 0.408475816 0.006072224
0.496394783 0.402783185 0.003036384
0.505502343 0.393674821 0.000000000
0.524351537 0.393042386 0.001265006
0.555471361 0.399493992 0.000000000
0.592536509 0.407969803 0.001264990
0.632005036 0.417077422 0.006577987
0.668690741 0.426185757 0.001011990
0.704490900 0.431498796 0.000000000
0.743200541 0.437444389 0.001265006
0.781910002 0.439721465 0.000000000
0.818342805 0.448829859 0.000000000
0.856419683 0.452119082 0.002277288
0.892472982 0.455155134 0.004680734
0.925869882 0.458696991 0.005565995
0.959519267 0.464768976 0.000253032
0.987982213 0.468184829 0.000632584
1.000000000 0.471853167 0.001771217
0.997596443 0.477292567 0.007716781
0.993421972 0.484503388 0.024161585
0.435167760 0.458696783 0.000000000
0.443643570 0.462998182 0.004806995
0.443263799 0.467805564 0.000505996
0.452624589 0.465022564 0.000000000
0.465148330 0.466160864 0.000379548
0.467172593 0.462112576 0.002403804
0.476913095 0.461480111 0.000126518
0.478304774 0.465654790 0.001518196
0.488930792 0.461100578 0.001518196
0.490828484 0.463883609 0.000126516
0.502340555 0.463124573 0.000000000
0.512460291 0.459076315 0.000000000
0.522707224 0.449968427 0.004174649
0.531562507 0.440354586 0.003922000
0.540670097 0.435547173 0.003036388
0.544971406 0.428842604 0.000000000
0.561670005 0.427324414 0.000000000
0.593169093 0.433523148 0.000000000
0.634408832 0.444402426 0.002530003
0.671094537 0.451106936 0.002276996
0.707526803 0.462112576 0.000000000
0.744971573 0.469196588 0.000000000
0.784313798 0.471853107 0.000000000
0.820746601 0.471853465 0.000000000
0.857178807 0.478684574 0.002277288
0.895129323 0.484630108 0.003922000
0.928526223 0.490195811 0.005439809
0.958127618 0.496267766 0.003162811
0.986211002 0.494876623 0.000000000
0.999367416 0.499683768 0.000000000
0.999114394 0.504237592 0.012144367
0.994560182 0.511827767 0.037950598
0.470082372 0.495129555 0.001518192
0.476154387 0.499683768 0.003036003
0.481214404 0.501201928 0.005060193
0.481973171 0.502973139 0.000253031
0.491713732 0.503732145 0.000000000
0.492473125 0.504111409 0.001897743
0.503099203 0.502087176 0.002909870
0.513219357 0.500569344 0.000000000
0.515496433 0.501328290 0.000000000
0.522327542 0.502087176 0.000000000
0.529664695 0.500569344 0.000000000
0.547375321 0.503099322 0.004554189
0.554205954 0.496647567 0.002277191
0.564453006 0.482606292 0.003668968
0.571030915 0.478304744 0.002403808
0.576849997 0.471347362 0.001518196
0.587476194 0.463757187 0.000000000
0.603921533 0.461353362 0.000632576
0.640227795 0.469955921 0.001518191
0.674130499 0.476534009 0.000000000
0.710563183 0.486400962 0.000000000
0.746995449 0.497533113 0.000000000
0.785831988 0.504111171 0.000000000
0.822264791 0.505249918 0.000000000
0.857179165 0.507527173 0.000759096
0.892219841 0.510816157 0.002403808
0.928526103 0.518532336 0.003415807
0.958886623 0.523592174 0.005439805
0.984692812 0.526249170 0.001265167
0.996331036 0.528526366 0.000000000
0.999367416 0.532827377 0.012397162
0.997596204 0.537634373 0.050094996
0.499177963 0.531689107 0.003289424
0.503478706 0.537128508 0.000885614
0.508665144 0.538267076 0.001518198
0.516002119 0.537634492 0.003921829
0.520935655 0.537634492 0.000505992
0.517900050 0.543200493 0.000000000
0.526881516 0.541682363 0.002530321
0.538013816 0.539278805 0.002277292
0.545857012 0.538393557 0.000000000
0.554965436 0.541429222 0.000000000
0.559519231 0.539278984 0.000000000
0.573561072 0.541682482 0.004174685
0.591144919 0.542821109 0.008855428
0.594686568 0.531183124 0.003795424
0.598481953 0.525110424 0.001897574
0.603921533 0.516002297 0.000000001
0.614800751 0.507526934 0.000000000
0.631119132 0.498418540 0.000632576
0.652371585 0.498418540 0.003668965
0.678810716 0.502087116 0.001138643
0.712333858 0.510056555 0.000000000
0.748766661 0.521188676 0.000000000
0.785072863 0.530297041 0.000000000
0.820999622 0.536875129 0.000000001
0.853890300 0.540037811 0.000632576
0.889816642 0.543580115 0.000000000
0.923213065 0.544086039 0.000000000
0.959519267 0.547121704 0.005819002
0.985325575 0.550917208 0.002530013
0.996078014 0.556356966 0.000000007
0.996963620 0.561290562 0.010499608
1.000000000 0.561290562 0.053004444
0.523466051 0.580265999 0.000253032
0.532574415 0.583301663 0.000253035
0.539026022 0.582289815 0.000000003
0.547628045 0.579506814 0.002783031
0.557368517 0.577103019 0.006577995
0.554332912 0.577103019 0.000506001
0.561416686 0.575079322 0.002530320
0.572422385 0.573687911 0.002277290
0.582036853 0.574952960 0.000000000
0.585325599 0.580898464 0.000000002
0.594433963 0.581024945 0.000000000
0.603036284 0.582795739 0.000000000
0.613409400 0.583807647 0.000759033
0.622011065 0.579760015 0.000759038
0.631119490 0.573687971 0.006831020
0.637318015 0.562808335 0.002530005
0.646426439 0.553952992 0.000000002
0.658444405 0.546995461 0.000632576
0.667551994 0.537887037 0.003668965
0.683238387 0.535104394 0.001138643
0.711068749 0.536622286 0.000000000
0.745730281 0.542441189 0.000000000
0.782036483 0.551549554 0.000000000
0.815432966 0.560657978 0.000000006
0.844528913 0.562682033 0.002277291
0.880708635 0.567109704 0.002277296
0.923213065 0.574446917 0.000000000
0.956609428 0.577482581 0.000000000
0.982289612 0.575205863 0.000506004
0.994180739 0.576470792 0.000000022
0.996963620 0.579759657 0.009740610
1.000000000 0.582543015 0.043896109
0.570018768 0.620493412 0.000000000
0.573561132 0.623529732 0.002783356
0.571916759 0.626565337 0.002783357
0.576723576 0.627324522 0.001518196
0.586969912 0.626945138 0.002276996
0.593548298 0.622138083 0.001012000
0.598102391 0.624667764 0.000000000
0.605312705 0.623782396 0.001138643
0.615939140 0.624541521 0.000759096
0.627071261 0.628589749 0.002783355
0.635926604 0.631625414 0.000000000
0.645035028 0.631625414 0.000000000
0.651866138 0.632763743 0.002276998
0.657684743 0.631372452 0.005060005
0.666793168 0.627830744 0.001011992
0.680708528 0.616951764 0.004680800
0.690955043 0.607843041 0.001265165
0.700569391 0.601770759 0.000000000
0.703225791 0.594813108 0.000885611
0.712334156 0.591271520 0.001138643
0.731309474 0.582542658 0.000000000
0.762175977 0.583174884 0.000000000
0.798482180 0.591903746 0.000252992
0.831878662 0.593042314 0.005566003
0.867552280 0.602150679 0.003289297
0.897786319 0.605060101 0.002530328
0.933333039 0.609867036 0.000000000
0.962175429 0.610625982 0.000000000
0.987602651 0.611005425 0.005312988
0.997722983 0.609867036 0.021505147
0.998861372 0.612776637 0.050094727
1.000000000 0.617710710 0.104364462
0.609108210 0.661859453 0.000000000
0.604554117 0.661100864 0.001138647
0.612523735 0.666034460 0.002024260
0.612776875 0.669070005 0.003289421
0.621125638 0.671347260 0.001518192
0.627197623 0.666793525 0.000000000
0.631878436 0.666413903 0.001897740
0.639595151 0.667805195 0.000253032
0.649715304 0.668564081 0.000000000
0.667172670 0.671600163 0.001897743
0.674636304 0.668943584 0.001012129
0.679949284 0.671853185 0.000000000
0.690196276 0.674130201 0.002276998
0.696268201 0.675142229 0.007337000
0.707020879 0.670461893 0.001265006
0.717141271 0.664010525 0.000506064
0.729285240 0.656420290 0.002024260
0.739784718 0.651359618 0.000000000
0.742314696 0.646552444 0.000000000
0.746869087 0.637571037 0.000000000
0.757874727 0.632637739 0.000000000
0.777103126 0.620493174 0.000000000
0.807084262 0.623023450 0.000000000
0.838709950 0.623023450 0.002530005
0.876280785 0.626059234 0.003668552
