Assets/Resources/EldamarStudio/100 Horror LUTs Pack/LUTs/cube/Crotloch LUT.cube
LUT_3D_SIZE 8
DOMAIN_MIN 0.000000 0.000000 0.000000
DOMAIN_MAX 0.903226 0.903226 0.903226
0.070588000 0.054901998 0.011765000
0.109677091 0.066666998 0.027071452
0.263251096 0.044023000 0.027450997
0.405819267 0.007843000 0.009488002
0.551549375 0.027198186 0.002403808
0.701201439 0.074256994 0.001897740
0.853130817 0.122833565 0.002277288
0.984692812 0.179253653 0.000000000
0.109677091 0.109677091 0.003922000
0.142568097 0.108918093 0.021252003
0.267931998 0.116002098 0.010626452
0.405439734 0.115622647 0.002783356
0.544465482 0.128020540 0.002783356
0.697280467 0.151929095 0.001138547
0.845414460 0.185958251 0.000000000
0.978241742 0.222011238 0.002277285
0.235800087 0.233396277 0.001517998
0.274257004 0.249588639 0.001138547
0.292979181 0.220999092 0.000000000
0.414168626 0.220114008 0.000000000
0.539785147 0.238077179 0.003162904
0.698418796 0.261606574 0.000000001
0.850853562 0.285895079 0.003036190
0.987349629 0.308665097 0.002277094
0.345224649 0.357621640 0.012270648
0.375332177 0.358887076 0.000759096
0.407842726 0.355217814 0.000379548
0.429348290 0.330170631 0.000000000
0.552688003 0.348640293 0.002783356
0.697153389 0.371157378 0.003036094
0.846426189 0.392409980 0.001138644
0.987349629 0.410878927 0.009614203
0.470082372 0.495129555 0.001518192
0.491713732 0.503732145 0.000000000
0.515496433 0.501328290 0.000000000
0.554205954 0.496647567 0.002277191
0.587476194 0.463757187 0.000000000
0.710563183 0.486400962 0.000000000
0.857179165 0.507527173 0.000759096
0.984692812 0.526249170 0.001265167
0.609108210 0.661859453 0.000000000
0.621125638 0.671347260 0.001518192
0.649715304 0.668564081 0.000000000
0.690196276 0.674130201 0.002276998
0.729285240 0.656420290 0.002024260
0.757874727 0.632637739 0.000000000
0.876280785 0.626059234 0.003668552
0.989879608 0.640607238 0.007210728
0.733206570 0.812017262 0.006198708
0.741935551 0.814547956 0.000000000
0.771916270 0.813282847 0.000000000
0.817330897 0.813282847 0.001644712
0.860341489 0.812523544 0.001644712
0.885009527 0.793801308 0.000000000
0.922454298 0.754459262 0.005566292
0.993927538 0.741176546 0.062492162
0.859329581 0.932320774 0.106261782
0.866287231 0.932068050 0.110056490
0.890828788 0.930297077 0.122707009
0.930297196 0.929664671 0.134851128
0.970145285 0.928652406 0.148007125
0.994939983 0.923212945 0.186717004
1.000000000 0.902087331 0.230866224
1.000000000 0.865654826 0.274256378
0.083491549 0.067425996 0.034408998
0.118658639 0.062744997 0.041872546
0.251486182 0.055281550 0.049335994
0.362682104 0.085768647 0.051233545
0.496267915 0.107273988 0.056799546
0.660720885 0.129917800 0.052498288
0.823276520 0.159772098 0.047438547
0.974319756 0.202024281 0.071473531
0.089690544 0.105755992 0.036432549
0.148893103 0.105755992 0.030866545
0.235800087 0.125743449 0.049336001
0.361543626 0.137128085 0.055281546
0.493231744 0.155471534 0.044149354
0.658064485 0.178114817 0.046552546
0.812270522 0.205565840 0.040733807
0.964452565 0.240101531 0.052624632
0.210753009 0.208349094 0.031625640
0.235420644 0.217457563 0.037191547
0.261606276 0.196204647 0.047058996
0.379632950 0.216571644 0.037571095
0.513093054 0.239215732 0.038330093
0.661859453 0.269449979 0.029221930
0.827956557 0.295635819 0.024288096
0.976976275 0.319544494 0.058064532
0.323086739 0.338772744 0.002656546
0.350158185 0.329664260 0.007463548
0.376723379 0.333586305 0.001897548
0.406071842 0.315243721 0.011258545
0.525995910 0.334345281 0.017710356
0.672738552 0.363441050 0.004933544
0.823656023 0.393928200 0.004554092
0.965211689 0.413789004 0.026818266
0.452878177 0.486906737 0.002783356
0.468690991 0.485136032 0.002403808
0.499430716 0.483997375 0.000379548
0.536242723 0.479317158 0.001518192
0.565211773 0.457432359 0.002656643
0.687412798 0.476154268 0.000000000
0.845793903 0.508539021 0.003415545
0.980644941 0.524478197 0.037444700
0.583428502 0.647312045 0.001518192
0.597343564 0.655787170 0.000379548
0.636053383 0.652498484 0.002024260
0.675268471 0.654775500 0.005566099
0.712966442 0.645034909 0.000379548
0.746489644 0.611258924 0.001518192
0.864136755 0.624794424 0.006451736
0.988614798 0.639468491 0.079443395
0.713472545 0.798482299 0.001897740
0.724857807 0.798734844 0.002024260
0.750537455 0.795825303 0.000758999
0.790385723 0.798482299 0.000759096
0.839595139 0.800379574 0.003668552
0.869829476 0.775458753 0.003921903
0.903731823 0.746110260 0.011132348
0.983681202 0.736243010 0.111828007
0.843896329 0.931055963 0.148260280
0.860974133 0.923971951 0.154712006
0.880455673 0.922833502 0.140923381
0.911195457 0.920050621 0.149145931
0.951676250 0.926375449 0.175964460
0.991144776 0.917773545 0.211511463
0.996837139 0.898165345 0.261986405
0.997975826 0.865148604 0.289816231
0.110562898 0.078431003 0.135483995
0.147248194 0.069829099 0.130803093
0.256293118 0.064262994 0.131562188
0.381277621 0.078305095 0.116381742
0.500822186 0.117520288 0.124605000
0.639721811 0.170904383 0.147501618
0.797343254 0.220872790 0.161037087
0.957368612 0.257558554 0.181530654
0.144212186 0.128146544 0.117520191
0.176344097 0.135230646 0.104490638
0.248070642 0.139532000 0.113599002
0.358127981 0.156736106 0.112839997
0.487413228 0.184060976 0.130043983
0.631878853 0.221378535 0.149652094
0.791524053 0.249462336 0.156989351
0.957495391 0.282858878 0.184693366
0.168501094 0.220240191 0.100316092
0.213156104 0.230866551 0.105376549
0.274257004 0.225679994 0.121442094
0.373434544 0.238204002 0.127261445
0.489690185 0.264010191 0.137887195
0.644781470 0.288298488 0.143200189
0.804554224 0.321189106 0.159772098
0.960531473 0.352561653 0.188867912
0.306008637 0.341682166 0.120303452
0.323212832 0.340923250 0.111954182
0.373055011 0.339278996 0.117899746
0.393674731 0.320430189 0.120935738
0.513093174 0.346995443 0.131562278
0.655914187 0.375838280 0.139531732
0.811891139 0.409614265 0.150158197
0.960151851 0.440227449 0.184187114
0.427071303 0.474763095 0.097786188
0.445793986 0.481846988 0.110942550
0.480329007 0.479443192 0.104238100
0.515496254 0.479063720 0.103352197
0.552435160 0.453637093 0.123718999
0.674383402 0.479696542 0.132700831
0.828083515 0.519418061 0.151676089
0.974193573 0.542441428 0.193295181
0.569766104 0.649968624 0.074383192
0.589500070 0.651360095 0.073877446
0.620493412 0.656040609 0.068817191
0.660847545 0.654143214 0.065907545
0.699177742 0.647058666 0.086274549
0.736242890 0.618089557 0.128905475
0.850347996 0.636179626 0.166729912
0.985831618 0.653763711 0.230487049
0.705249906 0.801518083 0.111827947
0.725616693 0.802277148 0.124351636
0.746109962 0.806451559 0.116761655
0.790132821 0.805186629 0.121189073
0.836812079 0.804807067 0.117394075
0.865527928 0.784945846 0.148260370
0.898039401 0.747628212 0.186970085
0.984819531 0.749652028 0.260468066
0.841745615 0.926881790 0.306641459
0.846046984 0.929158509 0.302213490
0.864895642 0.929284811 0.301834315
0.911827922 0.929158509 0.310689569
0.947375119 0.930043876 0.320050567
0.985072553 0.925236881 0.333712935
0.997469962 0.899810016 0.357621789
0.997469962 0.870841026 0.398102403
0.158127993 0.064390004 0.245667279
0.191018283 0.055913739 0.242251635
0.259582639 0.080582000 0.225806728
0.361037284 0.090828992 0.209740281
0.501328170 0.122201189 0.207716629
0.643769503 0.150031641 0.212523729
0.798734903 0.189500287 0.236053199
0.944718599 0.283617973 0.277039945
0.193801641 0.144086182 0.210752815
0.209360838 0.151422739 0.206957638
0.265148640 0.153447092 0.205060184
0.350790322 0.158127993 0.192915633
0.489183903 0.180518538 0.196078435
0.631372452 0.207969546 0.216445535
0.783681214 0.245034784 0.233143464
0.932194471 0.327513993 0.285768181
0.208349183 0.229854733 0.202024087
0.245161280 0.234914288 0.206704289
0.291840732 0.246679276 0.198861271
0.370018810 0.250221550 0.197217181
0.490322351 0.274509728 0.209108278
0.621125638 0.302213877 0.232131720
0.784440100 0.358001173 0.265654653
0.934598505 0.401264727 0.299937010
0.240480989 0.331941575 0.167741925
0.264769197 0.334724933 0.172675550
0.334598184 0.349651873 0.198861271
0.400253266 0.350410879 0.209740281
0.502466619 0.366856635 0.220999718
0.628842473 0.394181013 0.238709465
0.784313619 0.429474920 0.263124585
0.937128425 0.467678726 0.296647906
0.374573201 0.475395381 0.200379178
0.406198621 0.476154149 0.215180278
0.448830277 0.475774705 0.222390994
0.499810368 0.473750353 0.222643912
0.528779149 0.458064377 0.224161923
0.660721004 0.496141911 0.248071283
0.814041555 0.535483897 0.278684258
0.952688158 0.567868114 0.322580457
0.529285491 0.634282470 0.236179367
0.542062104 0.637824118 0.235420361
0.576470494 0.638583004 0.236432284
0.628969312 0.641745806 0.238456652
0.678304672 0.639468729 0.246806011
0.711954415 0.617077470 0.258823276
0.839468956 0.642251551 0.295509279
0.962681770 0.676154435 0.353573442
0.667046189 0.797090173 0.276660562
0.676660419 0.796078384 0.280961275
0.705882311 0.791524172 0.275142342
0.753447235 0.790385544 0.278937250
0.803036273 0.793674529 0.277672291
0.842251599 0.781151354 0.290575624
0.875521958 0.753320932 0.317646891
0.969386637 0.758127689 0.368754089
0.812776923 0.924477756 0.412650108
0.825553596 0.921821535 0.408222526
0.840354085 0.921062708 0.414168090
0.880835116 0.920050442 0.416445374
0.925743163 0.922706962 0.421505511
0.970777690 0.924351573 0.436811984
0.989500046 0.906641364 0.459582567
0.997469962 0.881214619 0.480581731
0.221758381 0.076027803 0.376849979
0.255154818 0.092473187 0.369766176
0.311954200 0.108918190 0.359519273
0.374952525 0.133586347 0.342314988
0.502973139 0.141809195 0.337634385
0.651107073 0.163693994 0.328146368
0.811511636 0.199620277 0.338140488
0.951929152 0.277925462 0.366856158
0.240227535 0.170018896 0.337002188
0.273624212 0.175585091 0.337254852
0.315369815 0.183428094 0.336875170
0.378494382 0.195192903 0.319923848
0.490195841 0.190385908 0.314105004
0.641239882 0.214294553 0.315875828
0.800759137 0.249842077 0.333965868
0.942061901 0.306514710 0.364832371
0.284503162 0.262492001 0.324225098
0.306008637 0.279063910 0.324730933
0.338519990 0.275016099 0.320303291
0.394560665 0.278178096 0.304996759
0.495888442 0.282099992 0.307780176
0.640733600 0.307779968 0.321948200
0.795951724 0.347754270 0.349146187
0.941302896 0.413282543 0.394054204
0.272865176 0.364326090 0.308918536
0.306894511 0.367109537 0.310562819
0.358887017 0.366982847 0.310942173
0.419481605 0.383807480 0.319797635
0.515875995 0.389247268 0.311069012
0.641872048 0.421379209 0.334472030
0.784946382 0.464769006 0.375711411
0.913725257 0.524604678 0.431878537
0.304996997 0.478558183 0.271853387
0.327893555 0.486147821 0.276027709
0.381657213 0.493611366 0.289816290
0.480329067 0.512334168 0.337887555
0.553953230 0.508412361 0.346995175
0.664010167 0.529791117 0.365718156
0.795446277 0.567236185 0.393042475
0.932953775 0.606704831 0.449588805
0.456799269 0.645793915 0.314611167
0.477166355 0.647058487 0.326122612
0.531309187 0.648576438 0.362175822
0.593927979 0.651359677 0.368753970
0.656293750 0.652118683 0.375838339
0.703605294 0.636053264 0.389120668
0.828210294 0.670967937 0.429348618
0.953573585 0.705502748 0.482858628
0.626692355 0.791651011 0.418089658
0.639594972 0.794433832 0.432005256
0.670082390 0.794687212 0.426818281
0.711575150 0.795446277 0.422138065
0.775838077 0.799367309 0.426692158
0.822264433 0.794180810 0.428336263
0.856546581 0.765718222 0.441745579
0.959266424 0.786464036 0.494876653
0.783301413 0.929411650 0.530043960
0.792156637 0.927893460 0.533712626
0.816318810 0.922074735 0.536622286
0.850853682 0.926375329 0.541303098
0.902466595 0.926754773 0.545098186
0.947501540 0.928399801 0.555344820
0.982162893 0.914990604 0.566982746
0.990638793 0.893358409 0.581909955
0.283997715 0.119291730 0.534218729
0.308285743 0.127134725 0.535736859
0.359519184 0.145604089 0.528399467
0.424415261 0.161037251 0.508285880
0.509550869 0.183681443 0.495003194
0.659835696 0.182036728 0.479443192
0.820493102 0.209361017 0.486527652
0.959772408 0.289816707 0.472232550
0.299430728 0.193295270 0.503858447
0.319291532 0.204427287 0.499430895
0.365085185 0.208601832 0.502846003
0.425300360 0.214927435 0.487159997
0.500695705 0.231372729 0.478558004
0.647059083 0.226059541 0.469955713
0.802150249 0.251992255 0.464263260
0.946615934 0.317267478 0.462998182
0.337761015 0.302973181 0.484503180
0.347374827 0.306135267 0.489057541
0.384566486 0.304870337 0.486401111
0.440986484 0.311701179 0.474256456
0.507020831 0.319544494 0.467552125
0.648070693 0.315623194 0.461733371
0.802782714 0.354712397 0.470461458
0.945983350 0.423023045 0.486653715
0.337128639 0.374067366 0.467299193
0.359898806 0.387096703 0.475901395
0.412017465 0.408728480 0.470714837
0.460468382 0.412903011 0.454775304
0.524604738 0.416824818 0.453510553
0.645920336 0.424161643 0.454016209
0.781910241 0.461227089 0.458823383
0.929411769 0.522201180 0.510816038
0.313851923 0.524224937 0.456925750
0.340290725 0.526502132 0.465528369
0.399367541 0.527387798 0.463251382
0.483364969 0.527767360 0.465654552
0.573055148 0.548260331 0.483364940
0.674889207 0.563566983 0.484629989
0.796837270 0.598608255 0.510815918
0.914737523 0.650853693 0.561037302
0.372042984 0.653889954 0.408981711
0.395446002 0.657052457 0.418342918
0.442504555 0.662998080 0.434029222
0.518026769 0.669702411 0.450348020
0.629222155 0.683364689 0.512840152
0.702972710 0.687412739 0.524478436
0.813029826 0.708159268 0.561290443
0.931688547 0.742694497 0.607210636
0.520683110 0.798987567 0.451233298
0.543833017 0.798987567 0.464515835
0.588867605 0.798987567 0.486527473
0.656293571 0.799493909 0.537254930
0.726755202 0.803541839 0.557242274
0.797596455 0.800632298 0.559139669
0.828969300 0.782542586 0.567994952
0.940923631 0.809740961 0.616571903
0.743200779 0.925616682 0.621252656
0.749904931 0.928905964 0.637570977
0.773687601 0.923086643 0.647564948
0.815180063 0.925237000 0.661985874
0.852371633 0.928526163 0.655154943
0.918026805 0.924604654 0.661100268
0.963061512 0.924351692 0.673118234
0.983427942 0.906008959 0.685262322
0.328399688 0.173813999 0.718153000
0.350410998 0.180012271 0.709298015
0.399746805 0.190892085 0.702593446
0.470209002 0.204680637 0.701960921
0.546868920 0.228589460 0.690701962
0.652371764 0.250601262 0.676154077
0.829601228 0.243390277 0.670082271
0.963187754 0.308159530 0.646552980
0.339658529 0.233016834 0.690955281
0.352182120 0.238583550 0.697659492
0.404174536 0.245161280 0.685768545
0.468564272 0.256926209 0.682985246
0.544212639 0.271853089 0.679443240
0.649589002 0.287033707 0.665401936
0.817836523 0.276660740 0.660468280
0.946109653 0.328905612 0.633776009
0.369259804 0.346110195 0.673624277
0.387602806 0.345477164 0.681846976
0.431878448 0.351043493 0.680328786
0.488172174 0.358633459 0.676280856
0.561796367 0.367995083 0.669449627
0.653763533 0.381656915 0.659202874
0.819481373 0.373308182 0.658443928
0.947880864 0.430613548 0.631119490
0.409108013 0.453004628 0.662239134
0.426691651 0.465275288 0.662871778
0.464516282 0.463883728 0.655787051
0.511195660 0.470335215 0.656040549
0.573055148 0.475142479 0.648450255
0.663251102 0.484376907 0.647944033
0.807716548 0.479443222 0.640986860
0.927260995 0.529158533 0.627830386
0.395699084 0.553700209 0.660974026
0.420872927 0.554459393 0.657179296
0.470841289 0.558380663 0.655534506
0.545350969 0.589879513 0.648703218
0.607969701 0.591271281 0.648956239
0.674636483 0.600000083 0.648450434
0.803162336 0.603162587 0.637444615
0.915622950 0.654775262 0.649842024
0.374193251 0.718785703 0.654142797
0.405312836 0.720050395 0.657684863
0.461480260 0.718026638 0.657431901
0.540164471 0.714484394 0.656925738
0.635041118 0.711701632 0.664010286
0.713472486 0.724604726 0.669449866
0.818596005 0.733713031 0.670714974
0.918406308 0.771536767 0.701960802
0.466287285 0.809993804 0.588108540
0.475648284 0.808728337 0.587729096
0.519418061 0.806451559 0.588361561
0.580645323 0.809866905 0.603288889
0.659835339 0.816698313 0.625933051
0.758886874 0.819861293 0.683238506
0.826059520 0.828336358 0.701834559
0.927387357 0.842504680 0.730803549
0.638962686 0.933333218 0.638456762
0.655787587 0.933333218 0.648197472
0.688551486 0.931055963 0.669070184
0.737760723 0.930170655 0.697659671
0.803668678 0.932194710 0.737254560
0.871094108 0.928779244 0.779759765
0.924225092 0.929158807 0.769892097
0.956989348 0.922074556 0.776723742
0.359645993 0.255281776 0.885641575
0.375458688 0.260847509 0.876407623
0.426059246 0.275648385 0.880328596
0.493105978 0.285009801 0.872232974
0.572928369 0.310815990 0.868564606
0.661100686 0.343200505 0.865401864
0.788108885 0.370651305 0.858064413
0.959898591 0.375711411 0.850347579
0.379127264 0.307020605 0.865654349
0.388361543 0.313219786 0.862365305
0.430360377 0.319038600 0.869323313
0.497659802 0.331562102 0.862871766
0.575711310 0.347754478 0.861985743
0.661100686 0.369259834 0.855281591
0.774319768 0.389880061 0.843643606
0.956230104 0.399240792 0.840100884
0.417457074 0.414674133 0.867552161
0.434408426 0.414927453 0.861100316
0.467678636 0.426692069 0.861226797
0.526502192 0.433902562 0.859961808
0.594686985 0.448703170 0.852498233
0.680708647 0.463630795 0.849082708
0.787223399 0.483997464 0.849968374
0.952055633 0.489436865 0.845667481
0.481340617 0.541809082 0.849588752
0.496773958 0.545730352 0.847311854
0.520683289 0.543453097 0.849968076
0.564832270 0.550284207 0.846932232
0.622643948 0.559772372 0.841619074
0.692726135 0.565338075 0.836558998
0.789373994 0.572801650 0.831752002
0.943200409 0.576976538 0.827450871
0.496141404 0.620620012 0.847311556
0.515876174 0.631752014 0.840354085
0.560025156 0.651106775 0.836305976
0.618469000 0.669576287 0.839341998
0.662745118 0.671347201 0.834281981
0.725869834 0.676533580 0.834028721
0.797596276 0.683744431 0.829095364
0.934851468 0.683111787 0.826185763
0.514357746 0.744591773 0.848576665
0.530170441 0.744971275 0.848197401
0.568754017 0.744465292 0.838962793
0.629095554 0.745730579 0.844149590
0.700316072 0.768121064 0.841619194
0.761037588 0.780265689 0.833396673
0.819228113 0.783428550 0.836812198
0.931182802 0.783428550 0.833017051
0.488298416 0.874130130 0.835041165
0.515875936 0.873624384 0.836053133
0.557115674 0.869196832 0.838077128
0.620872855 0.862618446 0.836559176
0.689689815 0.860594511 0.836179614
0.771157265 0.850094914 0.837444663
0.836685777 0.858697236 0.831372440
0.925869823 0.866413534 0.841493011
0.627830803 0.940290630 0.779759586
0.637823880 0.941935360 0.789373696
0.659582615 0.945477724 0.793548346
0.706894040 0.942820966 0.802909374
0.755345047 0.936242759 0.810879230
0.824035585 0.937634468 0.824161708
0.882859111 0.941429675 0.862618446
0.941429675 0.945477784 0.885515451
