Assets/Resources/EldamarStudio/100 Horror LUTs Pack/LUTs/cube/Cutpulley LUT.cube
DOMAIN_MIN 0 0 0
DOMAIN_MAX 1 1 1
LUT_3D_SIZE 32
0.094117999 0.078431003 0.043136999
0.097153611 0.081467390 0.046173386
0.108791776 0.084503770 0.047059000
0.123972163 0.086274996 0.049588997
0.139532000 0.086274996 0.055281546
0.157747999 0.086274996 0.058317933
0.175964639 0.088804677 0.058823999
0.194180995 0.090195999 0.055534583
0.213156104 0.090195999 0.050980002
0.234408498 0.090195991 0.050980005
0.264389724 0.084377006 0.053889871
0.292726249 0.080328748 0.050854005
0.322327644 0.080708288 0.048197355
0.355724037 0.086021967 0.050727036
0.389120370 0.082985587 0.047691423
0.434535205 0.079949200 0.044655196
0.478558183 0.078431003 0.046172999
0.519924104 0.077798583 0.050347585
0.568500996 0.074762963 0.047311958
0.605945706 0.071726643 0.038709641
0.651866198 0.068690740 0.029601265
0.701455116 0.065654866 0.022517130
0.746742487 0.062618516 0.019481488
0.786210954 0.059582900 0.016445097
0.827956557 0.058823999 0.013409292
0.869069993 0.058823999 0.010373328
0.909045160 0.059835996 0.008349064
0.951549828 0.065907992 0.011385448
0.980771780 0.074636146 0.017077988
0.995698988 0.087286182 0.028463181
1.000000000 0.102466591 0.044528972
1.000000000 0.117647000 0.062744997
0.100189999 0.087539390 0.052245386
0.097153611 0.084503770 0.049209002
0.108791776 0.087539613 0.050094616
0.120177001 0.093105771 0.051359776
0.131941691 0.097660005 0.054901998
0.160784394 0.092346996 0.055281546
0.168880388 0.094876677 0.065907612
0.190006301 0.096267998 0.061353616
0.212397203 0.096267998 0.053257290
0.231372878 0.096267998 0.050979998
0.258444279 0.099177867 0.048070870
0.290702254 0.095509134 0.050853740
0.323466271 0.093611389 0.050094616
0.359013438 0.095382616 0.050980002
0.395193160 0.095129587 0.050727040
0.428589582 0.094497003 0.050094616
0.474003971 0.092093587 0.046173003
0.518659115 0.091208190 0.044907998
0.562429011 0.092978962 0.044275574
0.611005723 0.087159991 0.038456608
0.652245462 0.085768387 0.029601265
0.699430883 0.084882997 0.022517130
0.746742487 0.083870903 0.019608000
0.786210954 0.080835283 0.019481484
0.830233872 0.077799097 0.016445098
0.872106016 0.079822987 0.013409296
0.910562813 0.083618060 0.011891386
0.945477843 0.087160379 0.017457448
0.985325754 0.090575539 0.015180167
0.998228967 0.100695349 0.025426794
1.000000000 0.116381578 0.042378195
1.000000000 0.135863006 0.062744997
0.108412229 0.094497003 0.054901998
0.107526615 0.093611613 0.051865615
0.113092773 0.090576001 0.053130776
0.128273159 0.093611613 0.051865615
0.137001783 0.100569226 0.053510319
0.153194100 0.101581223 0.057052772
0.174066991 0.098798454 0.058570772
0.185072690 0.103478767 0.059203066
0.210373104 0.104490772 0.052878093
0.232764199 0.104490772 0.055408061
0.257558882 0.107400097 0.052371871
0.284883261 0.106388487 0.045287747
0.318026632 0.105629124 0.048955999
0.353700250 0.106894031 0.051233035
0.392030239 0.108791776 0.053130776
0.432511032 0.108791776 0.044528775
0.468943805 0.108791776 0.046046577
0.515623093 0.106388420 0.042504583
0.561164021 0.106388025 0.040986769
0.609234750 0.105375990 0.037570994
0.655914187 0.103098996 0.029601265
0.698671758 0.103098996 0.022517130
0.744591713 0.103098996 0.019481488
0.784060717 0.102087125 0.017457226
0.825932860 0.103352480 0.008728713
0.870082319 0.101707771 0.007084001
0.909803867 0.105755836 0.006325226
0.944845319 0.108792216 0.012397218
0.983554780 0.111827925 0.016951168
1.000000000 0.120176740 0.024541181
0.999114394 0.133206367 0.040607199
0.997849226 0.151928782 0.060594771
0.114990160 0.100569002 0.059961997
0.120050162 0.100569002 0.059455935
0.125236765 0.098418772 0.055660773
0.130549982 0.096648000 0.057431996
0.145730376 0.100063160 0.053257160
0.154459000 0.106135160 0.054016709
0.173181310 0.107147157 0.056293678
0.192409858 0.109045155 0.057685457
0.207590252 0.114358060 0.050854161
0.232890666 0.114863992 0.058444478
0.257305562 0.116508290 0.053384129
0.286148101 0.118026420 0.050094906
0.315749764 0.117267504 0.045540515
0.349399149 0.120303184 0.050474003
0.387855381 0.123339579 0.050474253
0.427197576 0.123972163 0.047818005
0.469449401 0.125237003 0.038203809
0.511448503 0.125869572 0.040607002
0.560658038 0.124098346 0.038203806
0.609234750 0.123845324 0.035167806
0.652119040 0.122580156 0.029601265
0.697659969 0.123592287 0.019481003
0.740290523 0.124098316 0.015686361
0.779759765 0.126375318 0.012650259
0.824035525 0.126122609 0.009108008
0.865275145 0.127767324 0.002529999
0.906767964 0.128779322 0.002529999
0.943200707 0.132574603 0.007083993
0.981024802 0.138140306 0.010625988
1.000000000 0.142694280 0.024541181
1.000000000 0.153952911 0.042378187
0.997343183 0.168374330 0.061353996
0.119544543 0.107400090 0.070967548
0.131309092 0.107020542 0.072865389
0.138772547 0.106008768 0.068058223
0.142694101 0.103478998 0.063503996
0.143832535 0.103099450 0.062744997
0.159012944 0.109171450 0.050601002
0.178114861 0.113092773 0.050727222
0.197343409 0.117773414 0.054648869
0.215939552 0.123466447 0.058064904
0.231119961 0.126502067 0.058064897
0.254648983 0.127387539 0.050474580
0.283870786 0.129411802 0.047059000
0.318026364 0.132068455 0.048197355
0.351676494 0.135610059 0.050727036
0.388108522 0.138899416 0.044781554
0.425300151 0.139532000 0.045161255
0.464768887 0.141808897 0.042884357
0.507273674 0.144465119 0.035294000
0.558887005 0.147501513 0.035293996
0.608096182 0.148134097 0.032511353
0.650221467 0.146615908 0.026818521
0.689310670 0.145603672 0.019860551
0.734724522 0.148513541 0.007843044
0.774446726 0.154079556 0.004301355
0.819987535 0.154459298 0.005439708
0.864389598 0.152435541 0.007843000
0.904111087 0.153447539 0.007843000
0.940543830 0.159519538 0.007843000
0.976597011 0.167109236 0.007463549
0.995698988 0.173434302 0.018342614
0.999620438 0.177862138 0.039721642
0.999620438 0.186970547 0.064010456
0.134724930 0.119544871 0.074003935
0.143833324 0.116508484 0.067931935
0.149146095 0.120429933 0.065528229
0.152688101 0.119923994 0.065274999
0.155977324 0.115243450 0.068817005
0.165084928 0.112207063 0.062744997
0.177735642 0.118279703 0.060720995
0.193042636 0.123845860 0.061226934
0.211006001 0.129917994 0.059961967
0.234155566 0.135610446 0.051992130
0.255154938 0.141555935 0.051992130
0.278937489 0.144592196 0.048450325
0.310436577 0.146489933 0.048197355
0.348640114 0.147754833 0.050727036
0.385072857 0.156862453 0.047691423
0.426312506 0.157747999 0.044149131
0.467805296 0.162302181 0.042125262
0.509045064 0.168500870 0.038077358
0.546742976 0.168753892 0.035293996
0.598355353 0.171790287 0.032511353
0.645667255 0.172422856 0.023782525
0.688678265 0.172928661 0.015686130
0.731688917 0.175837934 0.010879431
0.774193704 0.175837934 0.001771030
0.816192508 0.181403935 0.000506065
0.858317673 0.181783676 0.003794991
0.898292124 0.180771932 0.007843000
0.940543830 0.186843932 0.007843000
0.974319756 0.187602937 0.005186845
0.994054258 0.194434077 0.009740682
0.999114394 0.201644853 0.023529265
0.996584058 0.208222941 0.042758070
0.154965326 0.129158676 0.079570003
0.153953075 0.131182939 0.078558005
0.158760458 0.132447541 0.074636228
0.163061321 0.136875167 0.074130163
0.167362541 0.134977773 0.077419326
0.172169700 0.131941378 0.071347326
0.181277320 0.128905639 0.062744997
0.196711093 0.133333281 0.062744997
0.215054005 0.137760773 0.061986096
0.239342019 0.142061993 0.056420159
0.263251185 0.150664330 0.053510323
0.288551569 0.156736314 0.051486067
0.316761643 0.162555650 0.050727319
0.352688074 0.167489275 0.052245293
0.384566784 0.176596895 0.040101103
0.425806582 0.180898130 0.039468680
0.468311369 0.184060633 0.038077001
0.512081087 0.190259323 0.036053263
0.556104004 0.190259323 0.033017348
0.601391375 0.195572361 0.024921032
0.651106954 0.196711004 0.021884939
0.695256412 0.198734999 0.013662002
0.736369431 0.203288823 0.009234678
0.781277478 0.205692634 0.007337094
0.819228232 0.210246637 0.000506003
0.862618625 0.213535637 0.000000000
0.903352380 0.212650374 0.003289065
0.939784825 0.216698632 0.005313323
0.974319756 0.222517639 0.005186845
0.993548214 0.222517639 0.011005963
1.000000000 0.231119901 0.026185893
0.998608351 0.242125630 0.049335998
0.166350290 0.138266698 0.082353003
0.171537012 0.144592091 0.083997712
0.171157479 0.145983636 0.083491646
0.170398712 0.145224422 0.079190098
0.175711706 0.147881165 0.080708295
0.182542935 0.149904758 0.077166297
0.195572376 0.146869019 0.075142384
0.199746698 0.145477697 0.067678705
0.220240384 0.145477325 0.066919610
0.245414019 0.144971490 0.063883767
0.269702762 0.153826877 0.060847830
0.292726249 0.164199978 0.054522451
0.320050627 0.172549009 0.050347712
0.353194058 0.182922348 0.050601006
0.389120817 0.196204990 0.036812309
0.425806582 0.202150509 0.033649713
0.469829172 0.206704691 0.030613329
0.511828005 0.212776691 0.029095303
0.557369053 0.214800715 0.025047548
0.604807079 0.220366716 0.018089933
0.648956239 0.225932688 0.011132265
0.697533548 0.226944819 0.009108006
0.739025950 0.232131407 0.004680516
0.783048630 0.233649597 0.006198711
0.825047314 0.238962695 0.003289004
0.862871349 0.245034695 0.000000000
0.906894505 0.246046752 0.000000000
0.942568123 0.249083146 0.001897740
0.977608740 0.251486689 0.002277292
0.991903484 0.255660981 0.007716966
0.999240875 0.260088563 0.024288574
1.000000000 0.275268972 0.051613003
0.173181191 0.150411099 0.085389003
0.183807760 0.157242388 0.086907379
0.186590910 0.160658091 0.087793000
0.185578912 0.161923006 0.087539770
0.182163447 0.155092001 0.081087649
0.194687009 0.161543161 0.079949193
0.208096087 0.161290318 0.080202229
0.219481096 0.159898996 0.079064004
0.222517088 0.158381015 0.074510001
0.249841511 0.149272621 0.071473613
0.275015831 0.156103775 0.069196872
0.298798352 0.165718079 0.063630745
0.323086619 0.177862093 0.054902095
0.350158036 0.190512091 0.048830032
0.389626801 0.208728731 0.037697915
0.427324593 0.220367074 0.031373002
0.466793180 0.229475081 0.028336618
0.514231086 0.234914675 0.020366604
0.554332852 0.240860209 0.013915094
0.602150619 0.248450205 0.009361092
0.646932364 0.254522204 0.004048004
0.689184248 0.259582311 0.000000000
0.737634420 0.262618661 0.000252992
0.780771732 0.263251096 0.003921806
0.824035525 0.267046183 0.003162710
0.865148604 0.272359103 0.000759096
0.903605044 0.277925193 0.000759096
0.942568123 0.280961543 0.000759096
0.978621066 0.282099992 0.000000000
0.996078014 0.285388947 0.006072100
0.996204555 0.288930774 0.021252569
0.999240935 0.304111183 0.048576996
0.191397980 0.171663493 0.097533010
0.197469965 0.171663493 0.094497383
0.197343245 0.174193785 0.093865000
0.195698529 0.179633334 0.095129848
0.197343081 0.185451999 0.096268043
0.212523460 0.173308000 0.087160423
0.217457324 0.172169492 0.080961332
0.226059496 0.172043011 0.076913238
0.237697482 0.170525014 0.074510008
0.249841511 0.164453030 0.074510008
0.277166605 0.166982621 0.074383490
0.304364741 0.172296032 0.072232753
0.332574487 0.180898488 0.066666655
0.362302035 0.193548486 0.057938427
0.386590779 0.211764470 0.051865660
0.421252578 0.229981109 0.038330343
0.459203154 0.247691482 0.028336624
0.502087057 0.262239069 0.020366607
0.556735933 0.265275508 0.005186966
0.605186284 0.276787013 0.004301482
0.649967968 0.284883022 0.002150743
0.691460907 0.289943099 0.000000000
0.731562495 0.292979479 0.000252992
0.777102947 0.296015084 0.006324999
0.822517395 0.298924804 0.007716513
0.865148604 0.302087307 0.006198681
0.903605044 0.305249602 0.003795483
0.937001407 0.308285952 0.003795485
0.970651507 0.311321676 0.001138652
0.990006328 0.317773223 0.007083961
0.996078014 0.324857593 0.024414688
0.996204555 0.328400016 0.054648992
0.209613994 0.184186995 0.106767870
0.204048008 0.187096864 0.089184389
0.212270766 0.189247087 0.101201996
0.217330903 0.188488141 0.107020840
0.222264603 0.188235000 0.108538553
0.224794671 0.186210990 0.099430934
0.232384741 0.191777319 0.092852995
0.240733862 0.192915872 0.090069741
0.251359880 0.192156777 0.087539874
0.259202868 0.188234985 0.083238870
0.280075729 0.185072869 0.080329001
0.307400376 0.184060484 0.078304745
0.335863411 0.187476128 0.071853004
0.366476893 0.196837157 0.061480161
0.398734808 0.217709988 0.058064908
0.430233777 0.233522803 0.049588941
0.470714688 0.251233518 0.038456809
0.512333989 0.269449830 0.028462894
0.553320825 0.283870995 0.011005958
0.602403581 0.300822020 0.001391639
0.649082601 0.311321735 0.001012129
0.693611324 0.317394018 0.000000000
0.736748993 0.320303887 0.000000000
0.773940802 0.320556819 0.000506003
0.814927161 0.325869709 0.004301289
0.859203100 0.332321525 0.003542199
0.900695920 0.337887615 0.002024128
0.934092283 0.338520169 0.006831128
0.972801626 0.341555893 0.001518141
0.992536366 0.344591945 0.001771217
0.998987854 0.349652141 0.014927444
0.998987854 0.352688015 0.043264002
0.225806251 0.204427496 0.115876250
0.227830246 0.205439642 0.111827977
0.226438776 0.210499719 0.109298244
0.235547155 0.207210496 0.118659087
0.243516997 0.201897502 0.119797252
0.243516997 0.208475500 0.115622923
0.250601262 0.205945566 0.113092981
0.258317530 0.208475530 0.105376281
0.270841062 0.209613979 0.102719724
0.280708253 0.210372761 0.096647725
0.295255840 0.209360868 0.091461122
0.312460244 0.208348975 0.080328748
0.340923280 0.205312878 0.072738655
0.371537030 0.208475471 0.060468227
0.404933393 0.219101399 0.057432167
0.440354049 0.241619051 0.049588945
0.479822814 0.255281270 0.040480942
0.524098814 0.271220893 0.030740114
0.561922967 0.286654294 0.015306728
0.601391733 0.308918267 0.005439895
0.642378449 0.330929726 0.000126516
0.685515344 0.341682494 0.000000000
0.729285240 0.347754747 0.000252992
0.775205791 0.349651992 0.004047996
0.817963243 0.352182269 0.002277288
0.856040299 0.359645903 0.002530328
0.897659838 0.367742181 0.000000000
0.931056142 0.369259983 0.003035997
0.965718031 0.371916652 0.002530012
0.991017997 0.373181492 0.003541982
0.998861372 0.376850247 0.009487722
1.000000000 0.381024510 0.031119492
0.247817636 0.225300640 0.127261356
0.249335647 0.226438984 0.126881614
0.251106650 0.228462994 0.128779128
0.254901797 0.232637629 0.130423829
0.263251185 0.222391084 0.128146544
0.264010280 0.232257992 0.128905639
0.269323319 0.230360627 0.126628637
0.280708551 0.228209913 0.122833580
0.292093277 0.227450818 0.117520280
0.307653099 0.233522907 0.112966269
0.316508293 0.234914273 0.100062996
0.331814885 0.234914273 0.094750032
0.348133922 0.232637271 0.080708295
0.378494650 0.229348630 0.066540599
0.411005378 0.229727864 0.063504219
0.452498227 0.242757589 0.049968198
0.490069568 0.263250977 0.041998547
0.533080518 0.277925134 0.030360799
0.571537018 0.292093962 0.016698051
0.608222723 0.314231664 0.006198704
0.649209440 0.337381482 0.002024260
0.685642242 0.359645993 0.000000000
0.725110590 0.372296005 0.000000000
0.773687720 0.380392015 0.004048004
0.818469286 0.384566575 0.004427648
0.863250971 0.388108641 0.003668972
0.899177730 0.396205068 0.000632580
0.932574034 0.399240851 0.000000000
0.963693798 0.403415471 0.000000000
0.986464381 0.408096254 0.002403628
0.995445669 0.408981681 0.019987190
0.997722983 0.414800644 0.034914277
0.280202031 0.241999030 0.142188057
0.274383068 0.244528651 0.135863036
0.273118079 0.245161071 0.135104030
0.276913226 0.246932238 0.135863066
0.285515577 0.249209478 0.134724542
0.288551956 0.252245098 0.137760937
0.290828735 0.251233339 0.133206993
0.300695717 0.251233339 0.128146991
0.316129029 0.254016191 0.123592995
0.334345013 0.260088980 0.129664987
0.338772923 0.263757169 0.107906297
0.351423025 0.265022010 0.101075254
0.369892299 0.262745023 0.099177971
0.388615042 0.256926060 0.087539963
0.418974996 0.250854075 0.084503584
0.463883400 0.253384024 0.065148465
0.508665323 0.264769018 0.048450001
0.545730591 0.283744097 0.039974477
0.579127073 0.308032930 0.018722046
0.614800692 0.329285383 0.005059991
0.658317447 0.350537747 0.000505999
0.702846229 0.371284008 0.000253032
0.739278972 0.389626503 0.000379512
0.781530797 0.407969803 0.000505999
0.822011292 0.418343008 0.000253032
0.863503993 0.423782408 0.001138640
0.907274067 0.426818103 0.003415936
0.940670371 0.429854482 0.000379552
0.969259799 0.435294062 0.000253032
0.989247143 0.442378223 0.001518185
0.998735011 0.450221509 0.017204544
0.992662966 0.453257114 0.062744997
0.301454395 0.275395393 0.154332832
0.298418790 0.272359014 0.145224437
0.301201791 0.270588160 0.151802421
0.307273954 0.273244977 0.160151571
0.316002816 0.279190719 0.164326251
0.321948320 0.273497462 0.149904937
0.317394376 0.281593710 0.145350993
0.326375782 0.283238381 0.145856991
0.342441380 0.282352805 0.144844979
0.355597377 0.278304964 0.135737002
0.367995143 0.287286848 0.127261117
0.378241807 0.291081518 0.117014408
0.395066440 0.290069401 0.113978341
0.415939391 0.284250438 0.108791560
0.440227360 0.281214803 0.102719560
0.465780973 0.275142193 0.087665997
0.506388187 0.279190153 0.065148443
0.550663888 0.292093366 0.047185007
0.597343802 0.311068535 0.033902410
0.627956808 0.329791278 0.012650035
0.667172432 0.350537747 0.006577994
0.708918273 0.372801989 0.005566124
0.745351017 0.395698488 0.003415896
0.781783819 0.416950881 0.006451514
0.824035525 0.437570840 0.004301286
0.863124728 0.451486319 0.001897744
0.901454985 0.460215151 0.000632584
0.937633991 0.463250816 0.000379552
0.971031070 0.466287225 0.002656833
0.990765393 0.468184829 0.001518200
1.000000000 0.472738981 0.014800735
0.998735011 0.480582207 0.062744997
0.329917580 0.306388587 0.176090986
0.341302991 0.300948381 0.174193382
0.333965808 0.300062776 0.165085554
0.341302782 0.299810141 0.172928602
0.349651963 0.305882514 0.179759800
0.347627997 0.305882514 0.174699664
0.345983773 0.307653099 0.171916589
0.353067756 0.313472480 0.160910890
0.369765759 0.314231604 0.159392715
0.381909758 0.311448604 0.152181983
0.391650736 0.317520678 0.147754729
0.401771247 0.318532526 0.136622086
0.416951418 0.318532407 0.127513990
0.438709795 0.313978583 0.120429799
0.465148568 0.310942411 0.114357799
0.489436567 0.307906777 0.098671816
0.513725340 0.303352207 0.083491422
0.553699911 0.308285773 0.060847260
0.602277160 0.319417804 0.036305986
0.638962805 0.337634504 0.027830424
0.676913261 0.357748538 0.012270803
0.719418049 0.379000932 0.009234676
0.758507252 0.401518077 0.006198711
0.792662799 0.418215901 0.004680906
0.826818228 0.437191576 0.003162521
0.864769220 0.461100429 0.001518196
0.899178028 0.479316980 0.000000000
0.931814969 0.491840363 0.000000000
0.967994630 0.497279793 0.002656833
0.990765333 0.500316203 0.007463982
0.999114394 0.501834393 0.020493343
0.997596204 0.507906795 0.067551993
0.361796170 0.332195193 0.195825189
0.369386375 0.332194775 0.194307387
0.376470596 0.328905374 0.192409948
0.368627369 0.331435382 0.188362017
0.379253387 0.334345192 0.193801537
0.380012363 0.336242914 0.194940180
0.374952495 0.339279056 0.194940180
0.380392164 0.340796888 0.189753473
0.397090375 0.343074203 0.175332189
0.409234554 0.343074203 0.170018896
0.418469042 0.348893195 0.165465072
0.430613428 0.353447109 0.160910860
0.441998810 0.350410998 0.149904728
0.462492228 0.347628385 0.137634188
0.487286597 0.345857143 0.126502186
0.512207150 0.341302782 0.113852195
0.534977376 0.339784980 0.100189991
0.561163723 0.336116195 0.085515246
0.605313182 0.338646173 0.054775193
0.644275725 0.346742511 0.037318181
0.686021686 0.363820553 0.027451195
0.728526473 0.386085063 0.015306933
0.770651698 0.407843471 0.010373012
0.804048061 0.425806463 0.003162710
0.837444484 0.443263561 0.001644712
0.872232497 0.460088640 0.000000000
0.904237986 0.485895067 0.000000000
0.932573974 0.505123198 0.000000000
0.963693798 0.521821201 0.001138640
0.986211121 0.529158354 0.002909793
0.998734951 0.534851134 0.021378962
0.997596204 0.539784968 0.067552000
0.394560128 0.355977535 0.210372999
0.396457702 0.362682104 0.211132348
0.400379330 0.362302333 0.209614545
0.404427528 0.362428725 0.207716838
0.399494052 0.368121147 0.210752547
0.410879135 0.368374109 0.213788942
0.410373122 0.369639456 0.214295000
0.413535714 0.371031135 0.211258858
0.426312178 0.372296125 0.204554126
0.438456923 0.372296125 0.192410111
0.446426243 0.376850128 0.184819952
0.458949804 0.382922113 0.180771858
0.475395173 0.386843592 0.174193487
0.491081566 0.384567052 0.165085107
0.512333930 0.385326117 0.148007557
0.534724712 0.380518496 0.133965969
0.557494938 0.377482116 0.121442370
0.578747272 0.375584722 0.111068994
0.612144530 0.369512707 0.086780161
0.649209380 0.367741704 0.062492110
0.691840589 0.372801691 0.042631414
0.735737264 0.389120638 0.030487314
0.777988970 0.413409412 0.018469062
0.811891317 0.435167879 0.006830979
0.844655275 0.453510582 0.001897575
0.878810704 0.471600235 0.000000010
0.914231539 0.486780494 0.001012010
0.938772559 0.507779837 0.001265003
0.965717852 0.530423582 0.004427560
0.984187365 0.548386812 0.009487687
0.993927956 0.558380604 0.017963300
1.000000000 0.570524573 0.066540144
0.424921006 0.389374018 0.222517043
0.434029371 0.398482412 0.237697423
0.433776170 0.398735225 0.238456815
0.433017015 0.398229182 0.231878698
0.432890564 0.401518404 0.222896606
0.435926944 0.404554009 0.225932986
0.442252010 0.402277321 0.226439044
0.448956728 0.401391983 0.226439044
0.459835887 0.402909994 0.226439103
0.474889010 0.408729017 0.228842959
0.478304923 0.408729017 0.216698229
0.487918973 0.413282990 0.211132288
0.503731668 0.418216348 0.203542337
0.524478018 0.420999140 0.189373955
0.545730472 0.427071899 0.180265561
0.564579606 0.423023373 0.165591225
0.584820151 0.419986993 0.149146050
0.606072545 0.418089598 0.132321447
0.627324939 0.408981979 0.117141023
0.657938063 0.402909964 0.092852965
0.696647525 0.397343487 0.066666782
0.738393426 0.400126189 0.045667090
0.777988970 0.416445076 0.033649512
0.814421058 0.440733850 0.024541110
0.846046627 0.457938284 0.015180344
0.878051639 0.476154655 0.006831356
0.911195159 0.495888919 0.001012056
0.941555858 0.511068463 0.007084059
0.968753755 0.529411674 0.020619867
0.987222970 0.549905121 0.039848402
0.996710658 0.567489028 0.061227545
1.000000000 0.579632998 0.084757000
0.466413736 0.433902383 0.256925732
0.469956130 0.437444776 0.260974109
0.479063988 0.440101385 0.267551959
0.481087923 0.437697560 0.267046034
0.482606083 0.437318027 0.262491733
0.483238667 0.437950462 0.263124317
0.483744740 0.438456386 0.261100709
0.490954995 0.440607458 0.260847747
0.500063121 0.442884743 0.261606634
0.511195242 0.444908768 0.264642507
0.528652966 0.453510404 0.253130972
0.535736799 0.455534637 0.238962486
0.548260391 0.459709108 0.235167667
0.565717816 0.462491721 0.229601681
0.581910133 0.463503838 0.212902963
0.603162527 0.467172861 0.201391384
0.620240569 0.465275109 0.185072750
0.638962984 0.464010119 0.167489171
0.660215437 0.457052737 0.152308747
0.689816415 0.453510404 0.131562367
0.714484155 0.441745669 0.111068912
0.752814472 0.434028864 0.089436747
0.797723353 0.438330233 0.073750757
0.839469075 0.449336171 0.061986189
0.866793096 0.469070345 0.052877810
0.896141648 0.487539649 0.047944382
0.927640736 0.508285999 0.047058806
0.958000839 0.525742888 0.059962101
0.980391800 0.543579996 0.068690926
0.989753187 0.561796308 0.087160259
0.995066345 0.580265641 0.113093317
1.000000000 0.594307363 0.141935766
0.507020712 0.475648195 0.295256197
0.515749812 0.480581850 0.294497132
0.515496671 0.483364701 0.301328450
0.518279433 0.480834723 0.300569206
0.520556748 0.478304476 0.299304187
0.526628733 0.481340438 0.299304187
0.532321453 0.479443192 0.300569028
0.532321453 0.479443192 0.302466691
0.540670276 0.484250605 0.300695807
0.549778700 0.485388964 0.299177706
0.565717697 0.490322590 0.289563477
0.575964928 0.495382726 0.279190212
0.587349534 0.499557465 0.266287118
0.602782786 0.503352165 0.264769435
0.619607866 0.504996479 0.248197377
0.635800242 0.505502522 0.236685470
0.654016614 0.507020712 0.224541470
0.670461833 0.506388307 0.207084328
0.691713989 0.501581430 0.190638736
0.715622783 0.494497120 0.175585091
0.742188215 0.491460711 0.152434990
0.765464604 0.477292448 0.131182343
0.807210743 0.471473724 0.110309742
0.844402313 0.471726865 0.094623722
0.882732749 0.480075985 0.084756441
