Assets/Resources/EldamarStudio/100 Horror LUTs Pack/LUTs/cube/Cutpulley LUT.cube
LUT_3D_SIZE 8
DOMAIN_MIN 0.000000 0.000000 0.000000
DOMAIN_MAX 0.903226 0.903226 0.903226
0.094117999 0.078431003 0.043136999
0.139532000 0.086274996 0.055281546
0.213156104 0.090195999 0.050980002
0.322327644 0.080708288 0.048197355
0.478558183 0.078431003 0.046172999
0.651866198 0.068690740 0.029601265
0.827956557 0.058823999 0.013409292
0.980771780 0.074636146 0.017077988
0.119544543 0.107400090 0.070967548
0.143832535 0.103099450 0.062744997
0.215939552 0.123466447 0.058064904
0.318026364 0.132068455 0.048197355
0.464768887 0.141808897 0.042884357
0.650221467 0.146615908 0.026818521
0.819987535 0.154459298 0.005439708
0.976597011 0.167109236 0.007463549
0.173181191 0.150411099 0.085389003
0.182163447 0.155092001 0.081087649
0.222517088 0.158381015 0.074510001
0.323086619 0.177862093 0.054902095
0.466793180 0.229475081 0.028336618
0.646932364 0.254522204 0.004048004
0.824035525 0.267046183 0.003162710
0.978621066 0.282099992 0.000000000
0.247817636 0.225300640 0.127261356
0.263251185 0.222391084 0.128146544
0.292093277 0.227450818 0.117520280
0.348133922 0.232637271 0.080708295
0.490069568 0.263250977 0.041998547
0.649209440 0.337381482 0.002024260
0.818469286 0.384566575 0.004427648
0.963693798 0.403415471 0.000000000
0.361796170 0.332195193 0.195825189
0.379253387 0.334345192 0.193801537
0.397090375 0.343074203 0.175332189
0.441998810 0.350410998 0.149904728
0.534977376 0.339784980 0.100189991
0.686021686 0.363820553 0.027451195
0.837444484 0.443263561 0.001644712
0.963693798 0.521821201 0.001138640
0.507020712 0.475648195 0.295256197
0.520556748 0.478304476 0.299304187
0.540670276 0.484250605 0.300695807
0.587349534 0.499557465 0.266287118
0.654016614 0.507020712 0.224541470
0.742188215 0.491460711 0.152434990
0.882732749 0.480075985 0.084756441
0.987222791 0.549272656 0.105502807
0.675648510 0.645287812 0.465148538
0.676281035 0.648956299 0.465781271
0.697912335 0.647564530 0.468058348
0.733206511 0.657052577 0.457179189
0.775458694 0.667172551 0.416065633
0.830992818 0.664642811 0.359772563
0.915243268 0.625047266 0.280581832
1.000000000 0.579633236 0.214041844
0.825173974 0.804427564 0.665907741
0.830107510 0.808981538 0.671094120
0.834535003 0.812270582 0.670714676
0.855914176 0.811258733 0.671094596
0.882226586 0.817457438 0.658950031
0.917773664 0.822517633 0.627197921
0.969007075 0.811258495 0.585199237
1.000000000 0.771789730 0.513219416
0.114863545 0.102340452 0.076407544
0.135230556 0.090195999 0.076027997
0.196711093 0.096394993 0.081846640
0.281973183 0.099556997 0.088551991
0.414927155 0.092979357 0.096774548
0.612017691 0.073118009 0.096141547
0.800126076 0.045287557 0.091714285
0.969259918 0.069449976 0.104743689
0.128146544 0.111701541 0.068184994
0.146995559 0.119544543 0.088172451
0.189626992 0.121442087 0.080328643
0.274509728 0.131688997 0.087792993
0.421631932 0.140796557 0.094497353
0.605313301 0.138013810 0.089057550
0.795572281 0.143706560 0.091587804
0.957368612 0.156736091 0.103478521
0.173181191 0.159140006 0.102213643
0.191650659 0.160278454 0.106641091
0.211132556 0.157115653 0.092093550
0.291713804 0.181783989 0.087033801
0.434535384 0.214168444 0.081467189
0.613029659 0.239721894 0.077925354
0.802403271 0.260467917 0.071347095
0.963061512 0.276407182 0.095509380
0.246299624 0.225553289 0.139784649
0.256546557 0.225932837 0.143706635
0.279949576 0.229854539 0.133080289
0.335483938 0.230613723 0.107273996
0.461480021 0.261100709 0.089816645
0.622517407 0.333838910 0.053763449
0.798355460 0.376343906 0.041113354
0.955977023 0.393928081 0.076660328
0.355217844 0.336369634 0.204806745
0.370525062 0.334851563 0.209107995
0.390006393 0.337887615 0.198102385
0.438456476 0.349652022 0.172675654
0.512081146 0.337507993 0.131562099
0.665654540 0.366097540 0.093991198
0.823023200 0.448829979 0.065275349
0.956103742 0.524225175 0.076913066
0.495509237 0.472865254 0.302087277
0.511574864 0.477798939 0.309424728
0.532447696 0.481087834 0.307020903
0.573560894 0.493232369 0.284883171
0.638330340 0.500316262 0.241745368
0.728526473 0.483871162 0.183681279
0.869576275 0.477672547 0.138267174
0.985831618 0.555471420 0.165971011
0.668184817 0.638962865 0.468437999
0.669070125 0.640860081 0.465401560
0.682226598 0.639595270 0.462745100
0.714231491 0.645161569 0.462238938
0.767741859 0.655407786 0.423908919
0.819227993 0.651992142 0.367994875
0.892093658 0.625806272 0.298418820
0.993295252 0.582416236 0.248703390
0.822138190 0.802909315 0.664768994
0.819861054 0.800253093 0.672865212
0.825933218 0.800632656 0.670462012
0.844402432 0.802909315 0.670461893
0.872612357 0.809993327 0.662239254
0.913092792 0.818342984 0.629601240
0.965718210 0.809108019 0.588993967
0.997469962 0.769892633 0.515369654
0.140290990 0.114484094 0.123087004
0.159140006 0.110942453 0.127766997
0.208475992 0.098798096 0.137128100
0.291081637 0.106261544 0.140164196
0.425174356 0.094244100 0.162808299
0.599114478 0.058064364 0.183302090
0.773054600 0.019608000 0.196458191
0.956483543 0.088045873 0.224161908
0.157874644 0.142314553 0.108918093
0.172928542 0.139532000 0.121062547
0.205819458 0.134471551 0.127767086
0.290702105 0.133206993 0.144971192
0.418216348 0.140037656 0.157748535
0.589753270 0.129032359 0.172295898
0.773813903 0.128020450 0.188741386
0.946615934 0.162808090 0.221884906
0.181024998 0.163820192 0.118406102
0.195572451 0.178368434 0.130929992
0.229601189 0.199873090 0.140164092
0.298798561 0.202150181 0.142568007
0.430740267 0.210752904 0.155092001
0.595572174 0.227577448 0.171916351
0.780012608 0.251360208 0.188614994
0.953826666 0.281467259 0.224668175
0.253510654 0.243643194 0.167235732
0.276787013 0.247565091 0.177862078
0.291081637 0.259708822 0.180898100
0.334472090 0.252624631 0.156989545
0.459835380 0.286654085 0.156230450
0.605566084 0.342188388 0.167868540
0.783681095 0.370777905 0.185452282
0.946362555 0.398988098 0.219228208
0.363441080 0.347754478 0.241872266
0.371663660 0.355217934 0.243010819
0.386084497 0.356356382 0.246553183
0.429095358 0.361796170 0.227324739
0.502973020 0.354712278 0.191904008
0.654269397 0.383681267 0.180771559
0.806198597 0.467552453 0.195699096
0.949398756 0.527640760 0.230233997
0.509044945 0.496900618 0.357368708
0.516128957 0.496015042 0.358507454
0.536495447 0.498418838 0.356103539
0.571157217 0.505502760 0.345477730
0.632131577 0.513345897 0.311575055
0.710057020 0.499304205 0.266160548
0.856672943 0.506009102 0.244022563
0.968121350 0.582415879 0.281846821
0.668184817 0.653889537 0.502340257
0.678937554 0.655154824 0.505250037
0.690069318 0.658697128 0.511068761
0.714863837 0.657938063 0.505502522
0.757495224 0.671220660 0.484630197
0.813156188 0.667046130 0.435926527
0.880961537 0.639974773 0.367868572
0.990006149 0.612650275 0.341302991
0.818975508 0.805059850 0.690828621
0.824920654 0.805692494 0.691840768
0.826565623 0.808854878 0.690575600
0.847058713 0.813661993 0.697533309
0.872106314 0.819101870 0.693611443
0.907273650 0.823782325 0.664769232
0.949778676 0.816572011 0.625553191
0.995445728 0.783301592 0.565085292
0.187223285 0.140164286 0.196331277
0.200252652 0.135483980 0.206578180
0.244022638 0.123466350 0.221505284
0.315116882 0.101961002 0.230486915
0.436179370 0.093864650 0.244149178
0.597343504 0.050980266 0.285768300
0.780392170 0.014041708 0.313978255
0.942061722 0.123465911 0.349652112
0.201011837 0.179759532 0.182795629
0.203668177 0.171916544 0.181024730
0.234914288 0.161417097 0.207083911
0.309677720 0.135610089 0.218343079
0.423276722 0.134345442 0.245793983
0.590891838 0.121062547 0.273624539
0.770904183 0.125616834 0.306008965
0.933585882 0.188108429 0.343073994
0.241239980 0.217710182 0.173307925
0.243137628 0.227071375 0.181530386
0.254142821 0.223276094 0.197217181
0.311195731 0.201644644 0.219102189
0.432890445 0.210626096 0.246553078
0.594054043 0.227071375 0.271600395
0.770271838 0.251612931 0.314611286
0.930044532 0.312460721 0.359013259
0.259582639 0.247817636 0.181150928
0.277672648 0.248576730 0.194180995
0.302214086 0.274889201 0.216318816
0.367236286 0.315116882 0.255787283
0.463250995 0.319418073 0.256673068
0.597723007 0.335863262 0.275648087
0.769765854 0.369006932 0.310183614
0.927008092 0.411638081 0.354965240
0.356356382 0.363061547 0.280328989
0.371157289 0.362808108 0.283364981
0.403289080 0.384440184 0.301328182
0.434535176 0.390259206 0.303984821
0.498292029 0.391144842 0.281340837
0.632890463 0.433017343 0.296015292
0.783681214 0.497659802 0.321695060
0.933712840 0.539152205 0.375585258
0.507400453 0.506768107 0.404174715
0.515117168 0.509297907 0.403668553
0.533206522 0.517899990 0.411638469
0.561922789 0.520556331 0.412903100
0.613535702 0.533965647 0.393295109
0.687792480 0.519544721 0.353320628
0.833143651 0.545477688 0.359519094
0.947121620 0.623529375 0.405059904
0.658696949 0.662112594 0.536748827
0.667804956 0.660215378 0.545477569
0.675901294 0.658570468 0.542441547
0.697406590 0.665528238 0.545098186
0.733459890 0.671094537 0.540417194
0.792283237 0.679063559 0.505376399
0.863251507 0.657558620 0.453130841
0.969006777 0.650221407 0.444022894
0.816571712 0.808095992 0.706641018
0.808602035 0.811511457 0.715369999
0.819987357 0.810752749 0.706767619
0.837950826 0.814294577 0.721062660
0.856293380 0.820999324 0.714104831
0.892978787 0.827071488 0.696647584
0.940037787 0.825300455 0.670967400
0.992409945 0.798734725 0.621632218
0.246806189 0.190385997 0.333712995
0.261859804 0.184566647 0.341176629
0.301707983 0.168500900 0.350031555
0.378368169 0.126249194 0.375458628
0.482479185 0.079317011 0.382036358
0.609234691 0.044528749 0.401265115
0.784566760 0.017963288 0.439974755
0.948007405 0.135357410 0.476913184
0.268185019 0.224414736 0.308918536
0.273877531 0.223023340 0.319164962
0.303605497 0.206071988 0.339531839
0.373687357 0.171283647 0.362555146
0.476280987 0.134851098 0.378241360
0.597596288 0.126249284 0.388235271
0.776597083 0.129158989 0.439342380
0.933206677 0.191271335 0.468690723
0.308665395 0.292979181 0.299177885
0.315369844 0.292726427 0.315876067
0.325110495 0.274130285 0.318659186
0.371410251 0.246679291 0.343326747
0.462745279 0.220999092 0.371157378
0.600632668 0.228716090 0.388361484
0.774699509 0.257558495 0.436053157
0.929538250 0.322580785 0.485009789
0.353194177 0.335990071 0.291713834
0.370904535 0.339911282 0.297153711
0.384187043 0.351676166 0.311575085
0.402530074 0.355597377 0.351170003
0.474383354 0.332827181 0.371157467
0.615939021 0.349146277 0.400379807
0.770398319 0.385958165 0.438330084
0.915749609 0.443264097 0.489689857
0.379000366 0.375079364 0.301454991
0.394813210 0.387729377 0.325489730
0.423782289 0.399494171 0.338267177
0.465654701 0.437444597 0.375079185
0.546362936 0.491840363 0.425174356
0.645034909 0.488298804 0.429474920
0.780392289 0.512966216 0.458950341
0.916255534 0.558507204 0.507779837
0.510942519 0.513345897 0.438203901
0.522454321 0.515622795 0.441113025
0.537634134 0.533712804 0.456040829
0.577861965 0.561290026 0.481973529
0.613788962 0.570651531 0.491460919
0.687412679 0.561163723 0.468058169
0.810499966 0.607463896 0.487033486
0.920303583 0.672232866 0.536622047
0.654143155 0.670588493 0.580139279
0.660594821 0.671979606 0.585072398
0.682479322 0.682479382 0.595192611
0.704364479 0.685894966 0.603162527
0.726375282 0.690069556 0.604554296
0.775331974 0.699683368 0.588488042
0.840101302 0.684756458 0.553447187
0.951423287 0.703099191 0.562681675
0.812903166 0.815939248 0.742694259
0.807084143 0.814800620 0.746868968
0.818469167 0.817583621 0.745983303
0.833649337 0.826186061 0.749398768
0.850474417 0.827830791 0.752308547
0.874636173 0.837697625 0.746489525
0.924098849 0.841872096 0.725363851
0.975078940 0.821758628 0.687792242
0.322833717 0.264262736 0.506641209
0.333586484 0.258950174 0.512966394
0.374193579 0.239089012 0.529032350
0.440101266 0.207463577 0.546362936
0.549525619 0.119038090 0.577355862
0.669702470 0.029475261 0.583554447
0.788741589 0.024794573 0.578621149
0.942314863 0.144971326 0.610499680
0.329032183 0.300063014 0.483238220
0.353953063 0.296521276 0.496015429
0.378874183 0.279696614 0.509044945
0.433776379 0.244528621 0.526375711
0.532701015 0.181277812 0.552308857
0.652371824 0.128399998 0.565591216
0.775585234 0.132953987 0.565591097
0.932447612 0.200379789 0.602150559
0.393801451 0.374952555 0.478937477
0.395572096 0.372928619 0.478810668
0.411764473 0.357748061 0.487666070
0.448703378 0.326375484 0.511448205
0.533333302 0.280708522 0.545983255
0.644149184 0.244655445 0.554712176
0.781783640 0.260215104 0.568374276
0.926881611 0.327640712 0.611132264
0.461733341 0.445287764 0.441113353
0.464136362 0.447691470 0.456925839
0.468058378 0.447691441 0.472485423
0.476660460 0.428210258 0.498545349
0.535863161 0.393674672 0.533459902
0.640480399 0.367488921 0.545224309
0.770651460 0.385325730 0.561922789
0.918153167 0.448576897 0.610373318
0.501075447 0.488551468 0.454396009
0.517140925 0.492725998 0.462871879
0.530423820 0.502972782 0.468311101
0.553700328 0.523086607 0.489943266
0.573054910 0.522580683 0.536875188
0.660720885 0.497280359 0.562049448
0.781783760 0.531562150 0.590132773
0.909424603 0.578241527 0.629981220
0.544212461 0.536369503 0.481593996
0.548387051 0.536748946 0.488804698
0.565085232 0.555091560 0.506514430
0.597596467 0.568121254 0.526881397
0.637191892 0.607337117 0.565717936
0.711068690 0.658064485 0.618722439
0.800885260 0.660721183 0.623781979
0.908412099 0.690322697 0.660088480
0.665401995 0.664769232 0.608222604
0.665274978 0.668437779 0.616951287
0.672612369 0.678684115 0.621505320
0.700569332 0.693864584 0.638456762
0.730803251 0.717140794 0.663377464
0.760657728 0.727514029 0.671600044
0.820746303 0.722074747 0.652119040
0.918785691 0.759139538 0.668564141
0.799493849 0.816698372 0.758633733
0.803415775 0.818342745 0.762175620
0.810752630 0.823655784 0.764958560
0.826059282 0.831878424 0.780012488
0.845793843 0.837950647 0.785578668
0.870082438 0.846552670 0.795445681
0.904870570 0.853130698 0.783934236
0.952941060 0.844781756 0.755724251
0.443010569 0.388108552 0.693358541
0.450601012 0.383174986 0.697659552
0.476154536 0.366223842 0.703225672
0.520177245 0.333206534 0.717014670
0.596837163 0.284629971 0.737887263
0.707653224 0.167995065 0.760784090
0.828969300 0.126628548 0.757368565
0.940670192 0.168500751 0.748007298
0.465907544 0.416951537 0.680581808
0.468311280 0.419355035 0.686907291
0.485515296 0.401518285 0.686907053
0.523592889 0.371410728 0.702593446
0.590891719 0.319670916 0.722201347
0.701328456 0.230993092 0.744844615
0.820999324 0.193801552 0.752055526
0.929917574 0.219734445 0.740290642
0.511322260 0.493864477 0.670208752
0.520177066 0.488804817 0.672232747
0.526881397 0.476660252 0.680708408
0.550790846 0.450348109 0.697406769
0.607843280 0.410120368 0.716635168
0.697659910 0.340670079 0.737254858
0.814800680 0.316761464 0.743959427
0.926122487 0.336621970 0.741302848
0.581403911 0.570777833 0.646552503
0.585325897 0.569133520 0.652118862
0.585072458 0.561163664 0.663630962
0.587602675 0.543326855 0.678937316
0.623782337 0.513093054 0.697280169
0.698292017 0.459835708 0.727767169
0.805439234 0.432384610 0.727134943
0.915117204 0.457811445 0.734724760
0.649335563 0.629601479 0.628083467
0.651739299 0.632005215 0.634282112
0.655661166 0.630234063 0.640480876
0.651992202 0.636053383 0.669576347
0.655660987 0.614800453 0.686780572
0.703478515 0.582669437 0.714737713
0.798608363 0.550411165 0.728526235
0.907273889 0.582669199 0.744465113
0.674004018 0.661859572 0.639215529
0.679696560 0.669196904 0.648323834
0.686653793 0.677166283 0.654269338
0.705629349 0.684250653 0.663756967
0.726755023 0.702719450 0.684503496
0.739658296 0.698039293 0.722833753
0.804680288 0.679190457 0.739911079
0.904870212 0.707526684 0.755977273
0.695635259 0.695635259 0.660974264
0.697406948 0.694497108 0.665401876
0.706009030 0.702719569 0.664769530
0.724731028 0.711322308 0.678304791
0.746869087 0.725490272 0.697406471
0.777609050 0.754711986 0.734977543
0.824415207 0.793042302 0.769765615
0.908159196 0.798734784 0.778747320
0.811384797 0.815180182 0.786085069
0.813409269 0.814674258 0.787476063
0.814421117 0.819860935 0.792283177
0.826312602 0.831625581 0.797975779
0.840228021 0.844022512 0.813788652
0.860721111 0.863251090 0.827324331
0.889183760 0.868943572 0.833776295
0.934471726 0.870588243 0.816698313
0.621631682 0.578494430 0.842378438
0.620619893 0.574572682 0.840986788
0.628842354 0.564705729 0.844908476
0.643516779 0.538393378 0.857811391
0.684882760 0.497659415 0.872738659
0.741555691 0.433522820 0.883870780
0.838836133 0.322960109 0.897153616
0.948133945 0.323592395 0.899809778
0.636179566 0.598102093 0.834661603
0.635420561 0.594054103 0.838077188
0.640733600 0.584440231 0.842884541
0.657937884 0.560404658 0.850600779
0.683617830 0.524857521 0.859962106
0.740164280 0.464516044 0.876660645
0.833269835 0.361796379 0.889690101
0.945350766 0.355091423 0.886653781
0.677419364 0.653510571 0.822011471
0.677672148 0.651613057 0.832384765
0.676786780 0.642125368 0.836305857
0.687918663 0.623023510 0.841619134
0.705881953 0.591524541 0.855787218
0.757115602 0.539531827 0.871220648
0.833269954 0.454395950 0.891840458
0.938519835 0.445667595 0.888424933
0.718912005 0.710815787 0.825679600
0.717646837 0.712080956 0.818848729
0.719038248 0.702972412 0.824035585
0.723086774 0.686021209 0.831498742
0.736242533 0.660088539 0.843516767
0.764832139 0.623023391 0.856546223
0.830992877 0.557495177 0.877166450
0.929664612 0.537128270 0.880075932
0.765970588 0.762934625 0.805945396
0.765464962 0.762681723 0.810499728
0.767615497 0.760151923 0.813409209
0.764832199 0.750916719 0.824794352
0.765338421 0.736116111 0.839721620
0.788741469 0.708159149 0.852624774
0.840860128 0.662745059 0.871726930
0.925869823 0.641492963 0.878051996
0.809234619 0.796584606 0.797216654
0.804933786 0.801391423 0.796204865
0.816318512 0.802150488 0.801264644
0.815939188 0.802782834 0.815812767
0.812776864 0.804554045 0.827197731
0.818342745 0.787729323 0.848829746
0.851612628 0.759772241 0.870082200
0.920936048 0.735863268 0.874889493
0.816445053 0.813915312 0.808728874
0.815939188 0.820113599 0.813029766
0.821378887 0.819354653 0.808981597
0.830740094 0.826818228 0.816445053
0.839721382 0.832384825 0.825679839
0.854395747 0.840227664 0.833396316
0.861859500 0.837191463 0.859835804
0.914990485 0.820999563 0.875395179
0.839594781 0.847438455 0.827830732
0.841998518 0.854269147 0.836053073
0.846173644 0.852751434 0.831878662
0.850094616 0.856672764 0.837064743
0.859456122 0.859202802 0.847564578
0.875268519 0.872865498 0.860214949
0.892852485 0.888931096 0.871979833
0.931055963 0.914104819 0.901074946
