Assets/Resources/EldamarStudio/100 Horror LUTs Pack/LUTs/cube/Cutpulley LUT.cube
LUT_3D_SIZE 5
DOMAIN_MIN 0.000000 0.000000 0.000000
DOMAIN_MAX 0.903226 0.903226 0.903226
0.094117999 0.078431003 0.043136999
0.194180995 0.090195999 0.055534583
0.389120370 0.082985587 0.047691423
0.701455116 0.065654866 0.022517130
0.980771780 0.074636146 0.017077988
0.166350290 0.138266698 0.082353003
0.199746698 0.145477697 0.067678705
0.389120817 0.196204990 0.036812309
0.697533548 0.226944819 0.009108006
0.977608740 0.251486689 0.002277292
0.301454395 0.275395393 0.154332832
0.326375782 0.283238381 0.145856991
0.440227360 0.281214803 0.102719560
0.708918273 0.372801989 0.005566124
0.971031070 0.466287225 0.002656833
0.542441130 0.517141104 0.333712995
0.577862144 0.522960126 0.339911371
0.654395938 0.544844866 0.285009712
0.785705090 0.525869250 0.177735373
0.986210942 0.557115793 0.136369407
0.825173974 0.804427564 0.665907741
0.832763910 0.809993684 0.669196725
0.863124609 0.810246348 0.668057978
0.928652644 0.823023438 0.617077410
1.000000000 0.771789730 0.513219416
0.132700995 0.111448288 0.107906409
0.187982693 0.098039001 0.117393695
0.346995503 0.103605293 0.134092405
0.641619265 0.048197590 0.155977115
0.958760619 0.077166334 0.196331367
0.165085703 0.149398699 0.103984989
0.205312997 0.175584704 0.119670987
0.346363097 0.183428124 0.131435990
0.643643260 0.205059960 0.149145827
0.957115889 0.245287567 0.188488215
0.296521127 0.282226503 0.190638691
0.324731112 0.290069699 0.197849691
0.417584121 0.291081816 0.156609699
0.676027954 0.386843950 0.146489561
0.952814639 0.465022236 0.188235089
0.548766613 0.525236845 0.373307943
0.561290205 0.527261078 0.377355963
0.631878614 0.546236634 0.352435112
0.759898841 0.529158413 0.265654802
0.981783509 0.582669079 0.268690675
0.819734454 0.803035915 0.678684473
0.824288368 0.805059791 0.681973517
0.858950078 0.811258852 0.687286735
0.920682788 0.820999444 0.645793974
0.994939983 0.782795548 0.550664246
0.213788569 0.160151586 0.248449981
0.251739413 0.147122413 0.274003834
0.396331787 0.095383003 0.302846372
0.652751684 0.034535162 0.355850369
0.944338620 0.127387747 0.408855200
0.266413689 0.238330111 0.234787971
0.269702673 0.226565287 0.255408108
0.381277382 0.185958281 0.284503818
0.637065053 0.200758979 0.330676943
0.929285049 0.289943218 0.416698217
0.316508800 0.301454395 0.251233786
0.352182120 0.322074652 0.262238979
0.457811803 0.396331787 0.338772804
0.657938302 0.420872927 0.361669391
0.925237238 0.496521205 0.443643451
0.539531827 0.549019516 0.452245116
0.568880677 0.558886707 0.471600413
0.615053535 0.571916342 0.473624408
0.728779137 0.571663260 0.425173640
0.938266814 0.657558441 0.471221089
0.806198359 0.810878813 0.725995958
0.807463348 0.812143803 0.723212957
0.840859950 0.819355011 0.731941998
0.897659838 0.834155619 0.719797492
0.991144776 0.803668380 0.655534446
0.352182120 0.286527246 0.557242274
0.386843711 0.269196689 0.571030855
0.506894231 0.204427719 0.601770878
0.710183263 0.033522993 0.626059234
0.937760592 0.151296571 0.641619086
0.408222824 0.383301437 0.531562388
0.420873135 0.368627369 0.541302919
0.508791804 0.312333971 0.581783831
0.698798120 0.225427106 0.604048014
0.933206737 0.301075369 0.642251611
0.526502371 0.508539081 0.493231833
0.538013518 0.512460530 0.510183454
0.549778521 0.500063121 0.551423252
0.690575242 0.445161104 0.598861516
0.913725615 0.523972213 0.651106954
0.581657112 0.577862144 0.520050287
0.599746823 0.589247286 0.543200552
0.647691131 0.620999575 0.578494430
0.745477259 0.694497287 0.660215139
0.902593136 0.722959936 0.692472756
0.804300785 0.816445291 0.762934744
0.810499668 0.822643995 0.776597083
0.833775759 0.838329792 0.787729323
0.876407623 0.849841893 0.803794742
0.949904799 0.850094616 0.774446428
0.621631682 0.578494430 0.842378438
0.625806451 0.567741871 0.845920324
0.663250744 0.522327542 0.867805183
0.764073253 0.407969385 0.891966760
0.948133945 0.323592395 0.899809778
0.667299032 0.640860140 0.824288487
0.666919470 0.630740166 0.838329911
0.689057350 0.591524422 0.849462390
0.769766033 0.502593279 0.879063964
0.940544069 0.426439136 0.889942944
0.749651551 0.746995568 0.818848610
0.747248471 0.735230982 0.821125925
0.749525666 0.712333977 0.837064743
0.791650534 0.660721183 0.865528047
0.925869644 0.597343147 0.886906743
0.810246587 0.804427803 0.802529573
0.810499489 0.803921461 0.805312872
0.821884930 0.813535631 0.817204297
0.830992818 0.799114764 0.849841893
0.917647064 0.757368624 0.874889433
0.839594781 0.847438455 0.827830732
0.840607524 0.851486623 0.835420489
0.857305348 0.859962046 0.840354204
0.882352948 0.875901341 0.864263058
0.931055963 0.914104819 0.901074946
