Assets/Resources/EldamarStudio/100 Horror LUTs Pack/LUTs/cube/Deadblaze LUT.cube
DOMAIN_MIN 0 0 0
DOMAIN_MAX 1 1 1
LUT_3D_SIZE 32
0.031373002 0.039216001 0.035294000
0.034408614 0.036179613 0.035294000
0.041745774 0.037444774 0.039595000
0.053384159 0.040480837 0.043136999
0.068564542 0.043516546 0.043895997
0.083744928 0.046552934 0.049968001
0.101454996 0.052118998 0.053510323
0.118026696 0.056546707 0.056546707
0.132448003 0.058823999 0.060341999
0.144592017 0.058824003 0.066413999
0.168374732 0.064642996 0.063757129
0.186590731 0.070714995 0.064769253
0.204047635 0.077925645 0.070082352
0.225300029 0.086527966 0.078684032
0.246552393 0.089563578 0.081720419
0.272612393 0.090195999 0.084756806
0.301454991 0.097786188 0.089310996
0.332447529 0.111068986 0.096647978
0.365844011 0.117141008 0.108792000
0.399241090 0.123213001 0.109803997
0.438330472 0.129284993 0.111701258
0.479823112 0.136369124 0.117773250
0.519291520 0.145477504 0.129791468
0.558759928 0.154585913 0.138899103
0.602782845 0.163693696 0.145730570
0.646932304 0.171410337 0.151802987
0.689437151 0.178494990 0.158886999
0.731941819 0.190638989 0.171030983
0.779759586 0.208095953 0.185831800
0.824794352 0.228083163 0.202782944
0.868184566 0.248450205 0.223655567
0.913725019 0.266667008 0.250979990
0.034408614 0.036179613 0.029222000
0.034408614 0.039216001 0.044402387
0.048197545 0.040480614 0.040101387
0.059962224 0.044781614 0.040101387
0.071600154 0.049968097 0.041239835
0.086780541 0.055661321 0.049968001
0.104490608 0.056167386 0.053510323
0.124351308 0.061227381 0.053257290
0.142314717 0.064895995 0.054269422
0.156736016 0.064896002 0.060342003
0.171789870 0.067805126 0.066413999
0.191651121 0.075774863 0.069829382
0.208981767 0.082858995 0.075015999
0.228336424 0.089563638 0.081720419
0.249588788 0.092599966 0.084756799
0.268437386 0.098039381 0.082985580
0.296900779 0.103858188 0.086274609
0.328779370 0.114104763 0.092979178
0.359772027 0.120177403 0.102720007
0.398735106 0.131815389 0.109297998
0.434535474 0.136495650 0.117393985
0.474762976 0.141429260 0.123845518
0.516381562 0.148640379 0.129917979
0.558759928 0.160657912 0.141935498
0.607336819 0.169766277 0.146489680
0.651612937 0.178874075 0.153194308
0.691967428 0.187602744 0.161416680
0.731941819 0.199747384 0.171030983
0.771789730 0.209234536 0.180518821
0.819227934 0.226312399 0.198482171
0.866919339 0.248070940 0.220619962
0.916761398 0.272738993 0.247944385
0.037444774 0.048197545 0.031751998
0.037444774 0.049083158 0.036179613
0.050347771 0.049968775 0.042757999
0.063504227 0.054269545 0.043010838
0.072865091 0.060341544 0.046805773
0.089816704 0.066413872 0.055913836
0.103225768 0.065275222 0.057811324
0.121441759 0.066919930 0.059202999
0.140670106 0.071726903 0.057431772
0.155850515 0.073118232 0.060721193
0.173181653 0.078178674 0.064642996
0.190385774 0.081214286 0.072738737
0.209740862 0.087792642 0.078937516
0.229222029 0.093358770 0.084503770
0.250474393 0.102087416 0.085642412
0.271473765 0.105376221 0.088172190
0.294243962 0.109930418 0.089690000
0.328905910 0.117773339 0.095129579
0.366856575 0.125363946 0.101201981
0.399114341 0.134851232 0.109677233
0.436685711 0.143200696 0.115749709
0.474130362 0.148513421 0.125363767
0.515622497 0.155724227 0.129791468
0.560151577 0.163820237 0.139911234
0.603035808 0.175838277 0.149525508
0.650474310 0.184946299 0.155344889
0.691208363 0.194560125 0.164452836
0.732321382 0.206704885 0.173561215
0.778241515 0.218342915 0.189120829
0.817709863 0.238076910 0.205313161
0.866033733 0.255660981 0.225679964
0.917647004 0.276660234 0.249209225
0.045541160 0.065148838 0.041619159
0.043010838 0.065148838 0.039089162
0.050854161 0.067679159 0.043769933
0.067805000 0.066413999 0.045541160
0.074636094 0.071727000 0.053889774
0.091081865 0.076027997 0.061226934
0.106767997 0.078304842 0.061480161
0.118406147 0.078557864 0.064010158
0.136622161 0.080835164 0.064010158
0.152308494 0.083364844 0.064010158
0.169133574 0.088045582 0.068184868
0.187349826 0.093358733 0.074003898
0.206704468 0.096394636 0.078557521
0.228209898 0.099937029 0.084250741
0.250474393 0.111069143 0.086274996
0.271726787 0.116002351 0.088678189
0.298545212 0.121568352 0.093231998
0.328399718 0.125237152 0.100568987
0.372675955 0.133712977 0.105502814
0.404301018 0.141555816 0.111574814
0.438456476 0.148766309 0.117520481
0.475901127 0.156863093 0.124604866
0.515495956 0.166350305 0.131056339
0.559898555 0.174699321 0.140164271
0.603162408 0.181530401 0.145477295
0.645667136 0.193548620 0.157115668
0.688678026 0.202150315 0.165718004
0.731941819 0.212776884 0.174067274
0.774699569 0.228716135 0.189879969
0.821758270 0.243390143 0.208601996
0.864768684 0.269829184 0.233396620
0.916381836 0.283491313 0.253510326
0.059582997 0.080328546 0.054143000
0.055407774 0.080328546 0.051106997
0.057558548 0.083491549 0.053510774
0.066666931 0.086527832 0.059582997
0.080328546 0.084629998 0.059203450
0.092473321 0.084629998 0.062239062
0.109677546 0.088930994 0.061353773
0.122960150 0.092979155 0.062112994
0.133586541 0.095635995 0.067425996
0.151802555 0.095635995 0.067426004
0.168247879 0.098545127 0.073244996
0.184692994 0.103225537 0.078557998
0.204427183 0.108159184 0.081973456
0.225932613 0.111448541 0.079696096
0.250221342 0.120430410 0.085768826
0.272485793 0.125490189 0.089816734
0.299051195 0.131562188 0.095129542
0.332574159 0.140037984 0.100948535
0.372043401 0.146110013 0.113092557
0.403162569 0.152181998 0.117267355
0.437317938 0.158633545 0.119544737
0.475521684 0.165970713 0.124604866
0.514990032 0.177988946 0.133585989
0.557241797 0.189880013 0.142441362
0.599746585 0.196331248 0.146615997
0.642630816 0.202403337 0.151676103
0.685262144 0.214295000 0.166097552
0.730803251 0.220366985 0.172169536
0.768374562 0.238962799 0.186211258
0.811511755 0.255281508 0.202403501
0.858696997 0.269829184 0.223529235
0.910309494 0.294117987 0.256926447
0.065655001 0.095508933 0.048071001
0.074762613 0.095508933 0.066287003
0.077039711 0.093358703 0.061100770
0.083112158 0.094370842 0.061353996
0.092473321 0.096773997 0.065275453
0.095508933 0.102845997 0.062239062
0.112713702 0.102845997 0.067805000
0.125996217 0.103857994 0.067425773
0.135863259 0.105123155 0.068185002
0.148766950 0.107779995 0.073498011
0.172801927 0.110689126 0.079317003
0.187475994 0.113725252 0.081340998
0.205186278 0.117267579 0.083491646
0.228969008 0.120556936 0.085768864
0.253257751 0.126628920 0.091840863
0.277545899 0.135610178 0.097912997
0.302846193 0.143706203 0.106514931
0.331815124 0.152181983 0.115116931
0.362935007 0.158254027 0.116128944
0.394054800 0.164326012 0.122706935
0.428209931 0.172295734 0.122580744
0.467678457 0.179885924 0.124604866
0.511954427 0.187096566 0.133585989
0.551422834 0.196204975 0.139658004
0.593674600 0.208095998 0.153067335
0.637570977 0.214547604 0.158760011
0.682100058 0.220619991 0.163314193
0.724731266 0.232510984 0.175205931
0.762302577 0.246552795 0.189247072
0.804048061 0.262745172 0.202656478
0.846552670 0.277419508 0.218469530
0.882985115 0.294117987 0.241746068
0.076787002 0.118279636 0.064769320
0.080835260 0.120809317 0.070335001
0.089942873 0.118659087 0.075648002
0.097532995 0.115623154 0.072738834
0.107147224 0.115749314 0.076028004
0.110183381 0.117520317 0.070841387
0.123339638 0.121062636 0.075395323
0.139911696 0.122706927 0.079823032
0.151549637 0.123592317 0.079317316
0.163693979 0.124857478 0.081847325
0.182415992 0.130423442 0.090448998
0.202656507 0.131435320 0.092473000
0.218089625 0.135104284 0.093611643
0.239342034 0.139532283 0.096647970
0.261353493 0.143326998 0.100442670
0.290449262 0.149398997 0.104111478
0.316508502 0.158380508 0.111575186
0.345097840 0.167488888 0.121442311
0.377355993 0.175458655 0.125237331
0.412776738 0.181530654 0.133332998
0.448830187 0.191397637 0.133712739
0.486907065 0.201138452 0.133712992
0.529032350 0.208728626 0.141176313
0.566097558 0.215433225 0.147248328
0.610119879 0.226818308 0.155597612
0.655660629 0.237570986 0.168880299
0.701328218 0.243896395 0.174446315
0.741809189 0.254016638 0.182542562
0.784060955 0.268817455 0.199873775
0.822264433 0.282226592 0.215053827
0.864515901 0.300189883 0.233270273
0.901201367 0.321948320 0.259456009
0.087286703 0.134345278 0.082732700
0.090322673 0.135736614 0.077545613
0.092726223 0.141049773 0.085009411
0.104364157 0.135483831 0.082479410
0.114990160 0.133586094 0.084756710
0.115496226 0.138646409 0.083744705
0.128652602 0.136243016 0.082858995
0.140543997 0.139278978 0.088931002
0.156483307 0.142314792 0.089690290
0.170398295 0.143200412 0.087919295
0.190006003 0.147374690 0.096647836
0.206577793 0.151043415 0.099683709
0.224794567 0.153320417 0.100822061
0.244022712 0.159140021 0.104364321
0.269449383 0.162175983 0.110183284
0.291334599 0.169259697 0.111574799
0.321695000 0.175331697 0.114611186
0.351043403 0.184946135 0.124098979
0.385452032 0.195066676 0.132194996
0.421631753 0.199746996 0.131182656
0.461606473 0.209614396 0.139278740
0.501075387 0.220746279 0.140291125
0.540543795 0.229981005 0.146742716
0.578494787 0.239089400 0.149778724
0.618469238 0.244781688 0.159772292
0.665401280 0.255534351 0.168880671
0.712966144 0.265148699 0.181277648
0.753573537 0.275395423 0.190764993
0.792409897 0.288172096 0.205818921
0.828210115 0.304870665 0.223909184
0.867678583 0.319671303 0.242631570
0.907146990 0.345477700 0.272232711
0.097153999 0.148007289 0.095635995
0.099430710 0.148007289 0.087286316
0.101834096 0.152181953 0.088551544
0.106641248 0.156736031 0.096141994
0.120683089 0.148007184 0.089690447
0.118785255 0.157874867 0.093864903
0.130170405 0.156357005 0.092346773
0.141302705 0.154459372 0.093484998
0.151929095 0.157495186 0.098039001
0.170145094 0.160531580 0.091967002
0.190512061 0.164326325 0.098924875
0.207716241 0.168121368 0.103478998
0.226312369 0.170778111 0.104617357
0.244276047 0.176597059 0.107400000
0.272105962 0.179633319 0.114990316
0.294370592 0.187476292 0.117647000
0.320177197 0.195825189 0.121442087
0.350537181 0.203162178 0.123845898
0.386717021 0.215306953 0.135483891
0.423149765 0.220619842 0.131941631
0.461859465 0.228589550 0.132700726
0.503352106 0.239721969 0.140291125
0.542820513 0.248576611 0.149272993
0.582289755 0.258823782 0.150537997
0.624035299 0.266413808 0.158886895
0.666160345 0.272991627 0.169639573
0.713725209 0.282606095 0.180266023
0.756229937 0.294750184 0.195698723
0.792662621 0.307653069 0.210878804
0.830107331 0.321821511 0.227830395
0.860847652 0.341682583 0.251739562
0.900316060 0.362934977 0.279064000
0.109297998 0.175332457 0.101708002
0.109298013 0.175332457 0.104743615
0.113725491 0.175332442 0.102846257
0.120809644 0.176976800 0.104238003
0.129791483 0.178367972 0.107906453
0.135863483 0.172295973 0.098798066
0.146615967 0.172043011 0.095382847
0.155597493 0.171790004 0.095635779
0.164073110 0.172675595 0.098039009
0.179253489 0.175711989 0.098039009
0.197470233 0.181657493 0.100695878
0.213788703 0.187602967 0.106008999
0.233522907 0.191271499 0.110689357
0.259456426 0.191777468 0.113472007
0.274636030 0.194813073 0.113472007
0.297659576 0.202656344 0.116255328
0.327767372 0.211764693 0.123718999
0.362681925 0.221378952 0.132953510
0.393041998 0.233522996 0.132953525
0.429221749 0.242884368 0.139025524
0.465654463 0.251739711 0.142567739
0.503352106 0.260974348 0.145857126
0.542820513 0.269829005 0.149272993
0.582289755 0.272865415 0.155345023
0.628589511 0.283111989 0.163440704
0.674003780 0.294876456 0.172675177
0.716761589 0.306894124 0.183301643
0.759266317 0.319038898 0.201518416
0.793801248 0.333839089 0.216951102
0.836179316 0.347121894 0.233902395
0.878684163 0.363061428 0.258317560
0.909424484 0.387223005 0.297279984
0.109803997 0.182289988 0.104870126
0.127260998 0.188108996 0.113725483
0.127260998 0.183807999 0.108159095
0.131815001 0.186084837 0.104870126
0.138519675 0.192409545 0.106514677
0.142062008 0.193927869 0.102466933
0.153194010 0.190385550 0.108538546
0.165338397 0.190006003 0.107020833
0.174699649 0.190006003 0.106008776
0.185578495 0.190891623 0.103857994
0.200758874 0.193928003 0.106767863
0.218975633 0.199999988 0.109803736
0.238456726 0.206072003 0.114990413
0.263757169 0.210373029 0.119797714
0.286907285 0.218722314 0.122453868
0.306894511 0.226565540 0.127260864
0.336748838 0.235673532 0.132321000
0.371916264 0.244781554 0.140417159
0.402276903 0.254648864 0.144971743
0.435420275 0.258444250 0.144971743
0.471726477 0.271094590 0.148892999
0.510183275 0.281214863 0.152940989
0.551422894 0.288551718 0.158127636
0.588108778 0.299936771 0.166983008
0.625300586 0.305249870 0.170778275
0.667172611 0.314737529 0.180012718
0.708665311 0.325869828 0.192662939
0.753573835 0.340417773 0.213282883
0.785451949 0.352561861 0.226185977
0.829221666 0.365717709 0.242884263
0.873624146 0.377861947 0.261100829
0.903985023 0.394053996 0.286401004
0.121947989 0.206578240 0.116002247
0.128019989 0.208602235 0.119038373
0.139405251 0.208095983 0.113219477
0.141935244 0.208349138 0.109171093
0.148386806 0.215559497 0.111068539
0.154712200 0.213662192 0.114610918
0.163314506 0.213662177 0.113599189
0.173813790 0.212270498 0.117773511
0.185578927 0.212270498 0.116635151
0.195952043 0.212270498 0.116128765
0.208855122 0.215180367 0.116887853
0.230107248 0.218216255 0.119924247
0.248324007 0.225426897 0.122959860
0.270841241 0.232131466 0.127893761
0.295129538 0.237697393 0.130929828
0.321062505 0.248830050 0.132321253
0.345351309 0.256420255 0.138393253
0.379633069 0.265022069 0.143832847
0.411385208 0.274130464 0.148513958
0.444528639 0.281720340 0.153068006
0.476027727 0.286653996 0.154965252
0.513219357 0.300442994 0.160025120
0.554332495 0.308665723 0.166729748
0.588867545 0.318911970 0.168247640
0.629348278 0.328526229 0.180898011
0.667172670 0.337381214 0.186717391
0.705629289 0.347122073 0.198228985
0.745097995 0.359266400 0.214927167
0.787476480 0.373814225 0.232258230
0.821378410 0.384187430 0.246173441
0.867298901 0.397849470 0.266793549
0.899936736 0.412270516 0.288425267
0.137887284 0.233143643 0.124351643
0.139025643 0.234281987 0.125489995
0.143200412 0.234408513 0.122580633
0.153320625 0.233016804 0.114484482
0.159013182 0.240607098 0.117140643
0.166603580 0.235293984 0.123971932
0.174573317 0.237697631 0.124098673
0.185958564 0.237697631 0.124984354
0.197343290 0.239215627 0.125743449
0.210246980 0.239974633 0.128779158
0.222390980 0.241745859 0.128905639
0.238077253 0.244782016 0.129791260
0.262365282 0.247817636 0.132827356
0.281088054 0.256926030 0.135863036
0.305376261 0.261732846 0.138899416
0.333206415 0.270841241 0.140670642
0.359392583 0.282226652 0.142567992
0.387350142 0.288298637 0.148007587
0.420240641 0.296900958 0.151043981
0.455914021 0.306008935 0.159140006
0.491967112 0.315496266 0.162175909
0.523339748 0.323592275 0.166223645
0.562555134 0.335610479 0.175205499
0.597975850 0.344718367 0.176217377
0.635926127 0.354964912 0.185704917
0.675900936 0.363187879 0.198102295
0.714864075 0.374825865 0.208728626
0.748893023 0.383934081 0.222137630
0.788361788 0.398355454 0.240733624
0.829728127 0.412270814 0.260594815
0.867045820 0.424035609 0.277546227
0.903731644 0.442251623 0.304364622
0.150031999 0.249842033 0.122580998
0.153067619 0.253130645 0.124351643
0.156862810 0.255913794 0.127387732
0.163441002 0.257685035 0.129917860
0.174952537 0.257305533 0.126755029
0.177988932 0.254269153 0.126755029
0.184060991 0.260594368 0.126249030
0.194307730 0.265275061 0.129538029
0.209235042 0.266287059 0.134851128
0.227451041 0.272359073 0.137887523
0.240354031 0.273118079 0.138266996
0.253004551 0.275142282 0.138266996
0.268943995 0.277925372 0.139405414
0.293485016 0.281214088 0.142188072
0.317773759 0.290322453 0.145224452
0.346109986 0.299683809 0.148007810
0.374193400 0.309804022 0.151296839
0.400000095 0.321189016 0.155091584
0.430360973 0.327261031 0.158127978
0.468564391 0.336116374 0.168501005
0.509424448 0.347122014 0.173560992
0.549146116 0.358760029 0.175584987
0.582542479 0.371157050 0.181783497
0.621758699 0.380644977 0.190891907
0.658949971 0.391271025 0.202024028
0.695129275 0.401138365 0.213282704
0.731562078 0.407716930 0.223909020
0.767994821 0.416824579 0.242125019
0.802023768 0.430739850 0.262744874
0.838709533 0.445667177 0.285515368
0.877925515 0.461733043 0.309424609
0.917393982 0.479949057 0.330677032
0.162175998 0.283238381 0.134724990
0.165211603 0.289310396 0.122580990
0.174699530 0.290448785 0.124351643
0.183681235 0.291081369 0.134977743
0.193421543 0.290701926 0.147754401
0.202276915 0.287666291 0.141935408
0.212902963 0.287160218 0.136875406
0.220493376 0.292346805 0.138646409
0.228463396 0.295635819 0.143959507
0.236559421 0.296647817 0.146995902
0.254775405 0.302719802 0.150031537
0.271726906 0.305502534 0.150410995
0.287539750 0.307399958 0.151549637
0.305629015 0.308538467 0.154332832
0.332953364 0.314611197 0.154332832
0.354838341 0.326122791 0.154965416
0.384060562 0.334598392 0.158633992
0.415559947 0.343200356 0.165338397
0.448576927 0.354585409 0.176343948
0.481720388 0.363440752 0.176596984
0.518279433 0.374446392 0.182921991
0.555977285 0.384566396 0.187728986
0.591650903 0.392409384 0.193927497
0.625047326 0.410626203 0.203035906
0.661986172 0.415559530 0.212144271
0.697027028 0.424667716 0.224668056
0.731562078 0.435041308 0.239089400
0.767994821 0.444148958 0.257305384
0.804427564 0.453257233 0.275522053
0.840227723 0.465401351 0.296141565
0.877292931 0.479949147 0.319797367
0.914357603 0.498165816 0.345857412
0.176723793 0.321441770 0.142061993
0.182163209 0.327514380 0.139531985
0.189500362 0.329285383 0.135989994
0.201391801 0.330550224 0.141302958
0.210120052 0.330929577 0.152688265
0.211131930 0.325869679 0.136496007
0.225173801 0.325363755 0.152055800
0.234028801 0.325363755 0.149272799
0.243896291 0.328399777 0.152308807
0.258190989 0.328399777 0.153700486
0.271094590 0.331815600 0.154332936
0.287286341 0.335863322 0.159392819
0.303984821 0.336622238 0.159013167
0.319923848 0.335610360 0.159519240
0.345097989 0.339531809 0.161669999
0.372422367 0.350410968 0.171283990
0.396710783 0.358001173 0.174319983
0.428336531 0.365085334 0.178494573
0.461732984 0.379000604 0.181783810
0.495129347 0.390765131 0.187602803
0.530423462 0.401770771 0.193295538
0.564832270 0.414926916 0.199873596
0.598482013 0.425047100 0.206072077
0.634155691 0.431878597 0.215179905
0.667552054 0.443264067 0.226565570
0.702466667 0.449335694 0.239974767
0.736369073 0.459962040 0.256673098
0.772801816 0.469070137 0.274889588
0.806830764 0.480581611 0.278684646
0.843263507 0.496773928 0.312840074
0.877925336 0.509930193 0.342694134
0.911321819 0.523592770 0.373054981
0.188867807 0.357874572 0.143579811
0.201012179 0.363946974 0.151170000
0.210752755 0.364199996 0.155724183
0.216065988 0.364199996 0.153194189
0.227197990 0.366603196 0.159519449
0.229854226 0.362808168 0.145098060
0.237444699 0.361796170 0.150158316
0.249209180 0.363314360 0.158380806
0.258317381 0.363314360 0.159898803
0.278810859 0.363314360 0.161416799
0.291334718 0.364706039 0.161416799
0.305503130 0.369260103 0.163946986
0.324098378 0.372296005 0.168880641
0.340923220 0.370019346 0.166856378
0.363946795 0.370524943 0.168627605
0.386084974 0.377735376 0.175838187
0.411891162 0.388361573 0.181910187
0.441113114 0.392662942 0.189247176
0.475395173 0.406072378 0.190638959
0.507273793 0.418469399 0.192916006
0.542567849 0.429095566 0.202403530
0.576976359 0.439215571 0.209487930
0.607336998 0.452751368 0.215306982
0.640986800 0.459962100 0.225806296
0.673624456 0.469070286 0.240227759
0.707020760 0.478178650 0.250980496
0.740923285 0.487792373 0.267805099
0.777356029 0.497912616 0.283997893
0.811131954 0.506641150 0.298418999
0.844781339 0.519544542 0.318912059
0.880328596 0.540796936 0.358254164
0.911321819 0.552435338 0.389753193
0.203035697 0.391904116 0.146868706
0.218722314 0.397976100 0.159518957
0.230107576 0.398228914 0.168500766
0.239089131 0.395825118 0.172548980
0.239848137 0.396584123 0.167235985
0.251486152 0.397090107 0.164452627
0.260468185 0.396457702 0.165211901
0.268184841 0.398102224 0.166223854
0.278937191 0.400379509 0.164199576
0.297153950 0.400379509 0.170271575
0.310815930 0.400379509 0.171789557
0.324984223 0.403795123 0.173813820
0.343580127 0.409361154 0.177482620
0.367362142 0.412397534 0.180265978
0.388234943 0.410120279 0.180265978
0.406451583 0.413662106 0.182542995
0.427704126 0.419354707 0.186843991
0.452624679 0.428463101 0.188108981
0.489057541 0.437571526 0.200253010
0.519924104 0.448197544 0.203162566
0.552814841 0.457811713 0.209487557
0.587223530 0.467172980 0.221125677
0.617457092 0.473371476 0.224415049
0.647311807 0.485009551 0.236053139
0.678937554 0.497153550 0.251486540
0.711954594 0.507273614 0.268690854
0.744845092 0.516888082 0.279316694
0.781024814 0.529032111 0.291714430
0.812903166 0.536495507 0.312587082
0.846932113 0.547374964 0.340290695
0.878431201 0.559646130 0.370398164
0.911827624 0.580898523 0.394686967
0.236432940 0.428336978 0.174193919
0.242504925 0.434408963 0.177229539
0.245288000 0.436179996 0.179126993
0.250095159 0.434661776 0.179886028
0.258064955 0.433017015 0.179380015
0.264136970 0.439089000 0.179380015
0.278305292 0.437065303 0.176597312
0.289437264 0.437571228 0.177356273
0.300063103 0.439848006 0.179126993
0.315370023 0.439848006 0.179380000
0.333586037 0.439848006 0.185451984
0.349272281 0.441872269 0.188994244
0.367868304 0.446299970 0.193168983
0.391650975 0.451866031 0.198482022
0.409866959 0.454902440 0.198482037
0.425932825 0.457432181 0.193675041
0.445920438 0.459203005 0.194687039
0.470841527 0.461859614 0.200253040
0.498166025 0.470968008 0.206325054
0.529032052 0.477293044 0.215686396
0.559392571 0.483871013 0.222137988
0.590259373 0.492220074 0.231752127
0.620493531 0.503731608 0.245667502
0.647817910 0.512839973 0.254775882
0.682226598 0.524478018 0.266413957
0.719544649 0.533839047 0.284630001
0.756989121 0.541176200 0.306641161
0.787349820 0.553320944 0.324857891
0.812902987 0.562808156 0.339911848
0.845034361 0.576976418 0.361163914
0.877672195 0.592030585 0.385325581
0.902719975 0.602151036 0.406831056
0.261480033 0.478684396 0.190385655
0.264769375 0.481973737 0.193421990
0.270841360 0.485894978 0.196458146
0.277166396 0.486527413 0.195825562
0.287033558 0.485009313 0.194307372
0.290702373 0.483871102 0.194307372
0.301834375 0.487412810 0.199367374
0.316761732 0.484883100 0.197090730
0.328146845 0.486401111 0.198608726
0.339279234 0.490449101 0.202656731
0.362934738 0.493231744 0.200126380
0.379126996 0.491208017 0.204174638
0.395445734 0.493864775 0.208349377
0.416445076 0.499430776 0.214168325
0.439721704 0.499936819 0.216698021
0.462745309 0.505376399 0.226312608
0.483618081 0.510309756 0.227071539
0.507273972 0.512207329 0.230613381
0.530297399 0.512713671 0.232384399
0.560405135 0.519038737 0.241239741
0.588867843 0.528905749 0.252245367
0.617330849 0.538772762 0.261100501
0.645793855 0.550537288 0.272612363
0.673118234 0.554332674 0.284376889
0.704996645 0.565717757 0.295762002
0.738140345 0.575078785 0.312080652
0.771410465 0.581150889 0.334471434
0.799493849 0.588741601 0.354964912
0.829854608 0.598228872 0.375837803
0.857938051 0.609108150 0.393042445
0.888804674 0.624415100 0.418848902
0.913093030 0.637318015 0.449589103
0.287665725 0.522707224 0.209360734
0.300189853 0.521948099 0.212397128
0.293990970 0.526881695 0.219228506
0.301328123 0.529917657 0.219734564
0.312839746 0.530929685 0.215559736
0.320429921 0.530929625 0.209487736
0.327261478 0.531056106 0.214547738
0.342694461 0.532447457 0.218975455
0.358127803 0.531182826 0.217204735
0.369513243 0.536116481 0.220999733
0.387476444 0.537381351 0.224035606
0.407589972 0.542061746 0.225047246
0.423909009 0.540164471 0.229221985
0.442125231 0.543706477 0.235041007
0.463124543 0.540417492 0.238077044
0.483617842 0.545224488 0.242631331
0.510942638 0.551296473 0.253257543
0.535989881 0.556103468 0.257052302
0.558507442 0.554332674 0.258317471
0.580518723 0.559645712 0.266666830
0.610879481 0.563820422 0.273877472
0.636179864 0.572928309 0.282985359
0.661733210 0.582289219 0.290828466
0.689057589 0.588867664 0.308285743
0.717141032 0.596837461 0.322327465
