Assets/Resources/EldamarStudio/100 Horror LUTs Pack/LUTs/cube/Deadblaze LUT.cube
LUT_3D_SIZE 5
DOMAIN_MIN 0.000000 0.000000 0.000000
DOMAIN_MAX 0.903226 0.903226 0.903226
0.031373002 0.039216001 0.035294000
0.118026696 0.056546707 0.056546707
0.246552393 0.089563578 0.081720419
0.479823112 0.136369124 0.117773250
0.779759586 0.208095953 0.185831800
0.087286703 0.134345278 0.082732700
0.140543997 0.139278978 0.088931002
0.269449383 0.162175983 0.110183284
0.501075387 0.220746279 0.140291125
0.792409897 0.288172096 0.205818921
0.162175998 0.283238381 0.134724990
0.220493376 0.292346805 0.138646409
0.332953364 0.314611197 0.154332832
0.555977285 0.384566396 0.187728986
0.804427564 0.453257233 0.275522053
0.316002250 0.561163962 0.229601249
0.366983235 0.574952245 0.239215702
0.485642105 0.580139279 0.263377547
0.651360273 0.604301214 0.306261986
0.839974642 0.656293511 0.423023105
0.583681285 0.833143771 0.533965766
0.616192162 0.843390346 0.549272478
0.683491349 0.848829746 0.560784161
0.791650951 0.851106763 0.597469568
0.906388581 0.864515781 0.643896222
0.042504996 0.042504996 0.080455408
0.107906409 0.061479993 0.089942694
0.225679815 0.099051289 0.117393695
0.453004509 0.143200263 0.160910830
0.757495463 0.212903261 0.229727939
0.092852995 0.124604695 0.108918689
0.139658689 0.133080691 0.126881406
0.249209389 0.167109698 0.143200412
0.472359091 0.213915259 0.175331831
0.776090920 0.290069520 0.248323515
0.167742118 0.277925372 0.163441002
0.220113680 0.287792385 0.172675416
0.324477792 0.310689390 0.182795689
0.540670395 0.374826223 0.222770095
0.799873173 0.457558334 0.310815752
0.325489938 0.559266090 0.272611946
0.365085244 0.562302351 0.272864968
0.479822665 0.573687673 0.296141535
0.632384360 0.595825255 0.329158813
0.832131624 0.656293511 0.439342350
0.578367591 0.836432755 0.534598589
0.604933500 0.833775938 0.547122180
0.677039981 0.839721620 0.571284056
0.785831928 0.846552789 0.602909267
0.906135440 0.864895642 0.658949971
0.057558831 0.058823999 0.158886582
0.112460412 0.073876999 0.156609699
0.222390816 0.101961002 0.179886401
0.450727642 0.131435990 0.243769526
0.751549184 0.201644629 0.325869620
0.105881996 0.134977698 0.172548994
0.144465417 0.140543982 0.180139124
0.250094682 0.166729987 0.206957698
0.474256873 0.201391414 0.255408108
0.768500984 0.292093486 0.345477194
0.173940822 0.292346388 0.234788403
0.220999405 0.293611825 0.243895993
0.338140368 0.315876395 0.262239397
0.545477688 0.375458807 0.310436547
0.795952022 0.459835231 0.401012212
0.321821839 0.555218279 0.352182120
0.365844280 0.557495177 0.360657930
0.475142121 0.570904732 0.376090944
0.637570798 0.594813347 0.412397534
0.831751823 0.660214901 0.513472378
0.575079024 0.821885169 0.586084783
0.592662752 0.828209937 0.587982297
0.669070244 0.833016932 0.607083797
0.780898154 0.846173167 0.640100896
0.906514764 0.861859560 0.689563453
0.087286867 0.087286867 0.307147115
0.155977115 0.095383003 0.310689420
0.264642537 0.113092579 0.308412135
0.457305253 0.134345129 0.362176120
0.760025442 0.213408947 0.466033965
0.121568568 0.155977115 0.314864129
0.177229568 0.164073572 0.320809692
0.286527395 0.176217273 0.328779131
0.483491272 0.205692694 0.386337698
0.771157622 0.301075220 0.480455697
0.175838411 0.315876395 0.365717649
0.239595264 0.327008396 0.379379809
0.375079066 0.345350802 0.399999678
0.567362130 0.386590660 0.448703408
0.792030215 0.477799088 0.532447696
0.347248256 0.572928250 0.478937268
0.393674821 0.578368008 0.488931119
0.496394843 0.589247406 0.512840271
0.643516958 0.610246241 0.542568088
0.828589618 0.660847545 0.608981669
0.600758910 0.830233932 0.679949284
0.618722439 0.835673809 0.687792599
0.665780902 0.839974642 0.687033474
0.767488718 0.848197579 0.706514776
0.898924470 0.867805183 0.754585564
0.111068845 0.096774153 0.630739570
0.226438791 0.097027138 0.635041118
0.400379628 0.104617156 0.625553548
0.597343028 0.135483816 0.637065113
0.816318750 0.242378429 0.656799555
0.085895300 0.195192695 0.632131577
0.217457533 0.193674803 0.625553429
0.404680490 0.201517954 0.634028971
0.608855307 0.232004926 0.637950838
0.820366740 0.326628596 0.668564022
0.083870962 0.374826223 0.641871989
0.226565704 0.377482384 0.642125309
0.421885222 0.392536610 0.653004587
0.630613685 0.422390908 0.666286826
0.824035406 0.494623631 0.696647286
0.336622268 0.625047505 0.685262322
0.382415950 0.628715813 0.694749951
0.502340376 0.628589690 0.699936628
0.665527940 0.643263996 0.718532622
0.847185493 0.696268082 0.745983243
0.601897597 0.842378438 0.775584936
0.629727662 0.845287859 0.785831749
0.696014762 0.848829746 0.796584487
0.792030215 0.863883555 0.819481432
0.904996634 0.882858574 0.859582543
