Assets/Resources/EldamarStudio/100 Horror LUTs Pack/LUTs/cube/Deadblaze LUT.cube
LUT_3D_SIZE 8
DOMAIN_MIN 0.000000 0.000000 0.000000
DOMAIN_MAX 0.903226 0.903226 0.903226
0.031373002 0.039216001 0.035294000
0.068564542 0.043516546 0.043895997
0.132448003 0.058823999 0.060341999
0.204047635 0.077925645 0.070082352
0.301454991 0.097786188 0.089310996
0.438330472 0.129284993 0.111701258
0.602782845 0.163693696 0.145730570
0.779759586 0.208095953 0.185831800
0.059582997 0.080328546 0.054143000
0.080328546 0.084629998 0.059203450
0.133586541 0.095635995 0.067425996
0.204427183 0.108159184 0.081973456
0.299051195 0.131562188 0.095129542
0.437317938 0.158633545 0.119544737
0.599746585 0.196331248 0.146615997
0.768374562 0.238962799 0.186211258
0.097153999 0.148007289 0.095635995
0.120683089 0.148007184 0.089690447
0.151929095 0.157495186 0.098039001
0.226312369 0.170778111 0.104617357
0.320177197 0.195825189 0.121442087
0.461859465 0.228589550 0.132700726
0.624035299 0.266413808 0.158886895
0.792662621 0.307653069 0.210878804
0.137887284 0.233143643 0.124351643
0.159013182 0.240607098 0.117140643
0.197343290 0.239215627 0.125743449
0.262365282 0.247817636 0.132827356
0.359392583 0.282226652 0.142567992
0.491967112 0.315496266 0.162175909
0.635926127 0.354964912 0.185704917
0.788361788 0.398355454 0.240733624
0.188867807 0.357874572 0.143579811
0.227197990 0.366603196 0.159519449
0.258317381 0.363314360 0.159898803
0.324098378 0.372296005 0.168880641
0.411891162 0.388361573 0.181910187
0.542567849 0.429095566 0.202403530
0.673624456 0.469070286 0.240227759
0.811131954 0.506641150 0.298418999
0.287665725 0.522707224 0.209360734
0.312839746 0.530929685 0.215559736
0.358127803 0.531182826 0.217204735
0.423909009 0.540164471 0.229221985
0.510942638 0.551296473 0.253257543
0.610879481 0.563820422 0.273877472
0.717141032 0.596837461 0.322327465
0.838203669 0.628968894 0.400505543
0.412017286 0.682226539 0.324730992
0.434788018 0.689816535 0.340670109
0.466666460 0.690828443 0.340290844
0.525363564 0.696773887 0.363567263
0.592789233 0.701834559 0.379253834
0.674003720 0.707020760 0.401011795
0.766223788 0.711322308 0.432890296
0.855154753 0.737634242 0.499557376
0.583681285 0.833143771 0.533965766
0.603921413 0.844528913 0.537887454
0.624288440 0.844908476 0.552055418
0.665148735 0.846173644 0.559898973
0.711701095 0.848956227 0.568121433
0.777735591 0.851359785 0.595192790
0.839089215 0.859835804 0.621505439
0.906388581 0.864515781 0.643896222
0.038457002 0.043136999 0.059203450
0.061100997 0.039595451 0.056799542
0.125364006 0.064642541 0.077545993
0.185578987 0.085768647 0.094370641
0.277925372 0.109677091 0.110436089
0.412776709 0.135989740 0.138014004
0.579253852 0.165717542 0.159898698
0.763061166 0.209740356 0.203289241
0.059203450 0.066160545 0.072865091
0.079949096 0.080708094 0.071726546
0.115496539 0.092852540 0.081467189
0.184819981 0.109297633 0.093232088
0.276660621 0.130423546 0.117267542
0.412144005 0.162555560 0.140417293
0.573687553 0.194939986 0.157748252
0.751929343 0.235673651 0.199114099
0.090828992 0.137887195 0.097912997
0.114357993 0.145730197 0.094750091
0.144845098 0.143327087 0.108918093
0.210626185 0.158127993 0.117140733
0.306514829 0.189120635 0.132827342
0.437065005 0.220366642 0.148766279
0.606577992 0.259203285 0.172295988
0.776470423 0.309171170 0.226059645
0.134598285 0.215559736 0.120935731
0.159772187 0.223529533 0.133207008
0.191018179 0.225427195 0.129538551
0.246553183 0.238329917 0.139405176
0.344718844 0.270841181 0.158254087
0.467805237 0.308032840 0.170018986
0.627830625 0.349398911 0.201897472
0.780771673 0.398482263 0.256166786
0.201391190 0.352814823 0.154712543
0.216824993 0.356735945 0.177609444
0.255914092 0.357874483 0.171536997
0.319797635 0.366477191 0.176976189
0.402023882 0.375331908 0.181277737
0.530803442 0.419607460 0.210499465
0.668437898 0.457684934 0.253637016
0.805692494 0.506894171 0.317773581
0.286021531 0.512081265 0.217710078
0.303985029 0.515496731 0.224794522
0.343327016 0.517773867 0.228463188
0.408602148 0.527008414 0.240354180
0.493738145 0.535989761 0.255407989
0.590006232 0.548766434 0.279696494
0.708032846 0.583807766 0.330044270
0.829601526 0.627071738 0.402909249
0.408222526 0.669955850 0.338266999
0.423655808 0.677925289 0.335737079
0.457052469 0.676154137 0.342441350
0.509550631 0.681593835 0.358507276
0.583681107 0.688551307 0.371283829
0.664895535 0.694750071 0.399240911
0.749652147 0.710436583 0.436559558
0.848070800 0.731309295 0.495382756
0.572296023 0.827830315 0.525996149
0.588868082 0.829980791 0.520936131
0.605818689 0.826185882 0.528526247
0.649083018 0.829854250 0.544844866
0.702213585 0.837571144 0.558254242
0.764326394 0.843263984 0.585958004
0.835546911 0.858191073 0.616065741
0.903225601 0.861353755 0.645540833
0.047059000 0.047059000 0.094117999
0.064262994 0.050980099 0.089310996
0.122327909 0.071347103 0.107399993
0.192789197 0.091714099 0.115622744
0.282732397 0.107273899 0.141049892
0.417330444 0.134851098 0.169765741
0.580898523 0.165337995 0.194307193
0.761290610 0.212143973 0.244908139
0.064262994 0.083491549 0.095635898
0.091334544 0.088172443 0.104743548
0.134851098 0.099557102 0.112081096
0.194307193 0.116002187 0.125743449
0.284756541 0.138772905 0.151423112
0.415812463 0.170904383 0.169639647
0.581404030 0.194560438 0.194560349
0.754585683 0.241492808 0.243137330
0.102719903 0.147375107 0.129411995
0.126628548 0.154838562 0.127766997
0.166224003 0.152814895 0.145857096
0.215433210 0.169260114 0.143832639
0.314864099 0.195825189 0.160658091
0.447564840 0.228083193 0.186464086
0.606704831 0.263124377 0.215433180
0.777608752 0.310057074 0.267299026
0.146489292 0.237824440 0.161922649
0.167741999 0.237824440 0.161037445
0.202150285 0.240101531 0.171537012
0.261226922 0.248324096 0.170019090
0.353067517 0.276786715 0.180391818
0.482985467 0.308412164 0.205945373
0.627451181 0.354712158 0.242251813
0.782416403 0.400252789 0.295762271
0.206831098 0.356356561 0.194940180
0.223909095 0.363441169 0.194180980
0.269576252 0.365718186 0.205313087
0.323845714 0.369259804 0.204427287
0.407210469 0.385325581 0.217836991
0.531435847 0.425174177 0.245920271
0.670461714 0.464389741 0.283365190
0.801770985 0.513978422 0.348513693
0.302214086 0.525616467 0.263503820
0.320303380 0.525869846 0.263757169
0.363820732 0.531435728 0.266540051
0.421631902 0.536116123 0.279443353
0.504870534 0.541176260 0.295635521
0.597217143 0.558380425 0.308665752
0.712840259 0.593674660 0.361416757
0.831372499 0.632257998 0.436558813
0.417204261 0.679949284 0.370145261
0.430866718 0.688424826 0.373940349
0.472991675 0.689310193 0.389753491
0.523592591 0.690954924 0.399620742
0.590512335 0.698039293 0.412397474
0.670967817 0.699557185 0.428842247
0.755091846 0.715243280 0.463377655
0.852498591 0.733206809 0.520430267
0.583427906 0.836179674 0.545730650
0.599999726 0.836938918 0.562808454
0.622390866 0.835546732 0.566350400
0.660594702 0.842631221 0.575837791
0.711574912 0.845414340 0.587855518
0.771916389 0.849335730 0.606198370
0.840227842 0.855154753 0.634155393
0.908665359 0.865654588 0.665022314
0.048197355 0.053257290 0.135104641
0.071220897 0.058697090 0.129538640
0.120935738 0.072485544 0.132700637
0.179379985 0.090829000 0.148513645
0.278684199 0.108792089 0.176091179
0.403668553 0.127387732 0.202783078
0.577609122 0.141808987 0.238329917
0.753952920 0.205565944 0.291081637
0.076787002 0.087666094 0.136622533
0.095509186 0.092346989 0.126755282
0.126375645 0.102213539 0.134977728
0.191018179 0.117899731 0.160531297
0.280961186 0.136748642 0.181024909
0.405439436 0.151170090 0.203921720
0.575964808 0.176596925 0.238709569
0.749019265 0.231499240 0.291460901
0.105376452 0.148007289 0.158128083
0.125616744 0.149904743 0.156356379
0.167615101 0.160151646 0.171537086
0.219102070 0.172675639 0.178494364
0.313852191 0.189879730 0.197343186
0.436685562 0.218089744 0.220240429
0.602656662 0.258823842 0.260214925
0.769386411 0.306767881 0.316887945
0.149651989 0.226565629 0.189500287
0.161669642 0.233270273 0.197722733
0.199620366 0.239974633 0.202783182
0.254648924 0.250094920 0.208601922
0.351296663 0.272738636 0.222264275
0.470588118 0.304870635 0.249715373
0.623023570 0.349398911 0.293358564
0.777355909 0.399114251 0.345224053
0.204553992 0.348260373 0.239847988
0.231372640 0.357368827 0.238836288
0.265401393 0.360910475 0.243137538
0.325616479 0.367488801 0.250601083
0.408602178 0.382669389 0.263757259
0.529664934 0.420872748 0.292093456
0.662492275 0.462745398 0.331815273
0.801518023 0.514484167 0.394939601
0.294244260 0.509171188 0.303858101
0.315370083 0.511195481 0.304996580
0.356230289 0.517014563 0.309424609
0.417204380 0.528399527 0.318911999
0.501581132 0.539026141 0.334471822
0.593801200 0.557621539 0.356736362
0.709677458 0.590385675 0.403415740
0.825679779 0.631625473 0.477292627
0.407843202 0.676660538 0.404427528
0.427703947 0.678937316 0.410879016
0.458570540 0.676913261 0.414168000
0.513093174 0.678937316 0.423529208
0.583807826 0.689563632 0.440986931
0.665781319 0.700316370 0.462745041
0.751170278 0.709171176 0.492979288
0.847312033 0.736116290 0.550157905
0.568880558 0.831498742 0.571410596
0.588994265 0.828083456 0.573308110
0.605439484 0.832637429 0.578747571
0.647817731 0.835420728 0.587349772
0.696647763 0.839721560 0.602909446
0.764705777 0.845287681 0.618469477
0.835041106 0.853889823 0.647944570
0.905376375 0.867299139 0.681973159
0.068184800 0.072106190 0.193674803
0.088551797 0.076027803 0.192409649
0.135610297 0.084630094 0.194307387
0.188108802 0.099177644 0.194686830
0.275775015 0.114358187 0.222391188
0.407337010 0.130044192 0.266540110
0.579126894 0.145730376 0.314610898
0.756103754 0.207210630 0.366350174
0.082605831 0.101075187 0.183554724
0.113725193 0.108159184 0.193927839
0.144591644 0.113725193 0.190006450
0.195825279 0.123466350 0.198229104
0.274130195 0.139531896 0.227198184
0.413029909 0.152308539 0.264642447
0.583428323 0.174699560 0.313219398
0.747374773 0.230740145 0.366603285
0.118406102 0.151929080 0.208602101
0.135483995 0.163440555 0.205692723
0.172422275 0.170145184 0.214674085
0.225680083 0.175585002 0.220872998
0.318026185 0.191144899 0.252245367
0.441872001 0.214927539 0.281847179
0.608349144 0.250474185 0.328020364
0.770904303 0.312586904 0.390006214
0.158760250 0.233143434 0.243643180
0.176723540 0.239721984 0.249968290
0.218089744 0.251360178 0.257685095
0.289057493 0.271853089 0.271347404
0.370272249 0.279063821 0.285768390
0.481720179 0.310816079 0.311954588
0.630992770 0.349525720 0.352814555
0.776470542 0.401391417 0.408728808
0.207590178 0.361796170 0.295129567
0.235800192 0.368121386 0.305123448
0.274130285 0.372802079 0.306261957
0.337507963 0.379886389 0.312587172
0.429981351 0.396205187 0.324984372
0.537254632 0.425300181 0.352308333
0.668943524 0.462871373 0.393927872
0.800379813 0.515622795 0.458697140
0.301454991 0.523213267 0.369892538
0.325616479 0.524351835 0.370651633
0.364579648 0.527893543 0.377482265
0.427704096 0.533080041 0.378620923
0.504996717 0.542821229 0.395825714
0.599240959 0.560404897 0.418089449
0.712460518 0.596837461 0.463124901
0.826438904 0.636053264 0.521821678
0.416571856 0.674383581 0.464263469
0.431751907 0.679570019 0.472865194
0.466919482 0.681467235 0.475395262
0.511575162 0.686274469 0.480328977
0.580392420 0.693990946 0.490954965
0.667046309 0.699557304 0.509297788
0.756736577 0.713599026 0.539405525
0.854775429 0.741429090 0.591018319
0.565970778 0.832384765 0.608095944
0.578368008 0.835167408 0.615306616
0.603035986 0.835167646 0.616065621
0.645034850 0.837571204 0.624414921
0.697786093 0.840859950 0.637191653
0.763314068 0.846679211 0.651866019
0.831499040 0.857684851 0.679696441
0.900948405 0.867172599 0.706894577
0.080202736 0.082226478 0.273750454
0.112713277 0.088551804 0.270588458
0.164326087 0.097153902 0.282858819
0.221125633 0.107020639 0.280835092
0.287159979 0.119544737 0.287286282
0.408728719 0.131309256 0.324731469
0.582795739 0.149652004 0.392915577
0.758254349 0.211384878 0.443010628
0.100948796 0.112713277 0.256293654
0.128652811 0.117014728 0.262998194
0.162681893 0.124984249 0.272612095
0.219860882 0.132827356 0.275395364
0.288172126 0.144212291 0.288424730
0.410752445 0.157874554 0.325110912
0.583934546 0.177229732 0.383428246
0.751043618 0.235420436 0.442504734
0.126881987 0.173181191 0.289310545
0.152688280 0.171789840 0.292093724
0.192662999 0.177735567 0.296521366
0.244149372 0.186843738 0.295762092
0.319291383 0.196204737 0.310563087
0.455913782 0.216825083 0.353700489
0.608602107 0.251612842 0.405060023
0.767362475 0.317267567 0.461733341
0.156103641 0.250348270 0.310056835
0.179000542 0.254269272 0.320683360
0.226944983 0.258191258 0.330423802
0.291081369 0.267172635 0.331182927
0.372042924 0.286401302 0.345983267
0.493232071 0.313472509 0.387982368
0.631751835 0.352435023 0.428842634
0.776849627 0.418089986 0.489690006
0.211511806 0.361922711 0.364326209
0.231372640 0.370524913 0.361416727
0.279822826 0.383934021 0.375205815
0.362934589 0.405186802 0.399367273
0.451360106 0.419607639 0.412902892
0.553952932 0.438456476 0.433902711
0.671979725 0.474003762 0.477166086
0.794054270 0.521821797 0.532194734
0.312839985 0.526375651 0.434408456
0.329032212 0.530297220 0.445667237
0.375205725 0.542188168 0.458823562
0.435167462 0.548007429 0.462492377
0.516002655 0.553573668 0.475015640
0.603036463 0.569765747 0.497027457
0.716381967 0.597090065 0.526122451
0.826565623 0.630992770 0.579380333
0.437951028 0.675901294 0.533333302
0.455154806 0.678558052 0.539026022
0.477798909 0.678558052 0.539026022
0.520176947 0.686780572 0.546236634
0.579000890 0.695509315 0.556989014
0.660215497 0.699810326 0.569386303
0.753068030 0.717394054 0.595572531
0.852624893 0.745983064 0.640607059
0.591650486 0.827197731 0.663757265
0.592789114 0.833270073 0.661226928
0.611638367 0.829095304 0.668817163
0.639721334 0.831751585 0.666666567
0.683871090 0.840860248 0.672106087
0.751802623 0.844149411 0.691081643
0.828336358 0.858191073 0.712207317
0.902466595 0.866540015 0.746236265
0.102592997 0.094117999 0.426312268
0.140037984 0.096141741 0.427324563
0.201138481 0.100442812 0.426438749
0.279822648 0.107020639 0.425173908
0.366856456 0.116887905 0.430992931
0.460847527 0.130676731 0.437697798
0.608981550 0.151296720 0.484503269
0.766224027 0.213408947 0.526881516
0.110309996 0.125363708 0.405692726
0.137254804 0.132194743 0.416318834
0.198102102 0.127893999 0.415307015
0.277798980 0.135230541 0.419734091
0.363820255 0.144971281 0.426438540
0.461986184 0.154459000 0.435673654
0.609487534 0.182542995 0.478937566
0.753447056 0.246552959 0.523718953
0.107273899 0.187223285 0.421378553
0.155724272 0.187855899 0.432005078
0.213662371 0.191271394 0.431246370
0.291840643 0.198987901 0.434535205
0.384187341 0.206831113 0.441113472
0.484376639 0.217963532 0.449968457
0.632511139 0.256673276 0.500948548
0.766856313 0.321062893 0.538899183
0.137128368 0.277039975 0.446426213
0.168247834 0.280455381 0.441239655
0.229348287 0.279822618 0.449715525
0.314611256 0.287665904 0.453763545
0.410120070 0.301707745 0.466793180
0.516508341 0.315749615 0.479696333
0.653257489 0.362808198 0.521568596
0.780391932 0.422138065 0.564832389
0.203162909 0.396078467 0.479696453
0.223402992 0.404554039 0.489689916
0.279064000 0.409487575 0.489943266
0.356103837 0.414674014 0.495256126
0.457305461 0.423656195 0.510563135
0.564452648 0.441619366 0.529158711
0.688425064 0.483111978 0.562175512
0.793421924 0.532953799 0.603668451
0.297532976 0.545983255 0.535356998
0.319164723 0.546362817 0.539531529
0.365464836 0.553826451 0.544718504
0.440227389 0.562808156 0.557621658
0.533839107 0.583934188 0.582416177
0.627071500 0.595319450 0.593927979
0.723592520 0.615686476 0.614800572
0.828842521 0.650348008 0.659455895
0.444275528 0.680581808 0.595951557
0.451486558 0.687792301 0.608222544
0.479190350 0.688551366 0.609361112
0.537760556 0.695635259 0.621758223
0.597596288 0.708032846 0.641366303
0.673877299 0.714863777 0.650094628
0.756103516 0.727640808 0.666540623
0.854522705 0.753067672 0.707273602
0.598861337 0.830233872 0.709297895
0.605818987 0.835926354 0.718658566
0.630107582 0.829980850 0.717773497
0.671094179 0.838203371 0.733712614
0.706767976 0.842251658 0.742694259
0.751802623 0.850727618 0.748766422
0.820872903 0.861226737 0.763440907
0.903479040 0.874636173 0.790765643
0.111068845 0.096774153 0.630739570
0.165717840 0.098039001 0.633396387
0.251233071 0.100063264 0.636306405
0.351549447 0.100695834 0.625426888
0.458443820 0.108538829 0.632005036
0.565717578 0.129917890 0.635547340
0.687159598 0.160910651 0.637318432
0.816318750 0.242378429 0.656799555
0.100569010 0.138899237 0.622011244
0.163061097 0.139278680 0.625300109
0.245034784 0.135736823 0.619480968
0.347375154 0.139405280 0.622643828
0.457052559 0.151170179 0.628715932
0.568121254 0.165464729 0.629474699
0.688931048 0.196457788 0.639974594
0.820493340 0.272612631 0.660341144
0.079317190 0.213915005 0.626312137
0.142947435 0.214168534 0.631245971
0.244022831 0.218469083 0.626312315
0.350664258 0.221505374 0.631752014
0.459835529 0.230107367 0.632131577
0.576976359 0.249209315 0.643516779
0.695888638 0.277166098 0.644781649
0.819101632 0.346362799 0.665021956
0.059455991 0.311575085 0.632005036
0.139152557 0.315623015 0.634282231
0.246805802 0.316002458 0.640733600
0.359139442 0.327767462 0.638330221
0.469955772 0.340796888 0.641113222
0.584060490 0.353953063 0.641492784
0.701707840 0.378241718 0.653763175
0.822517455 0.441619277 0.681087792
0.153067753 0.448576838 0.645414412
0.194686964 0.448576570 0.656419992
0.268564165 0.443643361 0.654269516
0.368753970 0.447311789 0.652624846
0.484756172 0.459835529 0.655913591
0.604680419 0.475015730 0.670335472
0.720809698 0.497786433 0.677292883
0.831119359 0.548387229 0.701075137
0.307020724 0.590638757 0.680455625
0.323339254 0.594180644 0.683491528
0.365718096 0.596584439 0.685388803
0.439974368 0.592789471 0.683491528
0.528273225 0.597090304 0.694496930
0.631878436 0.606578171 0.706135452
0.742061973 0.626818419 0.718912065
0.843137383 0.664895415 0.736875474
0.433017105 0.730550230 0.722960055
0.447944373 0.728399813 0.718026340
0.481340647 0.724604964 0.720176816
0.536369383 0.728146553 0.725110412
0.604680777 0.731056094 0.740796685
0.690828443 0.738899171 0.752055585
0.773687720 0.752435029 0.770398080
0.861226797 0.777862012 0.794433713
0.601897597 0.842378438 0.775584936
0.630360126 0.844655156 0.790259242
0.638076961 0.846299767 0.777735353
0.670461714 0.849082828 0.790891826
0.720430076 0.853004396 0.801897585
0.777861953 0.859329641 0.813409209
0.837065220 0.871979892 0.835546911
0.904996634 0.882858574 0.859582543
