Assets/Resources/EldamarStudio/100 Horror LUTs Pack/LUTs/cube/Deathbrood LUT.cube
DOMAIN_MIN 0 0 0
DOMAIN_MAX 1 1 1
LUT_3D_SIZE 32
0.082353003 0.000000000 0.000000000
0.085389383 0.003036387 0.000000000
0.097027220 0.003922000 0.008601999
0.110942319 0.002656839 0.016951161
0.123845994 0.000758999 0.020746548
0.142061993 0.006830999 0.029854935
0.157748327 0.015433321 0.041492999
0.174572989 0.021252289 0.043770004
0.192789197 0.025047194 0.039974902
0.211005986 0.031119976 0.043010511
0.235040992 0.040101126 0.040227871
0.255281508 0.047184996 0.041239738
0.274636626 0.053257290 0.045413997
0.295889020 0.059582967 0.051992066
0.317141384 0.068690568 0.064136826
0.335989982 0.082605794 0.076280996
0.357242376 0.096267991 0.086907193
0.381530970 0.108412147 0.096015409
0.405819029 0.120556951 0.105123043
0.430107713 0.129917651 0.114231363
0.454395980 0.142820731 0.129031986
0.481720120 0.155977130 0.143200263
0.514989972 0.165211990 0.149525985
0.545350850 0.177356005 0.161670014
0.580265582 0.189499989 0.171537280
0.619481266 0.201644331 0.183428288
0.660974085 0.214295074 0.197596073
0.697406828 0.229475439 0.206704453
0.741808712 0.244655117 0.221125811
0.789120317 0.259835184 0.239848167
0.835040808 0.277672201 0.258443981
0.874509990 0.301961005 0.270588011
0.103605382 0.000000000 0.003036387
0.103605382 0.000000000 0.009108387
0.100189999 0.005186612 0.006957613
0.111701548 0.009487612 0.014674000
0.129158989 0.013282547 0.023782160
0.142061993 0.022011384 0.032890547
0.157748327 0.025553709 0.034408614
0.177861989 0.032005385 0.041239608
0.198861197 0.037191775 0.042251613
0.217077971 0.043263976 0.043010518
0.238203868 0.052245870 0.048955999
0.260341614 0.057305511 0.050347872
0.279569983 0.062365383 0.053384028
0.298418611 0.068943679 0.057811741
0.314105004 0.080835342 0.067172438
0.335357398 0.089942962 0.074509606
0.357242376 0.102339990 0.083870806
0.380265981 0.114484139 0.094244175
0.399747044 0.126628950 0.108159430
0.426818371 0.141556367 0.120050393
0.455155075 0.149272770 0.131308988
0.483744383 0.160025388 0.142188132
0.514989972 0.171283975 0.146489590
0.545350850 0.183428004 0.158633620
0.577988267 0.195572570 0.168500885
0.615053594 0.207716748 0.180392250
0.655914128 0.220367059 0.194560453
0.697406828 0.235547438 0.203668833
0.739152551 0.245414138 0.220746338
0.784313440 0.259835184 0.238076940
0.830739796 0.277672201 0.258949786
0.874509990 0.301961005 0.279696405
0.107653223 0.012902999 0.012523999
0.107653223 0.012902999 0.014295000
0.107653223 0.015053771 0.018216226
0.109171547 0.018595772 0.015180161
0.127388000 0.023655772 0.023276322
0.143074006 0.034534931 0.035926707
0.157748327 0.040733546 0.035294000
0.177861989 0.045414641 0.038582996
0.199873090 0.050727677 0.043136999
0.216698200 0.055408005 0.043137003
0.237824097 0.064389870 0.048955999
0.255028486 0.069449738 0.050980002
0.273750842 0.074762642 0.056166865
0.291208029 0.082099810 0.061480224
0.310183406 0.092346825 0.068690568
0.330170810 0.102087185 0.075394996
0.351423204 0.112713382 0.086021185
0.374446779 0.124224953 0.095761999
0.394181013 0.134851173 0.106388211
0.422897130 0.147628367 0.120936006
0.448323756 0.160910979 0.131182730
0.477166355 0.168501124 0.142061904
0.506641030 0.179506749 0.147754759
0.541049838 0.191650778 0.159898788
0.575838029 0.201644570 0.169766054
0.613409042 0.215180650 0.178874075
0.654143155 0.227577701 0.192536294
0.696647823 0.239468649 0.204933673
0.741302788 0.253636926 0.219860956
0.790891945 0.266286969 0.239848167
0.834914505 0.285894960 0.259329349
0.876660228 0.312713772 0.282353014
0.105881996 0.032384161 0.025933161
0.108411998 0.033649322 0.022138000
0.110942319 0.033269774 0.025553387
0.116002314 0.037571318 0.026059322
0.127388000 0.038330320 0.023403160
0.142061993 0.048703317 0.034155939
0.160278320 0.057052162 0.037950840
0.176597148 0.063124575 0.038582996
0.197849169 0.068438061 0.044654999
0.212523505 0.071473680 0.045667000
0.230992869 0.077799022 0.048955999
0.250727236 0.085388899 0.056040321
0.267045975 0.088424802 0.058317319
0.282858878 0.097027153 0.066793129
0.304111212 0.105123408 0.071852997
0.326628774 0.115496352 0.079190157
0.347881198 0.124857381 0.086021185
0.369133562 0.136369571 0.101201564
0.390385985 0.145477355 0.109171182
0.419987738 0.156103551 0.122327365
0.447818160 0.168248147 0.133712724
0.473118305 0.179380029 0.142821118
0.500569105 0.188614845 0.151929468
0.534724653 0.200759172 0.162934855
0.571157396 0.211891294 0.171537280
0.610373139 0.222517490 0.183175296
0.652372062 0.236685902 0.192789122
0.694117844 0.245793700 0.207210600
0.736748695 0.261479795 0.222390980
0.783807576 0.276660174 0.237318173
0.836685956 0.292726189 0.257684976
0.874636173 0.321568996 0.278557867
0.107020542 0.054395642 0.039595451
0.113092542 0.057052478 0.032005161
0.119544543 0.056546316 0.032510996
0.126628995 0.056546319 0.035167612
0.138014004 0.061859995 0.032891002
0.144086003 0.067931995 0.032891002
0.162428766 0.076154217 0.037571453
0.180392146 0.083238415 0.041619286
0.195572555 0.088551894 0.045793545
0.207716569 0.091587514 0.051865548
0.222390875 0.095382862 0.052498095
0.241239697 0.101328276 0.059455961
0.261353552 0.108918183 0.068185002
0.279822588 0.112207539 0.074763000
0.301074952 0.118279539 0.078178130
0.323972046 0.129538074 0.086021349
0.346363187 0.139405191 0.093990996
0.368374556 0.148893118 0.101581112
0.389626980 0.158001527 0.116761528
0.418469638 0.167488739 0.128779009
0.447312176 0.177355915 0.139405280
0.474636585 0.188488424 0.147754580
0.502213895 0.197722539 0.157115951
0.532827020 0.209867269 0.166729644
0.567741573 0.221632004 0.174320012
0.606198251 0.233775973 0.183428288
0.648956180 0.246173069 0.198481575
0.688425303 0.255281448 0.210626334
0.727893770 0.271220535 0.224288717
0.770904481 0.287665725 0.238456964
0.816192627 0.303731620 0.252751499
0.864769459 0.321948439 0.270967543
0.116128936 0.081720799 0.042631064
0.122200929 0.081720799 0.045667451
0.130423710 0.084377088 0.042378157
0.135231003 0.085135862 0.042124998
0.138014004 0.086147994 0.041998610
0.144086003 0.086147994 0.045034997
0.160277992 0.092219993 0.047564674
0.177355751 0.097153641 0.049462065
0.193295255 0.100695901 0.052245095
0.210752964 0.103731520 0.060973935
0.222896934 0.112586863 0.064136803
0.239594981 0.114611000 0.066666611
0.258317351 0.119544581 0.068943709
0.276786953 0.127387926 0.068691000
0.298039317 0.133459926 0.080834985
0.316887915 0.146742731 0.089057736
0.336116463 0.155344680 0.098165736
0.356736541 0.161290139 0.107400149
0.383554995 0.173181906 0.119797915
0.407590032 0.185072944 0.129411593
0.436685622 0.191018134 0.140923470
0.465528190 0.197596192 0.149525806
0.493105531 0.206830919 0.154079556
0.526501954 0.218974933 0.169259965
0.561669588 0.228842348 0.181150928
0.598102331 0.239847973 0.189500049
0.637065172 0.252498060 0.198608071
0.682353318 0.267425448 0.213661939
0.721821785 0.276533842 0.220493048
0.764832139 0.290702105 0.235167533
0.808601975 0.306767911 0.253257573
0.849589050 0.324984074 0.274003923
0.130297318 0.116634995 0.055787317
0.131309316 0.116634995 0.056293383
0.135230541 0.114484757 0.057178997
0.143579841 0.115496635 0.057052478
0.148134008 0.115117088 0.058317639
0.154206008 0.112966314 0.059203252
0.162808314 0.112966314 0.057178997
0.179380015 0.117394023 0.058570318
0.193801329 0.121948220 0.060847417
0.208475664 0.128525838 0.069955811
0.225933328 0.134851515 0.075774871
0.240101054 0.139911383 0.076787002
0.257811278 0.142694324 0.080455318
0.276533991 0.150158003 0.082100026
0.300063074 0.156229988 0.087413304
0.316508472 0.164705798 0.099557310
0.337634385 0.175078988 0.108792186
0.359139949 0.179759309 0.117267631
0.384566665 0.188108638 0.125616953
0.409108341 0.200253338 0.134977654
0.435294032 0.210499570 0.144085735
0.466034114 0.216824442 0.155597672
0.496773988 0.226059303 0.163314015
0.532574177 0.238203317 0.171284229
0.565970600 0.250347912 0.179633319
0.604933262 0.259708941 0.194054291
0.644655108 0.271220386 0.205186382
0.688171983 0.286400735 0.216318756
0.730929792 0.296268135 0.231119633
0.773940563 0.308918506 0.246046811
0.821252167 0.327640891 0.267678887
0.867299020 0.350790650 0.292220324
0.135610282 0.138266698 0.066033997
0.137254998 0.143200412 0.062744997
0.139405221 0.144338772 0.067678705
0.143706322 0.141303152 0.067678705
0.152435169 0.140544146 0.069196999
0.159772009 0.137507752 0.066666998
0.170019031 0.138646409 0.069070384
0.179126978 0.138646409 0.069322996
0.192789376 0.140923694 0.069322996
0.204048023 0.147374928 0.075774774
0.218722329 0.155218020 0.080329001
0.238203734 0.159266442 0.083997712
0.254522294 0.163440704 0.085136063
0.272739023 0.169259742 0.090955034
0.294243991 0.173940405 0.096774414
0.314610809 0.182415798 0.105376281
0.334345400 0.193042383 0.116002478
0.358001560 0.200632393 0.126375854
0.381277770 0.208728418 0.135483995
0.407210737 0.213788703 0.141050071
0.435041010 0.227324665 0.151802436
0.464389682 0.235420406 0.159898698
0.497786194 0.244022682 0.170777693
0.532700837 0.256166697 0.179886088
0.570145309 0.266666561 0.185958281
0.606324971 0.280202657 0.194813609
0.648070753 0.289816320 0.211511716
0.689436853 0.302719414 0.221758440
0.731941581 0.314231515 0.236179799
0.779506564 0.326881886 0.249968454
0.824162185 0.342947692 0.270335495
0.873497725 0.367994994 0.295383006
0.134092093 0.153447092 0.072865099
0.136369392 0.160278395 0.068311095
0.140164316 0.163567424 0.070714779
0.145983219 0.167109162 0.077546000
0.151676446 0.162935004 0.077166550
0.160025164 0.158760160 0.071474098
0.170145541 0.160025328 0.074004099
0.181404278 0.161417007 0.078431390
0.190512091 0.161417007 0.081467196
0.199620500 0.161417007 0.081467196
0.213915095 0.168627322 0.084376872
0.229095340 0.174446359 0.086654164
0.249209195 0.178621098 0.089690447
0.267425984 0.184693098 0.092979096
0.285642058 0.188235417 0.101581410
0.307020783 0.196837291 0.110689387
0.328273207 0.206704393 0.119038284
0.353194535 0.217583999 0.128779069
0.374700010 0.229475006 0.143832967
0.401518375 0.232764095 0.149399355
0.429981083 0.240733817 0.156609997
0.462112397 0.254396081 0.168247998
0.495382965 0.260468096 0.174446493
0.528146863 0.271347106 0.185958102
0.565338254 0.281973302 0.194307193
0.606324971 0.293105751 0.202403232
0.646806061 0.308286011 0.215053976
0.686780393 0.317899644 0.227450982
0.728146613 0.329664767 0.242251799
0.775205553 0.342821181 0.257178962
0.825680196 0.359646082 0.269576192
0.868184984 0.377862096 0.287792981
0.137128487 0.186843485 0.081973493
0.137128487 0.186843500 0.081973493
0.141555995 0.185072795 0.081720494
0.150031492 0.187349811 0.084630013
0.160784066 0.193295002 0.089310557
0.163820460 0.181151003 0.086274944
0.169639483 0.179506496 0.085642494
0.179253504 0.179633006 0.087539777
0.190512091 0.179633006 0.090575583
0.199620500 0.179633006 0.093611971
0.220366865 0.182542875 0.096521109
0.233143732 0.187855974 0.097533010
0.246173471 0.193801492 0.098798171
0.264389575 0.199873507 0.102087490
0.282606333 0.205945492 0.108159482
0.305629462 0.216698006 0.116761804
0.326754987 0.227197692 0.124351971
0.347121745 0.235799998 0.131815463
0.374446958 0.241872028 0.143959507
0.401518375 0.250980377 0.153447360
0.428842723 0.259709239 0.160404995
0.459329724 0.270082504 0.168754011
0.495382965 0.281720489 0.180518493
0.525743008 0.287792504 0.189626902
0.560784101 0.298671484 0.198861778
0.601517975 0.310689330 0.207843274
0.646806061 0.323466390 0.218089595
0.692346394 0.338646024 0.233269960
0.732321382 0.350917131 0.248323798
0.777229786 0.363061428 0.265274942
0.825933158 0.377988577 0.281467199
0.874256968 0.399114490 0.293864995
0.145983875 0.196963876 0.091081873
0.140164122 0.199873745 0.088172004
0.146615893 0.204174742 0.092473000
0.149652153 0.202150881 0.093990996
0.154332876 0.203036189 0.096014999
0.170018941 0.208601862 0.095509067
0.173055321 0.201517880 0.102593444
0.182036862 0.200758874 0.103731997
0.194180861 0.200758874 0.103984773
0.205439493 0.200758874 0.102719605
0.211637989 0.200758874 0.105756000
0.230866626 0.205818996 0.108791612
0.244908631 0.210752636 0.109677002
0.261606902 0.215306908 0.111448154
0.282479823 0.224035740 0.120176986
0.300695986 0.232510939 0.126248986
0.322454184 0.242631063 0.133333132
0.343959421 0.251739442 0.140037701
0.371284068 0.260088772 0.149905026
0.395825863 0.271726757 0.162048995
0.423023701 0.280961603 0.171283856
0.451359987 0.289057851 0.176344007
0.483997226 0.297406852 0.180897981
0.519923985 0.309044868 0.192789033
0.557115793 0.317394167 0.201897413
0.599747181 0.328905731 0.215180457
0.645288110 0.341049969 0.228842676
0.683618248 0.353826374 0.239215434
0.726501763 0.366350532 0.249082834
0.775078952 0.380265594 0.263757169
0.822391212 0.394433558 0.280834854
0.862872005 0.411638021 0.297027111
0.151043743 0.218216240 0.104237735
0.144971490 0.219228387 0.105249859
0.149652034 0.222391248 0.104617253
0.154965267 0.225933254 0.105629250
0.154585987 0.222138241 0.104490705
0.169512987 0.226312563 0.106134996
0.177103058 0.226818502 0.105629317
0.183428437 0.222390786 0.109803997
0.194434091 0.222770348 0.111321993
0.205313280 0.224035501 0.112080768
0.215686262 0.224035501 0.110815607
0.227830499 0.226059243 0.115876250
0.244908631 0.230992883 0.118911862
0.260088950 0.234029204 0.120556287
0.277798861 0.239595145 0.129664660
0.298671722 0.248703435 0.136369243
0.318405896 0.257811457 0.142441243
0.340290874 0.266287237 0.148513243
0.366223991 0.274003983 0.156229973
0.390765190 0.287919253 0.164073005
0.418848932 0.294370502 0.172422469
0.446299851 0.304237992 0.179380119
0.475774467 0.312713712 0.180897981
0.510309517 0.326754987 0.193042010
0.551043272 0.338646531 0.206957281
0.593295395 0.347754568 0.217457324
0.639721751 0.359266102 0.232384995
0.677672327 0.371410489 0.239974797
0.719417930 0.383554637 0.249082565
0.763693571 0.395698965 0.265274912
0.814041913 0.411511451 0.281846911
0.852751732 0.427830517 0.300063252
0.150664002 0.242125288 0.119417638
0.146869004 0.243263632 0.120177031
0.151549771 0.244275764 0.119923994
0.159140006 0.247185647 0.120809637
0.159899011 0.247185647 0.115117088
0.170524999 0.247185647 0.116634704
0.178747639 0.248323992 0.116887957
0.187602699 0.246679574 0.114357993
0.195951998 0.245161191 0.115117088
0.204680860 0.248197481 0.120809644
0.217836991 0.248323992 0.121568412
0.230866611 0.249209374 0.122327507
0.244908631 0.252245277 0.126122996
0.260342002 0.255534649 0.129664674
0.276407212 0.259455830 0.138773054
0.295255780 0.266160429 0.144338995
0.316508174 0.275268823 0.150410995
0.339025527 0.284377068 0.157748148
0.363820344 0.290955007 0.164832309
0.388108671 0.304238021 0.172042653
0.416192085 0.312966526 0.179253459
0.448576868 0.319038272 0.185325980
0.476660222 0.331182986 0.188741148
0.511068583 0.345350742 0.199873298
0.549019158 0.359392583 0.212017566
0.591776967 0.371284246 0.225806326
0.636812150 0.380897939 0.236432940
0.676913023 0.393042535 0.241872340
0.720176816 0.406325251 0.255154788
0.764452577 0.419607878 0.267931432
0.809993804 0.431751907 0.291840225
0.852751613 0.449462622 0.311068982
0.145603999 0.261607021 0.133838996
0.145351037 0.264136612 0.131309375
0.152561769 0.265022010 0.129032254
0.159392998 0.266287178 0.127767161
0.165464997 0.269450039 0.130803481
0.171536997 0.269450039 0.127767086
0.180139318 0.271220744 0.129538313
0.190638959 0.271473736 0.129791349
0.202023998 0.269449979 0.127514124
0.208096012 0.272485584 0.130550519
0.222896874 0.272865027 0.136496022
0.235800028 0.272865027 0.138266996
0.247944251 0.273750633 0.138014033
0.260342002 0.276534021 0.138520032
0.278557986 0.282606006 0.147628412
0.296774000 0.288678020 0.151929200
0.316508174 0.296268195 0.156736031
0.338266551 0.305376470 0.164073110
0.365591019 0.314484119 0.176217914
0.390638709 0.326122761 0.185072690
0.418722451 0.335231006 0.193927735
0.450601190 0.343074024 0.202023998
0.487033933 0.355091542 0.208095998
0.523466051 0.367109090 0.217077866
0.560404599 0.381530344 0.226439282
0.599873304 0.395572364 0.236938983
0.642631173 0.407969981 0.248577014
0.685135841 0.420113981 0.251612604
0.729538381 0.434408814 0.269828796
0.774826109 0.449336141 0.286021411
0.821125805 0.464137018 0.303478956
0.866666973 0.476281047 0.333838999
0.151675999 0.295003384 0.139910996
0.148640379 0.291966975 0.142947391
0.161290407 0.292346388 0.146868989
0.167488992 0.293611556 0.145983398
0.165464997 0.297027409 0.143326998
0.171536997 0.302846372 0.149019450
0.180139318 0.297786385 0.148513407
0.189247280 0.298545092 0.150790691
0.200505674 0.298798054 0.150284827
0.214167997 0.296774328 0.145730898
0.228968859 0.299809933 0.151676401
0.240101248 0.300189406 0.151676148
0.250980407 0.300189406 0.149272636
0.263377577 0.300821990 0.147628412
0.278557986 0.300821960 0.153700411
0.296774000 0.306893975 0.158001199
0.316508174 0.314484149 0.164073184
0.337128133 0.323592544 0.173181385
0.356483400 0.332700849 0.185325518
0.386590421 0.341809183 0.189120933
0.415686041 0.355344653 0.195319414
0.446046829 0.366603106 0.202023998
0.477925569 0.376343876 0.208095998
0.514358461 0.385452271 0.214167997
0.555344999 0.399747103 0.225427151
0.597975969 0.414927483 0.236938983
0.642884195 0.429475337 0.249589071
0.688172281 0.444401979 0.263757378
0.725363374 0.453889817 0.274762809
0.767235518 0.466033936 0.290575594
0.813914955 0.480581731 0.309550941
0.866666973 0.497533381 0.339910984
0.150537804 0.321188986 0.153193802
0.154712379 0.327767193 0.151423201
0.158127993 0.318279594 0.160910800
0.167742014 0.321062446 0.164958790
0.165844560 0.325995982 0.160784230
0.173940808 0.328019977 0.156736001
0.184946314 0.326375782 0.162554994
0.190765277 0.325237066 0.162554994
0.199114203 0.327513784 0.164832279
0.212650314 0.326122463 0.163693994
0.227830663 0.324098706 0.162049189
0.240986794 0.325110584 0.166097447
0.252751648 0.325110584 0.167235792
0.265907794 0.325110584 0.167995021
0.276786596 0.325110584 0.167615786
0.299177796 0.327513784 0.171283990
0.314357787 0.332067966 0.175837785
0.333586127 0.341302752 0.182795569
0.355344951 0.355723947 0.189626813
0.382289797 0.362429142 0.195825353
0.414547533 0.373434782 0.202656731
0.445414245 0.386084735 0.208222672
0.476280987 0.395572573 0.213282496
0.517267823 0.411511689 0.226185799
0.549145997 0.420620054 0.229981080
0.593927979 0.436938763 0.243137643
0.640986919 0.452119052 0.256293803
0.688425303 0.463504165 0.269576430
0.723592758 0.480581611 0.279696792
0.768880367 0.493231982 0.298924744
0.813282788 0.505123198 0.317773581
0.861859977 0.518785775 0.343579799
0.152055994 0.345477372 0.169892386
0.158127993 0.353067577 0.171410561
0.161164001 0.351675987 0.166983187
0.168501168 0.344592005 0.176597178
0.169260189 0.351802200 0.177862197
0.174952924 0.351802200 0.174446449
0.185072809 0.350790322 0.168880373
0.198355481 0.351043671 0.171663374
0.203668192 0.353320390 0.172422275
0.215812787 0.353320390 0.175458476
0.229348868 0.350410879 0.175711513
0.240986794 0.352435380 0.175205454
0.254269451 0.351296723 0.178241551
0.269449830 0.351170212 0.183681026
0.281087756 0.352435380 0.183175415
0.297659576 0.354838580 0.183428392
0.317394167 0.356356382 0.187982187
0.331435740 0.360025167 0.192156628
0.354838967 0.374699175 0.193421781
0.381910354 0.383301705 0.200758994
0.411511928 0.394687176 0.208728731
0.446932316 0.405819327 0.216824993
0.479063988 0.415180653 0.220746174
0.518785775 0.432004988 0.234534889
0.556736171 0.443390280 0.242125079
0.594054163 0.456673324 0.250727475
0.639975071 0.474889368 0.263883889
0.683491647 0.487033635 0.272991985
0.723339736 0.499557376 0.288551807
0.765844345 0.514484346 0.306514919
0.813915372 0.532321155 0.327261209
0.855787635 0.544591963 0.346616179
0.158127993 0.370398551 0.186211407
0.162935004 0.377103120 0.189753428
0.165970996 0.377355933 0.185452402
0.169133589 0.375584722 0.181530967
0.177482963 0.375205159 0.187602982
0.177735984 0.374952137 0.193674982
0.185325667 0.374952137 0.186464548
0.197090283 0.375964254 0.180265978
0.211511582 0.378874123 0.181657448
0.223655596 0.378874123 0.184693068
0.236432731 0.377229244 0.187096849
0.247185305 0.379000515 0.188108981
0.259202778 0.382289886 0.188614920
0.274130166 0.379759550 0.191903561
0.288930982 0.382795960 0.195319384
0.304743767 0.385199308 0.195951968
0.319924176 0.386084527 0.197090566
0.334472001 0.386084527 0.201265007
0.355724394 0.392156541 0.198228627
0.381910354 0.401011914 0.205059946
0.411764860 0.412017703 0.214168161
0.443264127 0.426439106 0.222896978
0.482479483 0.435926944 0.229095489
0.518406212 0.451612651 0.240733594
0.557115674 0.461606443 0.249588564
0.599367380 0.476154327 0.259202629
0.644402564 0.493358970 0.273371071
0.678178430 0.511321962 0.276660413
0.719544590 0.521568775 0.295003176
0.764958739 0.533712924 0.315496504
0.810879171 0.547501504 0.338772595
0.850347579 0.571789563 0.350917399
0.164200008 0.397723019 0.195319057
0.164200008 0.406831414 0.189247057
0.169007003 0.409235001 0.188488066
0.174572989 0.408981979 0.191271216
0.180518582 0.408602417 0.199747026
0.183554977 0.405566037 0.205819026
0.191397682 0.405312985 0.204301342
0.202150419 0.405312985 0.200506285
0.214547977 0.406325102 0.200000033
0.226691991 0.409235001 0.205945507
0.241745844 0.412144125 0.206071988
0.254649013 0.412649989 0.206325039
0.268817276 0.413156062 0.206325039
0.286274970 0.413156062 0.207083985
0.298418969 0.416192442 0.213155970
0.315622985 0.416825026 0.214168012
0.332068205 0.415559798 0.212650225
0.346616000 0.413409024 0.210373431
0.358760059 0.413409024 0.207337037
0.382795781 0.422264397 0.209867358
0.413029760 0.429475039 0.217204243
0.445161313 0.439342171 0.226312175
0.476407498 0.454142988 0.235167518
0.509803951 0.472359002 0.244275928
0.548007309 0.481214583 0.255914003
0.590258956 0.495888948 0.267551959
0.635294139 0.517647088 0.279443085
0.677798867 0.529791057 0.288551450
0.719544590 0.539784849 0.305123001
0.763820112 0.554206014 0.320050478
0.807842851 0.571030676 0.336748958
0.847311974 0.586970031 0.360025048
0.164706007 0.441746116 0.218342721
0.164706007 0.445287794 0.212270722
0.169007003 0.447944403 0.212649941
0.175078988 0.447944403 0.210752383
0.181151003 0.447185397 0.211132005
0.186590582 0.441745818 0.212397009
0.194686964 0.443770081 0.213409007
0.208728343 0.445667386 0.217204347
0.223149851 0.447564840 0.219481364
0.235294372 0.450601220 0.221505359
0.253130853 0.448070884 0.218975008
0.266287029 0.451107025 0.223023519
0.280708313 0.450727463 0.223403081
0.298418999 0.449335784 0.221758366
0.310563028 0.452372164 0.222770348
0.327513993 0.457811743 0.228842348
0.345730424 0.458570749 0.229601368
0.363440931 0.458064526 0.228463024
0.382036746 0.460214734 0.227577403
0.402530104 0.462998092 0.230107725
0.426818371 0.468311459 0.231246367
0.458570242 0.474509954 0.238709703
0.492852509 0.486147881 0.249588877
0.531562626 0.501707733 0.258697271
0.567235708 0.522201002 0.272359639
0.607589662 0.533586383 0.283618003
0.649715185 0.549778461 0.294876426
0.685389221 0.559645712 0.308538824
0.730550110 0.574446559 0.320303351
0.773181319 0.589120686 0.338266760
0.818595529 0.606451333 0.358633935
0.863757014 0.621631742 0.388614744
0.166603252 0.481593996 0.227450997
0.162808269 0.486527324 0.230866730
0.174699739 0.483617753 0.233143687
0.179506570 0.486147732 0.232384473
0.184566543 0.486274272 0.226691917
0.189120740 0.478684455 0.225173727
0.203415304 0.482100040 0.234661460
0.212523684 0.485136002 0.226438761
0.227703825 0.487412721 0.232005090
0.238709986 0.489310443 0.233143732
0.258570731 0.488424838 0.232131600
0.276533753 0.487539232 0.233269766
0.289816380 0.490575612 0.237065256
0.307274014 0.489310473 0.235546991
0.322706997 0.490702152 0.238835976
0.341555715 0.494244456 0.241745725
0.364325911 0.497280478 0.246299922
0.383048534 0.498545468 0.248576880
0.401770979 0.502846241 0.252371728
0.423023373 0.502087057 0.249462336
0.446173459 0.501328468 0.250600994
0.469449610 0.505376697 0.249589115
0.501328230 0.513851941 0.257558703
0.537254989 0.529032409 0.271979898
0.578241706 0.543074012 0.281847268
