Assets/Resources/EldamarStudio/100 Horror LUTs Pack/LUTs/cube/Deathgloom LUT.cube
LUT_3D_SIZE 8
DOMAIN_MIN 0.000000 0.000000 0.000000
DOMAIN_MAX 0.903226 0.903226 0.903226
0.070588000 0.078431003 0.074510001
0.074889451 0.081973456 0.078431003
0.099557005 0.082353003 0.079190098
0.172675639 0.089690350 0.084629998
0.264642566 0.114358187 0.115875989
0.373813719 0.156736001 0.150917262
0.501201570 0.213029996 0.213029996
0.617457449 0.291840643 0.285262793
0.077672005 0.087033994 0.074889451
0.083871000 0.091334544 0.078810550
0.122201093 0.099936545 0.087413445
0.190006554 0.116761185 0.106640995
0.271979749 0.146489382 0.130803198
0.383807480 0.187602729 0.169259995
0.500822008 0.241619542 0.222390994
0.614927411 0.313093245 0.292599648
0.097912900 0.164453000 0.118279189
0.119038090 0.167615101 0.123087004
0.166097105 0.175458282 0.123719193
0.224794179 0.192662999 0.145350650
0.302972972 0.221631885 0.164453000
0.413535535 0.252878189 0.208728731
0.516255558 0.299937010 0.256926268
0.635167539 0.369006872 0.334851027
0.155218005 0.271853268 0.179886341
0.175458193 0.276913643 0.184187099
0.212144285 0.284250379 0.185199529
0.283111662 0.298798651 0.203542277
0.352055609 0.318785489 0.234914482
0.441998720 0.346995264 0.265781015
0.534218550 0.383554548 0.312334001
0.637824297 0.440733641 0.384566784
0.235673368 0.395572364 0.252878189
0.254775524 0.411891341 0.272106647
0.289816260 0.410499483 0.276407391
0.340290755 0.416698188 0.290449202
0.411258370 0.433902383 0.314737171
0.481087983 0.451739430 0.342694432
0.562302470 0.483364999 0.389247179
0.671979785 0.529790998 0.446173549
0.352182478 0.520936012 0.370145738
0.358760297 0.527261317 0.382163256
0.385199487 0.531941593 0.389120489
0.425553709 0.539785087 0.403542012
0.479190469 0.549651742 0.416571647
0.540543973 0.563946486 0.436559230
0.614168465 0.588994503 0.472991765
0.709297657 0.629727960 0.518911839
0.463630259 0.651866257 0.487160265
0.471853286 0.650980532 0.496900529
0.491714090 0.655660987 0.498798162
0.524225175 0.663124621 0.515243530
0.567868352 0.671347320 0.525490284
0.617709994 0.680835009 0.539658606
0.672738850 0.692346275 0.566856265
0.748260021 0.723718941 0.607590258
0.609740615 0.795192659 0.642251611
0.635673821 0.808475316 0.646299779
0.641366482 0.803035915 0.652877569
0.666793048 0.805692732 0.660594344
0.696774364 0.812397122 0.676786780
0.736622334 0.819354713 0.683870971
0.782289505 0.831499040 0.710942626
0.826691806 0.846299767 0.726122737
0.074130453 0.081594005 0.078810550
0.078431003 0.078431003 0.086274996
0.103858456 0.086654447 0.091334544
0.166730002 0.097153999 0.109677091
0.252878100 0.125743449 0.135483980
0.366223633 0.170271739 0.181277543
0.487539709 0.219987288 0.233396575
0.610878944 0.293864787 0.303352505
0.070588000 0.088172443 0.091334544
0.088551991 0.096015446 0.093232088
0.119797185 0.101834089 0.105755992
0.184819892 0.124984443 0.125743449
0.258696735 0.148386747 0.147122189
0.369133532 0.193801552 0.196584284
0.487412810 0.240733832 0.240733817
0.608222783 0.314611256 0.315876096
0.098292448 0.153447196 0.124098636
0.122960091 0.160910740 0.138646185
0.159392655 0.171916559 0.137381539
0.218089730 0.188741192 0.157368988
0.297533095 0.216066092 0.185579002
0.400632739 0.252119094 0.221125826
0.508286178 0.304617196 0.279443562
0.621632159 0.372675657 0.350031346
0.151422918 0.262618721 0.196584284
0.173055187 0.268564194 0.194560632
0.211005643 0.271979749 0.201517820
0.274004072 0.290828735 0.219228193
0.346869171 0.314737469 0.237444729
0.432637632 0.343074113 0.278684288
0.529917717 0.383174896 0.326881826
0.639468491 0.446679205 0.395066440
0.238836169 0.399240732 0.280455172
0.249715373 0.401517928 0.281088084
0.285388798 0.407337278 0.287286282
0.337128609 0.415180266 0.302213997
0.404174387 0.426945001 0.320936382
0.475522161 0.449715286 0.353320271
0.562934875 0.482099831 0.397469938
0.665275216 0.535356939 0.459076166
0.346995711 0.513852000 0.378494740
0.358886719 0.521188974 0.383301705
0.378620833 0.521947980 0.391903907
0.418468982 0.530676782 0.402909726
0.472865164 0.542441607 0.423656046
0.535357237 0.552941442 0.441366225
0.608602285 0.583048701 0.472106457
0.707273602 0.625806451 0.528905988
0.461100370 0.646046817 0.492473274
0.474256992 0.647691548 0.496394366
0.490069389 0.653257370 0.498671472
0.524098694 0.661859572 0.520683050
0.568121195 0.670841277 0.533586323
0.618216097 0.677798986 0.548007429
0.681846976 0.698165953 0.574319839
0.751423001 0.724731028 0.612270892
0.613662601 0.789500594 0.645287931
0.624035120 0.792536318 0.635167122
0.637191415 0.793042183 0.647565007
0.660721004 0.799620330 0.659961879
0.693232119 0.808854997 0.668690562
0.734471679 0.814294815 0.682985246
0.777608752 0.823402643 0.707653463
0.825426579 0.843010724 0.730297148
0.079190098 0.082353003 0.105756097
0.082732551 0.078051552 0.111701548
0.115243196 0.083871000 0.128525987
0.175837740 0.103478901 0.145730287
0.266287297 0.133965805 0.187223077
0.372675389 0.179380089 0.231498823
0.489436984 0.237191573 0.281088263
0.606830895 0.315496653 0.347628087
0.074889451 0.094117902 0.120683096
0.088931441 0.099557094 0.123339541
0.126502454 0.112080991 0.141049996
0.193168640 0.132827550 0.162935093
0.277293205 0.165717646 0.202150196
0.380265713 0.209993795 0.242884278
0.494876385 0.260341823 0.293105781
0.607969522 0.336242616 0.354206175
0.103479005 0.162935004 0.163694099
0.131689012 0.175964549 0.183428094
0.173940107 0.196711004 0.198988095
0.242884189 0.209994107 0.211891457
0.317267269 0.234282285 0.238962978
0.412903190 0.270967990 0.271727085
0.505882502 0.319418073 0.317900270
0.625806570 0.383681148 0.387096912
0.161669642 0.281593621 0.234155282
0.187602744 0.291081518 0.240480989
0.235800087 0.301201731 0.260088265
0.289057195 0.314105093 0.272612274
0.365844280 0.333712965 0.293358743
0.438583165 0.357874483 0.322580367
0.533080220 0.397849470 0.364073277
0.635420680 0.450600892 0.422770441
0.257811278 0.409867108 0.317141175
0.266160369 0.410879016 0.327893525
0.303099304 0.417584002 0.332827210
0.350537598 0.424288660 0.344718397
0.412017465 0.435673386 0.365844280
0.482985556 0.455154955 0.390133083
0.562428594 0.490449071 0.425300270
0.665148795 0.538140237 0.479443282
0.366476983 0.528273106 0.415812850
0.372422606 0.526375473 0.419102073
0.397090435 0.531941593 0.424920708
0.434788197 0.539026201 0.437950552
0.482606202 0.548387170 0.444528729
0.541682601 0.560910583 0.461859763
0.613788962 0.588361561 0.497533202
0.706514478 0.633649468 0.547375023
0.469702840 0.650221348 0.516887963
0.483112276 0.656040788 0.519544721
0.501960635 0.658823431 0.522454083
0.529791176 0.663504183 0.532447875
0.570904374 0.673750758 0.547501445
0.618848562 0.680708468 0.560657740
0.677545846 0.699430764 0.584060669
0.753952801 0.726375759 0.630107462
0.619607806 0.794433773 0.660720825
0.628715873 0.797849476 0.656040788
0.643010736 0.801770747 0.664642572
0.667172492 0.804047942 0.670714915
0.699304342 0.812397122 0.681340694
0.737760901 0.817963541 0.698165774
0.776217639 0.827956617 0.715243161
0.826691747 0.838582993 0.739911497
0.069449648 0.078431003 0.177229643
0.089310996 0.078810550 0.180391818
0.124478094 0.087413348 0.188615084
0.182795644 0.106514998 0.201897278
0.262998164 0.139025837 0.232131824
0.370145470 0.180138990 0.276027620
0.488804549 0.239974618 0.332447648
0.604554117 0.326881617 0.395825624
0.071600445 0.101454638 0.185579091
0.100189991 0.110815637 0.184313625
0.134598196 0.119038276 0.200379282
0.194054186 0.137381554 0.214041725
0.270461828 0.165591538 0.244276091
0.378241271 0.207084030 0.286274642
0.490195990 0.268564165 0.335483819
0.601138532 0.343706548 0.402024180
0.114737540 0.175332189 0.224541366
0.123971827 0.180391744 0.228463173
0.176217198 0.193801641 0.245035172
0.235673264 0.210246742 0.258823723
0.311068922 0.239974648 0.285388827
0.409234762 0.276786745 0.322959930
0.508665681 0.333586276 0.373561263
0.615939081 0.397090346 0.434787989
0.160404995 0.273624629 0.284250289
0.182795733 0.282985717 0.285642296
0.230993092 0.295888275 0.306135267
0.301707923 0.321315646 0.333079904
0.367615819 0.344844818 0.346362889
0.443769723 0.368374527 0.373054922
0.535356879 0.409866899 0.412650287
0.640480399 0.464389473 0.466793269
0.259962291 0.402909636 0.368374258
0.278811067 0.412396997 0.368500918
0.313598931 0.422643751 0.377861828
0.365718067 0.431246042 0.395066828
0.421378970 0.443769753 0.407969356
0.480455607 0.464895844 0.433649838
0.568627596 0.494749993 0.464516193
0.667931736 0.541935444 0.509171367
0.364579737 0.524731457 0.443769842
0.375964284 0.525616467 0.454648912
0.405312926 0.532953918 0.459329605
0.438962638 0.537254453 0.466540128
0.488298833 0.552308500 0.481720477
0.541176438 0.565970778 0.496521264
0.617204368 0.592156589 0.529411376
0.708791614 0.634914577 0.572422564
0.477166206 0.653004646 0.546109915
0.485389084 0.655534446 0.546616316
0.501454830 0.657179058 0.549019337
0.528146923 0.661479890 0.557874918
0.571663260 0.673244953 0.569259644
0.626185894 0.685894907 0.588108599
0.681720138 0.700189829 0.608349264
0.755218148 0.732068360 0.644022763
0.617457449 0.795066416 0.667298794
0.626312435 0.790891767 0.671094358
0.635800183 0.797596157 0.675395072
0.662745237 0.804047763 0.682605565
0.690069199 0.808601916 0.690828443
0.734092116 0.814800978 0.706641316
0.776976466 0.829095244 0.722833395
0.830613494 0.846299767 0.750916541
0.058823999 0.083238617 0.277293175
0.089816645 0.084250644 0.275395542
0.145730197 0.097153798 0.282859087
0.211512089 0.124225445 0.300442636
0.288172185 0.152056009 0.314104974
0.375331908 0.186084732 0.342188388
0.488804370 0.247438371 0.391650975
0.608095944 0.329917580 0.448956192
0.085895352 0.121821538 0.283111840
0.111701541 0.127008006 0.285009384
0.157495096 0.138014004 0.291840643
0.223782539 0.154459104 0.302087426
0.297280461 0.174699172 0.323466152
0.380138904 0.213029981 0.351676106
0.492726296 0.271726787 0.397469729
0.604933560 0.347121984 0.452877790
0.128526181 0.195952103 0.311828077
0.148133993 0.201770648 0.328399986
0.187223285 0.209994003 0.314737380
0.249462634 0.223655641 0.338013738
0.324984193 0.247565091 0.356356382
0.409614176 0.280329198 0.379000634
0.508412361 0.333586276 0.424541384
0.614041686 0.400126547 0.479696512
0.180518627 0.295383096 0.358254015
0.206957906 0.298418999 0.365844250
0.242378443 0.311321735 0.378368288
0.304996639 0.328146487 0.390512645
0.375584811 0.350917280 0.402150810
0.445667297 0.374699622 0.422137976
0.535356879 0.414673984 0.461353451
0.643137217 0.462492287 0.508032978
0.267931998 0.405819178 0.419734180
0.293485463 0.412144393 0.427450746
0.321948171 0.421505183 0.433396280
0.376470625 0.438329935 0.445920199
0.445035160 0.464642555 0.476407200
0.501707733 0.480708629 0.486147940
0.578747749 0.508412182 0.511574924
0.674383342 0.552182376 0.553573728
0.371537209 0.526122510 0.490195930
0.384187013 0.529285014 0.490069538
0.406198651 0.534724832 0.496521384
0.446553200 0.549651742 0.513219297
0.499936998 0.565718174 0.528779209
0.554332733 0.580898046 0.539405525
0.631372571 0.603921473 0.570651531
0.718658984 0.640354335 0.611005902
0.475395471 0.654142976 0.569513023
0.489183813 0.658443987 0.577356040
0.501960456 0.664389372 0.585199296
0.534218788 0.667805254 0.593295038
0.583554745 0.681594193 0.607084215
0.628842533 0.690196216 0.620366514
0.684630156 0.704870582 0.639721751
0.764452815 0.737760663 0.677672029
0.617710412 0.793548584 0.698418617
0.626059234 0.796204805 0.690322757
0.634155810 0.797722995 0.702087045
0.664136410 0.806072116 0.702213526
0.692725778 0.810752392 0.711701632
0.737381279 0.818342984 0.728905797
0.782542467 0.830360413 0.746742368
0.836052954 0.845161438 0.765338421
0.068437733 0.098039001 0.397090197
0.103731535 0.104111187 0.397216707
0.170271844 0.116255634 0.405060202
0.238330022 0.135357276 0.405819088
0.316634715 0.169512734 0.417330652
0.406957448 0.209360719 0.434535474
0.493358552 0.260594577 0.461732805
0.607716501 0.338899642 0.510183692
0.093990996 0.136242986 0.397343725
0.121821731 0.148640275 0.395066470
0.172295898 0.158633545 0.400000066
0.242125019 0.173055097 0.411005467
0.318911910 0.196457982 0.424415082
0.408728689 0.234029278 0.443390489
0.491714150 0.281847000 0.457305551
0.611385107 0.356483072 0.517394006
0.129538447 0.222264275 0.421631902
0.154965192 0.227324635 0.436559141
0.205819175 0.228209823 0.427071810
0.269702643 0.243896455 0.429348797
0.347754389 0.266919553 0.438962817
0.426059455 0.304996848 0.459709167
0.511068821 0.344465345 0.487286270
0.621884763 0.403921723 0.532068253
0.200759366 0.314611256 0.450980484
0.220872819 0.320936263 0.453384072
0.263124824 0.330803037 0.457052737
0.320177168 0.342821270 0.456925988
0.383933902 0.363693833 0.470082104
0.453004748 0.388361365 0.489183813
0.537634194 0.416191995 0.514104903
0.646805644 0.471094102 0.567109466
0.291460931 0.424161941 0.493358523
0.308412492 0.429601640 0.494117647
0.337634295 0.436179578 0.493105620
0.383048475 0.447311997 0.503605366
0.439088941 0.466034383 0.520936131
0.500822127 0.480202198 0.536242723
0.582289696 0.505250096 0.554585636
0.676281095 0.548766434 0.599620581
0.379886001 0.534598231 0.542188168
0.391524464 0.536495447 0.539152205
0.412017584 0.539278865 0.547121763
0.451992393 0.551423371 0.558886826
0.501834631 0.567109466 0.573561192
0.565844238 0.591524482 0.605186701
0.641112983 0.616066039 0.623529494
0.722327471 0.644655526 0.645920396
0.470588565 0.652877808 0.616318762
0.483744740 0.654902101 0.616192222
0.500822008 0.660720825 0.623149931
0.532447398 0.670967877 0.629854560
0.580012739 0.685642242 0.644655466
0.641112983 0.698924243 0.659202814
0.697786450 0.713978469 0.680835009
0.776976228 0.748007298 0.708791912
0.606324852 0.795066655 0.714104772
0.620366931 0.792536616 0.722453952
0.628209770 0.798608363 0.720556378
0.655028462 0.803162396 0.729538262
0.687159777 0.811764896 0.733965695
0.730297327 0.818216324 0.748766541
0.785578847 0.833523273 0.771410525
0.839215815 0.851612747 0.792536616
0.086906999 0.128399700 0.531562269
0.124098539 0.134345457 0.529285550
0.191904008 0.148007467 0.533333421
0.270334899 0.171030939 0.539911211
0.354712486 0.204174459 0.542567730
0.436053485 0.245414734 0.543453217
0.532574534 0.296647578 0.567868531
0.618975103 0.351169825 0.582036197
0.102466792 0.167994544 0.527893364
0.138646275 0.174825996 0.531815529
0.197849557 0.185958341 0.532447577
0.279822648 0.204807118 0.535610378
0.360151678 0.233270183 0.544718564
0.447817564 0.275774807 0.555471301
0.532321334 0.321695060 0.565591156
0.616065860 0.369892806 0.588867843
0.158128008 0.249083102 0.537254632
0.187096909 0.255028427 0.545351267
0.236559376 0.262239158 0.539531708
0.301075518 0.280708343 0.550537348
0.382036537 0.305376381 0.552814364
0.458823442 0.337508053 0.563946605
0.542694449 0.371031046 0.581910074
0.630360663 0.412650257 0.602530062
0.235041201 0.353699923 0.556230187
0.256546527 0.354838580 0.553826928
0.292093366 0.361669570 0.560278296
0.349272251 0.375584900 0.567362189
0.418469101 0.392662644 0.575079143
0.488171816 0.417457283 0.582542539
0.569639206 0.444022566 0.598861575
0.652624965 0.473497897 0.626692057
0.317014277 0.455787480 0.579253435
0.331182659 0.461480081 0.591017962
0.358886927 0.465275168 0.590512335
0.400126636 0.468058139 0.591271341
0.455913961 0.479316890 0.600000262
0.522707224 0.500948727 0.613282621
0.598355532 0.521568716 0.633017004
0.680961430 0.547375202 0.655154765
0.395952016 0.559139729 0.627324224
0.410119802 0.566097617 0.630233824
0.433649629 0.568374455 0.635799885
0.467678368 0.570272088 0.639342308
0.513472617 0.582416236 0.649462342
0.570398271 0.596204996 0.657178998
0.643516719 0.618089736 0.674130321
0.723972082 0.644655526 0.694749951
0.487160265 0.668817282 0.678304553
0.498798072 0.665275276 0.667425573
0.516635180 0.671979725 0.672738850
0.544971287 0.679443181 0.686147988
0.583301723 0.691587329 0.699557304
0.643390298 0.703099310 0.705755532
0.720430255 0.729285598 0.738772869
0.786211252 0.757116020 0.753320813
0.619101882 0.791397750 0.757115722
0.627324343 0.791144907 0.762049198
0.635167539 0.797596157 0.765464783
0.656166792 0.801264822 0.769133449
0.690701962 0.811511815 0.780518711
0.731815040 0.820493102 0.786211371
0.789500237 0.841619313 0.805565715
0.850853801 0.858064413 0.831878424
0.128399789 0.177988812 0.692093611
0.166856498 0.183301792 0.686780572
0.240606904 0.201770961 0.698038876
0.316255450 0.222137958 0.686653793
0.408602178 0.263883799 0.692093611
0.502213717 0.308412254 0.694117665
0.593548536 0.359772533 0.704743862
0.682985425 0.410878927 0.714231610
0.148766801 0.225300640 0.692979217
0.184060514 0.222137958 0.692093611
0.242124885 0.233017236 0.689436734
0.325237006 0.260088593 0.690575361
0.417330652 0.295255959 0.699304283
0.511195302 0.341049731 0.705629528
0.598608077 0.383681089 0.711827576
0.686527312 0.435167640 0.719923973
0.208602145 0.298292071 0.691840529
0.234408602 0.302087367 0.695635438
0.283491164 0.316255182 0.697406590
0.355724007 0.330676913 0.695508838
0.437950909 0.356862634 0.702719927
0.520303607 0.390638560 0.704364121
0.605945408 0.427071393 0.716887772
0.694623590 0.464769006 0.731435597
0.276660383 0.394560277 0.695382416
0.292346835 0.401644468 0.694497168
0.333838999 0.408981711 0.703099251
0.392283261 0.419734269 0.706388593
0.466034263 0.438583165 0.711574733
0.541555822 0.460847497 0.717773736
0.625679910 0.487539619 0.724730730
0.706261814 0.521442115 0.741682589
0.349905372 0.496015191 0.710942388
0.355091512 0.500063002 0.710562766
0.377609104 0.500822067 0.718658805
0.423656166 0.503225744 0.716887772
0.499051154 0.516887963 0.721821785
0.566477001 0.537634134 0.733839214
0.642757893 0.559519291 0.737507761
0.721315444 0.588615000 0.755850613
0.437571466 0.606198430 0.741808593
0.447438091 0.607716560 0.747248650
0.460468054 0.608855069 0.742567778
0.492599547 0.609361351 0.740164399
0.539784729 0.609361351 0.746362865
0.602150440 0.623023272 0.755597770
0.676787019 0.641745985 0.762555063
0.754206419 0.666287303 0.780391991
0.537634075 0.718405783 0.779000521
0.542947471 0.715369940 0.778873801
0.557874799 0.714990437 0.777103245
0.581277609 0.718659043 0.781783402
0.616318762 0.722580433 0.783933818
0.665401936 0.729664981 0.796331108
0.727767050 0.744085968 0.806451499
0.798355341 0.768374264 0.826692045
0.646552384 0.813535750 0.816065788
0.647311807 0.811764777 0.828083336
0.653636694 0.815686345 0.819734514
0.674889386 0.820113957 0.827830434
0.702972591 0.826818287 0.831625581
0.747248352 0.835167348 0.850221395
0.797216535 0.852498174 0.857179046
0.864515781 0.877672493 0.879063725
