Assets/Resources/EldamarStudio/100 Horror LUTs Pack/LUTs/cube/Deathbrood LUT.cube
LUT_3D_SIZE 8
DOMAIN_MIN 0.000000 0.000000 0.000000
DOMAIN_MAX 0.903226 0.903226 0.903226
0.082353003 0.000000000 0.000000000
0.123845994 0.000758999 0.020746548
0.192789197 0.025047194 0.039974902
0.274636626 0.053257290 0.045413997
0.357242376 0.096267991 0.086907193
0.454395980 0.142820731 0.129031986
0.580265582 0.189499989 0.171537280
0.741808712 0.244655117 0.221125811
0.107020542 0.054395642 0.039595451
0.138014004 0.061859995 0.032891002
0.195572555 0.088551894 0.045793545
0.261353552 0.108918183 0.068185002
0.346363187 0.139405191 0.093990996
0.447312176 0.177355915 0.139405280
0.567741573 0.221632004 0.174320012
0.727893770 0.271220535 0.224288717
0.134092093 0.153447092 0.072865099
0.151676446 0.162935004 0.077166550
0.190512091 0.161417007 0.081467196
0.249209195 0.178621098 0.089690447
0.328273207 0.206704393 0.119038284
0.429981083 0.240733817 0.156609997
0.565338254 0.281973302 0.194307193
0.728146613 0.329664767 0.242251799
0.150664002 0.242125288 0.119417638
0.159899011 0.247185647 0.115117088
0.195951998 0.245161191 0.115117088
0.244908631 0.252245277 0.126122996
0.316508174 0.275268823 0.150410995
0.416192085 0.312966526 0.179253459
0.549019158 0.359392583 0.212017566
0.720176816 0.406325251 0.255154788
0.152055994 0.345477372 0.169892386
0.169260189 0.351802200 0.177862197
0.203668192 0.353320390 0.172422275
0.254269451 0.351296723 0.178241551
0.317394167 0.356356382 0.187982187
0.411511928 0.394687176 0.208728731
0.556736171 0.443390280 0.242125079
0.723339736 0.499557376 0.288551807
0.166603252 0.481593996 0.227450997
0.184566543 0.486274272 0.226691917
0.227703825 0.487412721 0.232005090
0.289816380 0.490575612 0.237065256
0.364325911 0.497280478 0.246299922
0.446173459 0.501328468 0.250600994
0.578241706 0.543074012 0.281847268
0.733965755 0.599114537 0.332067966
0.200253278 0.647564530 0.285895258
0.230107576 0.649588823 0.309677720
0.273118168 0.652371585 0.306008965
0.353826553 0.658190846 0.316761643
0.431119472 0.659329534 0.318532258
0.524225235 0.662998080 0.329284817
0.621378541 0.666540563 0.344338983
0.744086027 0.695888519 0.386844039
0.370651394 0.817583561 0.458064437
0.395951837 0.835294127 0.453384131
0.427197933 0.831878603 0.464263141
0.488804579 0.835799932 0.477925390
0.560151815 0.835799932 0.480708420
0.641745627 0.840860248 0.496015221
0.725616872 0.841366351 0.512839854
0.822896600 0.843643606 0.536748707
0.098797999 0.019987451 0.065401547
0.130929992 0.012903451 0.061480545
0.180265993 0.038330000 0.079443544
0.233523086 0.077925645 0.105755992
0.309171647 0.115496635 0.137887090
0.406198531 0.160151735 0.174825996
0.539152026 0.202403545 0.210246548
0.709677458 0.250980526 0.255661100
0.111701541 0.057938091 0.059456091
0.139152557 0.062998541 0.070082538
0.168880552 0.083364643 0.090449445
0.221378639 0.110056631 0.108032905
0.298798531 0.142947540 0.139025539
0.400758743 0.187602744 0.168753743
0.528146982 0.226692021 0.210246548
0.700695872 0.268690675 0.254016817
0.144591644 0.135483995 0.100948997
0.154459000 0.142188549 0.107653551
0.176343977 0.136622533 0.110056639
0.228842184 0.164453000 0.130044177
0.300063193 0.196458101 0.155850902
0.399873734 0.231625453 0.186464086
0.529538155 0.280329019 0.222011343
0.710942507 0.328526229 0.268564373
0.155977011 0.224288642 0.138140529
0.169386089 0.226691723 0.144465655
0.191650644 0.230234176 0.144845098
0.225932628 0.235293910 0.149904728
0.303605527 0.263883471 0.179000646
0.391144812 0.301834524 0.203288928
0.529285312 0.349146187 0.236053020
0.698165596 0.399241179 0.280708641
0.165464997 0.339278996 0.185325533
0.182289556 0.337634385 0.195445836
0.209614441 0.336369514 0.197722733
0.252751529 0.337887645 0.201391295
0.309171647 0.344971538 0.208728731
0.396584660 0.378241450 0.225173727
0.538646221 0.433776468 0.261227012
0.711321712 0.493864715 0.304237723
0.170778200 0.465781450 0.247564912
0.180012554 0.468564183 0.242504552
0.224794284 0.468564212 0.249968290
0.279063821 0.473244846 0.249335825
0.349146187 0.481594056 0.261606365
0.424920768 0.487792283 0.267299026
0.560278356 0.530803442 0.293485075
0.724351466 0.593548357 0.352308363
0.198988006 0.631119311 0.318405807
0.223655641 0.630107522 0.308918327
0.262871563 0.631878376 0.310689360
0.333333164 0.633776128 0.318152815
0.412776977 0.639215946 0.327640712
0.503984571 0.644149125 0.333838969
0.597975612 0.651992142 0.342694759
0.733080506 0.684882998 0.391271561
0.361669570 0.817583561 0.472865134
0.380391657 0.816065848 0.453257650
0.403288990 0.812270403 0.449336052
0.468817145 0.815686166 0.464263052
0.540923178 0.821884930 0.474003971
0.631372333 0.830866337 0.492346317
0.718532324 0.832637608 0.516002595
0.816065669 0.836559057 0.532195091
0.122327901 0.027450999 0.173181191
0.146236554 0.029348547 0.164199650
0.187349990 0.052498195 0.152814895
0.233143553 0.085009553 0.157874644
0.300189793 0.133206904 0.191145092
0.383175075 0.178114727 0.225932822
0.496394575 0.223909184 0.262365460
0.675521672 0.272865206 0.313598931
0.133712545 0.087792896 0.137128204
0.146615997 0.086527549 0.136748657
0.177988991 0.100695543 0.143832654
0.223403096 0.122200996 0.164958641
0.289184093 0.159392640 0.192789093
0.373687446 0.200126544 0.227198184
0.498039365 0.244022533 0.270335197
0.669323504 0.288551807 0.313093066
0.145098001 0.141809002 0.152056009
0.171789899 0.153953537 0.160658002
0.198355094 0.181024984 0.195952103
0.228083283 0.183302000 0.182922453
0.283617973 0.210752890 0.202150375
0.375584811 0.246806100 0.240101442
0.499557287 0.288931251 0.274889201
0.677292585 0.340670168 0.326881915
0.165844351 0.233902648 0.192789286
0.181151092 0.238203987 0.199873179
0.206198901 0.242884189 0.198987991
0.233523086 0.239342630 0.203795001
0.291840553 0.269449979 0.222011536
0.372295916 0.303099275 0.251359880
0.507653177 0.349652022 0.283491373
0.679063916 0.402782798 0.335104167
0.182669088 0.326755166 0.238203898
0.192030087 0.331815451 0.236559182
0.214800805 0.333713174 0.239722088
0.250347853 0.332827210 0.242378548
0.298545092 0.343073994 0.247438177
0.384187013 0.376723349 0.272232741
0.521442175 0.430740058 0.304617286
0.694497049 0.493611902 0.360151768
0.189373642 0.462112367 0.298418909
0.202403724 0.464769095 0.294117570
0.234281987 0.465528101 0.294497073
0.285515726 0.471473575 0.299683541
0.348892927 0.473877370 0.305502981
0.422770381 0.480455756 0.309044719
0.548386931 0.530423701 0.343326747
0.724351406 0.597469747 0.405186713
0.214674100 0.635041237 0.358507365
0.244781733 0.632005513 0.374320060
0.283491254 0.636685789 0.372169495
0.345603824 0.638203740 0.369766086
0.417963356 0.643010557 0.369513273
0.507400274 0.644908130 0.385325462
0.592662692 0.653130651 0.395446092
0.732953548 0.689689994 0.439721704
0.390638679 0.818595588 0.502593100
0.403415591 0.823149800 0.516887784
0.436179638 0.819101512 0.507400393
0.491207957 0.821758389 0.516508341
0.561922610 0.825300455 0.524857581
0.636938512 0.826944709 0.536369264
0.726881802 0.832763910 0.556230068
0.815306306 0.841998577 0.578368187
0.116002284 0.039342638 0.271979630
0.145730197 0.054269541 0.259455919
0.197849542 0.075901188 0.248956278
0.236559287 0.095888637 0.234914273
0.299683630 0.129917994 0.245035082
0.377988726 0.176976368 0.276913524
0.495635271 0.227071568 0.320177287
0.662871361 0.281467617 0.382163256
0.133206889 0.113092631 0.222264290
0.162302107 0.115749188 0.226565734
0.189626977 0.122453727 0.221505284
0.223655641 0.130297631 0.219228193
0.287159830 0.163694099 0.239595294
0.361037374 0.204047829 0.273750752
0.479822576 0.250601172 0.324225366
0.645793557 0.296774060 0.370777726
0.154459104 0.171410382 0.221505374
0.171663180 0.180012286 0.222264379
0.193548083 0.188741103 0.216698274
0.228462636 0.191904083 0.229854733
0.280834824 0.214927450 0.253383726
0.359139740 0.256166965 0.285009474
0.478937536 0.299557567 0.334724814
0.650094748 0.350917369 0.394307435
0.165338293 0.233775929 0.226565629
0.174699187 0.236432374 0.236811817
0.209234893 0.255281359 0.251739621
0.261226922 0.289310634 0.288172275
0.290575176 0.288931251 0.282606095
0.358127624 0.313219249 0.308918536
0.475015819 0.352687925 0.347628295
0.646932065 0.406957269 0.395319462
0.186717197 0.324604839 0.283364832
0.202024087 0.330423474 0.292220116
0.232005090 0.343453616 0.298798651
0.261226833 0.344592184 0.301454961
0.301960796 0.348766834 0.302213967
0.374699503 0.379886389 0.331056625
0.498671681 0.428715825 0.363061517
0.671221077 0.491840452 0.428083330
0.215053648 0.450600713 0.348387271
0.220999375 0.452498466 0.343579829
0.251106739 0.455281824 0.346869379
0.292852461 0.458443999 0.349652022
0.348007858 0.463883936 0.360784650
0.413282454 0.474130183 0.357368708
0.538899302 0.524098873 0.397217125
0.702213705 0.594939530 0.458317488
0.233775914 0.611258507 0.408222914
0.251612723 0.611258864 0.413029641
0.285135895 0.611258864 0.410373092
0.343200624 0.616824508 0.414927274
0.409234762 0.622896910 0.425047547
0.493864536 0.627071679 0.430993021
0.579885840 0.639215887 0.440227598
0.716761172 0.683365047 0.488425255
0.399620414 0.804427207 0.550157845
0.406830966 0.807589948 0.549145758
0.433649659 0.805566013 0.546363235
0.483618200 0.808981597 0.551929235
0.548513472 0.812270641 0.559266090
0.629728019 0.818595767 0.569766164
0.718405843 0.826185763 0.590638816
0.807969391 0.835926414 0.607969403
0.127893806 0.090828799 0.391904175
0.152814999 0.102972642 0.385199428
0.210879192 0.115876183 0.373055100
0.259708732 0.138646275 0.351296723
0.312587202 0.155092001 0.333712995
0.379126996 0.185578793 0.343833208
0.499557287 0.233396471 0.389120668
0.668817222 0.287792802 0.450094849
0.149272546 0.153573990 0.351296842
0.170651361 0.162934899 0.355597556
0.207843006 0.164958552 0.349525273
0.254775256 0.175205633 0.331815541
0.301707983 0.183681533 0.321948200
0.365464926 0.207210630 0.336369634
0.485009760 0.252625018 0.386843562
0.652877748 0.298039436 0.446805835
0.177229896 0.213029996 0.325237185
0.181910187 0.225680083 0.329411626
0.210879192 0.220113903 0.330677003
0.247691184 0.228842288 0.326375633
0.292220086 0.232637376 0.318026185
0.360278368 0.257305741 0.343453526
0.485389292 0.303225994 0.397090405
0.655028403 0.357495010 0.462112993
0.173687443 0.275774986 0.324730814
0.193295449 0.280075729 0.327007949
0.218595996 0.286780298 0.328273267
0.260467827 0.294876844 0.334851444
0.297280461 0.299178094 0.338772804
0.365591258 0.329791278 0.364579529
0.479443192 0.366856456 0.409740597
0.644781709 0.417963445 0.467678756
0.187982187 0.338519990 0.343074203
0.207843199 0.346236169 0.337887615
0.235041186 0.351043284 0.347754270
0.288551807 0.381657183 0.376090974
0.356356353 0.419101983 0.415180385
0.403289169 0.417457193 0.413156122
0.507400453 0.446426272 0.439468682
0.665528178 0.502087414 0.498545200
0.215053543 0.454269469 0.396331370
0.227703929 0.455787450 0.397090256
0.264895797 0.466793388 0.408096164
0.310942173 0.482479304 0.423023373
0.365464896 0.490828723 0.430107176
0.429854453 0.498545110 0.438709676
0.542061806 0.537634075 0.474130213
0.697280169 0.600252867 0.533712864
0.258064717 0.603668451 0.473245084
0.271853298 0.609993637 0.475268573
0.310183197 0.615686238 0.483491451
0.355091751 0.616065860 0.484883249
0.418216169 0.628083467 0.492093384
0.491714239 0.628209949 0.492599487
0.581657290 0.636685491 0.506767929
0.716128945 0.689184010 0.560657620
0.414168239 0.802782536 0.613029599
0.425553560 0.800505877 0.604301095
0.449968606 0.804048121 0.604047835
0.500822425 0.804806888 0.609108090
0.561290562 0.809487581 0.621758640
0.639089048 0.817204416 0.629854262
0.717899740 0.822011113 0.643643141
0.802909374 0.832890451 0.651612937
0.111954264 0.146742731 0.526502192
0.149399266 0.149398983 0.518532693
0.216192186 0.165970981 0.513345838
0.288172096 0.177355826 0.496015102
0.353194177 0.189879730 0.478810906
0.418848455 0.215306982 0.459835708
0.502593577 0.238456726 0.469702750
0.673118472 0.294117808 0.536369562
0.132953733 0.191777274 0.490828693
0.161922753 0.197722927 0.495382458
0.213029906 0.203921735 0.490448922
0.279443383 0.211764619 0.482226431
0.343200713 0.219607830 0.458570451
0.406198442 0.236053020 0.452877939
0.489310563 0.255281359 0.460721195
0.651359618 0.304617345 0.530803502
0.165211648 0.265780836 0.467172474
0.185325548 0.266539991 0.470714897
0.223276094 0.264895707 0.459835708
0.272865504 0.270082086 0.448829800
0.331435829 0.274004072 0.450980484
0.393421739 0.283111721 0.446679205
0.486148000 0.308159441 0.468437701
0.660214841 0.360151649 0.538899124
0.178241730 0.325616479 0.446299791
0.203542262 0.328399718 0.446426094
0.234661728 0.329158634 0.443010569
0.278051883 0.333080083 0.436306179
0.330423504 0.334597915 0.438962638
0.391777188 0.339784980 0.443390131
0.479569644 0.367741853 0.469955981
0.652119219 0.424541295 0.547501326
0.187855542 0.392915457 0.446805924
0.212397009 0.397723079 0.445920348
0.246932089 0.398102641 0.451233208
0.297659874 0.408855349 0.455534667
0.353573918 0.421758652 0.466666669
0.409740925 0.429601640 0.472611994
0.514358282 0.457179338 0.504364312
0.668437779 0.510436177 0.574446499
0.213535726 0.464010209 0.461859435
0.228589267 0.470208913 0.464642704
0.265528202 0.477545470 0.468437791
0.320303470 0.488551378 0.485135823
0.396584451 0.524098694 0.513219714
0.497153431 0.571663499 0.559772491
0.573181272 0.578368247 0.570398331
0.696394742 0.620493293 0.611132264
0.253004283 0.602277279 0.534345031
0.268057913 0.606198311 0.532827497
0.305502832 0.608981609 0.540290534
0.367741615 0.620113730 0.551929355
0.444907993 0.635041237 0.574446738
0.517773867 0.643263698 0.580645025
0.590132892 0.649968565 0.586464226
0.712966561 0.698798060 0.631372809
0.425679833 0.800885439 0.658823431
0.439848125 0.796331584 0.659076571
0.464642435 0.794433832 0.662618399
0.514484406 0.801011741 0.674636543
0.567994833 0.806072176 0.681593478
0.642504454 0.810373187 0.688171685
0.711448491 0.818722427 0.698544979
0.800632596 0.827197790 0.713092566
0.094117999 0.205186576 0.698545575
0.143453091 0.211385280 0.691714287
0.231119379 0.215307087 0.689943314
0.317267299 0.229854628 0.680075884
0.411764652 0.241112977 0.660847545
0.497786224 0.258317262 0.648323536
0.587729275 0.274763286 0.644275546
0.678431451 0.294370651 0.631246209
0.113978446 0.241998985 0.671347260
0.155345008 0.249588534 0.667172790
0.229221627 0.252245367 0.665654540
0.316381902 0.261100620 0.657052517
0.404807150 0.267805099 0.648070931
0.490575492 0.283618003 0.637318194
0.566729784 0.294497281 0.620493114
0.663503826 0.309550822 0.621378899
0.140923187 0.314737380 0.654522538
0.179759637 0.322707087 0.654016554
0.234914660 0.321821451 0.646805644
0.316761345 0.324225277 0.643643379
0.400885463 0.332827181 0.635673642
0.479696333 0.336242706 0.623908758
0.564199626 0.346109986 0.618469477
0.663883626 0.364832044 0.625553548
0.176596925 0.392409980 0.624667883
0.204048023 0.393801332 0.624288082
0.248197377 0.393421799 0.623149753
0.319544554 0.395319551 0.618469596
0.390132725 0.399620533 0.612903237
0.463757217 0.403162539 0.609740674
0.549652159 0.408728570 0.601770818
0.656925917 0.428589433 0.621884823
0.199114382 0.469070256 0.622264564
0.223276183 0.472232670 0.616824985
0.271853179 0.471220464 0.613535523
0.333333522 0.474130034 0.614168286
0.400885463 0.477672338 0.609993815
0.475648016 0.478051901 0.604933619
0.551043510 0.481593996 0.610752702
0.673118591 0.518405855 0.642884254
0.238709256 0.555344760 0.624035597
0.254649192 0.556483150 0.628083348
0.295256078 0.555597842 0.623023152
0.357874453 0.559139609 0.619861007
0.432764381 0.571283817 0.630740047
0.507906437 0.584693015 0.640227795
0.585578740 0.586970270 0.638710022
0.701454818 0.628462791 0.680202127
0.259709269 0.629601240 0.622390866
0.281467557 0.627577066 0.625300288
0.321821481 0.631245971 0.622643650
0.375079274 0.632890284 0.628969312
0.450221390 0.647817731 0.636812270
0.550790250 0.674509704 0.668563962
0.656420290 0.719165206 0.715243220
0.733839571 0.728526235 0.721442223
0.422644019 0.797343612 0.717393935
0.436559319 0.791903853 0.722201228
0.466666549 0.792156756 0.720809639
0.519038498 0.799240768 0.730423927
0.586084604 0.804048002 0.743706048
0.656926274 0.813535750 0.754712105
0.723592699 0.824667633 0.768501043
0.799367547 0.834914267 0.777862072
0.149398789 0.297153622 0.856672764
0.187223181 0.293864787 0.849209309
0.274888873 0.304364055 0.849715471
0.370271742 0.315116912 0.849082768
0.468564212 0.329158783 0.845161378
0.573940516 0.344212621 0.834155738
0.677292645 0.364452600 0.827071309
0.773181379 0.387476444 0.812397420
0.160404488 0.328273028 0.850347579
0.208981305 0.330803007 0.838203311
0.274509430 0.333459854 0.842631280
0.369386464 0.341302842 0.840227664
0.464895844 0.355850607 0.832637429
0.564832091 0.365717769 0.825047135
0.665528476 0.380897999 0.812776864
0.768500745 0.400885135 0.808349371
0.203668624 0.401770890 0.829348564
0.240607321 0.406578153 0.831625283
0.301455081 0.403288901 0.841366291
0.384946227 0.415433109 0.828969002
0.476280987 0.418975055 0.821505547
0.574699461 0.429601610 0.816698492
0.669955611 0.437697768 0.810120165
0.765970886 0.453130633 0.806830943
0.259582400 0.489310443 0.819101393
0.286021531 0.488804698 0.819607556
0.330423594 0.490449101 0.816192210
0.401138425 0.491587460 0.813662589
0.486148268 0.492852598 0.806957603
0.567994893 0.496900439 0.800505757
0.659329236 0.504237771 0.796584189
0.749525607 0.509297729 0.793421686
0.308918566 0.574193478 0.805818558
0.332447737 0.583934307 0.805313170
0.371536911 0.580771625 0.805439353
0.427324414 0.577988625 0.804553986
0.498165578 0.579632998 0.798987687
0.577103376 0.579127133 0.796964049
0.661733210 0.582416236 0.791650653
0.750917196 0.587475955 0.793927848
0.360531330 0.660341442 0.801517844
0.371663421 0.659582376 0.805439532
0.410499603 0.660721183 0.806071937
0.469702661 0.660468161 0.807969630
0.530170918 0.666160703 0.805186450
0.599873245 0.667931557 0.801138520
0.679316640 0.668564558 0.795951843
0.756862640 0.673624396 0.797975540
0.390385568 0.729412079 0.801897585
0.417710334 0.735989869 0.806577742
0.448070616 0.733206987 0.803162336
0.492979020 0.738140404 0.804047823
0.551802516 0.740923345 0.800885379
0.623276055 0.743073940 0.801897585
0.691207647 0.748260021 0.801518023
0.766097367 0.749904752 0.807083726
0.480708390 0.820240438 0.813662589
0.495382816 0.826312304 0.819607735
0.509803593 0.824667692 0.814421475
0.554459035 0.821378827 0.820113957
0.606957734 0.824288249 0.817583561
0.676533699 0.829854369 0.823276520
0.754965007 0.840734005 0.838077247
0.846426606 0.871094525 0.877798557
