Assets/Resources/EldamarStudio/100 Horror LUTs Pack/LUTs/cube/Deathgloom LUT.cube
LUT_3D_SIZE 5
DOMAIN_MIN 0.000000 0.000000 0.000000
DOMAIN_MAX 0.903226 0.903226 0.903226
0.070588000 0.078431003 0.074510001
0.088930994 0.082353003 0.080708295
0.215180397 0.101328418 0.100063413
0.406198233 0.166856259 0.160025120
0.617457449 0.291840643 0.285262793
0.089563996 0.143200412 0.102340281
0.142567992 0.152687699 0.110815704
0.259329677 0.184440404 0.144844696
0.434281826 0.246552825 0.205692276
0.630866468 0.351296633 0.323212773
0.190385401 0.323719412 0.217836380
0.239722103 0.343706518 0.230233982
0.346615821 0.368880838 0.260974407
0.482226551 0.409740686 0.314610809
0.659329593 0.483997643 0.420620054
0.385579139 0.550284386 0.393422127
0.404174834 0.561796427 0.415686518
0.472865403 0.572928250 0.436179847
0.571916401 0.598355293 0.467932135
0.719417930 0.653004110 0.540670514
0.609740615 0.795192659 0.642251611
0.641619325 0.801770747 0.652877569
0.680961192 0.806325197 0.669197023
0.751802742 0.821378767 0.689942956
0.826691806 0.846299767 0.726122737
0.076154292 0.080075711 0.092852995
0.100062989 0.082353003 0.111827984
0.213914976 0.118026704 0.149778411
0.400252998 0.190006539 0.226944819
0.608601928 0.313978642 0.335230500
0.092852995 0.138646394 0.143200412
0.148133680 0.162555099 0.160278380
0.257432103 0.197217107 0.197217107
0.426059127 0.254775524 0.260341406
0.623023450 0.367994487 0.368374348
0.205060109 0.334851384 0.264262974
0.246932521 0.347628117 0.275015712
0.345351189 0.374446481 0.303478777
0.473497838 0.412017792 0.351169825
0.653383791 0.491840392 0.440227777
0.391777247 0.546742260 0.428716123
0.405945688 0.553953230 0.435293943
0.470588535 0.570651531 0.449335814
0.571284115 0.593548357 0.484376937
0.716129005 0.652371824 0.562555075
0.617836893 0.790385902 0.651865900
0.631372452 0.799493730 0.658064604
0.679063976 0.805692315 0.670461774
0.746362865 0.814927399 0.694370449
0.827703893 0.840354204 0.733586490
0.066666998 0.081720419 0.217710406
0.120303407 0.086274579 0.228842407
0.230866402 0.127514407 0.255028814
0.404806823 0.198861256 0.318532407
0.603668332 0.325742960 0.418595821
0.104870290 0.161796287 0.259582400
0.159518987 0.170651406 0.261859685
0.267805099 0.205312982 0.290702105
0.428463221 0.272359312 0.348260283
0.617330611 0.382289648 0.445034951
0.207969829 0.342694789 0.350537807
0.257684976 0.358001083 0.366856396
0.372043431 0.401517808 0.409993410
0.489816844 0.436179817 0.442378283
0.655281603 0.500948787 0.505502522
0.388868153 0.556862712 0.487033367
0.420114130 0.560404837 0.493358552
0.482226133 0.575458705 0.510056794
0.578115284 0.598355293 0.541808724
0.720050335 0.662871540 0.605566204
0.622138023 0.784692943 0.678810775
0.632890463 0.794560194 0.686021209
0.672359467 0.803035736 0.695256174
0.748640180 0.818469346 0.717141092
0.831878603 0.845034599 0.753446758
0.074510001 0.102086999 0.436559141
0.156609699 0.120303579 0.432890415
0.286148280 0.157621995 0.443769693
0.441366255 0.229601264 0.466919988
0.606704593 0.338899642 0.527893603
0.124983989 0.204047829 0.440101415
0.193927690 0.214801118 0.450600982
0.311954558 0.245287821 0.464010090
0.449335992 0.301202118 0.482985109
0.620366931 0.394054502 0.544465542
0.257684976 0.378368109 0.485894978
0.296900809 0.389120638 0.489690006
0.390765101 0.413915366 0.514357686
0.503605247 0.444022685 0.537254453
0.661480010 0.503225684 0.593548059
0.405186385 0.565971136 0.581657112
0.431245714 0.570904255 0.579759419
0.498291969 0.587855875 0.599367559
0.604301274 0.624921143 0.636559129
0.735736609 0.671726644 0.672991753
0.613408983 0.796584606 0.729791045
0.627198040 0.799873173 0.728399932
0.671727061 0.806957603 0.741935372
0.743959486 0.823276639 0.762175798
0.841745615 0.852877557 0.798608601
0.128399789 0.177988812 0.692093611
0.221884638 0.194433793 0.692472696
0.359771967 0.240859777 0.688804150
0.528526247 0.324604809 0.697659731
0.682985425 0.410878927 0.714231610
0.196963951 0.275774509 0.697659612
0.254901677 0.289183795 0.696647763
0.386337906 0.326122940 0.700189888
0.540037930 0.384060800 0.705123186
0.688551486 0.452371746 0.728652775
0.308791816 0.446046799 0.699809909
0.343706518 0.448956490 0.709297955
0.436306208 0.468310922 0.713599205
0.570398331 0.504364192 0.726375639
0.714231610 0.551423013 0.743073702
0.461859643 0.632763922 0.744338632
0.481973350 0.635420799 0.752434909
0.532068133 0.634787917 0.753826499
0.631499112 0.651359797 0.764199913
0.764832497 0.689057946 0.788740993
0.646552384 0.813535750 0.816065788
0.650347590 0.817457438 0.820240438
0.685515583 0.822138011 0.829981029
0.760404706 0.839721680 0.850474417
0.864515781 0.877672493 0.879063725
