Assets/Resources/EldamarStudio/100 Horror LUTs Pack/LUTs/cube/Deathbrood LUT.cube
LUT_3D_SIZE 5
DOMAIN_MIN 0.000000 0.000000 0.000000
DOMAIN_MAX 0.903226 0.903226 0.903226
0.082353003 0.000000000 0.000000000
0.174572989 0.021252289 0.043770004
0.317141384 0.068690568 0.064136826
0.481720120 0.155977130 0.143200263
0.741808712 0.244655117 0.221125811
0.135610282 0.138266698 0.066033997
0.179126978 0.138646409 0.069322996
0.294243991 0.173940405 0.096774414
0.464389682 0.235420406 0.159898698
0.731941581 0.314231515 0.236179799
0.151675999 0.295003384 0.139910996
0.189247280 0.298545092 0.150790691
0.278557986 0.300821960 0.153700411
0.446046829 0.366603106 0.202023998
0.725363374 0.453889817 0.274762809
0.171663120 0.520050287 0.233522981
0.223655820 0.523592532 0.252751559
0.333586216 0.531815290 0.254775107
0.489690125 0.538773119 0.270841241
0.738519728 0.625933051 0.345730126
0.370651394 0.817583561 0.458064437
0.418342561 0.829348564 0.466034234
0.520935714 0.834534764 0.475142419
0.661732912 0.841366291 0.501075268
0.822896600 0.843643606 0.536748707
0.117014416 0.027450999 0.143579692
0.170651406 0.041871995 0.130803406
0.263504416 0.101075269 0.155977115
0.410752803 0.186717123 0.220366836
0.684629858 0.266539931 0.301201671
0.142820716 0.121315695 0.126249403
0.182415992 0.151423097 0.160278395
0.252751648 0.174320102 0.173687696
0.407463700 0.238709837 0.228209823
0.686906576 0.323466092 0.307400554
0.175205410 0.274003386 0.202023998
0.197722718 0.278937101 0.205312982
0.263504416 0.288425386 0.213535696
0.411764950 0.351549685 0.256673127
0.696394444 0.451612920 0.335610181
0.190891579 0.496520817 0.292599291
0.231246114 0.499177635 0.298292249
0.327767402 0.509930551 0.301201969
0.465780854 0.523972273 0.312081248
0.725110888 0.619987249 0.399367690
0.383807570 0.816571712 0.486147732
0.407842994 0.816571653 0.485895276
0.518026292 0.819481194 0.504237473
0.655154943 0.827957034 0.527767062
0.818089545 0.839468420 0.563693762
0.124857575 0.065401994 0.326881826
0.187602997 0.086654119 0.306008965
0.271979958 0.129537985 0.285768390
0.405565798 0.195192710 0.322453976
0.666666865 0.283870816 0.419355035
0.157874703 0.180771694 0.273624271
0.192536294 0.185704991 0.268058419
0.251992285 0.193548411 0.267425418
0.385199428 0.252119124 0.321442097
0.656167030 0.339152277 0.425553501
0.176470995 0.285135984 0.279190391
0.203921586 0.295888662 0.294244409
0.306008965 0.351802796 0.351170391
0.400632530 0.371157527 0.361037225
0.656166971 0.462492049 0.450094759
0.222896993 0.482985139 0.385832012
0.256925851 0.489563555 0.389374137
0.332574546 0.497407109 0.395698994
0.456293374 0.515117109 0.413029969
0.697659433 0.617710114 0.498418540
0.400000006 0.801897407 0.561163723
0.424035192 0.796584427 0.565844178
0.518152833 0.806325138 0.584187210
0.651613057 0.818469465 0.606830895
0.809234798 0.830613554 0.628083587
0.104870126 0.160910994 0.571031272
0.202023983 0.173307836 0.561416686
0.332194388 0.198861256 0.533459961
0.456293374 0.231498986 0.505376339
0.673877597 0.293105781 0.558633804
0.148007706 0.262238830 0.527893841
0.210120276 0.268438101 0.518026233
0.319164991 0.270461947 0.501328170
0.435673684 0.288424820 0.487918824
0.663756967 0.351549536 0.560657620
0.187602580 0.372422546 0.487286657
0.229095280 0.379633099 0.488551408
0.322833687 0.387223363 0.486401111
0.428462833 0.395698667 0.486654252
0.666919410 0.474889606 0.579506755
0.222644120 0.499431103 0.504364252
0.268058002 0.511448264 0.514737308
0.365844101 0.534345269 0.528399825
0.537634254 0.612144291 0.602277219
0.703731775 0.651107132 0.640227675
0.427703708 0.803162575 0.677799106
0.464895427 0.799240768 0.684123933
0.549905002 0.804806828 0.698292315
0.661479890 0.814927399 0.708412051
0.802656591 0.830233753 0.729032099
0.149398789 0.297153622 0.856672764
0.250094622 0.302339792 0.851233244
0.412776530 0.323339581 0.846932173
0.598987758 0.348513663 0.829095304
0.773181379 0.387476444 0.812397420
0.195825458 0.384060621 0.837444723
0.273877472 0.385072470 0.843390405
0.427577496 0.398481786 0.832890511
0.597216785 0.417457342 0.817963421
0.769006670 0.441998482 0.809361041
0.295508981 0.536495626 0.812903166
0.343453288 0.538014054 0.816065729
0.460088313 0.540417612 0.807842970
0.600379765 0.544718266 0.806830823
0.757495403 0.554838598 0.800758600
0.367868423 0.679316759 0.802276909
0.406957716 0.682985485 0.808854938
0.502213717 0.687539637 0.805818558
0.623149931 0.687160075 0.803162396
0.761163712 0.694370747 0.799999595
0.480708390 0.820240438 0.813662589
0.506008565 0.823149920 0.814674437
0.577862024 0.825426579 0.820240557
0.694750190 0.831878603 0.827577531
0.846426606 0.871094525 0.877798557
