Assets/Resources/EldamarStudio/100 Horror LUTs Pack/LUTs/cube/Deathgloom LUT.cube
DOMAIN_MIN 0 0 0
DOMAIN_MAX 1 1 1
LUT_3D_SIZE 32
0.070588000 0.078431003 0.074510001
0.070588000 0.078431003 0.074510001
0.070588000 0.078431003 0.074510001
0.071853161 0.079696164 0.075774841
0.074889451 0.081973456 0.078431003
0.077925064 0.078937069 0.078431003
0.080961324 0.080961324 0.080961324
0.088930994 0.082353003 0.080708295
0.099557005 0.082353003 0.079190098
0.105629012 0.082353003 0.082226485
0.132067859 0.079443134 0.079443134
0.153320506 0.082479514 0.080455258
0.172675639 0.089690350 0.084629998
0.193928033 0.098292030 0.090955034
0.215180397 0.101328418 0.100063413
0.238835976 0.106767997 0.106767997
0.264642566 0.114358187 0.115875989
0.292599946 0.124098986 0.127387568
0.322960019 0.136243016 0.136495978
0.344971389 0.148387015 0.145604357
0.373813719 0.156736001 0.150917262
0.406198233 0.166856259 0.160025120
0.436685473 0.184946492 0.181151003
0.470081896 0.200126916 0.199367821
0.501201570 0.213029996 0.213029996
0.531562328 0.227956966 0.229348645
0.560911000 0.246679068 0.249589071
0.585198998 0.267931432 0.264769435
0.617457449 0.291840643 0.285262793
0.650854111 0.319670916 0.311827898
0.686907172 0.350031167 0.342188179
0.729412019 0.380391985 0.372548997
0.070588000 0.078431003 0.074510001
0.073624387 0.081467390 0.077545613
0.073624387 0.081467390 0.077545613
0.074889228 0.080202229 0.080075935
0.077545613 0.079316616 0.082985677
0.077925064 0.078937069 0.072359003
0.080961324 0.080961324 0.079949327
0.090575702 0.083997712 0.082353003
0.104111388 0.083871193 0.079949394
0.114737399 0.079316624 0.076154485
0.135357261 0.088045485 0.085009873
0.156356379 0.087539390 0.084503770
0.174572900 0.091587611 0.088804737
0.194180995 0.098545000 0.096773997
0.218216017 0.104364023 0.103099018
0.241872206 0.109803602 0.109803602
0.267678589 0.117393799 0.118911989
0.294370741 0.127134591 0.130423799
0.319924414 0.139278635 0.139531597
0.350284398 0.154205993 0.145857334
0.374193460 0.166603476 0.154712260
0.405186623 0.175964639 0.165085256
0.439721853 0.187982112 0.184187368
0.473118305 0.203162536 0.202403441
0.501960695 0.218342900 0.216065615
0.531562328 0.234028965 0.232384250
0.560911000 0.252245128 0.252624661
0.585198998 0.270967811 0.267805040
0.617457449 0.292220175 0.290955245
0.650854111 0.319670916 0.314357907
0.685136199 0.349145800 0.342188179
0.723340034 0.377356380 0.372548997
0.074889004 0.078431003 0.076660231
0.071473613 0.077166386 0.079696387
0.076660231 0.084503770 0.080581777
0.076660231 0.081973448 0.079316616
0.078810550 0.078810550 0.082352996
0.080581777 0.080581777 0.079063907
0.083112091 0.078810550 0.078178324
0.092726052 0.083491646 0.079064004
0.107906319 0.087792993 0.079569995
0.121442012 0.087286584 0.079064004
0.140164644 0.089310646 0.081088096
0.161417022 0.098418504 0.088172212
0.179759532 0.098797999 0.090702228
0.198229030 0.102593027 0.098292030
0.220619738 0.106767766 0.102466770
0.244908348 0.117140763 0.112839766
0.267678976 0.124730960 0.121947765
0.293738306 0.133839339 0.132194802
0.319544971 0.144465566 0.138266817
0.347248763 0.159392372 0.148892939
0.377608746 0.170777738 0.156862959
0.407463610 0.182669207 0.169006765
0.444655478 0.193168491 0.186970234
0.474003911 0.208348915 0.201138780
0.500695527 0.223529279 0.219101772
0.529411554 0.240101323 0.232637420
0.559772372 0.257811487 0.252371848
0.587349772 0.274383128 0.270841211
0.615306675 0.297406763 0.289689869
0.657558501 0.322201133 0.319291353
0.690196157 0.353067338 0.345603794
0.721569002 0.382922232 0.374699771
0.078431003 0.080961324 0.077166162
0.074889004 0.079190552 0.078937389
0.074889004 0.079696611 0.084883004
0.079696164 0.087539837 0.081087843
0.080455162 0.081846714 0.078431003
0.084376939 0.083112098 0.080581777
0.088678159 0.084883004 0.081087843
0.098292440 0.085515261 0.082859166
0.113472253 0.090069838 0.079064064
0.128652647 0.095129840 0.084630005
0.145477727 0.096648000 0.084883004
0.165718243 0.102719732 0.091460995
0.183554992 0.109550640 0.095255993
0.201771036 0.110436186 0.101075001
0.223023400 0.115496576 0.105123252
0.245414436 0.124477990 0.114104994
0.273245037 0.133839354 0.124984153
0.294497401 0.143580139 0.136495739
0.320556849 0.153320983 0.140797138
0.350411206 0.166729808 0.152182177
0.377103150 0.178114891 0.161163732
0.408475280 0.189247280 0.173308000
0.446932316 0.201770812 0.191271007
0.474256754 0.216951221 0.203415811
0.501834154 0.230866432 0.217583984
0.528905451 0.247438163 0.236938640
0.557242215 0.265654951 0.251612991
0.584566712 0.281593859 0.270588249
0.617330968 0.303478777 0.291714132
0.651992142 0.327008307 0.317520112
0.698798001 0.355218112 0.350031167
0.725363851 0.388235003 0.377735853
0.077672005 0.087033994 0.074889451
0.078810550 0.087792993 0.074889451
0.078810550 0.086021766 0.081973456
0.080834709 0.085642003 0.086400837
0.083871000 0.091334544 0.078810550
0.089942999 0.088298932 0.078810550
0.096773997 0.092852995 0.079569548
0.107400246 0.096900836 0.081720419
0.122201093 0.099936545 0.087413445
0.137381509 0.099936545 0.090449065
0.152561873 0.102846414 0.090954997
0.171410710 0.109550826 0.098671541
0.190006554 0.116761185 0.106640995
0.202150553 0.120050542 0.107400022
0.223023400 0.129032403 0.113598540
0.245793790 0.138140291 0.120935798
0.271979749 0.146489382 0.130803198
0.303225547 0.153067976 0.139532030
0.324478000 0.165212020 0.148640439
0.356103390 0.176976562 0.160152018
0.383807480 0.187602729 0.169259995
0.410373122 0.197976112 0.179000542
0.443642974 0.213029981 0.196963534
0.471220464 0.227957368 0.209108263
0.500822008 0.241619542 0.222390994
0.530803323 0.256166995 0.236812100
0.559899032 0.274762571 0.257685006
0.578114986 0.292979330 0.269829005
0.614927411 0.313093245 0.292599648
0.651486397 0.334725171 0.319291472
0.688171625 0.357874960 0.349272162
0.730676472 0.388235003 0.379632980
0.071600005 0.093106002 0.077925064
0.080708385 0.099178001 0.077925064
0.081846938 0.099936999 0.077925064
0.085642099 0.098165773 0.079949066
0.092979386 0.097406551 0.078810550
0.096015006 0.100442939 0.081846938
0.107146993 0.104996994 0.086906932
0.118279405 0.107779995 0.087033644
0.130929932 0.109803930 0.087792993
0.143453509 0.115116931 0.093485452
0.158633873 0.118026800 0.096521065
0.175837994 0.123086922 0.103099257
0.194560349 0.129664868 0.110436283
0.211258933 0.135230929 0.113472030
0.223402917 0.141302928 0.122580409
0.253889799 0.150284797 0.123971932
0.280708402 0.160910860 0.133080184
0.306514889 0.170777977 0.145350993
0.330549985 0.177356020 0.151676044
0.357368380 0.186717361 0.160784423
0.383807480 0.198228925 0.172295988
0.409108132 0.208855122 0.184440121
0.437570989 0.219101980 0.199999928
0.467931807 0.231246009 0.212143943
0.497785926 0.248450622 0.231119335
0.526755035 0.264263242 0.243895978
0.554080009 0.280961066 0.255028129
0.578114986 0.302086949 0.275900990
0.614927411 0.317646861 0.298671633
0.647312105 0.339152455 0.321189165
0.677039921 0.362934947 0.345730484
0.709424078 0.388235003 0.373560995
0.080708638 0.119417995 0.088551641
0.082226701 0.120429993 0.088551641
0.089184321 0.122200996 0.090701871
0.093738154 0.123466156 0.089816481
0.102466673 0.123339638 0.088931091
0.107653059 0.124225251 0.091966935
0.118279636 0.127260998 0.097532995
0.130423635 0.131688699 0.100315996
0.143327102 0.133333415 0.100442678
0.157242343 0.137634635 0.106514677
0.174825862 0.135736868 0.112207770
0.187982515 0.140796989 0.117267631
0.206325278 0.148007646 0.123592667
0.226439312 0.155471325 0.126881316
0.247691303 0.161543310 0.133712411
0.262239099 0.172422305 0.140417606
0.290322304 0.180138990 0.143706635
0.315875798 0.189626575 0.154585734
0.343959361 0.197596341 0.162555009
0.365970671 0.208981350 0.173940673
0.397090048 0.218089730 0.183048576
0.423276246 0.228589445 0.195572123
0.449082792 0.237950817 0.210626006
0.477039814 0.252498657 0.222770646
0.507400572 0.264642626 0.239468634
0.537760556 0.282352984 0.257684976
0.565717757 0.298671395 0.269196630
0.590006292 0.315875739 0.288424730
0.622517109 0.334345460 0.309803635
0.658444285 0.356609792 0.335863143
0.689943254 0.383428276 0.362175792
0.723592341 0.411005318 0.392789632
0.089563996 0.143200412 0.102340281
0.094497278 0.141555697 0.095762290
0.098798282 0.144844696 0.099557221
0.102340281 0.144844696 0.106388316
0.111068539 0.147501543 0.105629697
0.120935693 0.148766696 0.107400469
0.128778920 0.149652094 0.108032703
0.142567992 0.152687699 0.110815704
0.155471087 0.154964983 0.113851704
0.170651481 0.157115772 0.121694706
0.183807716 0.159266531 0.124478027
0.201264799 0.162302390 0.130550280
0.215686575 0.168374404 0.135483921
0.236433029 0.176976740 0.138772696
0.259329677 0.184440404 0.144844696
0.276407510 0.192030400 0.149272606
0.299177706 0.202656209 0.156862795
0.322453856 0.209487274 0.163693860
0.348766685 0.218595669 0.172801748
0.379000366 0.225553423 0.186337709
0.402909428 0.237444431 0.196584672
0.434281826 0.246552825 0.205692276
0.459329486 0.255914211 0.219733998
0.486653924 0.271094620 0.234914809
0.512966514 0.283997715 0.246679693
0.543326914 0.297533363 0.266287357
0.573687136 0.315496415 0.282479703
0.600252867 0.331815124 0.300695688
0.630866468 0.351296633 0.323212773
0.662618577 0.371537149 0.348007560
0.696900964 0.397976190 0.374446362
0.733332992 0.426818430 0.405566275
0.097912900 0.164453000 0.118279189
0.104743615 0.162175700 0.106135190
0.112460092 0.163314193 0.106894188
0.119038090 0.167615101 0.112460323
0.119038090 0.167615101 0.123087004
0.132320926 0.170271948 0.123087004
0.139911190 0.171537101 0.121315777
0.151675791 0.171663389 0.123719193
0.166097105 0.175458282 0.123719193
0.181277499 0.175458282 0.135863200
0.191397965 0.180518731 0.137128100
0.206578076 0.186590984 0.140417188
0.224794179 0.192662999 0.145350650
0.243010968 0.198482037 0.148387045
0.263757408 0.206578419 0.153953090
0.282479703 0.214042097 0.158380806
0.302972972 0.221631885 0.164453000
0.333333135 0.230107233 0.174825758
0.352055967 0.239089161 0.184187174
0.383934200 0.244908452 0.197343364
0.413535535 0.252878189 0.208728731
0.438077152 0.264010131 0.219355062
0.465148509 0.273118496 0.228336185
0.491207927 0.287033916 0.244022802
0.516255558 0.299937010 0.256926268
0.544085979 0.314990640 0.271600634
0.573434174 0.329664975 0.292346984
0.603288949 0.347374976 0.310562968
0.635167539 0.369006872 0.334851027
0.665528238 0.391018361 0.358633578
0.698418975 0.412397295 0.385832071
0.734851003 0.436686099 0.410120100
0.113092527 0.194813013 0.136495963
0.113092527 0.194813013 0.124351978
0.119923778 0.192536280 0.125110984
0.130170479 0.192409828 0.128652975
0.140290484 0.194939494 0.129159003
0.140290499 0.194939494 0.129159003
0.145983651 0.197596341 0.129159003
0.158633962 0.197216779 0.137255207
0.175205499 0.196710691 0.148007989
0.187349513 0.202783465 0.148007989
0.199620754 0.205692589 0.151423112
0.215686470 0.210879013 0.154332757
0.233902469 0.216951013 0.157495350
0.252118587 0.222770050 0.160531059
0.270335346 0.225806430 0.163567439
0.293484986 0.233902812 0.169133484
0.315875679 0.242884293 0.176597208
0.339405119 0.251359642 0.186970547
0.369765967 0.257432431 0.202150971
0.394054711 0.269196987 0.211511627
0.420746684 0.279064208 0.220872745
0.446932465 0.288298845 0.232005134
0.471220493 0.297406495 0.246552959
0.492472917 0.306514889 0.252624989
0.516255558 0.318152994 0.266034275
0.544718623 0.334471643 0.283744633
0.576470554 0.353953004 0.304490983
0.600759327 0.366097003 0.322706968
0.635926425 0.389120638 0.348892748
0.668563843 0.413282871 0.370777875
0.701581061 0.436559558 0.392030567
0.740922987 0.457938492 0.419228494
0.119544744 0.207716748 0.140164122
0.128272861 0.210625872 0.151296869
0.128272861 0.214926869 0.141303092
0.135104150 0.217963308 0.142315164
0.145224422 0.222264603 0.144718871
0.152814746 0.222264603 0.149778873
0.162934735 0.219734281 0.152308553
0.173054993 0.222011581 0.154332712
0.187223196 0.223782599 0.162175998
0.199367762 0.229854837 0.166476995
0.211511731 0.227197990 0.163567126
0.225680262 0.232257873 0.166603267
0.243010864 0.238329872 0.169639647
0.261479884 0.244401917 0.172675699
0.282352805 0.250095159 0.175711423
0.305376589 0.257937938 0.185957998
0.332700729 0.265527993 0.193042383
0.358759999 0.273876995 0.202024266
0.384566814 0.284503788 0.217204109
0.403794885 0.290575862 0.224035844
0.429727852 0.298671871 0.234914735
0.454016387 0.306768119 0.244022861
0.474509835 0.316002727 0.253510505
0.498544931 0.327893764 0.267931849
0.522074580 0.337002158 0.280835122
0.549146295 0.351296723 0.297406822
0.580012918 0.370018929 0.316635013
0.606704891 0.384566724 0.334850967
0.633649826 0.399367571 0.355723798
0.665781200 0.421126008 0.382542610
0.694370806 0.443390578 0.402403831
0.723719001 0.464643002 0.419607997
0.137760982 0.238077238 0.159392759
0.140796870 0.239089102 0.161416769
0.145477504 0.242251754 0.166603729
0.149272338 0.245793760 0.162555337
0.157241985 0.249968708 0.164452970
0.161416665 0.251612991 0.163946986
0.173055246 0.251106918 0.169512928
0.185199246 0.249715239 0.169259965
0.198102340 0.252372086 0.172296256
0.211511970 0.257179230 0.178368241
0.227703989 0.260594636 0.179759383
0.245920241 0.261606753 0.180771515
0.262239277 0.266540110 0.186084896
0.280202448 0.271473527 0.190892205
0.297912359 0.275775075 0.193927824
0.317520559 0.284250438 0.204174235
0.338772953 0.290322453 0.214800447
0.365844131 0.296521068 0.221378982
0.390132964 0.307274193 0.232384309
0.410879284 0.315875947 0.239215434
0.430993021 0.318152964 0.247185469
0.457052261 0.325996220 0.258191109
0.477672219 0.336116731 0.265654743
0.503858030 0.346363008 0.280835152
0.526122332 0.360278249 0.293991268
0.550411046 0.369386613 0.310562968
0.579000771 0.385705233 0.328779131
0.606325150 0.402403414 0.346995503
0.635673821 0.419608057 0.367868304
0.664769351 0.436559200 0.385578692
0.696900964 0.457558572 0.411891550
0.725742996 0.478810966 0.429728240
0.155218005 0.271853268 0.179886341
0.156356648 0.272991627 0.179127246
0.159645766 0.275142401 0.180392116
0.166350484 0.276913643 0.181151479
0.175458193 0.276913643 0.184187099
0.177735284 0.279190361 0.180391982
0.186717272 0.280834645 0.184440285
0.200000271 0.281973273 0.186717361
0.212144285 0.284250379 0.185199529
0.226945132 0.288045764 0.190891981
0.245034635 0.291714281 0.195192754
0.261859536 0.295762271 0.198228896
0.283111662 0.298798651 0.203542277
0.301328421 0.302087277 0.212650597
0.317393839 0.306009054 0.217457220
0.332700610 0.312713444 0.224288285
0.352055609 0.318785489 0.234914482
0.372169167 0.322454274 0.243390292
0.396963954 0.331056595 0.249462306
0.417331010 0.340164274 0.257811278
0.441998720 0.346995264 0.265781015
0.462239236 0.350031406 0.275901258
0.486147761 0.361923128 0.285136133
0.511448145 0.371031016 0.298292547
0.534218550 0.383554548 0.312334001
0.556862354 0.397090286 0.328399599
0.581151128 0.406704634 0.346109688
0.607843041 0.423655629 0.363693893
0.637824297 0.440733641 0.384566784
0.669323325 0.460088581 0.405692816
0.699683964 0.480961204 0.423529595
0.735610008 0.502719641 0.450600982
0.163061038 0.296395034 0.190512031
0.166350469 0.299936622 0.193295389
0.170778036 0.302719772 0.196078256
0.178874031 0.305250049 0.196837157
0.190638587 0.304997057 0.194560528
0.199746966 0.304997057 0.197596133
0.208855361 0.307020754 0.202656642
0.221758738 0.310562760 0.206451997
0.236180037 0.314358115 0.206451938
0.248324051 0.323466510 0.209487557
0.265528053 0.324099004 0.215433031
0.280202538 0.325869739 0.219228253
0.295256406 0.329411685 0.224541634
0.316255063 0.332448095 0.233650029
0.334471822 0.338520080 0.242757648
0.348134011 0.344592065 0.247058809
0.365085244 0.349146187 0.253131211
0.386843562 0.353068024 0.261606991
0.414168030 0.359140009 0.267679036
0.433396727 0.367235720 0.278811008
0.457938015 0.376343787 0.289310694
0.484503239 0.385452121 0.299430996
0.503099501 0.394560486 0.311574996
0.524604857 0.403668880 0.320809901
0.546110213 0.414801031 0.334724724
0.568753958 0.426945001 0.352181673
0.593295157 0.438836068 0.372422099
0.617583871 0.450980067 0.387602448
0.647185683 0.465780884 0.407842845
0.678305149 0.484503239 0.430613428
0.711322010 0.507020652 0.454395980
0.741682053 0.534345090 0.478684008
0.190385401 0.323719412 0.217836380
0.196458161 0.332827002 0.217836380
0.195446044 0.334218383 0.218468964
0.198102385 0.338646114 0.219101399
0.205818966 0.344338953 0.218848526
0.214927331 0.341429800 0.221884876
0.224035725 0.338899463 0.222390816
0.239722103 0.343706518 0.230233982
0.257432371 0.349272788 0.235293970
0.269576401 0.350790888 0.230739921
0.278811246 0.354079515 0.236685395
0.295888841 0.354458958 0.238709390
0.311701596 0.358507037 0.242757618
0.328399837 0.365844399 0.251866013
0.346615821 0.368880838 0.260974407
0.362428784 0.374952823 0.265275031
0.381530792 0.379506618 0.271347195
0.403921783 0.383807540 0.279822975
0.423276395 0.392536372 0.285894990
0.445034772 0.393042386 0.291966975
0.461859733 0.400632560 0.303098977
0.482226551 0.409740686 0.314610809
0.503099501 0.418848485 0.326755404
0.530423880 0.427956879 0.338899404
0.554206014 0.437065274 0.354964972
0.577861845 0.448197365 0.371157050
0.602656484 0.459835470 0.387602478
0.629727840 0.469196826 0.402782828
0.659329593 0.483997643 0.420620054
0.684377193 0.502719998 0.441240013
0.712587178 0.523972392 0.462239385
0.747754812 0.546489835 0.481720418
0.212902784 0.360657781 0.233143598
0.216571763 0.369766027 0.235546798
0.214041993 0.372422397 0.241998568
0.218342945 0.376217544 0.244022757
0.227830604 0.382289857 0.245161384
0.234914720 0.371157706 0.246173531
0.248830110 0.372928470 0.244275793
0.257938087 0.374825776 0.247564778
0.273118287 0.380897969 0.255913883
0.283617973 0.380897969 0.254775614
0.295256048 0.383807719 0.255534619
0.308412433 0.384819597 0.261606604
0.325110614 0.385958225 0.264642596
0.340797007 0.392030537 0.272485822
0.361163765 0.395066410 0.281594187
0.379379779 0.400505990 0.285894990
0.396078378 0.405060172 0.291966975
0.416698545 0.408096015 0.299177796
0.433143824 0.413661957 0.301707834
0.454143167 0.424035579 0.314990610
0.473497778 0.425932825 0.322959840
0.491208136 0.434029132 0.334598035
0.512207508 0.443137079 0.346742779
0.530423880 0.452245474 0.358886778
0.557748258 0.459076583 0.371030778
0.584946096 0.469449759 0.388994128
0.611258805 0.481593788 0.405186683
0.636685431 0.492599428 0.420367032
0.661859632 0.507020772 0.426185846
0.695762336 0.525743186 0.453257322
0.721062720 0.545224547 0.477925360
0.751423180 0.563440979 0.499177784
0.235673368 0.395572364 0.252878189
0.235673383 0.401644379 0.258950174
0.242884189 0.405819178 0.260214955
0.241872162 0.404554009 0.269323349
0.254775524 0.411891341 0.272106647
0.259709179 0.403542250 0.270967990
0.267299503 0.402024060 0.268438071
0.279190451 0.405186564 0.270335376
0.289816260 0.410499483 0.276407391
0.300442696 0.411258370 0.280202687
0.313978374 0.414168239 0.280329198
0.325110644 0.416698188 0.284377187
0.340290755 0.416698188 0.290449202
0.355471015 0.419355005 0.296015203
0.374193370 0.422390938 0.301328421
0.391524166 0.426312178 0.307147384
0.411258370 0.433902383 0.314737171
0.428209960 0.436306179 0.323213130
0.442504823 0.438456446 0.324984401
0.463251173 0.443769723 0.331309557
0.481087983 0.451739430 0.342694432
0.501328230 0.456799328 0.353826314
0.523086667 0.465907693 0.366350472
0.541050076 0.475016087 0.377103180
0.562302470 0.483364999 0.389247179
0.588235140 0.492220342 0.402782828
0.617836833 0.504870296 0.421379060
0.643136978 0.518026173 0.438583404
0.671979785 0.529790998 0.446173549
0.694244146 0.545477331 0.451739132
0.729791343 0.566729784 0.488677770
0.755976975 0.583175182 0.517394185
0.260594547 0.425300539 0.279569983
0.258190721 0.428968728 0.291208327
0.265527934 0.432004899 0.290449351
0.276913166 0.431878567 0.289310575
0.282985151 0.429980725 0.298418939
0.286274493 0.433270067 0.296394616
0.290575862 0.433776140 0.294623852
0.295635819 0.434788257 0.294623941
0.306261629 0.437192053 0.300695956
0.321442038 0.440227658 0.306767970
0.334724844 0.443263859 0.306388557
0.347754806 0.446932256 0.311068952
0.359139919 0.448829532 0.317141145
0.373813599 0.449335605 0.322707146
0.388234973 0.452751547 0.322707146
0.403415352 0.455154926 0.328779131
0.420366764 0.459961742 0.335357130
0.440354139 0.467805147 0.346236110
0.452498198 0.467805147 0.352308899
0.472991526 0.468437552 0.353447556
0.490448713 0.470967561 0.358507395
0.507400215 0.478051692 0.368374109
0.531815469 0.487033546 0.383427978
0.554079890 0.495635897 0.393042445
0.574067235 0.504743874 0.404427558
0.597343504 0.515875936 0.417330623
0.621125638 0.529032588 0.433017135
0.648196995 0.544338703 0.454142988
0.679569900 0.554838359 0.466666788
0.707273960 0.567488730 0.476027876
0.728652537 0.583807707 0.486400753
0.762048960 0.605060160 0.531941950
0.287918985 0.452625006 0.303858072
0.287918985 0.458696991 0.325110406
0.289816737 0.462365746 0.323845804
0.295129985 0.461606979 0.316508651
0.301201969 0.457305968 0.313598633
0.307273954 0.463377923 0.322706997
0.315623313 0.464136958 0.325743318
0.320936263 0.464136958 0.324984312
0.327514082 0.464390010 0.324984044
0.342694461 0.464516521 0.331056029
0.349146008 0.467552125 0.328399926
0.364073545 0.472612023 0.333712757
0.380392343 0.476153970 0.341429323
0.395066023 0.476660073 0.346995980
0.404174387 0.482732803 0.346995980
0.418595821 0.483744979 0.356609970
0.433776200 0.485515743 0.362175971
0.449462563 0.489057571 0.364452958
0.464643002 0.492093980 0.370524943
0.485136360 0.494876623 0.373814374
0.502593160 0.495761991 0.378495008
0.518785238 0.499304175 0.385831833
0.537887514 0.508285999 0.395572037
0.565211892 0.514358044 0.407716841
0.582922339 0.522960365 0.419607997
0.604174674 0.534851611 0.431751966
0.630234063 0.550285041 0.445161164
0.651486397 0.568500996 0.463377923
0.678557754 0.581151009 0.481846958
0.709930122 0.594813228 0.501075208
0.740290523 0.610879242 0.520809531
0.768121004 0.629348993 0.544085979
0.318026751 0.488298744 0.342062086
0.320809364 0.491587400 0.346615762
0.325110376 0.493358403 0.352814376
0.328779191 0.495762199 0.350664169
0.332953930 0.494623870 0.349905103
0.336622745 0.493485034 0.351802677
0.340164423 0.497027338 0.353320748
0.348766744 0.498924673 0.356103659
0.356356740 0.500063002 0.356103390
0.369512826 0.500063002 0.358127385
0.381530374 0.505756199 0.363820612
0.387602895 0.506768107 0.364832491
0.401644737 0.510183454 0.371283740
0.416824400 0.512080729 0.376850009
0.430992752 0.515623212 0.376850009
0.440101147 0.519291580 0.381657004
0.456040353 0.519671023 0.390006393
0.472485572 0.521441936 0.392536730
0.487666041 0.524478376 0.394307703
0.505629778 0.527514040 0.403162360
0.521189392 0.532447875 0.409993768
0.537507832 0.537254930 0.417963505
0.557621837 0.546109915 0.427071542
0.579633236 0.549525738 0.436558813
0.604680359 0.560151756 0.446426302
0.625553370 0.571157396 0.459456027
0.650474429 0.583428144 0.472991735
0.671726763 0.592536747 0.486653924
0.695635259 0.605439723 0.502213836
0.722833574 0.621125698 0.518532574
0.750664294 0.638203561 0.539531946
0.774193704 0.656420350 0.564579368
0.352182478 0.520936012 0.370145738
0.349525362 0.523972094 0.375079066
0.349019468 0.522959769 0.385452211
0.355091482 0.524224937 0.381657064
0.358760297 0.527261317 0.382163256
0.361796677 0.527261257 0.383681476
0.370525151 0.527387798 0.383681476
0.376850188 0.530423760 0.385325760
0.385199487 0.531941593 0.389120489
0.395066440 0.530803204 0.391397476
0.403415471 0.534724712 0.393421739
0.417204231 0.538646758 0.399367481
0.425553709 0.539785087 0.403542012
0.439468503 0.542567730 0.408855200
0.451359868 0.543959379 0.407210469
0.465528250 0.545097888 0.412017465
0.479190469 0.549651742 0.416571647
0.496774018 0.551043332 0.422264695
0.511954427 0.554079711 0.424794734
0.526122689 0.559013069 0.433143854
0.540543973 0.563946486 0.436559230
0.554712236 0.567995012 0.444655478
0.574952722 0.574319720 0.452751726
0.594433904 0.579126835 0.460088581
0.614168465 0.588994503 0.472991765
