Assets/Resources/EldamarStudio/100 Horror LUTs Pack/LUTs/cube/Demonic LUT.cube
LUT_3D_SIZE 8
DOMAIN_MIN 0.000000 0.000000 0.000000
DOMAIN_MAX 0.903226 0.903226 0.903226
0.003922000 0.000000000 0.070588000
0.009360999 0.000379548 0.071726546
0.082985193 0.007843001 0.094117999
0.160910636 0.026944643 0.108158998
0.248956189 0.065780997 0.132447988
0.352434993 0.101707987 0.158633739
0.496268272 0.128399700 0.193421990
0.689689696 0.160910830 0.228842661
0.003542452 0.034029547 0.093359001
0.018722093 0.049715545 0.090954997
0.095129639 0.061480451 0.110183448
0.165212095 0.081087641 0.123086900
0.254016727 0.104490735 0.143327191
0.364579529 0.133839086 0.167235747
0.498545557 0.161290288 0.193927556
0.685009420 0.193801239 0.229727805
0.011511995 0.135483995 0.125996083
0.061733089 0.139405191 0.131182641
0.130044192 0.148007289 0.139532089
0.196584284 0.163694099 0.153194353
0.284250170 0.176976472 0.170778006
0.393801361 0.202024192 0.195192993
0.526755214 0.230360270 0.220113888
0.714610577 0.259203076 0.261100739
0.082479641 0.228715986 0.186084643
0.107147284 0.235041082 0.186590999
0.162428737 0.243517086 0.191271096
0.234408617 0.254522264 0.201770633
0.331941396 0.274130285 0.209108278
0.437065095 0.290954918 0.225679904
0.577608824 0.316255271 0.249462336
0.745477200 0.354079813 0.292599827
0.168374196 0.338519990 0.232637376
0.185325563 0.348260641 0.240101352
0.230234176 0.352435380 0.243643284
0.299430609 0.361037195 0.249588832
0.397723377 0.379000366 0.262492180
0.510436475 0.403289378 0.279190421
0.651360035 0.429854661 0.302214086
0.797975540 0.467045993 0.341049999
0.281593978 0.483491719 0.299683720
0.300316244 0.488677949 0.307273716
0.339278907 0.490828454 0.309677631
0.406957358 0.506261826 0.317267478
0.498291910 0.518026710 0.329158992
0.604807198 0.532447457 0.342567712
0.728653014 0.561416566 0.376723468
0.845287502 0.593042254 0.418089658
0.447564542 0.641366243 0.393042266
0.465022087 0.643390119 0.401264817
0.497659564 0.649968326 0.405313164
0.552941203 0.655913889 0.418848544
0.620746374 0.664263308 0.427324563
0.709044695 0.677545547 0.453510106
0.788108528 0.686780572 0.468817234
0.877672255 0.705629230 0.511575043
0.659582615 0.797849476 0.573307514
0.680961132 0.807589948 0.576217294
0.695761621 0.807083726 0.577861845
0.732194602 0.812270582 0.590006351
0.773940384 0.812397122 0.605945408
0.821758509 0.823276520 0.624667645
0.876027644 0.834029078 0.646679163
0.932447612 0.846299767 0.671347260
0.000000000 0.003922000 0.090575546
0.005060451 0.007843000 0.094876997
0.072739087 0.014800997 0.106514998
0.152561277 0.046552639 0.132448003
0.236811921 0.074762546 0.151170194
0.342821181 0.112460352 0.181909993
0.486527532 0.137507543 0.208855450
0.676280916 0.165717542 0.240480691
0.003542452 0.034408998 0.105756000
0.019101545 0.046173092 0.116002090
0.076660089 0.065781087 0.121062540
0.155344635 0.086527638 0.137128189
0.247058719 0.108412348 0.166982993
0.355471253 0.135104537 0.182163551
0.488425285 0.161669850 0.214168549
0.672991872 0.189120814 0.248703241
0.023403000 0.122074284 0.149652094
0.056672640 0.131941646 0.156736091
0.113851629 0.140164196 0.160278544
0.190259188 0.153826654 0.169639543
0.272359401 0.176217288 0.187223196
0.385199249 0.196963653 0.208349183
0.524731100 0.225932628 0.229854733
0.705882311 0.260594457 0.263504118
0.090701997 0.221125737 0.196584180
0.109930538 0.227071166 0.200632200
0.155724183 0.233649731 0.202150196
0.228463173 0.245414540 0.210752994
0.322074741 0.265780926 0.223276287
0.424161762 0.285009384 0.235673368
0.564958811 0.312839895 0.263124377
0.733079851 0.346869081 0.297153711
0.165844381 0.341556191 0.250474364
0.186337888 0.343453646 0.254902005
0.223402828 0.348513275 0.257052183
0.298671722 0.357494920 0.263757348
0.387855768 0.373181522 0.273877531
0.504111171 0.396584630 0.281847209
0.643264055 0.424288392 0.306894392
0.794813633 0.462745368 0.350410819
0.281087816 0.469702661 0.309930474
0.291334510 0.480328709 0.310562909
0.333712906 0.482353270 0.313219279
0.397849262 0.490955055 0.321568638
0.490702361 0.510942698 0.334472001
0.590638816 0.524984062 0.344971716
0.716002285 0.551423132 0.372675389
0.850853801 0.586843908 0.429728150
0.435420811 0.630866826 0.405060083
0.446300089 0.636306047 0.403541863
0.476787001 0.631498814 0.403541833
0.533333063 0.642884254 0.414547712
0.600759089 0.651992142 0.420114011
0.689437032 0.659582555 0.443390012
0.780771554 0.674889088 0.467046082
0.870208621 0.696647644 0.504237771
0.659582615 0.790765464 0.559139848
0.668057919 0.793169081 0.562681913
0.670335114 0.791903913 0.566097081
0.712586820 0.794180632 0.577862024
0.758633792 0.802403152 0.595572352
0.813915431 0.815433383 0.613788605
0.872486115 0.827956617 0.639215589
0.930550456 0.833269894 0.657052398
0.003162904 0.008602096 0.131688893
0.001518095 0.007463550 0.131309450
0.067299187 0.020366905 0.148893088
0.155471444 0.052118644 0.174446538
0.246679276 0.082985193 0.191903993
0.352308452 0.109676994 0.213409245
0.489184171 0.138772801 0.242125094
0.689563572 0.155597836 0.279570073
0.000000000 0.052118551 0.131182641
0.015180546 0.053257097 0.151676551
0.082226194 0.072106093 0.164579093
0.167615190 0.092852637 0.185831904
0.256040275 0.113978446 0.206578448
0.361796260 0.144212380 0.228589535
0.507273555 0.164073348 0.250347644
0.678557813 0.189626992 0.287792802
0.034409001 0.126882091 0.185705096
0.072106093 0.137128204 0.187729537
0.118279189 0.149652004 0.192789182
0.194180980 0.159772202 0.202529728
0.287539184 0.181783900 0.222643986
0.391144693 0.199747100 0.241745725
0.532953620 0.228715986 0.267173111
0.719417632 0.259582818 0.301581174
0.102466986 0.235041082 0.229980737
0.126122892 0.240986645 0.232005090
0.171916559 0.244781628 0.239848092
0.238077283 0.256926090 0.240101546
0.329284936 0.267425716 0.252245307
0.433269888 0.291334480 0.268690974
0.583934128 0.317520708 0.295635819
0.750157952 0.349146187 0.330044299
0.175332189 0.344718277 0.279570073
0.194940180 0.348513454 0.283238530
0.234029084 0.354079276 0.280455261
0.299810290 0.363441080 0.286021382
0.392283380 0.375205278 0.295382977
0.508918285 0.399493992 0.313851923
0.645161569 0.426059186 0.336116165
0.805186331 0.462745249 0.380771875
0.296394646 0.486021727 0.340164363
0.310689479 0.491461128 0.340797186
0.349399120 0.491081357 0.348892719
0.414927363 0.499557465 0.355724186
0.499050945 0.516129076 0.364326298
0.597596169 0.529791176 0.377861708
0.723845959 0.556862473 0.404300988
0.849588752 0.592156529 0.453257531
0.446046531 0.635294259 0.426691979
0.468437910 0.647058487 0.434155732
0.498671472 0.645414174 0.443137437
0.550411046 0.650980473 0.450600922
0.617077768 0.659709096 0.456420064
0.701328039 0.671347380 0.476786852
0.789879560 0.680076003 0.495003074
0.875648141 0.706009030 0.533586085
0.673624456 0.794307530 0.591144800
0.679190516 0.800379336 0.598355174
0.698418558 0.798861861 0.593674779
0.731815219 0.807210743 0.609487653
0.770271838 0.811258674 0.620493114
0.818848848 0.820999444 0.636053205
0.873118103 0.832764208 0.653130770
0.923592687 0.844781756 0.679063797
0.002783356 0.014041998 0.180518627
0.001138547 0.015180352 0.181277737
0.064389639 0.029348547 0.201265082
0.146362990 0.054395642 0.211891636
0.243390173 0.083744384 0.241239980
0.352308452 0.110815637 0.269955635
0.497406930 0.127261341 0.293105721
0.692093194 0.138519838 0.325743467
0.000000000 0.057811283 0.195445642
0.011258545 0.067299090 0.188235626
0.082479641 0.076280639 0.207463369
0.155217916 0.088804543 0.222770646
0.252119005 0.113092639 0.247564986
0.356483102 0.139784634 0.268817186
0.504364133 0.157115832 0.293738008
0.680961549 0.169006854 0.325743079
0.039721996 0.134598091 0.227198079
0.072359443 0.140797198 0.235800192
0.122074284 0.151549742 0.238836169
0.186590627 0.161669746 0.250601083
0.282606095 0.177735478 0.264389664
0.395699024 0.196837723 0.286906719
0.543832958 0.219734550 0.313725352
0.725616634 0.239974827 0.352688104
0.107147284 0.228209913 0.264010280
0.127893731 0.224288628 0.267552525
0.169386730 0.239595175 0.276154637
0.238329917 0.252878278 0.285894990
0.319165170 0.269323289 0.298418999
0.432258010 0.285009384 0.310562730
0.576596856 0.304490983 0.335863292
0.742315054 0.335357100 0.367995262
0.181530461 0.343453526 0.314610839
0.201897383 0.350790441 0.318785489
0.240606815 0.352814645 0.326375633
0.302340120 0.358127713 0.325743258
0.394813240 0.376217723 0.335990071
0.507527113 0.397469729 0.352561355
0.650221467 0.423655987 0.385452271
0.801771045 0.456799805 0.421252370
0.288931102 0.481973737 0.381277472
0.307400376 0.480708361 0.378494620
0.347754717 0.485389173 0.383681208
0.410752743 0.495888710 0.387982130
0.501328111 0.512460709 0.405312926
0.601897418 0.527767360 0.418216288
0.723466396 0.550537467 0.441113114
0.851107001 0.591524303 0.488424957
0.448829830 0.632890522 0.467552274
0.459708840 0.635800242 0.463504165
0.489310175 0.633396566 0.463883728
0.542314887 0.643643260 0.474888921
0.610120177 0.650347948 0.487792552
0.695003033 0.663377404 0.496394634
0.780898511 0.678304553 0.517520547
0.872865260 0.698924601 0.557368696
0.655028403 0.796584606 0.613029420
0.667046010 0.793421805 0.609108150
0.682226241 0.793675065 0.609234214
0.716761470 0.798481762 0.619860709
0.763314128 0.804047763 0.628969014
0.813662291 0.814168334 0.645793796
0.875395060 0.826691747 0.667425632
0.923212945 0.843263745 0.697280049
0.001518192 0.025932807 0.243769795
0.001138547 0.033270352 0.239342347
0.072865091 0.045414094 0.256166995
0.150790647 0.059076637 0.275395542
0.243516982 0.086907193 0.291460991
0.360910654 0.111954287 0.323719144
0.504870355 0.130803093 0.356230468
0.697786093 0.141176000 0.399873346
0.000000000 0.083871000 0.248197377
0.020113744 0.079949193 0.256799549
0.086527452 0.089310892 0.267173082
0.166097194 0.101454645 0.286527634
0.255281389 0.116002187 0.294117540
0.360278279 0.142567992 0.324098557
0.511701643 0.161163554 0.358886957
0.690701962 0.166223705 0.393548518
0.042252000 0.151929289 0.271094292
0.077166453 0.159519449 0.281467199
0.124478288 0.163820207 0.287539184
0.195445731 0.172801733 0.306008637
0.282732189 0.181024998 0.325237185
0.397216827 0.202150196 0.340670288
0.545477629 0.218596101 0.373434275
0.732321382 0.236559272 0.415559709
0.115875997 0.239721894 0.317394078
0.143326998 0.243263826 0.321315259
0.185199544 0.247438177 0.326755196
0.247817636 0.256799281 0.340038121
0.330676824 0.270208985 0.351296812
0.441366464 0.287792534 0.369259745
0.594434023 0.303099275 0.398987889
0.759139657 0.322074622 0.429095358
0.199747190 0.336748987 0.353320360
0.221758172 0.347881198 0.365211964
0.255155087 0.350158095 0.369766057
0.319038659 0.368627548 0.383427948
0.407969564 0.382289559 0.396458000
0.519418120 0.393928200 0.409614146
0.658443749 0.416824907 0.439468682
0.808728695 0.447185367 0.468185008
0.314357728 0.480961293 0.432637274
0.327514023 0.485135943 0.435547262
0.362428576 0.489436954 0.433902472
0.418089658 0.500316322 0.445287704
0.502719462 0.515370131 0.454775751
0.611511409 0.531815290 0.471220732
0.734851301 0.555344641 0.501960695
0.857432067 0.588108540 0.534471929
0.461100370 0.636053205 0.513219595
0.474256545 0.636812031 0.516508639
0.499557465 0.638456345 0.515496433
0.546236634 0.647185564 0.521694958
0.613282502 0.658950031 0.535990119
0.697912574 0.668690801 0.547375023
0.781910062 0.680076003 0.558507383
0.882353187 0.706894338 0.599620521
0.660341442 0.788361728 0.640227795
0.664389551 0.795951784 0.641745806
0.680328667 0.795192719 0.645920277
0.717140734 0.802277207 0.652878046
0.761795938 0.809234560 0.663124800
0.815053821 0.819102049 0.671094179
0.868437886 0.829980850 0.694117546
0.928905725 0.840227783 0.717773795
0.002024260 0.050853994 0.318911731
0.003415739 0.054775480 0.317014456
0.086400732 0.065275349 0.335104376
0.168627635 0.076660283 0.343706369
0.266413897 0.091587797 0.365591258
0.369765699 0.117520474 0.385578722
0.510563016 0.135230735 0.420999438
0.705882490 0.139152259 0.478431433
0.002024260 0.092346989 0.322454184
0.023908647 0.097406730 0.324225277
0.097659886 0.100948989 0.336242825
0.178368300 0.113092728 0.348007619
0.269829363 0.120556280 0.371916264
0.370018750 0.144591734 0.395951927
0.517014563 0.156609818 0.423655987
0.693231940 0.162049383 0.467931628
0.049715452 0.168627441 0.356735826
0.085641928 0.170651197 0.356989473
0.134977743 0.169766083 0.360404819
0.206957817 0.176976472 0.375079185
0.301328391 0.186464190 0.391397566
0.409234583 0.202529743 0.417836845
0.553700209 0.221758187 0.445667267
0.740417361 0.234914646 0.491966903
0.122201018 0.253130913 0.385958493
0.150158271 0.254775733 0.388361663
0.183048368 0.260594577 0.390638560
0.253889918 0.261480182 0.404427737
0.341049641 0.272106528 0.422770470
0.447311729 0.282605886 0.434029102
0.592283607 0.298671633 0.468184531
0.760025203 0.321948111 0.507906556
0.215180367 0.355091721 0.425806522
0.231499359 0.357494920 0.431752086
0.267172813 0.365338534 0.430613548
0.327134550 0.373181432 0.447944492
0.406578124 0.381277561 0.463124931
0.527008116 0.392410010 0.483617932
0.662365735 0.412776560 0.509677291
0.809614062 0.439594924 0.541049600
0.326502204 0.479569733 0.479569733
0.346110225 0.481467485 0.489310473
0.378747463 0.489310473 0.493864864
0.437571287 0.497533202 0.504743814
0.516002655 0.517520666 0.521948159
0.616445184 0.534471631 0.538266718
0.740417063 0.551296711 0.561037064
0.858949780 0.579886258 0.591650784
0.474889278 0.625047266 0.564579248
0.493105561 0.626312375 0.568627238
0.514611065 0.632131457 0.575079083
0.555977106 0.638836384 0.580392301
0.621885002 0.655913770 0.594307244
0.697027266 0.667678714 0.604174912
0.782795846 0.683617830 0.611511767
0.882226348 0.702340305 0.646300018
0.668311238 0.784060538 0.692220032
0.679443598 0.788741529 0.677039802
0.687159896 0.789753258 0.692852497
0.712080717 0.798102498 0.692473233
0.751423180 0.807083964 0.699304402
0.802656770 0.821252465 0.706641495
0.865022004 0.834282041 0.726628840
0.931688547 0.843643606 0.745097756
0.001644712 0.074510001 0.432258278
0.016698252 0.077545807 0.432510823
0.113345891 0.084503569 0.441492766
0.204807267 0.093611635 0.452498585
0.312080979 0.095635802 0.478304744
0.428842455 0.098039001 0.497279972
0.556356847 0.119291708 0.523086309
0.716381729 0.136875451 0.561164021
0.000379548 0.110309795 0.427830517
0.037698001 0.117140830 0.438077033
0.120430082 0.119924091 0.442757815
0.211638108 0.125363708 0.456799626
0.312586844 0.128905728 0.475521803
0.437191725 0.129285276 0.502593279
0.556736290 0.147881269 0.523719251
0.712586999 0.163061097 0.554965496
0.034534905 0.178621188 0.453889757
0.077039734 0.185705096 0.463757098
0.148007482 0.183934286 0.473877251
0.236179456 0.195066288 0.485768735
0.340290636 0.195825383 0.500316203
0.459202737 0.198355302 0.523845553
0.591524541 0.209993795 0.543200374
0.741555750 0.231119379 0.574952066
0.112586640 0.269702613 0.487286627
0.135484099 0.271347344 0.494370610
0.192662895 0.273750842 0.495635569
0.273118287 0.278052002 0.507400274
0.377608925 0.281593829 0.526628613
0.495762199 0.283997536 0.545730472
0.621378839 0.297153950 0.564073145
0.771410406 0.318532437 0.590006113
0.218596101 0.382922173 0.517647266
0.244528726 0.384060800 0.525110543
0.280328989 0.387602687 0.533206820
0.338267088 0.387855917 0.541049659
0.424288571 0.386970252 0.558380485
0.540164292 0.394054294 0.576723695
0.679696441 0.404933393 0.595951557
0.809993327 0.434661746 0.624667764
0.352308452 0.509424448 0.578368008
0.368753999 0.513219535 0.580139160
0.401391566 0.517773390 0.589120686
0.455408037 0.518785596 0.591777146
0.527640641 0.534092247 0.608222902
0.621126235 0.535230756 0.624161839
0.743706048 0.550917208 0.643896282
0.857178867 0.573687375 0.662112713
0.485135853 0.625047207 0.628969312
0.500948846 0.628969252 0.628715813
0.523086667 0.632890284 0.630740106
0.570145249 0.637317896 0.643010795
0.626818419 0.647058666 0.654269457
0.702467024 0.665527999 0.669450045
0.790385842 0.681594014 0.687792242
0.888424754 0.703225851 0.708538771
0.672865331 0.780012488 0.737128258
0.684630215 0.786717057 0.734724641
0.699430585 0.782669187 0.738519847
0.726502061 0.793421566 0.744338930
0.764831960 0.806198537 0.753193736
0.805313051 0.817963481 0.764579177
0.858697236 0.830486953 0.773434341
0.923592448 0.845287859 0.783427954
0.000000000 0.103478804 0.616445243
0.062365368 0.101075284 0.609614015
0.170524880 0.101961002 0.621125698
0.273497641 0.106135346 0.629474699
0.393295318 0.097912796 0.647058785
0.525996268 0.085262358 0.668943465
0.661606312 0.072359018 0.689436555
0.796837509 0.112586975 0.701201797
0.000000000 0.140164092 0.601644576
0.067172505 0.137254521 0.609993458
0.170524985 0.136242986 0.621505141
0.279949129 0.138646185 0.627324343
0.391777396 0.133965999 0.640986800
0.513598979 0.127767086 0.659455895
0.653383791 0.114611007 0.677798748
0.789626539 0.151549548 0.702720046
0.012903070 0.206831098 0.625047445
0.087918930 0.204047933 0.621505439
0.188740894 0.202909291 0.644528806
0.295888811 0.205060273 0.643769979
0.406578034 0.210626096 0.657937825
0.539405227 0.204047933 0.679190278
0.676027596 0.202150300 0.691840291
0.811385393 0.227830276 0.711321831
0.064769089 0.290322661 0.645413995
0.120050438 0.293485373 0.644655228
0.211891159 0.291461289 0.652245462
0.310689092 0.296394825 0.659076095
0.424161971 0.297912627 0.673498034
0.551043332 0.293485284 0.684250355
0.687033474 0.296015292 0.699683666
0.818975389 0.320683241 0.716255605
0.205439538 0.416824996 0.671473742
0.235167935 0.417457372 0.672485769
0.270335138 0.410246551 0.675268769
0.348639816 0.404427528 0.681214333
0.460467994 0.407463521 0.692725778
0.586211324 0.410120368 0.709550858
0.716381848 0.413662106 0.723212838
0.846679568 0.441745996 0.743706346
0.397469550 0.551929295 0.713978589
0.411385238 0.556609631 0.702846169
0.438330173 0.553194106 0.710942507
0.487160206 0.552814543 0.715369999
0.545730472 0.550158203 0.719670951
0.638962328 0.545857012 0.736369431
0.756230295 0.557621777 0.751170039
0.879696429 0.576723695 0.764958799
0.541176200 0.671726942 0.734851122
0.554458916 0.683238208 0.742567897
0.580771327 0.674889266 0.742694259
0.613156080 0.681593895 0.750916779
0.662239134 0.680202127 0.753826559
0.721821547 0.685262263 0.762681723
0.792662740 0.689184308 0.775838077
0.890575767 0.705629230 0.791903615
0.684250593 0.796710730 0.787349582
0.697659314 0.799620271 0.795698881
0.711954653 0.801138520 0.795951724
0.733712792 0.803288937 0.800758958
0.768374443 0.806831121 0.811131954
0.816571653 0.817330778 0.818848729
0.863377333 0.830233872 0.828969002
0.919291675 0.850221395 0.848956585
