Assets/Resources/EldamarStudio/100 Horror LUTs Pack/LUTs/cube/Demonic LUT.cube
LUT_3D_SIZE 5
DOMAIN_MIN 0.000000 0.000000 0.000000
DOMAIN_MAX 0.903226 0.903226 0.903226
0.003922000 0.000000000 0.070588000
0.062491700 0.005566289 0.087286703
0.200126827 0.051739402 0.120303832
0.379759401 0.109803997 0.166730002
0.689689696 0.160910830 0.228842661
0.006198711 0.115749404 0.119924292
0.102719977 0.127513990 0.132700995
0.235800102 0.151423112 0.154332414
0.419607669 0.189374119 0.195193127
0.709550679 0.239721522 0.253763556
0.131562382 0.277292818 0.213155985
0.180898100 0.291713953 0.215179980
0.313346207 0.311954409 0.228842825
0.508918405 0.349904984 0.260594517
0.778367758 0.412776381 0.308032542
0.319038391 0.520936131 0.316888124
0.358253956 0.528525829 0.326122552
0.482858658 0.546489358 0.341808707
0.657432258 0.573940337 0.370904237
0.853383780 0.626944900 0.438330233
0.659582615 0.797849476 0.573307514
0.693737864 0.803794563 0.581910014
0.750916779 0.809613764 0.597343206
0.836938798 0.825300455 0.628715754
0.932447612 0.846299767 0.671347260
0.003922000 0.007843000 0.122580700
0.042251691 0.015053997 0.129158705
0.196584091 0.062492117 0.166097403
0.381403834 0.119038418 0.218722552
0.686021447 0.157621831 0.267425835
0.015433700 0.103352405 0.157621399
0.093231693 0.124604695 0.172295704
0.230613530 0.151422694 0.200758979
0.408601940 0.190638691 0.235420570
0.707273722 0.239089519 0.285388857
0.131182685 0.281214386 0.243896395
0.178241268 0.287792802 0.249462694
0.309424371 0.312966526 0.264516115
0.501454651 0.346615970 0.287033558
0.778114796 0.406831205 0.348640233
0.322960109 0.519418240 0.341429383
0.358254522 0.525996029 0.357495129
0.479949325 0.540543973 0.366982818
0.653763413 0.567741871 0.392789543
0.857684910 0.623023510 0.461606503
0.667299032 0.794307351 0.579759419
0.679190278 0.793295443 0.583048403
0.739784598 0.802403629 0.604553998
0.830739915 0.819481552 0.630992889
0.922833681 0.841998458 0.672232747
0.003289416 0.019608000 0.206578001
0.043516699 0.034029417 0.221631989
0.191650406 0.069322996 0.251106977
0.387982398 0.119670995 0.304110974
0.691587090 0.137887418 0.363693804
0.022264414 0.125237122 0.246552825
0.097153693 0.133712709 0.253004402
0.221378699 0.152688116 0.277545720
0.414421409 0.185705408 0.316129148
0.721568406 0.216065869 0.372422516
0.149145991 0.278557986 0.306008995
0.192283407 0.287413090 0.313851982
0.313978791 0.312586963 0.336748421
0.513219357 0.348260522 0.366223782
0.789500237 0.393801630 0.429095596
0.332953811 0.516382098 0.419481575
0.368247837 0.523466170 0.429348111
0.478810817 0.538899243 0.434282243
0.657305717 0.569007218 0.459455967
0.857305765 0.619987369 0.527514100
0.657432020 0.785452187 0.621505439
0.666160643 0.788361907 0.615180373
0.733080268 0.799114645 0.636306226
0.829221964 0.817457199 0.663630784
0.923212945 0.842251599 0.695888638
0.000000000 0.056925997 0.348260134
0.065148532 0.070335284 0.352814674
0.220240518 0.090575710 0.378114820
0.409234375 0.123592995 0.417963237
0.709930420 0.139911160 0.499177635
0.029474990 0.150663704 0.373434424
0.113472693 0.158127576 0.379632980
0.254143089 0.167741850 0.405186504
0.440606952 0.191904128 0.435294122
0.735610306 0.218722537 0.512460291
0.165717855 0.311321825 0.416571826
0.219734401 0.318532556 0.432258248
0.340164781 0.323719382 0.459835649
0.532574654 0.344339103 0.492220521
0.794054568 0.381024510 0.549399257
0.366982996 0.517014384 0.520050287
0.402276814 0.524225116 0.528779566
0.503352106 0.547122121 0.550031304
0.668058097 0.571916401 0.578747272
0.867045820 0.612776816 0.621505320
0.675395310 0.785072625 0.704870105
0.695761800 0.789247215 0.707526803
0.731815219 0.806324780 0.711828113
0.815053701 0.822770476 0.722327888
0.930170655 0.844908476 0.757495165
0.000000000 0.103478804 0.616445243
0.144465327 0.101707704 0.619101405
0.329917610 0.105249576 0.635294020
0.560911059 0.076407000 0.675268531
0.796837509 0.112586975 0.701201797
0.006577994 0.186337993 0.622517347
0.160657689 0.186463967 0.634408414
0.346236348 0.190006271 0.648956597
0.568247914 0.182795525 0.684250593
0.806325316 0.209360957 0.708032846
0.114357576 0.349398792 0.656040370
0.205819100 0.349904954 0.665654302
0.391904205 0.349905223 0.678305030
0.608475804 0.358127505 0.707400441
0.835294008 0.389247388 0.737887561
0.433902383 0.586337924 0.724098563
0.463377804 0.589120567 0.716002285
0.549904764 0.582795799 0.723086476
0.685768485 0.583048522 0.744971454
0.884250581 0.608349144 0.772549093
0.684250593 0.796710730 0.787349582
0.706894398 0.797596216 0.796710610
0.752181768 0.807083726 0.806451201
0.827197909 0.820113599 0.822390914
0.919291675 0.850221395 0.848956585
