Assets/Resources/EldamarStudio/100 Horror LUTs Pack/LUTs/cube/Demonic LUT.cube
DOMAIN_MIN 0 0 0
DOMAIN_MAX 1 1 1
LUT_3D_SIZE 32
0.003922000 0.000000000 0.070588000
0.000885613 0.000000000 0.070588000
0.000000000 0.000000000 0.070588000
0.002529999 0.000000000 0.070588000
0.009360999 0.000379548 0.071726546
0.021504998 0.003415935 0.080834940
0.041239321 0.003922000 0.082353003
0.062491700 0.005566289 0.087286703
0.082985193 0.007843001 0.094117999
0.101201981 0.007843004 0.094118007
0.119417995 0.013661999 0.099936999
0.139658242 0.019733995 0.103984736
0.160910636 0.026944643 0.108158998
0.181910068 0.036559030 0.114231065
0.200126827 0.051739402 0.120303832
0.223149985 0.059708994 0.126375988
0.248956189 0.065780997 0.132447988
0.275648147 0.071852997 0.137254998
0.299936980 0.077925019 0.137255013
0.327008367 0.089563720 0.148387015
0.352434993 0.101707987 0.158633739
0.379759401 0.109803997 0.166730002
0.413535982 0.110183500 0.172928497
0.456040800 0.119291902 0.182036906
0.496268272 0.128399700 0.193421990
0.538519979 0.136115983 0.202782989
0.584567070 0.142694071 0.209867001
0.633143842 0.151802450 0.222010985
0.689689696 0.160910830 0.228842661
0.745603681 0.170019194 0.243770152
0.802909732 0.181783974 0.262365967
0.866666973 0.200000003 0.274509996
0.000885613 0.000000000 0.076660000
0.000885613 0.000000000 0.082732774
0.004300999 0.000000000 0.074130230
0.006072000 0.001265161 0.071853161
0.009740546 0.003415838 0.075521931
0.024541384 0.006451548 0.089943320
0.044275708 0.006957613 0.086401388
0.063883379 0.011891318 0.088678382
0.082226098 0.017710291 0.094876900
0.098165594 0.019987006 0.097153619
0.122201346 0.025806744 0.108791612
0.140670389 0.031878769 0.109044872
0.160910636 0.039089128 0.111195385
0.182416067 0.048197031 0.117520414
0.206198826 0.057811402 0.126375824
0.224414989 0.065780997 0.125237197
0.247438371 0.071852997 0.129411593
0.273244947 0.079190142 0.135483593
0.299936980 0.090069786 0.140290633
0.329791009 0.096141785 0.154205993
0.357368827 0.103984989 0.159013003
0.385831922 0.112840123 0.164705738
0.419228464 0.119291857 0.173181489
0.453004420 0.128399506 0.188108906
0.495509177 0.135230601 0.192662701
0.538519979 0.143579662 0.201138273
0.584567070 0.151296392 0.209361061
0.633143842 0.157874450 0.218975365
0.684376717 0.166982815 0.228463203
0.737760484 0.176091194 0.240227729
0.792030394 0.186970592 0.258949786
0.851486623 0.203036398 0.277545601
0.002150774 0.006451774 0.074129999
0.000000000 0.010752774 0.078051999
0.000000000 0.012902999 0.086274996
0.003542000 0.012902999 0.079190545
0.006198546 0.014674226 0.080961771
0.024920933 0.015939064 0.087286927
0.047312092 0.016445000 0.091208227
0.068564467 0.018089708 0.093358934
0.087286547 0.025426999 0.099936999
0.103858270 0.029854294 0.104364298
0.125616729 0.040100969 0.107526772
0.145856991 0.044149481 0.113598511
0.164073288 0.050094996 0.114231512
0.184313804 0.057937771 0.120050743
0.206704825 0.065148413 0.125363633
0.230486989 0.071852997 0.127008185
0.250221193 0.079443194 0.128525987
0.274509788 0.086780347 0.135863140
0.301834226 0.097406946 0.144971564
0.329791009 0.106135234 0.155091375
0.360151470 0.112207711 0.164579004
0.387729347 0.118279770 0.166097134
0.419101715 0.126249477 0.173054978
0.456546694 0.135357097 0.186211139
0.492472768 0.142188549 0.192283481
0.539152205 0.148260534 0.199493766
0.586717308 0.157115772 0.210373074
0.635294080 0.166476771 0.222770438
0.684376717 0.175205588 0.229728043
0.743073523 0.187855944 0.244149610
0.797090352 0.199494138 0.260594517
0.853510797 0.214674219 0.280581772
0.003922000 0.018090161 0.078178324
0.000885613 0.024162158 0.077419549
0.001265161 0.024288550 0.083491772
0.005059999 0.031119321 0.087539837
0.006578094 0.031119321 0.087539837
0.025174094 0.031119321 0.087539837
0.051486481 0.033649322 0.095129833
0.071600534 0.035294030 0.097659707
0.091334932 0.038330223 0.104491003
0.109045014 0.043896168 0.109550998
0.128905699 0.053257160 0.111068837
0.148134157 0.060594257 0.114358060
0.167488798 0.063630641 0.117393672
0.186337993 0.069576159 0.123339839
0.208602250 0.075648159 0.127387568
0.229728147 0.081720158 0.129285157
0.255028367 0.089310348 0.133586317
0.278178126 0.097786143 0.140290737
0.306135029 0.106261976 0.151802793
0.333459705 0.114104815 0.157368660
0.360151470 0.123845316 0.165844172
0.390512228 0.128905967 0.172928289
0.418469161 0.134724990 0.176470637
0.456799716 0.142694265 0.185199007
0.496521294 0.150790572 0.191777125
0.536116064 0.156862989 0.200252980
0.586717188 0.163441077 0.210372999
0.634534836 0.174826145 0.221758276
0.686906755 0.184313655 0.232763991
0.741808653 0.194434017 0.243390068
0.802909315 0.209614426 0.265148848
0.857558846 0.224794164 0.284883022
0.003542452 0.034029547 0.093359001
0.000885613 0.040101547 0.089184448
0.002150774 0.038709998 0.091334999
0.008096386 0.038709998 0.093991384
0.018722093 0.049715545 0.090954997
0.030866869 0.049715545 0.090954997
0.056672998 0.054775544 0.102087319
0.079190247 0.058823705 0.109803997
0.095129639 0.061480451 0.110183448
0.110310040 0.064516068 0.110183448
0.128020003 0.070461541 0.113851674
0.146236509 0.076533541 0.118532509
0.165212095 0.081087641 0.123086900
0.186464489 0.084630027 0.126375541
0.210625976 0.090828538 0.132447541
0.231246039 0.097280085 0.136875361
0.254016727 0.104490735 0.143327191
0.280834943 0.112207532 0.150917411
0.311195016 0.118279554 0.160025045
0.338773072 0.124730997 0.161922559
0.364579529 0.133839086 0.167235747
0.390512228 0.144085675 0.175964579
0.420999467 0.147122025 0.184693456
0.457179278 0.152941003 0.187476099
0.498545557 0.161290288 0.193927556
0.541429698 0.169386536 0.203415200
0.584440589 0.175205514 0.216824546
0.629980981 0.184313893 0.216824546
0.685009420 0.193801239 0.229727805
0.742314935 0.202529758 0.242757499
0.797976136 0.213409141 0.258317173
0.852625012 0.228589550 0.288677990
0.000506065 0.055281930 0.087286994
0.000506065 0.061353929 0.096394613
0.002150774 0.065275155 0.098671839
0.008981999 0.065527990 0.100949004
0.021758480 0.067931548 0.100063391
0.043010868 0.070967935 0.097027004
0.060214996 0.076027937 0.099557325
0.080455408 0.078810938 0.106261991
0.098925024 0.079317003 0.110562898
0.119418427 0.079696462 0.113219067
0.134598061 0.085641935 0.121947929
0.152308509 0.091713928 0.125996187
0.170524999 0.095508933 0.128399998
0.189500093 0.096774027 0.129411936
0.210752457 0.105882406 0.135483935
0.237317771 0.114484727 0.143959746
0.263124645 0.121568859 0.153573930
0.289184332 0.126881927 0.162049443
0.311195016 0.127387941 0.160025060
0.338773072 0.136242583 0.169133365
0.366097718 0.142947465 0.174825922
0.392916054 0.152055874 0.181403995
0.420999467 0.162302420 0.187729061
0.454395920 0.165338024 0.187729061
0.497406930 0.173434287 0.199620277
0.542441607 0.182542667 0.210499600
0.587476254 0.190132871 0.220113933
0.633017361 0.193421513 0.225932926
0.681214511 0.205186725 0.236558899
0.734851301 0.213282853 0.247438207
0.787349820 0.222517520 0.258823514
0.834408998 0.237697929 0.276533991
0.005059999 0.089183994 0.109045319
0.005059999 0.090195991 0.110563256
0.015812771 0.094117768 0.113219641
0.021631997 0.095888637 0.115876161
0.033143543 0.096268088 0.117520541
0.058696933 0.099303931 0.118785702
0.072359636 0.102340318 0.118279636
0.093864627 0.103478611 0.121315606
0.113851994 0.104111195 0.125743091
0.133333176 0.107653648 0.128779158
0.148766458 0.113472641 0.124984190
0.165970832 0.115496635 0.128020316
0.184187308 0.119417988 0.132827342
0.202909395 0.121568352 0.137760714
0.226439044 0.130676731 0.146109998
0.247691438 0.134978116 0.149778813
0.271726817 0.140797123 0.155597806
0.296394944 0.145856991 0.163440675
0.319544375 0.149652019 0.166097045
0.346362740 0.155470967 0.174193367
0.379380137 0.162681788 0.183301732
0.410626113 0.167742178 0.187982321
0.441365987 0.175078988 0.191144824
0.477166235 0.180518419 0.198355645
0.510562599 0.190385893 0.205186337
0.555091619 0.198355630 0.215685979
0.601138413 0.206325263 0.224161804
0.648703277 0.213408858 0.234282315
0.699430883 0.221884653 0.243136957
0.749778390 0.235800177 0.262365371
0.804553747 0.247691289 0.277925313
0.856673002 0.264515996 0.294750005
0.006198711 0.115749404 0.119924292
0.017710410 0.115749404 0.119924292
0.030107470 0.119544469 0.133080706
0.038962699 0.120050535 0.125490382
0.044275701 0.120429985 0.126249000
0.062744930 0.124730758 0.130550221
0.085641928 0.124478020 0.131056279
0.102719977 0.127513990 0.132700995
0.123971991 0.126754895 0.134977713
0.140417010 0.132827669 0.137128487
0.159012854 0.137254998 0.139658689
0.174572796 0.140923694 0.137634695
0.192789569 0.140923694 0.138773054
0.211511716 0.143706411 0.146615699
0.235800102 0.151423112 0.154332414
0.257685065 0.155724093 0.158633813
0.278937459 0.160278663 0.161669806
0.302719802 0.164073393 0.166603148
0.330044031 0.170145422 0.174699426
0.355471075 0.176217422 0.181910053
0.385199159 0.182289466 0.186084732
0.419607669 0.189374119 0.195193127
0.452371508 0.193927884 0.197343692
0.487286538 0.201517701 0.204933912
0.524731040 0.207210556 0.214041695
0.565084994 0.217963651 0.224541321
0.611385107 0.224288702 0.231119409
0.659961820 0.232257947 0.240986884
0.709550679 0.239721522 0.253763556
0.761163831 0.252371877 0.263503671
0.810119927 0.269323289 0.284250528
0.864010036 0.288298398 0.300948709
0.011511995 0.135483995 0.125996083
0.029728385 0.137001991 0.124478087
0.044276003 0.139784992 0.134851545
0.059455998 0.142062023 0.147501871
0.061733089 0.139405191 0.131182641
0.069323182 0.144718200 0.136116087
0.087033316 0.143959418 0.135610089
0.110309795 0.144971475 0.137254804
0.130044192 0.148007289 0.139532089
0.142188206 0.154080063 0.139532089
0.162301958 0.157242224 0.148260772
0.181024343 0.161037266 0.152814895
0.196584284 0.163694099 0.153194353
0.215054035 0.163441062 0.156483054
0.238836080 0.167995006 0.162555188
0.261479795 0.172422290 0.165464908
0.284250170 0.176976472 0.170778006
0.305502534 0.183049083 0.173181191
0.338393003 0.189121112 0.184819952
0.364958704 0.195193112 0.192157105
0.393801361 0.202024192 0.195192993
0.424162120 0.208349228 0.198229119
0.454775095 0.217331097 0.207084477
0.488804728 0.225806296 0.212523907
0.526755214 0.230360270 0.220113888
0.569639325 0.236179650 0.229854226
0.618722260 0.245288059 0.242504969
0.667552054 0.251613081 0.249335989
0.714610577 0.259203076 0.261100739
0.765717626 0.269829154 0.273497939
0.816951156 0.286780566 0.287286311
0.859456003 0.308032990 0.299431086
0.041872010 0.159772024 0.159392491
0.050980389 0.165844008 0.153320491
0.054143004 0.167362005 0.149652272
0.062492009 0.166350171 0.151550010
0.079949103 0.163693994 0.155471444
0.098165870 0.163693994 0.152435035
0.103225648 0.163946986 0.147248507
0.115496412 0.167109504 0.146363214
0.133080587 0.172296077 0.148640499
0.148260981 0.175332457 0.148640499
0.166223958 0.178494617 0.157368630
0.186590731 0.183554500 0.164452508
0.205313131 0.188361660 0.167994514
0.221126035 0.190765470 0.168627053
0.242378414 0.187729090 0.174699828
0.266160488 0.192283005 0.175964981
0.291840196 0.198228881 0.182163477
0.317646533 0.204301491 0.191397965
0.338898987 0.210373521 0.191397980
0.369006723 0.216445506 0.200253353
0.401011735 0.224415228 0.205439746
0.433269769 0.232384980 0.210373133
0.463883489 0.238583490 0.219228476
0.500316322 0.244655505 0.222264096
0.538899243 0.248576671 0.227704078
0.581150949 0.254395664 0.235294268
0.627830684 0.263504058 0.245540589
0.679443777 0.272612453 0.260720938
0.722959876 0.284250468 0.267551988
0.772801697 0.296141446 0.277545929
0.826439023 0.311068594 0.293991536
0.877672017 0.332320988 0.320683479
0.057684869 0.178241745 0.160784006
0.055155259 0.181403860 0.160531014
0.066413872 0.187475860 0.160910785
0.074509867 0.186463878 0.163187996
0.087918870 0.183301553 0.167742014
0.096015006 0.190891877 0.162175953
0.116761446 0.185831875 0.159139559
0.127007857 0.188361868 0.161669701
0.142694324 0.193674967 0.166476995
0.160025492 0.196711361 0.166476995
0.175205871 0.196837872 0.169386864
0.195446119 0.201897740 0.174446478
0.216698512 0.205692738 0.177355871
0.235926896 0.206957832 0.177608907
0.257179260 0.209234446 0.181024820
0.278431654 0.215812668 0.189500183
0.303731918 0.222390726 0.191018134
0.331688702 0.227830589 0.196331277
0.359771878 0.231625885 0.200885877
0.381024241 0.237697870 0.200885877
0.412903190 0.243769869 0.209614247
0.446299851 0.249842137 0.215685993
0.478810847 0.254016846 0.222770140
0.515243649 0.260088891 0.228589833
0.556230426 0.268437564 0.233902737
0.596331358 0.275521517 0.242757976
0.639848232 0.284123868 0.253889859
0.691461265 0.290828407 0.266666442
0.729791582 0.305249810 0.276533842
0.777102828 0.314104855 0.288172036
0.827956915 0.325743049 0.300569355
0.875521898 0.344971746 0.315749258
0.068817250 0.202530235 0.170904249
0.071853377 0.205565855 0.168880507
0.079569988 0.208728492 0.177103028
0.086653993 0.212270498 0.176344261
0.096141540 0.208095953 0.179000705
0.107147254 0.210625917 0.177861989
0.121821567 0.213156238 0.176343933
0.138140246 0.212017953 0.174952254
0.151043341 0.216951400 0.181404084
0.167994976 0.219987482 0.182669252
0.183301866 0.222138241 0.183554858
0.202530235 0.224161983 0.186590731
0.223782629 0.230233997 0.188487992
0.245287985 0.232258022 0.188741028
0.268311113 0.235294074 0.191777408
0.293611526 0.241113037 0.193548456
0.313346118 0.245667234 0.198102266
0.339785129 0.250094831 0.199999839
0.370145559 0.253131211 0.207463950
0.394180626 0.260973990 0.212017983
0.421125710 0.263250977 0.210120261
0.453384250 0.268058121 0.218722120
0.486148208 0.271473974 0.225932762
0.526375532 0.281340957 0.233902812
0.563314259 0.287665963 0.241998732
0.605818987 0.298165590 0.253637046
0.646426141 0.307400495 0.266034245
0.693485022 0.313472509 0.275142252
0.735863328 0.327514321 0.284630090
0.779380023 0.339152247 0.295509219
0.828083158 0.347248465 0.310436577
0.872485757 0.363188267 0.321821511
0.082479641 0.228715986 0.186084643
0.088551633 0.230613247 0.183048725
0.095509000 0.233649403 0.187350005
0.107147284 0.234281987 0.191904008
0.107147284 0.235041082 0.186590999
0.118532576 0.234281972 0.188867703
0.134851322 0.235167593 0.189373642
0.149525627 0.240480706 0.190512002
0.162428737 0.243517086 0.191271096
0.177609146 0.246552795 0.194307491
0.195066497 0.247311860 0.195572644
0.214294881 0.250348032 0.198735029
0.234408617 0.254522264 0.201770633
0.255914062 0.260594279 0.202276632
0.280202270 0.264516056 0.206198409
0.304617077 0.269955635 0.205692634
0.331941396 0.274130285 0.209108278
0.350790560 0.274762690 0.209740698
0.379633307 0.277798980 0.217836976
0.406704664 0.285262287 0.221885011
0.437065095 0.290954918 0.225679904
0.466413766 0.292978913 0.223655641
0.497027457 0.296394765 0.232384503
0.538519621 0.307526648 0.241492912
0.577608824 0.316255271 0.249462336
0.616824567 0.321694970 0.259329319
0.659835339 0.333839625 0.276533991
0.702972472 0.341176629 0.283870995
0.745477200 0.354079813 0.292599827
0.789246976 0.366856664 0.305755943
0.836938441 0.376849890 0.322327554
0.879696310 0.388994634 0.338519990
0.104238033 0.253004044 0.201012000
0.109044999 0.253763080 0.198228642
0.113725260 0.255154818 0.199240774
0.119797319 0.256166905 0.199241042
0.131435990 0.254269093 0.193928033
0.131435990 0.260341883 0.193928033
0.145857036 0.261353999 0.193674996
0.162934735 0.265528321 0.195572317
0.177609131 0.273371100 0.198102131
0.192789540 0.276407480 0.201138526
0.213535860 0.273877144 0.203921869
0.234788239 0.274889290 0.208728954
0.254902065 0.279064029 0.213662386
0.273877084 0.284630060 0.216698050
0.298165828 0.290702045 0.222770050
0.320303798 0.297027051 0.222643793
0.345351040 0.301581174 0.224668190
0.374572635 0.304870427 0.232764453
0.395825058 0.307906061 0.235800073
0.425679773 0.313219041 0.236812055
0.459329486 0.319544464 0.240354031
0.492979139 0.325616986 0.244655073
0.520809531 0.331815511 0.244908065
0.560277998 0.340923160 0.253889918
0.599493861 0.349778324 0.260467976
0.640101314 0.356862694 0.267931640
0.683112144 0.361164004 0.277293026
0.728652477 0.373308003 0.289437026
0.771030605 0.385452002 0.298924804
0.813535333 0.397343397 0.313598931
0.856672764 0.409740984 0.334218591
0.902213991 0.421885014 0.361543030
0.131562382 0.277292818 0.213155985
0.122454002 0.286401182 0.213155985
0.131561980 0.282859206 0.212523401
0.138013557 0.282479644 0.214421153
0.144085988 0.284629822 0.215180397
0.155723974 0.290701836 0.215180397
0.163314283 0.291713953 0.212650076
0.180898100 0.291713953 0.215179980
0.197849482 0.295129389 0.218342498
0.207969919 0.300695479 0.216318890
0.226059407 0.300821990 0.216445401
0.246932238 0.302213669 0.219101727
0.267046243 0.306388408 0.222770214
0.286021829 0.311954409 0.225806445
0.313346207 0.311954409 0.228842825
0.337634385 0.320430189 0.237318024
0.359772146 0.325869620 0.237824172
0.384819537 0.329537958 0.239215985
0.414041817 0.335230440 0.244908467
0.446426213 0.335483402 0.253510773
0.477292866 0.342441142 0.256926060
0.508918405 0.349904984 0.260594517
0.539025486 0.356103480 0.263124824
0.578494728 0.365211874 0.269196808
0.615686357 0.372042805 0.273624122
0.654142976 0.381530344 0.280075639
0.695256114 0.391271025 0.289184064
0.740797222 0.400632381 0.298545390
0.778367758 0.412776381 0.308032542
0.819607317 0.423149586 0.324224740
0.862112164 0.434661567 0.345730186
0.905249596 0.449209392 0.370651394
0.151675984 0.311195612 0.220492989
0.147375196 0.313093185 0.225300595
0.146868825 0.313599020 0.225300595
0.155723795 0.314105123 0.225300595
0.160657540 0.318279594 0.227577806
0.170777798 0.316255599 0.231625795
0.182795301 0.322074592 0.229095474
0.196837381 0.322074592 0.227703795
0.215812892 0.322833508 0.232257798
0.228210285 0.327260792 0.234155461
0.241239801 0.327513784 0.234028980
0.261480033 0.329538047 0.234028980
0.282732427 0.332574427 0.236685440
0.302467018 0.337128550 0.239468798
0.325490385 0.339278787 0.240354404
0.355218589 0.344085783 0.245793998
0.376470596 0.353194177 0.253383785
0.399367332 0.358001173 0.253004551
0.431498945 0.362302393 0.253763795
0.462239176 0.367615402 0.260215342
0.493738264 0.371410400 0.265528232
0.526122749 0.379000574 0.270588130
0.559518814 0.385072589 0.276407510
0.596710742 0.391903669 0.280202806
0.631625831 0.401012063 0.288551480
0.669323385 0.409993559 0.293231785
0.708791792 0.421125591 0.302340060
0.750537455 0.428336203 0.315243423
0.792915702 0.442504585 0.324351758
0.829348147 0.452877790 0.338772535
0.870587945 0.461986184 0.359392375
0.913092792 0.474130571 0.382162988
0.168374196 0.338519990 0.232637376
0.171410561 0.347628385 0.237191573
0.168121606 0.343959421 0.235926807
0.178747550 0.340923339 0.238456801
0.185325563 0.348260641 0.240101352
0.191018313 0.345604002 0.247311994
0.199620381 0.348134190 0.245794058
0.213535592 0.352435380 0.244402379
0.230234176 0.352435380 0.243643284
0.244655490 0.354712099 0.247438192
0.261480212 0.356356382 0.249209374
0.278178245 0.356862456 0.250727177
0.299430609 0.361037195 0.249588832
0.321189016 0.364199996 0.251866162
0.344971389 0.365970761 0.253131002
0.367362589 0.371410191 0.257937998
0.397723377 0.379000366 0.262492180
0.418469340 0.386843771 0.268564165
0.450980186 0.389880180 0.268184960
0.477039725 0.395699203 0.270461977
0.510436475 0.403289378 0.279190421
0.542821288 0.408349246 0.281214178
0.579126835 0.414041698 0.288677990
0.614167988 0.421505362 0.293105721
0.651360035 0.429854661 0.302214086
0.683365166 0.437571377 0.309930384
0.721442044 0.449462384 0.314484328
0.758886397 0.457558364 0.323592424
0.797975540 0.467045993 0.341049999
0.836938322 0.481720388 0.353953332
0.875142157 0.492599785 0.372169375
0.917647004 0.502973139 0.392789185
0.184187144 0.361163706 0.250221580
0.194560364 0.376217753 0.252624750
0.196078539 0.379759580 0.250474125
0.198229134 0.373687297 0.248829558
0.216824979 0.372169584 0.254142553
0.216824979 0.375711203 0.262491912
0.221884966 0.378114849 0.261480302
0.232258260 0.380518675 0.259456396
0.247312129 0.383428544 0.261227459
0.259456128 0.383428544 0.258191079
0.279696435 0.385705233 0.259709299
0.299557149 0.387349516 0.262745291
0.320176750 0.389626712 0.264769047
0.341176122 0.395698726 0.262239426
0.367361963 0.396457702 0.265275121
0.388108581 0.399999708 0.271347135
0.411132336 0.406957299 0.275901169
0.439595520 0.414168119 0.277672559
0.469955593 0.417204529 0.283744574
0.495129526 0.423656136 0.286780566
0.523972034 0.429095715 0.290575564
0.559772253 0.438077420 0.300568968
0.595951974 0.441239536 0.300568968
0.628842473 0.449841857 0.305628985
0.666160822 0.458950251 0.316887975
0.702719927 0.467299521 0.324351996
0.734598160 0.473371536 0.332448006
0.768247545 0.485262543 0.330297112
0.803035736 0.493358523 0.348640054
0.839468300 0.504743755 0.368880570
0.875774741 0.518659115 0.386211544
0.918279588 0.533839524 0.404427558
0.202403992 0.400632948 0.265402019
0.217583582 0.403668553 0.265402019
0.227956817 0.410120070 0.265654981
0.234535009 0.408855140 0.266413808
0.241113037 0.402530432 0.269322991
0.241113052 0.411638051 0.269322991
0.246173054 0.412649989 0.267552346
0.255534470 0.412903041 0.264516324
0.268691123 0.413915157 0.264769167
0.283744991 0.416825026 0.273371518
0.301707983 0.416825026 0.270335138
0.322201252 0.419101715 0.271853328
0.345477611 0.423023313 0.274889350
0.371536970 0.429095984 0.277419090
0.389752924 0.435167968 0.280455500
0.411131799 0.435926944 0.288298786
0.433649451 0.439468950 0.294117749
0.457811594 0.444528997 0.295888603
0.479064047 0.444528997 0.292852998
0.514990687 0.453131378 0.304490983
0.544465721 0.454396248 0.304237992
0.574573159 0.457432032 0.304743886
0.608096004 0.468564004 0.312713027
0.638456881 0.474635988 0.312713057
0.673624635 0.483238339 0.324604303
0.710310042 0.492346704 0.331182748
0.746742249 0.500696003 0.332448065
0.786211312 0.506768048 0.350664020
0.817204535 0.518658996 0.361795992
0.851612806 0.532068193 0.380265206
0.887159765 0.545477629 0.401897252
0.921315968 0.555092037 0.425680012
0.242884740 0.442884743 0.283365011
0.244149700 0.448703706 0.286148369
0.257179081 0.449589103 0.283997595
0.263124734 0.451866090 0.283365011
0.267299265 0.448071212 0.284882903
0.279317081 0.447564811 0.287286729
0.281846762 0.451613069 0.289816409
0.292599440 0.450221390 0.287286729
0.305882394 0.450600773 0.287286609
0.319038510 0.455660880 0.296394527
0.337128729 0.461353362 0.296647489
0.355344743 0.463377655 0.295635372
0.375838012 0.465275109 0.296774030
0.399620414 0.468058378 0.298671424
0.422897041 0.474130362 0.306767792
0.445920050 0.477799207 0.309804171
0.470587939 0.478178740 0.312081188
0.495508969 0.481720746 0.311954379
0.516761422 0.486021727 0.311068982
0.546363115 0.488804400 0.316382051
0.579000890 0.497912794 0.330423713
0.609234869 0.501454771 0.333586514
0.642504692 0.509803712 0.339152545
0.672865570 0.515875757 0.347121745
0.705502987 0.526502311 0.351675749
0.740038037 0.531942070 0.363946706
0.773560762 0.536875665 0.369892657
0.803921342 0.545224369 0.381277353
0.832763791 0.559266210 0.394181043
0.862998009 0.573307931 0.408096254
0.897406578 0.587602735 0.428210020
0.932700992 0.598608375 0.452498376
0.281593978 0.483491719 0.299683720
0.279696733 0.483870983 0.304617375
0.288298726 0.489436954 0.295762211
0.297912747 0.489436954 0.302846164
0.300316244 0.488677949 0.307273716
0.312460661 0.484123826 0.308791906
0.317520410 0.488045275 0.304237664
0.323845446 0.491081685 0.308918417
0.339278907 0.490828454 0.309677631
0.353700191 0.496900469 0.318785250
0.369765729 0.497280210 0.317267478
0.389879733 0.503225684 0.317267478
0.406957358 0.506261826 0.317267478
0.427197725 0.507020712 0.317520440
0.453130782 0.509803712 0.323339403
0.475521713 0.513472557 0.327640802
0.498291910 0.518026710 0.329158992
0.523592293 0.519418299 0.327767134
0.544844747 0.524225473 0.329032004
0.574446499 0.529411852 0.334598482
0.604807198 0.532447457 0.342567712
0.634155869 0.540543735 0.354711980
0.665781200 0.546615720 0.358886749
0.697912812 0.552688181 0.367994815
0.728653014 0.561416566 0.376723468
