Assets/Resources/EldamarStudio/100 Horror LUTs Pack/LUTs/cube/Dirtfreeze LUT.cube
LUT_3D_SIZE 5
DOMAIN_MIN 0.000000 0.000000 0.000000
DOMAIN_MAX 0.903226 0.903226 0.903226
0.000000000 0.027450999 0.105881996
0.109550700 0.056546707 0.124857992
0.258949965 0.101328418 0.162808418
0.452372104 0.167742133 0.212903127
0.749778509 0.244655117 0.289057642
0.073876999 0.162808403 0.160152003
0.149398699 0.168374687 0.171916410
0.278557986 0.191904113 0.201391414
0.465781242 0.239342242 0.240607411
0.764705718 0.308032811 0.313978523
0.180518821 0.308664978 0.243263826
0.242378086 0.320809662 0.254016697
0.352561355 0.334850967 0.264136821
0.542567909 0.382289678 0.301075280
0.814927578 0.450601220 0.378114969
0.398482233 0.552308381 0.346363127
0.440607369 0.560531259 0.365844131
0.545857072 0.574319839 0.381657124
0.694623232 0.598482192 0.415054113
0.876913428 0.665907621 0.506261945
0.739152551 0.858064413 0.624035597
0.763061464 0.864895642 0.635294139
0.807716191 0.865780950 0.652245164
0.881467760 0.881214321 0.687539399
0.957241774 0.901201725 0.731435716
0.000000000 0.044781707 0.164452702
0.102087393 0.067046285 0.175584704
0.245920405 0.122960404 0.214800701
0.424541682 0.189626589 0.261227131
0.735357404 0.253763646 0.328652501
0.077545695 0.150410995 0.198734999
0.150790676 0.171030700 0.216445416
0.262618691 0.196204975 0.240607396
0.454016238 0.240986690 0.277546108
0.755724370 0.311068833 0.349525541
0.200758994 0.311954409 0.275268972
0.243011102 0.320809692 0.279190391
0.351549506 0.331561953 0.292599678
0.535104692 0.376723379 0.328905821
0.809487760 0.457558483 0.407843053
0.409993529 0.544845223 0.390385836
0.447185099 0.548893273 0.383933991
0.543579817 0.565211654 0.405565828
0.685768545 0.587096512 0.432384819
0.878937364 0.670461655 0.528905511
0.734345317 0.850221574 0.633649290
0.751929104 0.857052445 0.637571335
0.796584368 0.859708905 0.656799436
0.875648379 0.875395417 0.690322578
0.953952968 0.895002842 0.736622453
0.018342994 0.069322996 0.277166009
0.120935991 0.091840707 0.275901407
0.239974409 0.132700577 0.280455410
0.432763964 0.192915842 0.329664826
0.741176128 0.260341823 0.408728391
0.114737704 0.174193278 0.289310694
0.170651406 0.183048576 0.293864697
0.274636418 0.205312982 0.303984970
0.459835261 0.251107007 0.346869141
0.756103754 0.325742811 0.433902532
0.213155985 0.321062386 0.334092408
0.262239397 0.334471703 0.346869081
0.399620354 0.366856366 0.379253805
0.563187778 0.395951927 0.407084256
0.816318572 0.470967799 0.480708390
0.429095834 0.549019516 0.448197126
0.470841438 0.556862533 0.461100847
0.564705491 0.569260120 0.474130243
0.699051380 0.595825255 0.509677112
0.880834818 0.677672207 0.586337805
0.741050065 0.843516648 0.673750579
0.753447056 0.849209309 0.673750579
0.799747229 0.857937813 0.688045740
0.877166450 0.872738838 0.721821606
0.953320801 0.898544908 0.767994523
0.120683126 0.126502126 0.437571257
0.203415394 0.135989577 0.441745698
0.331688821 0.168374121 0.438203841
0.496521264 0.205060124 0.456167132
0.767362416 0.275775075 0.530170918
0.174572825 0.213788986 0.438962698
0.232510939 0.222644120 0.442757845
0.353194237 0.240986958 0.451612711
0.511575222 0.271726698 0.465021849
0.785579026 0.339531809 0.554712117
0.262618691 0.368247658 0.474762857
0.321062535 0.373687685 0.485262424
0.439215511 0.385198951 0.492473423
0.597217262 0.410373241 0.523213267
0.831625462 0.489310622 0.590638638
0.469956100 0.570019126 0.556230128
0.507526994 0.577103019 0.568880260
0.607210934 0.597090304 0.592789531
0.749399245 0.633776248 0.623909295
0.893991172 0.695256233 0.677925289
0.755091608 0.850853622 0.740670264
0.770904779 0.858064353 0.746236384
0.808854818 0.868437767 0.760278344
0.875901103 0.878304780 0.774699867
0.954585612 0.901454449 0.810373068
0.256546646 0.185831800 0.732700586
0.330423772 0.195319518 0.725490153
0.484883010 0.219228372 0.726122737
0.670588255 0.269702792 0.728146732
0.874003351 0.350916594 0.752308547
0.280708790 0.279949546 0.728652775
0.352688342 0.284629971 0.728146672
0.500442505 0.307780117 0.733586311
0.690069795 0.343200356 0.738140345
0.873497725 0.412017465 0.759139717
0.386084616 0.450094759 0.739152551
0.438077331 0.453004509 0.737507701
0.565338433 0.468437761 0.743073761
0.728020191 0.501580894 0.757495403
0.896647334 0.550284147 0.776470125
0.593674779 0.670461774 0.775458574
0.618469357 0.671220601 0.783428192
0.685768485 0.674130082 0.784313560
0.790765166 0.688172102 0.794686556
0.926881671 0.729411602 0.820493400
0.769259751 0.872485638 0.842251599
0.777735472 0.872738898 0.854775429
0.817457438 0.880961180 0.858697057
0.885388792 0.893358767 0.872106433
0.958380759 0.919417799 0.910309613
