Assets/Resources/EldamarStudio/100 Horror LUTs Pack/LUTs/cube/Dirtfreeze LUT.cube
LUT_3D_SIZE 8
DOMAIN_MIN 0.000000 0.000000 0.000000
DOMAIN_MAX 0.903226 0.903226 0.903226
0.000000000 0.027450999 0.105881996
0.046173092 0.039974999 0.110562995
0.130803093 0.059582904 0.130170897
0.219734639 0.089690350 0.147375003
0.311701179 0.119797379 0.177988797
0.416951180 0.158633739 0.205819264
0.568500578 0.195699275 0.249968290
0.749778509 0.244655117 0.289057642
0.014421547 0.088931449 0.115243092
0.070082538 0.096015446 0.127007991
0.148134097 0.108159088 0.149779007
0.216571644 0.128146634 0.162302092
0.310562819 0.157115549 0.193674803
0.417077720 0.183681354 0.216318995
0.556356966 0.225300550 0.248829544
0.743327022 0.262365669 0.294876814
0.082985193 0.182542995 0.166224003
0.122580551 0.186464086 0.179506987
0.168374196 0.188868001 0.181784078
0.240101531 0.197849557 0.192409739
0.324225277 0.216951191 0.216318995
0.439974487 0.246679083 0.248450190
0.586337566 0.280581802 0.271220833
0.770018816 0.322200805 0.321821660
0.144085988 0.268437624 0.220746353
0.177103087 0.269955635 0.225806281
0.214548096 0.275775105 0.230360180
0.279190630 0.282479644 0.237065345
0.361290038 0.298418999 0.255154729
0.473497748 0.322327644 0.273497999
0.616318882 0.351549566 0.293738008
0.785072386 0.399620622 0.343706459
0.236558989 0.374446183 0.264263183
0.265148520 0.378747731 0.273750812
0.292852491 0.379127294 0.272738993
0.353826463 0.381024748 0.283997625
0.433649570 0.393169194 0.298671782
0.546616375 0.421758652 0.312207431
0.685262322 0.456546396 0.350917190
0.827577293 0.507779777 0.404807150
0.364073455 0.514863729 0.327134728
0.388235480 0.518785715 0.338013917
0.420619786 0.521315575 0.342567712
0.485389352 0.532574475 0.354838461
0.560151875 0.541555762 0.370524973
0.646046460 0.555977464 0.385705203
0.759772480 0.585072517 0.424414992
0.871347487 0.634282351 0.486527711
0.521441996 0.675015569 0.434534997
0.547754884 0.681846976 0.435167521
0.576090753 0.684376597 0.450094849
0.621885180 0.691840589 0.468817562
0.675648570 0.700948775 0.475142241
0.746995509 0.711322308 0.499051303
0.824035525 0.722074568 0.522074580
0.905755937 0.754079819 0.579253495
0.739152551 0.858064413 0.624035597
0.759012997 0.858317494 0.636559069
0.767362475 0.865148664 0.637318432
0.793801248 0.866033971 0.647691429
0.831372440 0.870335162 0.659835577
0.870841265 0.881467640 0.683491528
0.915623069 0.888045788 0.703478992
0.957241774 0.901201725 0.731435716
0.000379548 0.043136999 0.131309539
0.034408998 0.037191544 0.124225542
0.118658639 0.069323450 0.148513541
0.194180995 0.104996994 0.172422275
0.281088203 0.137128085 0.199873388
0.391524464 0.173181474 0.227071360
0.546109796 0.203288838 0.262492299
0.727893829 0.244022831 0.299051255
0.025806095 0.078304991 0.148513541
0.062998548 0.090069994 0.152056009
0.120556183 0.110436089 0.165338099
0.200506091 0.133206904 0.185325637
0.281467646 0.160657912 0.214421362
0.400506020 0.190006539 0.236685991
0.537634552 0.223276287 0.266793281
0.722959816 0.262745112 0.300695717
0.080961540 0.173560739 0.182922453
0.115876094 0.174699187 0.186464086
0.156230539 0.175458193 0.196331546
0.222391084 0.194307193 0.209234998
0.304111511 0.213409543 0.230739921
0.418342888 0.243263632 0.253130972
0.573054790 0.278431326 0.280455291
0.757748246 0.320683092 0.327640504
0.151422918 0.252878189 0.225553289
0.174573094 0.258444309 0.227957100
0.207716733 0.263503909 0.238204002
0.270461738 0.271727085 0.242125198
0.351423264 0.290954918 0.262112737
0.460215360 0.317520738 0.280582011
0.602150500 0.352308571 0.306894362
0.774825990 0.397596538 0.360531002
0.236052915 0.364200205 0.273118347
0.256546736 0.369639188 0.288551807
0.288424850 0.369259864 0.285641819
0.350790381 0.378368080 0.291081637
0.425933391 0.388488382 0.298545182
0.529285192 0.411891371 0.319671154
0.672738552 0.450980455 0.356862813
0.826312542 0.504237592 0.415179968
0.359139651 0.498798490 0.339152277
0.375205606 0.501075268 0.343453735
0.407716453 0.507400453 0.343453526
0.470081896 0.516002297 0.361543417
0.541808665 0.530929685 0.370145649
0.627830446 0.539911211 0.387223214
0.741429508 0.572801828 0.424794436
0.873497665 0.627324581 0.491587549
0.519165099 0.669829309 0.448323816
0.534851372 0.666793287 0.441619098
0.561796486 0.670967877 0.450474381
0.608475387 0.678431273 0.460088432
0.666540027 0.687918782 0.478684187
0.738140225 0.696647823 0.498165905
0.817963243 0.719544530 0.524604380
0.900822341 0.752182066 0.578747451
0.731182873 0.845161617 0.618975461
0.737761021 0.846932173 0.621378481
0.747881174 0.848576844 0.622643828
0.778367877 0.852498353 0.632637441
0.815812469 0.859202981 0.653890193
0.859202802 0.869829357 0.669576168
0.908285797 0.883238137 0.698165596
0.952561736 0.893738210 0.734977603
0.000000000 0.047817905 0.183428004
0.044655096 0.056040544 0.185452446
0.130930007 0.079949193 0.197596192
0.198608637 0.113345645 0.212903351
0.290575206 0.144212380 0.239847988
0.401012003 0.179506898 0.265780985
0.540164351 0.214674279 0.294623911
0.733839393 0.252498806 0.335230976
0.037571099 0.107020639 0.187350005
0.085515901 0.111321993 0.201644912
0.135610104 0.123087004 0.205819458
0.209614456 0.146616101 0.227830544
0.300190002 0.172422379 0.250221193
0.402276933 0.208475798 0.276028007
0.544465303 0.229981020 0.297406524
0.729158700 0.273750603 0.339911252
0.100316100 0.172422096 0.210878998
0.138014004 0.190891653 0.227703735
0.184946194 0.199114203 0.243011087
0.240101531 0.208096370 0.242504746
0.325110495 0.229601383 0.268817186
0.430739999 0.256672829 0.288425118
0.575331867 0.287539363 0.315749109
0.762049258 0.330043972 0.363441110
0.175458282 0.272991627 0.267298996
0.197849557 0.283364713 0.271220982
0.235800087 0.282479644 0.279823005
0.292220086 0.284756631 0.283364743
0.364452839 0.301201642 0.288298368
0.469323099 0.324984372 0.314610660
0.615180254 0.360657722 0.341555983
0.783680797 0.404048264 0.391524464
0.259329289 0.374573082 0.304744005
0.272106647 0.383175105 0.312587172
0.310183167 0.382289410 0.320556283
0.365338624 0.386211365 0.323719203
0.438583255 0.397217095 0.332321078
0.541808546 0.417457253 0.354965150
0.680455565 0.457431972 0.385325760
0.828968823 0.511068940 0.443896234
0.384187013 0.517520726 0.378494501
0.401391536 0.521695256 0.382668823
0.434029102 0.522833645 0.384187013
0.488171935 0.528652549 0.392156899
0.557115793 0.540417254 0.402276844
0.641745806 0.551929116 0.416192114
0.757368684 0.581910253 0.460468084
0.875142515 0.645667374 0.525110781
0.542441249 0.674256682 0.469829381
0.556609631 0.681340873 0.478178710
0.589626789 0.682985246 0.482353270
0.627577305 0.686527610 0.494370729
0.681214511 0.696394324 0.508918405
0.748007596 0.703731775 0.524857998
0.815559506 0.725237489 0.549652338
0.907400250 0.755597591 0.600632071
0.741429448 0.856293559 0.641745687
0.753952861 0.856673002 0.646932065
0.766350389 0.862871706 0.646932364
0.793042362 0.864895523 0.662492335
0.825932920 0.868943751 0.674383342
0.868058205 0.875901461 0.689057469
0.912081182 0.884503305 0.718405843
0.956988931 0.895255864 0.745983601
0.006198998 0.054395642 0.248323992
0.060594637 0.071220994 0.245161176
0.134977743 0.089310899 0.240480989
0.195698991 0.112713277 0.251106650
0.288171977 0.149652198 0.274257004
0.388741136 0.181277633 0.295003355
0.542820871 0.217457339 0.339658648
0.737634420 0.260341823 0.383681446
0.056293190 0.115117095 0.247185543
0.095762439 0.119417734 0.238077179
0.137254715 0.128399983 0.251106739
0.203035921 0.144845188 0.254142731
0.286021739 0.174319729 0.270082176
0.393295109 0.204806745 0.305123448
0.547121942 0.233016923 0.334092528
0.726502299 0.274130166 0.387096882
0.112587184 0.181277737 0.269829631
0.137381539 0.191397727 0.267805278
0.177609101 0.201265097 0.279316723
0.242631376 0.210246652 0.280834764
0.325616390 0.231119290 0.300063103
0.436432809 0.256420016 0.323845714
0.581151009 0.290702194 0.360784441
0.761290431 0.332700551 0.413156271
0.174952641 0.261859626 0.281467646
0.192536280 0.268564284 0.294117719
0.240733638 0.281847179 0.312207639
0.306768268 0.298292279 0.325110286
0.372043014 0.304111630 0.324478030
0.471347094 0.331182450 0.345856935
0.618089855 0.363946855 0.379633248
0.783934057 0.416318744 0.437191606
0.265148818 0.371537030 0.350284278
0.284503728 0.382542849 0.351043373
0.324857473 0.389626741 0.354838461
0.375711381 0.393042475 0.359519184
0.447691351 0.397343814 0.366982818
0.549525559 0.425174296 0.392915726
0.683997273 0.461227387 0.426818550
0.826565206 0.515875876 0.480834752
0.387603104 0.509297729 0.412270725
0.405692816 0.513599217 0.412776560
0.439089447 0.519038439 0.414168239
0.492346376 0.525743008 0.428589284
0.565591216 0.541176379 0.437824339
0.646679461 0.553573549 0.457558751
0.756862879 0.584946513 0.491587520
0.871853411 0.645920336 0.554712057
0.551929176 0.669449568 0.508538902
0.560151756 0.673244774 0.513978779
0.584566712 0.676533759 0.511321962
0.628083169 0.682352901 0.520430267
0.683112085 0.689057231 0.535610437
0.751043558 0.702846229 0.549652219
0.817836523 0.721568882 0.574067295
0.904617250 0.759392858 0.622643828
0.741808712 0.850094974 0.657305479
0.744086027 0.850474358 0.662238896
0.760657847 0.854016364 0.662112355
0.786337614 0.857305467 0.673624039
0.819734275 0.860341430 0.686401069
0.864263237 0.870841622 0.707653463
0.906135321 0.883238316 0.731435835
0.949778616 0.899683535 0.756230235
0.043769803 0.079949193 0.318911970
0.090069793 0.092093639 0.316381723
0.159899011 0.109677285 0.319797397
0.227957085 0.131688997 0.317773610
0.311069012 0.158380821 0.331561983
0.407210469 0.190765455 0.351043463
0.557874680 0.220872998 0.390638679
0.747627795 0.265527993 0.445667177
0.084123738 0.138772994 0.314990193
0.111448631 0.144339010 0.317140818
0.171283737 0.151676357 0.316635102
0.234661534 0.166983008 0.319924086
0.307906181 0.182669193 0.326502353
0.409614176 0.212397009 0.355850875
0.556609511 0.239468649 0.393295169
0.740543544 0.280708641 0.441240013
0.141935095 0.205313087 0.325363904
0.170145184 0.213283017 0.329917908
0.206072181 0.214042097 0.335610092
0.265148759 0.225300446 0.334598184
0.335230976 0.238204077 0.350284368
0.442757845 0.261606455 0.374066800
0.590259314 0.297027290 0.412017643
0.773181260 0.340164244 0.467804998
0.193168640 0.286400825 0.349904746
0.219734460 0.291967452 0.351802379
0.260847360 0.295383006 0.357621700
0.324225068 0.311448663 0.368248105
0.394939810 0.318785489 0.380392015
0.500948548 0.339911193 0.406578243
0.636305988 0.370651633 0.439595014
0.791271031 0.422643751 0.492852777
0.272486150 0.376217216 0.390765369
0.293485433 0.387476623 0.400632173
0.339152187 0.392536372 0.403542072
0.411258370 0.412903190 0.424035370
0.494244188 0.429348201 0.439595401
0.584566951 0.439342380 0.453130722
0.700189650 0.474763095 0.482606053
0.835294127 0.525869966 0.535230815
0.410373360 0.521695077 0.462618709
0.428463280 0.525616467 0.467046112
0.464010000 0.527893662 0.473750859
0.521695256 0.544085920 0.489436805
0.587982118 0.552182436 0.497153759
0.671726704 0.569386244 0.511068881
0.768880308 0.602277160 0.545857191
0.875901461 0.654142857 0.601011992
0.572422326 0.674256861 0.552182198
0.582669199 0.682226360 0.559519172
0.606957495 0.685389280 0.564832389
0.639848351 0.690069556 0.569006920
0.697912514 0.701075494 0.579506636
0.763693750 0.708032787 0.599493861
0.825679839 0.727387607 0.619228363
0.913725317 0.768247902 0.666793287
0.747880578 0.849968374 0.691081762
0.750790775 0.853763342 0.696268201
0.763187766 0.856672883 0.697279751
0.794054329 0.863377631 0.704743564
0.825426996 0.868184447 0.715875924
0.863883555 0.878558040 0.735736966
0.912081003 0.886780620 0.753573537
0.954838574 0.898544908 0.776343942
0.099430725 0.117393985 0.405186743
0.134851530 0.123719186 0.407463908
0.206451476 0.133965895 0.407843381
0.274256647 0.148386821 0.410373360
0.353320926 0.173940271 0.413156211
0.445920467 0.193927735 0.420746207
0.573181570 0.224161997 0.455787480
0.765338421 0.272738725 0.514231682
0.124730825 0.158127993 0.390891820
0.155344546 0.160910726 0.399240971
0.205692381 0.168627635 0.401264727
0.272991389 0.178873926 0.405312926
0.348513693 0.195825383 0.406830907
0.443769634 0.220113993 0.420493275
0.570524633 0.244022742 0.449462473
0.756103575 0.286401153 0.508032799
0.176850185 0.229980722 0.410373181
0.201012060 0.227830380 0.416191995
0.240101069 0.237318188 0.407337099
0.303984731 0.242758080 0.419734389
0.382669270 0.257685274 0.425553650
0.475142479 0.270209074 0.437697560
0.607210636 0.301960766 0.471600324
0.783554733 0.349905163 0.531941831
0.224920824 0.306768000 0.422644109
0.246046722 0.308665514 0.434788018
0.287539721 0.313472599 0.429728359
0.348134160 0.321695358 0.441619277
0.431878656 0.329158813 0.450980574
0.518279493 0.345603913 0.465022266
0.650853932 0.376976728 0.499936879
0.808601856 0.435420662 0.554712117
0.304491192 0.406831115 0.466413736
0.325237155 0.403541923 0.465401709
0.366223633 0.413788706 0.479569823
0.425806463 0.425300181 0.482353181
0.511195362 0.438456476 0.500822127
0.601644158 0.454648942 0.518911958
0.711701572 0.486653924 0.548260450
0.842251837 0.541049540 0.598355532
0.426438957 0.526502192 0.514737725
0.444781810 0.526881695 0.520556450
0.479443282 0.535104096 0.533965468
0.536116362 0.547248542 0.548513770
0.615433335 0.570904493 0.566603005
0.702846169 0.593295157 0.587476552
0.783301532 0.619861007 0.608728886
0.881846905 0.661606550 0.646046579
0.581277668 0.675521553 0.609361470
0.593295515 0.679317057 0.600505829
0.614547610 0.686401010 0.608475626
0.655028403 0.694497466 0.619101942
0.717140853 0.709550619 0.643896461
0.769133270 0.718912303 0.646805704
0.838582993 0.736748874 0.670841336
0.913851738 0.778747737 0.711827755
0.747501433 0.850600719 0.727767289
0.754079401 0.854016423 0.728652954
0.763820171 0.859076560 0.729538441
0.791524410 0.860974133 0.743073702
0.820493042 0.867425799 0.747880816
0.861479759 0.872485638 0.758507252
0.907779932 0.889057338 0.783807635
0.951043665 0.902719736 0.799240768
0.176091284 0.145730570 0.547248244
0.209360823 0.146110028 0.543326855
0.271600187 0.155850902 0.541808665
0.350537539 0.173181280 0.546742201
0.441366464 0.189626694 0.547121763
0.541555762 0.211891443 0.553573489
0.651106834 0.236558989 0.564579546
0.784313619 0.282353222 0.594939649
0.180012524 0.180645242 0.528399587
0.216571823 0.187855840 0.536243021
0.270967811 0.192156807 0.535230815
0.349399030 0.201391384 0.535104215
0.438203633 0.216571540 0.541302919
0.540037632 0.237065539 0.549525619
0.647564828 0.259582728 0.561037302
0.775205553 0.305249691 0.594939590
0.211258560 0.252372086 0.543580115
0.243263543 0.259835571 0.543959737
0.295129329 0.262618899 0.548260570
0.370272070 0.269070536 0.550157905
0.463377655 0.282732397 0.558254540
0.560404539 0.294497132 0.566856563
0.672359526 0.318659395 0.581783772
0.798734605 0.360025257 0.607084036
0.262998283 0.342567921 0.554964900
0.288298190 0.342694461 0.560404956
0.329917908 0.348133922 0.558254182
0.405439287 0.350410908 0.561290264
0.497280091 0.364452928 0.574193478
0.591271281 0.377861917 0.580139399
0.696394622 0.400379628 0.594939590
0.818089545 0.445540637 0.635294259
0.359266281 0.444908470 0.585072756
0.379506737 0.446805835 0.592536092
0.416571647 0.452624977 0.589626729
0.476154387 0.456293553 0.593674660
0.552688301 0.462871343 0.605439484
0.645920455 0.477545768 0.610246956
0.740037620 0.500316381 0.627324402
0.852498353 0.552308738 0.666919708
0.476913273 0.566729784 0.627830744
0.493611753 0.572675467 0.628969312
0.527893543 0.577609122 0.633269966
0.575964749 0.583175063 0.641239643
0.642631233 0.593674779 0.649462044
0.719165206 0.609740794 0.659456313
0.802277029 0.631625891 0.682985246
0.891840756 0.673371375 0.715749323
0.598228812 0.691334546 0.669449806
0.602529824 0.696394682 0.668690860
0.624035358 0.697027326 0.679822743
0.663251221 0.705249906 0.685135782
0.722327530 0.717394114 0.697786450
0.791397810 0.738646269 0.720430017
0.859329522 0.761290491 0.745603561
0.925742745 0.792789578 0.768121481
0.756356478 0.849968314 0.778747439
0.763314486 0.858570457 0.778367877
0.770524800 0.858317494 0.781657159
0.797469914 0.861985743 0.788614631
0.832384646 0.872232854 0.801138341
0.867046058 0.882985294 0.812270880
0.908665657 0.892599761 0.828083038
0.957874775 0.905376196 0.850347877
0.256546646 0.185831800 0.732700586
0.280582100 0.186211258 0.722200751
0.349146068 0.201138556 0.722959816
0.438330442 0.208981648 0.727514148
0.539278626 0.232258156 0.727640927
0.643516541 0.260088801 0.728905559
0.760404408 0.300569087 0.738899291
0.874003351 0.350916594 0.752308547
0.256672949 0.218595505 0.724730968
0.295129478 0.222137958 0.722200751
0.347122192 0.229981050 0.721821308
0.440986872 0.244149357 0.724098563
0.536495686 0.262365788 0.727134824
0.646932364 0.292472959 0.732194781
0.756609440 0.324984074 0.740923107
0.868943989 0.374193162 0.752181709
0.291587710 0.300948918 0.729158759
0.315623075 0.301834553 0.731815457
0.374446929 0.308159351 0.724351466
0.458317697 0.314990520 0.727640748
0.552308738 0.329411656 0.730803311
0.662998080 0.355597734 0.738140464
0.769892097 0.388741314 0.746742308
0.874509811 0.429474711 0.759392679
0.341935456 0.393421918 0.733333230
0.371031046 0.396457970 0.730929613
0.421252191 0.400505930 0.732447505
0.495129615 0.407716632 0.733459771
0.587096691 0.422138095 0.738140345
0.688045382 0.443643361 0.744085729
0.790006459 0.470208645 0.755091727
0.885515392 0.503731608 0.765211940
0.445920348 0.505249798 0.748513341
0.456799626 0.509297729 0.749778211
0.496015251 0.511448085 0.746109784
0.553700030 0.514231443 0.746868789
0.634661734 0.527893782 0.750790358
0.723213017 0.544971347 0.762049258
0.814041674 0.567488849 0.770524859
0.899177790 0.591524124 0.786970317
0.566097260 0.637571216 0.767362475
0.578873873 0.638709486 0.774066865
0.603795052 0.639595270 0.773813725
0.644655406 0.639974773 0.776090741
0.694750071 0.642757654 0.777482450
0.762934685 0.655281484 0.786084533
0.842125237 0.672865391 0.795192897
0.918026626 0.700316310 0.812650204
0.671221077 0.757495046 0.809234738
0.685515046 0.760278463 0.806957483
0.695635676 0.762302220 0.804553866
0.724478364 0.764199615 0.807589948
0.765338480 0.770018876 0.813788772
0.813662291 0.777988672 0.816065609
0.869323373 0.785958111 0.825932741
0.936875343 0.807337165 0.848450124
0.769259751 0.872485638 0.842251599
0.771789730 0.874383450 0.853890002
0.784313679 0.873750746 0.847185433
0.803162396 0.877672493 0.854142725
0.833522916 0.878937602 0.854269266
0.871726811 0.890575588 0.869070351
0.918153048 0.902087033 0.881214321
0.958380759 0.919417799 0.910309613
