Assets/Resources/EldamarStudio/100 Horror LUTs Pack/LUTs/cube/Dirtfreeze LUT.cube
DOMAIN_MIN 0 0 0
DOMAIN_MAX 1 1 1
LUT_3D_SIZE 32
0.000000000 0.027450999 0.105881996
0.003036387 0.030487388 0.102846384
0.014674226 0.033523228 0.106261998
0.029854160 0.036559161 0.109803997
0.046173092 0.039974999 0.110562995
0.070461869 0.046046998 0.116634995
0.089690000 0.052118998 0.120177321
0.109550700 0.056546707 0.124857992
0.130803093 0.059582904 0.130170897
0.152055502 0.062618524 0.133206517
0.173307866 0.071473867 0.133332998
0.196584508 0.080582254 0.139405251
0.219734639 0.089690350 0.147375003
0.240733996 0.098292030 0.153700039
0.258949965 0.101328418 0.162808418
0.284376770 0.109171189 0.171916798
0.311701179 0.119797379 0.177988797
0.338393122 0.131941974 0.182921976
0.362681985 0.144086018 0.195066020
0.386970013 0.150664002 0.201644719
0.416951180 0.158633739 0.205819264
0.452372104 0.167742133 0.212903127
0.491840452 0.176723987 0.227956980
0.531308949 0.182796001 0.240101010
0.568500578 0.195699275 0.249968290
0.609107971 0.208096310 0.259076655
0.654143155 0.217710122 0.268184930
0.696647823 0.229854882 0.277292550
0.749778509 0.244655117 0.289057642
0.804427266 0.259835184 0.306515157
0.859076142 0.276786596 0.331309557
0.913725019 0.298038989 0.364706010
0.006072000 0.033523001 0.099810004
0.006072000 0.039595000 0.102846384
0.019861162 0.040480614 0.110563003
0.033396613 0.045161162 0.117141157
0.045793545 0.051360000 0.118912384
0.067425482 0.052118998 0.119671382
0.094243929 0.058190998 0.118153065
0.115622699 0.062618703 0.126755312
0.136875093 0.067172900 0.135483995
0.158127502 0.074762531 0.136242911
0.173560873 0.080708742 0.139278516
0.198608235 0.087666377 0.145477250
0.220493257 0.094623998 0.152308643
0.237950638 0.101834357 0.156989396
0.258949965 0.110436030 0.168880403
0.279569775 0.113472417 0.168374181
0.307147384 0.122833379 0.174952418
0.335357338 0.135610178 0.183554560
0.359645575 0.150158018 0.198102400
0.386716962 0.156736001 0.199114397
0.418848455 0.162807986 0.206578344
0.452371836 0.169765875 0.214927390
0.485768467 0.177103460 0.228083491
0.525236964 0.191903621 0.243137404
0.564705849 0.200252905 0.250727385
0.604680657 0.212523594 0.260467976
0.649589121 0.223276064 0.270208687
0.699683487 0.232890502 0.274256945
0.744845092 0.247691423 0.293991208
0.794813275 0.261100352 0.307273954
0.847817779 0.277672201 0.325616807
0.904617429 0.301075399 0.352562010
0.007843000 0.050347771 0.106641002
0.014294773 0.047817774 0.111828163
0.020746548 0.053889770 0.101961002
0.036433000 0.056419771 0.116635002
0.048323769 0.063503996 0.122580677
0.071346939 0.063503996 0.117267452
0.095509090 0.068563998 0.129791453
0.117899761 0.074636415 0.123466067
0.137128100 0.078178674 0.132321224
0.155597508 0.084503293 0.135104239
0.179632872 0.092852741 0.144465670
0.194813251 0.096900731 0.149525553
0.219354630 0.103984870 0.157368779
0.237065032 0.110816032 0.161416963
0.258317381 0.116129115 0.167868212
0.283870757 0.124730803 0.176596954
0.306641370 0.132321373 0.179632962
0.334471971 0.143200532 0.188741341
0.358760029 0.153826758 0.200885758
0.390132904 0.162808016 0.208601996
0.417457253 0.168880478 0.208601996
0.452118874 0.174952537 0.215939224
0.483870983 0.181404486 0.225932717
0.521315694 0.196584642 0.241113126
0.558633804 0.209361061 0.249462202
0.600885570 0.218469441 0.258317560
0.645667434 0.229348481 0.269955695
0.697280169 0.238456443 0.276280671
0.754332423 0.250727564 0.293105781
0.799873531 0.269449949 0.310816169
0.850727320 0.285388887 0.328652740
0.908412278 0.308412224 0.355471224
0.009108162 0.070335321 0.113724999
0.022011384 0.065528162 0.122327775
0.029854612 0.065528162 0.119671382
0.042758159 0.072865322 0.109550998
0.054902159 0.078178324 0.125869542
0.075648159 0.078178324 0.120303385
0.099936478 0.083238326 0.128905639
0.123466149 0.088045254 0.139911622
0.139405251 0.093358926 0.133080319
0.153573662 0.096394688 0.138140321
0.176596880 0.103984870 0.147501737
0.198355258 0.110309899 0.154332846
0.215812638 0.113345802 0.159266487
0.237065032 0.122201130 0.165212005
0.258317381 0.127261251 0.169259742
0.284376770 0.135104343 0.179632962
0.310183376 0.143200219 0.186211035
0.335104555 0.154079825 0.194686994
0.360025197 0.160151854 0.203162983
0.390132904 0.167741969 0.211005807
0.419734538 0.176217303 0.216951162
0.450095057 0.184314087 0.220999151
0.483870983 0.191145137 0.227577150
0.520303786 0.205186918 0.239341915
0.556736529 0.215559989 0.247690991
0.597343564 0.226312652 0.257811159
0.643896222 0.235420927 0.269449919
0.695509255 0.244528532 0.278557718
0.750031531 0.256293654 0.294370651
0.804427564 0.273751169 0.312081009
0.850854158 0.294117987 0.329918027
0.907400191 0.314990163 0.359519154
0.014421547 0.088931449 0.115243092
0.031878546 0.086274616 0.126249224
0.041113097 0.085768551 0.130171001
0.051865771 0.088804714 0.130044371
0.070082538 0.096015446 0.127007991
0.082226545 0.096015446 0.130044386
0.103352092 0.101075545 0.135989994
0.126122400 0.105502829 0.142568156
0.148134097 0.108159088 0.149779007
0.157242507 0.111195482 0.149779007
0.175079003 0.117520541 0.155598015
0.195319235 0.123212993 0.159266293
0.216571644 0.128146634 0.162302092
0.237571076 0.131183028 0.165844485
0.258696944 0.140037671 0.172042996
0.284756333 0.149525359 0.184187248
0.310562819 0.157115549 0.193674803
0.334724993 0.163567096 0.197343156
0.362049460 0.169639111 0.203415960
0.389373809 0.176091164 0.209867448
0.417077720 0.183681354 0.216318995
0.446679235 0.193042263 0.224035546
0.482985467 0.205060482 0.235800028
0.519165218 0.216951460 0.241619006
0.556356966 0.225300550 0.248829544
0.597343564 0.232384667 0.257558197
0.643137217 0.242252037 0.272485614
0.694750249 0.251359612 0.281593978
0.743327022 0.262365669 0.294876814
0.793295443 0.279443592 0.311827928
0.843643546 0.299810499 0.331435651
0.892220438 0.318026543 0.355724454
0.035673935 0.110183060 0.127387866
0.047817931 0.110183060 0.130423471
0.054522708 0.111827768 0.134977832
0.063124709 0.114358090 0.138772994
0.079190157 0.117267840 0.142188385
0.097406931 0.111195058 0.139152005
0.112081252 0.116255701 0.147248387
0.127134860 0.120683216 0.150916994
0.143580094 0.122959927 0.153194159
0.163314506 0.123339474 0.155851007
0.181151003 0.132194862 0.161670014
0.201391250 0.136748672 0.163694009
0.222643644 0.140290648 0.165338293
0.243643075 0.143327028 0.168880090
0.261859804 0.146363407 0.177988470
0.287792712 0.157621861 0.184186995
0.313598901 0.166223928 0.191777050
0.337254614 0.172928497 0.197343156
0.359013081 0.181783885 0.203415960
0.386337429 0.190638527 0.212270647
0.415559530 0.197343543 0.220872790
0.445414245 0.203921869 0.229475126
0.476913482 0.211132482 0.238836423
0.510309935 0.220240101 0.241872042
0.551043630 0.232131630 0.254522264
0.595319331 0.240480915 0.262618601
0.642884195 0.248577073 0.269703001
0.688678265 0.263504416 0.284630358
0.734977722 0.269955844 0.291081905
0.782795370 0.284123927 0.305755943
0.830992877 0.302846253 0.324857593
0.877040088 0.321062922 0.346616060
0.059455998 0.139025643 0.147122324
0.066540003 0.141555965 0.150157943
0.074383542 0.141555965 0.148893103
0.084124312 0.141682476 0.151170164
0.099810183 0.141809002 0.155218005
0.111575186 0.140037775 0.154332384
0.127260998 0.141555965 0.158886313
0.142441377 0.145983607 0.163060993
0.156230092 0.149019420 0.163060993
0.173940495 0.150790647 0.164326161
0.194813326 0.151929200 0.172801986
0.211005569 0.156989053 0.174825996
0.232384592 0.162301958 0.177102998
0.254775643 0.168121353 0.182036355
0.272991836 0.171157733 0.191144735
0.293611795 0.174193516 0.197849318
0.317647189 0.182921991 0.202403516
0.341555864 0.189626575 0.206831068
0.366603315 0.198734984 0.211005628
0.398481697 0.207843289 0.222391292
0.423908800 0.215053633 0.225806639
0.456040442 0.222138122 0.234029308
0.491334498 0.229854792 0.244655505
0.529538572 0.238962412 0.252498746
0.567488909 0.248070598 0.257811636
0.612523556 0.259961993 0.270841300
0.660594523 0.268817067 0.278305084
0.706135631 0.279949427 0.289437413
0.751676083 0.289690316 0.304237664
0.802529633 0.301075488 0.320936054
0.855281115 0.321189195 0.342441499
0.907400310 0.344339311 0.365338653
0.073876999 0.162808403 0.160152003
0.079949416 0.162555382 0.159898624
0.089310549 0.166729987 0.166856483
0.097912990 0.166729987 0.165085703
0.113851994 0.165591255 0.166603327
0.121695220 0.169386402 0.164072990
0.137508094 0.166983023 0.170777693
0.149398699 0.168374687 0.171916410
0.165338203 0.170651406 0.173434407
0.181404218 0.172802195 0.175205410
0.199114591 0.174572989 0.179000586
0.219607964 0.176597148 0.183680996
0.237065345 0.179632768 0.187096640
0.260342002 0.187476054 0.193674698
0.278557986 0.191904113 0.201391414
0.299177796 0.194939896 0.206451714
0.324984372 0.199493691 0.212523714
0.347248673 0.206830844 0.216951579
0.373560965 0.216951385 0.222011462
0.403162390 0.222770363 0.231751993
0.437444478 0.233269975 0.239595279
0.465781242 0.239342242 0.240607411
0.504364192 0.247944683 0.250727504
0.540797055 0.258570492 0.259835899
0.581910253 0.264389277 0.265022278
0.624161959 0.273497641 0.276660621
0.672485828 0.285388708 0.288804621
0.719165266 0.295635432 0.297912717
0.764705718 0.308032811 0.313978523
0.810626030 0.317394167 0.324604392
0.862618268 0.336116552 0.351549566
0.917267323 0.363440990 0.378115296
0.082985193 0.182542995 0.166224003
0.092093766 0.181024790 0.167741805
0.099430993 0.182922184 0.172422543
0.108539000 0.187223092 0.177988991
0.122580551 0.186464086 0.179506987
0.131309092 0.193674937 0.175711319
0.140670642 0.191651002 0.176217318
0.157748371 0.188109100 0.182542622
0.168374196 0.188868001 0.181784078
0.186590970 0.188868001 0.187856078
0.201897860 0.192536220 0.188868001
0.220367149 0.194054365 0.189373925
0.240101531 0.197849557 0.192409739
0.261100978 0.201138198 0.201012060
0.279317081 0.207210839 0.206578001
0.300695807 0.211638302 0.211005718
0.324225277 0.216951191 0.216318995
0.355851024 0.223023176 0.224288553
0.380645126 0.234914944 0.233649969
0.408475578 0.238709822 0.241998747
0.439974487 0.246679083 0.248450190
0.475648135 0.257558256 0.254269242
0.512333870 0.263630986 0.257432103
0.547627926 0.274509996 0.265907884
0.586337566 0.280581802 0.271220833
0.630992830 0.287159652 0.278937340
0.677039981 0.296774149 0.297153980
0.725616753 0.308918178 0.307020634
0.770018816 0.322200805 0.321821660
0.817836523 0.337634265 0.336749077
0.862618625 0.351296753 0.350031555
0.908159077 0.378621191 0.383427978
0.101201981 0.206831008 0.172296003
0.119417965 0.209867403 0.187476382
0.124224991 0.210499987 0.191144973
0.124731004 0.212017834 0.189121008
0.128652558 0.213788480 0.185579002
0.155976936 0.207716495 0.197723016
0.152055830 0.207337022 0.186337665
0.162175998 0.205439731 0.186970010
0.183554590 0.204048395 0.196963727
0.198734984 0.207084015 0.203036487
0.214041874 0.212903008 0.206198618
0.231245995 0.212776765 0.205060259
0.248450145 0.213409483 0.203415975
0.264136583 0.219354972 0.204048455
0.282353342 0.225426972 0.207084075
0.305376470 0.231499001 0.212650001
0.328020185 0.238962695 0.220113724
0.352814615 0.247311980 0.230360568
0.389247477 0.253383964 0.245540977
0.419608235 0.256926358 0.252119005
0.449841946 0.263757229 0.256420225
0.481467128 0.272991627 0.260594964
0.515369475 0.281847000 0.266540498
0.557874322 0.287919015 0.272612512
0.595445573 0.294243991 0.278811008
0.637697220 0.302972436 0.286148161
0.686147571 0.314990133 0.297153980
0.734724343 0.327134907 0.315369993
0.775331914 0.336622119 0.325237334
0.823908746 0.354838371 0.341809154
0.874636173 0.378494680 0.365085423
0.917267501 0.402909964 0.395571977
0.122327864 0.213661999 0.195825741
0.125995994 0.219607517 0.187729388
0.133459777 0.229095668 0.198608771
0.136748865 0.230866700 0.200885877
0.141176417 0.229854405 0.200000316
0.153320819 0.226312742 0.209614009
0.167994872 0.225300744 0.209108323
0.174699694 0.226945028 0.206957743
0.192156881 0.226439089 0.212776646
0.205186486 0.225174263 0.212397084
0.220366865 0.231119752 0.209740996
0.239595234 0.235167474 0.212776601
0.258696854 0.235040992 0.212650120
0.275901079 0.237571001 0.212903157
0.294117808 0.243642986 0.215939447
0.317140996 0.249715596 0.223782673
0.342947185 0.258823723 0.231878549
0.367615134 0.268690854 0.240353987
0.394939989 0.274762899 0.248703092
0.425806731 0.278052241 0.255534828
0.458064735 0.284883112 0.261606872
0.490448982 0.291967005 0.264643013
0.523971856 0.297153860 0.267046481
0.560910642 0.303225845 0.275901139
0.603415430 0.309297860 0.284250408
0.645287812 0.318152845 0.292346656
0.691334724 0.331308991 0.302467078
0.735103846 0.348260760 0.318279862
0.778367639 0.357748032 0.333839029
0.819860399 0.368627280 0.346995294
0.869069874 0.387476444 0.365970701
0.917647004 0.409741014 0.390258998
0.133459985 0.239974484 0.212017983
0.144592121 0.244022757 0.208981857
0.143579766 0.244275525 0.204680502
0.151676148 0.251359999 0.212523729
0.160025254 0.249841794 0.213662267
0.167488918 0.250095189 0.216192320
0.175078988 0.249589249 0.219228059
0.187223405 0.249589249 0.217836738
0.202024162 0.252245396 0.223149925
0.215433002 0.251739472 0.223909020
0.230486870 0.255408257 0.222897112
0.247691497 0.257432252 0.221885249
0.267805248 0.259329498 0.223782510
0.285768270 0.259582460 0.224288508
0.302213818 0.263883233 0.229095668
0.325237006 0.269955873 0.236938536
0.349525392 0.276028246 0.244529098
0.376343817 0.285262644 0.250600934
0.402023971 0.289942980 0.252498239
0.429854453 0.297280371 0.260594726
0.460215181 0.298418999 0.262872010
0.493485123 0.307147384 0.267678887
0.527134478 0.312460721 0.269070238
0.565465033 0.320429981 0.278178364
0.604427576 0.328526229 0.285262287
0.646932304 0.337381214 0.295761973
0.691334903 0.349525392 0.306514800
0.733839214 0.364706159 0.321695149
0.778367639 0.376976669 0.332827419
0.822643578 0.391397476 0.353320211
0.864515841 0.404933572 0.371916205
0.911574721 0.423909009 0.394307256
0.144085988 0.268437624 0.220746353
0.154712394 0.271474034 0.221884996
0.161543518 0.271347523 0.222011507
0.162681803 0.270714641 0.220493272
0.177103087 0.269955635 0.225806281
0.183934003 0.270714939 0.223529577
0.191144645 0.272359639 0.226691961
0.201644406 0.273497999 0.228083283
0.214548096 0.275775105 0.230360180
0.229727820 0.279569805 0.236812308
0.246046513 0.281467527 0.237065345
0.262112498 0.281340986 0.235927001
0.279190630 0.282479644 0.237065345
0.297659665 0.282732606 0.237318382
0.314611048 0.285768211 0.242504999
0.337001622 0.291207969 0.249841824
0.361290038 0.298418999 0.255154729
0.386211187 0.305123568 0.260594934
0.413535625 0.309171319 0.258570671
0.440860003 0.315496355 0.265528351
0.473497748 0.322327644 0.273497999
0.505882263 0.326375633 0.276534140
0.539531648 0.335483998 0.279822767
0.577988744 0.343580008 0.286906898
0.616318882 0.351549566 0.293738008
0.659455895 0.362049252 0.302593261
0.701454818 0.374699354 0.315243363
0.743327141 0.387476534 0.330423713
0.785072386 0.399620622 0.343706459
0.830613196 0.415306866 0.362808198
0.875268817 0.436179489 0.387096465
0.914990306 0.452371925 0.411385268
0.162302062 0.284377009 0.225047067
0.165844396 0.287413388 0.227830425
0.173687771 0.288552016 0.230613768
0.180266023 0.290069908 0.232384995
0.187729537 0.291967064 0.232131958
0.196837157 0.285895079 0.232131958
0.205945358 0.287413329 0.237698033
0.217836738 0.290449351 0.240227997
0.233017132 0.294497102 0.241998956
0.248197526 0.303605497 0.251106590
0.265528053 0.303985000 0.251233011
0.282226264 0.302213758 0.249462262
0.297912627 0.301454663 0.249209419
0.313093036 0.304490983 0.251992047
0.334345400 0.307526588 0.255028456
0.357748002 0.312713057 0.260215014
0.382036418 0.320050210 0.264010012
0.406704545 0.328905582 0.264895588
0.434029013 0.338013977 0.267931998
0.461859435 0.342061698 0.273245007
0.496015191 0.348892808 0.282859027
0.534219027 0.358760029 0.293485105
0.570777535 0.370777547 0.302593470
0.607336819 0.376976818 0.305882126
0.644275606 0.383049011 0.311195046
0.685515225 0.392156988 0.320303321
0.732574165 0.404301107 0.332954079
0.772043288 0.419481456 0.348134428
0.808854997 0.431752056 0.365970969
0.850094557 0.447944403 0.387982130
0.893738151 0.468311578 0.415686160
0.936242998 0.495636016 0.439974964
0.180518821 0.308664978 0.243263826
0.189626440 0.311701387 0.243263826
0.201770753 0.314737767 0.243896410
0.205566123 0.318406403 0.244528994
0.203415960 0.322327822 0.244149446
0.224162295 0.316255808 0.241239578
0.233269915 0.317773491 0.251360208
0.242378086 0.320809662 0.254016697
0.254269481 0.323845714 0.253131092
0.269449860 0.327893466 0.257179350
0.278811246 0.328272969 0.254648983
0.297912538 0.328272969 0.254269421
0.317899615 0.328779042 0.257052630
0.337381005 0.331815362 0.264136821
0.352561355 0.334850967 0.264136821
0.373813748 0.337887198 0.267172605
0.397216797 0.343073785 0.273877174
0.421505362 0.349778384 0.280455410
0.446173012 0.356229931 0.286147952
0.479064077 0.365338326 0.286400974
0.509297788 0.373181552 0.293358743
0.542567909 0.382289678 0.301075280
0.576850295 0.392029881 0.305629075
0.616318762 0.401138276 0.314737469
0.657431960 0.407336980 0.320303410
0.697279990 0.417583644 0.330550045
0.738646209 0.431119472 0.345098048
0.778115273 0.440733820 0.360278428
0.814927578 0.450601220 0.378114969
0.853130937 0.469196737 0.391018182
0.891208172 0.491334558 0.412776589
0.924099028 0.513852000 0.449082583
0.210752785 0.342567593 0.256672978
0.215054005 0.340796977 0.256672978
0.226312399 0.343832821 0.267425776
0.237444580 0.346869141 0.266160786
0.235547334 0.350284785 0.263504237
0.244655713 0.344212770 0.260467857
0.248577282 0.350537479 0.265274823
0.260973871 0.350284517 0.265907913
0.272359192 0.351043791 0.262871712
0.285895258 0.352435112 0.265907675
0.302466840 0.352561593 0.265528113
0.313598961 0.352561593 0.266540259
0.332574069 0.354838580 0.268058151
0.352308601 0.358886778 0.274130225
0.369639188 0.359772146 0.276280999
0.389626563 0.362808406 0.283491790
0.409361184 0.367362589 0.286527395
0.435673892 0.373434573 0.290701985
0.470588416 0.379506588 0.289690018
0.498418868 0.388361931 0.297406793
0.529917777 0.397469848 0.303099036
0.561290145 0.405565977 0.313219458
0.594940305 0.413282275 0.320556611
0.634408712 0.422390670 0.327387691
0.667046368 0.433775783 0.338772804
0.707653403 0.444275439 0.347880751
0.747121871 0.458443850 0.361543089
0.786590457 0.467552215 0.374826223
0.816192567 0.481467605 0.392662764
0.861480057 0.494117975 0.409107983
0.903478801 0.516508579 0.427450955
0.938393831 0.539278805 0.465401620
0.236558989 0.374446183 0.264263183
0.242631376 0.374446571 0.267299175
0.246046990 0.374193609 0.273497790
0.258190989 0.375964373 0.278557867
0.265148520 0.378747731 0.273750812
0.270461917 0.376091361 0.274130076
0.270967990 0.378115237 0.275647998
0.279190660 0.380644917 0.279569715
0.292852491 0.379127294 0.272738993
0.304238141 0.379886389 0.275015712
0.319165170 0.378368199 0.276660383
0.339405179 0.379886389 0.278684258
0.353826463 0.381024748 0.283997625
0.372043192 0.386464208 0.287539393
0.390259147 0.387729377 0.289310604
0.410878956 0.390132815 0.294117630
0.433649570 0.393169194 0.298671782
0.453131139 0.399873763 0.302339971
0.490322769 0.406831354 0.299809963
0.515876174 0.412650347 0.304617345
0.546616375 0.421758652 0.312207431
0.580012500 0.430866539 0.322327167
0.614295006 0.437444568 0.334345311
0.649589121 0.445161283 0.341808975
0.685262322 0.456546396 0.350917190
0.715623081 0.465907395 0.361669838
0.754712224 0.481720239 0.373687387
0.794180810 0.494876623 0.385831892
0.827577293 0.507779777 0.404807150
0.859962285 0.522960126 0.422770172
0.908032775 0.541682541 0.443263799
0.947501838 0.566603184 0.479064196
0.257305115 0.401138127 0.271094561
0.266413510 0.405439526 0.279063940
0.269070119 0.405692548 0.281973571
0.274130106 0.406325132 0.284250408
0.285515130 0.406704575 0.276660085
0.294370472 0.409740865 0.282479137
0.297153533 0.409614533 0.283491135
0.303478688 0.407969832 0.283238262
0.318406075 0.406451643 0.285515577
0.327514470 0.409488022 0.285515577
0.340164542 0.407969654 0.287792861
0.359139711 0.408349246 0.290828705
0.381783426 0.412650466 0.295509040
0.399747074 0.415433109 0.304364502
0.417583525 0.418089956 0.305123568
0.437570930 0.422390908 0.306261778
0.459708929 0.424161732 0.308412164
0.482100129 0.425933123 0.307779580
0.506388187 0.435041517 0.313851595
0.529158533 0.439848185 0.317773342
0.556736171 0.445414305 0.323971987
0.591524661 0.454522699 0.332068145
0.630487084 0.463757545 0.343959153
0.660341799 0.470841527 0.352561474
0.694623530 0.480202556 0.362934858
0.730170250 0.492093503 0.372675627
0.761543095 0.498671591 0.383301973
0.800885677 0.519418001 0.395698935
0.837065101 0.534598112 0.415180326
0.872358978 0.549145699 0.435294062
0.904996991 0.566603124 0.456040204
0.944465399 0.593927562 0.489437401
0.287665993 0.425427020 0.292346984
0.296774387 0.434535384 0.307526588
0.299430996 0.434535205 0.304743797
0.304490983 0.434282184 0.301960856
0.315876007 0.437065423 0.303984523
0.321947962 0.440101027 0.307020903
0.328272998 0.438077360 0.307779968
0.333839029 0.435294300 0.304490983
0.342947155 0.433776110 0.300696015
0.357874542 0.436812490 0.300696015
0.372801900 0.439848125 0.300696015
0.389753520 0.440354019 0.302972764
0.409614593 0.444022685 0.307147026
0.430107951 0.451865971 0.313472122
0.445287555 0.451865971 0.319544882
0.463124633 0.459329814 0.317900211
0.483112186 0.461859763 0.318406194
0.503352582 0.459329635 0.319924384
0.518533051 0.456294000 0.316888034
0.545604348 0.465401679 0.322960019
0.572422743 0.470208764 0.332574010
0.603289306 0.475775152 0.344212294
0.639595509 0.485009998 0.356103957
0.666919947 0.497154027 0.362175971
0.699051380 0.504238009 0.375332266
0.735483646 0.516381979 0.388614982
0.773687124 0.532068074 0.401518017
0.810119867 0.541176438 0.419734001
0.844149530 0.561922789 0.437444687
0.879569829 0.580644965 0.457685173
0.913092613 0.599493623 0.479569972
0.941429019 0.621252060 0.504617095
0.329158723 0.471979737 0.310816020
0.332701147 0.475522131 0.314864337
0.337507993 0.476027966 0.319291711
0.341935545 0.475521892 0.317141205
0.351043761 0.477419734 0.319417924
0.352308750 0.473245144 0.317647278
0.365971059 0.481340766 0.320683032
0.372802079 0.477672368 0.320936024
0.381910086 0.475774735 0.319418103
0.399114221 0.480834872 0.321442395
0.414294600 0.483871222 0.327008367
0.431499243 0.488931119 0.329032093
0.449715734 0.490449101 0.332067996
0.468817413 0.493864745 0.336495727
0.483997643 0.493864745 0.342567861
0.503984869 0.498671740 0.346236825
0.524098933 0.504364610 0.346995533
0.545351326 0.505123496 0.350031585
0.564832747 0.506388366 0.351296753
0.588361740 0.508918762 0.353826404
0.615686119 0.516129076 0.361796111
0.643010736 0.522074878 0.372042865
0.674004197 0.531183183 0.382289857
0.706641674 0.540670395 0.391018718
0.736242771 0.552814901 0.401644737
0.770524681 0.561290443 0.416319013
0.806071818 0.574319899 0.430360794
0.833396614 0.585705519 0.446300060
0.856546521 0.600126207 0.459203064
0.889437139 0.621125579 0.480708331
0.923971951 0.643010557 0.507400215
0.955091357 0.668058455 0.539278746
0.364073455 0.514863729 0.327134728
0.370904356 0.517900109 0.339658380
0.372042954 0.514737666 0.334851742
0.378874034 0.515496433 0.334851742
0.388235480 0.518785715 0.338013917
0.391271472 0.515749693 0.341049910
0.394434035 0.516635120 0.341176391
0.411258698 0.524098456 0.342567712
0.420619786 0.521315575 0.342567712
0.437697470 0.526249230 0.344465464
0.451106578 0.525616586 0.348513752
0.468311220 0.528779447 0.350664198
0.485389352 0.532574475 0.354838461
0.502340496 0.532827437 0.358380735
0.515876114 0.534471691 0.361163706
0.535863519 0.535483718 0.362934798
0.560151875 0.541555762 0.370524973
0.581530690 0.544971585 0.375331730
0.601517975 0.548007488 0.379632950
0.623655736 0.552941084 0.382669121
0.646046460 0.555977464 0.385705203
0.672358990 0.561037362 0.392789334
0.698798478 0.568374515 0.400252968
0.728652894 0.577482581 0.411132127
0.759772480 0.585072517 0.424414992
