Assets/Resources/EldamarStudio/100 Horror LUTs Pack/LUTs/cube/Draak LUT.cube
DOMAIN_MIN 0 0 0
DOMAIN_MAX 1 1 1
LUT_3D_SIZE 32
0.137254998 0.058823999 0.066666998
0.137254998 0.058823999 0.066666998
0.141555995 0.063124999 0.070968002
0.147627994 0.069196999 0.077040002
0.153320551 0.074889451 0.082732551
0.156356946 0.077925064 0.085768931
0.161923006 0.083491646 0.088804677
0.167995006 0.089563996 0.093484998
0.173308089 0.094876900 0.098798096
0.176344484 0.097912528 0.101834483
0.185199127 0.103857994 0.101961002
0.190259263 0.107906252 0.103984736
0.197849646 0.112080999 0.109297641
0.212523967 0.118406028 0.118406028
0.221631572 0.127514407 0.127514407
0.233143598 0.134218991 0.136622190
0.248323992 0.143326998 0.144212380
0.265274972 0.154205993 0.150917411
0.277419001 0.160278007 0.160025060
0.286780357 0.163567364 0.166350007
0.303478748 0.174193740 0.172422469
0.325743258 0.187349871 0.178494990
0.349652469 0.196457505 0.184819981
0.364832103 0.205565915 0.196964011
0.389120847 0.219228283 0.209107995
0.420619935 0.231625661 0.221252322
0.456040144 0.242758065 0.233396992
0.486400872 0.264010429 0.245540991
0.524730742 0.285262793 0.265654802
0.565970302 0.308285922 0.292219907
0.610246360 0.331688583 0.320809186
0.658824027 0.352941006 0.345097989
0.140290618 0.064895995 0.072738998
0.137254998 0.061859611 0.069702610
0.139405221 0.070461616 0.074003614
0.142061606 0.075774617 0.078810774
0.145730153 0.078304708 0.083491549
0.159392565 0.083997831 0.091840930
0.159898624 0.087033451 0.089816675
0.169892311 0.094244316 0.098418698
0.177862093 0.099430904 0.105629385
0.176344499 0.097912528 0.101834483
0.188108996 0.106767870 0.104870126
0.195319399 0.112966381 0.109044611
0.202782989 0.117014639 0.114231281
0.215559646 0.121442355 0.121442355
0.224667966 0.130550027 0.130550027
0.233776197 0.134851426 0.137254611
0.248323992 0.141809195 0.147248387
0.264642566 0.152435362 0.155724421
0.274383396 0.163314402 0.160025060
0.289310724 0.172169745 0.166350007
0.304617375 0.177609384 0.172422469
0.325743258 0.188362002 0.181530863
0.349652469 0.199620381 0.193674639
0.364832103 0.211637899 0.200000405
0.389120847 0.223023564 0.212144390
0.417836934 0.237444684 0.224288374
0.449968129 0.250347733 0.236432612
0.480328888 0.264010429 0.248576596
0.513345778 0.285262793 0.268690407
0.559139550 0.306515157 0.291713983
0.605439544 0.329538345 0.316002369
0.649715662 0.352941006 0.335989594
0.141176000 0.073118225 0.076660231
0.144592151 0.076534159 0.080076158
0.139405221 0.075648546 0.072738774
0.144971162 0.083997391 0.081340767
0.148007318 0.085262321 0.087033547
0.156103715 0.089563869 0.092599936
0.165085003 0.093105681 0.091587678
0.166729718 0.096141711 0.091840707
0.178368092 0.104237899 0.103478901
0.180898488 0.106767520 0.104364231
0.190259218 0.111068875 0.109171130
0.196331486 0.116129257 0.112207256
0.203415647 0.122074768 0.118152767
0.214294732 0.126628965 0.124478258
0.223402634 0.135736570 0.133586347
0.236812025 0.142188579 0.138139993
0.245920420 0.145224571 0.144212380
0.262238979 0.153700203 0.153826997
0.275901228 0.165844247 0.158380836
0.290575594 0.175205588 0.168500781
0.307653695 0.182416216 0.174572766
0.324857652 0.190512478 0.182669207
0.345730454 0.202656761 0.196457505
0.366982877 0.214800775 0.204554036
0.389120847 0.224794567 0.213029996
0.417836934 0.238330290 0.225173980
0.448703170 0.254522055 0.238330126
0.480708659 0.271600127 0.253763527
0.513725519 0.287413031 0.267425537
0.559519053 0.308665395 0.299303859
0.609740794 0.334345400 0.323719174
0.653510809 0.363693774 0.341935545
0.144971162 0.082226165 0.082226165
0.145983607 0.089563772 0.087033771
0.145983621 0.091334999 0.086148381
0.144971162 0.093864992 0.083365157
0.153700009 0.095382616 0.093611613
0.157621786 0.094876774 0.094876774
0.164452672 0.101707675 0.097912833
0.171536878 0.103478543 0.098165542
0.175332159 0.108032927 0.100442834
0.183934480 0.117140681 0.108032525
0.193042129 0.119164869 0.112966157
0.199367434 0.123466089 0.118279256
0.204680517 0.126502484 0.122454002
0.214041904 0.132701024 0.128273025
0.224161893 0.141808897 0.135357410
0.238076791 0.148513600 0.142188519
0.248956352 0.154332966 0.146742374
0.258697152 0.158633739 0.152182415
0.275648177 0.170145333 0.157621861
0.293611526 0.178241521 0.169260174
0.309424460 0.187982157 0.178873986
0.327640980 0.195066288 0.186970249
0.343453169 0.206957981 0.198987797
0.367741972 0.219101995 0.208095908
0.393295556 0.230234116 0.214674279
0.419102103 0.240860611 0.227703974
0.449462295 0.256040275 0.239342064
0.482100308 0.275774419 0.255281717
0.518026710 0.291713804 0.270714819
0.558760285 0.311701328 0.291207939
0.611638188 0.335610121 0.329791009
0.657558858 0.371283829 0.350284845
0.152941003 0.092472993 0.091713995
0.148007557 0.100822382 0.094750382
0.146236554 0.103478998 0.095635995
0.148766547 0.105629548 0.097786449
0.154079556 0.110942543 0.103099450
0.160151556 0.101834156 0.100063063
0.166223541 0.109677091 0.106767863
0.172295868 0.114863545 0.111448288
0.178368449 0.116761088 0.114484094
0.184440449 0.125869483 0.114484094
0.192662671 0.126628548 0.117393866
0.200126514 0.130676553 0.122453995
0.207716897 0.135610193 0.128526002
0.216571540 0.138899550 0.134598061
0.228463277 0.147881418 0.137760967
0.243010730 0.155344993 0.145224810
0.254016370 0.161037549 0.152055994
0.261353970 0.167362586 0.157874972
0.273498029 0.176470980 0.160910606
0.294370830 0.183175445 0.172296181
0.311448723 0.192662999 0.182542801
0.327261448 0.203795135 0.191903710
0.345603943 0.212903500 0.203795448
0.369639724 0.224794552 0.212650090
0.396205276 0.237317979 0.219101831
0.423909068 0.249462336 0.227577507
0.452119142 0.262492448 0.245414078
0.482479870 0.277672082 0.254522443
0.519291759 0.292852342 0.270840973
0.560151756 0.312966377 0.290069163
0.604048133 0.338266969 0.314990163
0.652624965 0.368627012 0.351422995
0.152941003 0.110688999 0.103857994
0.155977398 0.113725379 0.106894381
0.155344933 0.115622997 0.107779995
0.157874927 0.116888158 0.109044835
0.163187936 0.120050937 0.112207063
0.163187951 0.120050929 0.112207063
0.169259936 0.123592861 0.116761640
0.175331935 0.125743151 0.116761521
0.181404054 0.125489920 0.115243189
0.187476054 0.131941482 0.120556869
0.190638930 0.135230869 0.123465993
0.198735192 0.139784932 0.128525987
0.208475992 0.144718572 0.134598002
0.219607934 0.148007929 0.140670061
0.225679934 0.154079929 0.146742836
0.239974856 0.165464997 0.152308926
0.252119124 0.172043189 0.155851007
0.261353970 0.176217914 0.158127993
0.273498029 0.182542980 0.163947001
0.296774030 0.191650659 0.175331950
0.312966555 0.200252801 0.185578793
0.326628864 0.209867135 0.193674937
0.342567563 0.218975499 0.200759053
0.363819987 0.228083909 0.206831068
0.390132964 0.242251635 0.222517565
0.418848932 0.255534321 0.232637912
0.449209243 0.268691003 0.242757931
0.482479870 0.286780477 0.260594428
0.510183811 0.301960737 0.272358984
0.546616077 0.320683092 0.287286162
0.588361859 0.343326956 0.307906181
0.634409010 0.368627012 0.339278996
0.158001006 0.136495963 0.121062636
0.155977398 0.134471700 0.119038381
0.161164001 0.135357320 0.122074768
0.161923006 0.135357320 0.122454315
0.165464997 0.136369452 0.123845637
0.169765994 0.134218678 0.123845637
0.174825996 0.139279321 0.128905639
0.180897996 0.143706605 0.130044281
0.186969995 0.143200323 0.127134413
0.193041995 0.145730317 0.131435961
0.196204871 0.148893192 0.134598121
0.205312982 0.151929066 0.139658511
0.216065958 0.158633649 0.144592002
0.227704316 0.164705992 0.149272323
0.233776316 0.170777991 0.155344516
0.244655311 0.174446806 0.161416665
0.258190989 0.184693128 0.165970862
0.268943846 0.191018254 0.168247983
0.281088352 0.198988020 0.174320012
0.299304336 0.207843289 0.185958013
0.316002309 0.215053633 0.196204737
0.331182808 0.223529443 0.204301000
0.349778324 0.232764304 0.210499495
0.373434544 0.244275913 0.218975320
0.401517630 0.255660981 0.229601309
0.430486977 0.269196659 0.244529009
0.460847467 0.281847239 0.254396260
0.492220312 0.298038989 0.270587981
0.530423820 0.316129148 0.283491611
0.564832568 0.334851474 0.304490775
0.608728766 0.360531479 0.323592633
0.659203291 0.391397953 0.347375005
0.162428722 0.150664285 0.127767280
0.162681669 0.154206306 0.134598300
0.164453000 0.151675999 0.129285052
0.169260174 0.152941167 0.132321447
0.169260159 0.152941152 0.132321447
0.171536997 0.149904758 0.131056279
0.180897996 0.154458925 0.137760997
0.183680996 0.157242268 0.140543982
0.190512091 0.160278082 0.137507603
0.197469711 0.161163703 0.138772771
0.203921571 0.164073572 0.143453538
0.208095998 0.167109445 0.146868795
0.219101638 0.171283707 0.150664285
0.230993316 0.179632992 0.153700039
0.241239995 0.185704991 0.161163718
0.248829991 0.191018507 0.167235717
0.264009982 0.195572689 0.173307702
0.275142163 0.203921407 0.177102983
0.285262972 0.212017685 0.183175012
0.302973002 0.221126065 0.194813430
0.320682973 0.229980990 0.203415453
0.337887108 0.237065122 0.212523580
0.360404491 0.246173501 0.219228014
0.383175075 0.256799728 0.226818621
0.408728689 0.268943727 0.236558989
0.439089000 0.281087697 0.250094652
0.469449699 0.293738335 0.262492269
0.499810189 0.308918238 0.276533544
0.534851432 0.328399658 0.292346656
0.574319839 0.346742451 0.313346118
0.614674449 0.369766086 0.338899583
0.666287303 0.403921992 0.357874721
0.166224003 0.158254102 0.132321090
0.169259802 0.165844485 0.139911294
0.170777768 0.167109430 0.141682416
0.174573064 0.165844262 0.137634158
0.177229896 0.168501094 0.140290990
0.174573049 0.165844262 0.137634143
0.181151003 0.168880194 0.143959314
0.189752996 0.171663195 0.145857096
0.191271186 0.173181191 0.147375092
0.200379580 0.176217586 0.144338697
0.209487781 0.180012867 0.150031731
0.214547828 0.183048934 0.154079735
0.219860733 0.185705200 0.156736091
0.229222089 0.192030162 0.156989127
0.243896410 0.198608086 0.165085509
0.253383994 0.204680502 0.172548980
0.264009982 0.209993988 0.177862078
0.281593561 0.217330977 0.185199067
0.288045853 0.223656014 0.191524103
0.305250108 0.231752247 0.200885713
0.324225187 0.240860343 0.209234998
0.342441112 0.249968216 0.217077956
0.369639009 0.259203076 0.226185590
0.391523987 0.268943906 0.232890800
0.415053666 0.278811008 0.239721701
0.442884326 0.292473167 0.251612663
0.473244995 0.305123121 0.266793072
0.503605008 0.320303440 0.279190093
0.538140476 0.339278787 0.295888662
0.575838208 0.360278130 0.319418132
0.616951168 0.381150812 0.346489578
0.659455955 0.408475995 0.367742002
0.172295988 0.179506496 0.159645498
0.175332397 0.182542875 0.144465119
0.174067184 0.183681503 0.145604074
0.175078988 0.183554977 0.149778813
0.180265516 0.183681503 0.152435005
0.180265516 0.183681503 0.152435005
0.180139005 0.183554977 0.157368496
0.187222987 0.183807984 0.155344725
0.197343186 0.185325980 0.150411502
0.203415975 0.191397995 0.156483486
0.212523609 0.197343498 0.162175983
0.217583776 0.201265275 0.166223750
0.222897127 0.203162983 0.169259652
0.232258484 0.204174951 0.172169521
0.244402483 0.213282555 0.175205916
0.256672978 0.219860494 0.183301672
0.268563986 0.224414721 0.189247206
0.281593561 0.229474992 0.194307476
0.296774000 0.241619036 0.206451491
0.314358234 0.247943997 0.209993854
0.334472239 0.256040245 0.215306997
0.353573829 0.265148610 0.223403007
0.369639009 0.274383456 0.235293984
0.393927813 0.286527485 0.244402394
0.418090045 0.293990970 0.248829708
0.446553111 0.305882335 0.257684648
0.479317009 0.323339909 0.272865087
0.509676933 0.338519484 0.288045436
0.548007429 0.353699803 0.303099304
0.588994324 0.374446362 0.325490147
0.632257998 0.399367541 0.352814555
0.677671969 0.426692009 0.379885972
0.181277871 0.192029998 0.160784006
0.175585389 0.192156523 0.165970474
0.170019224 0.197343677 0.157241866
0.169259995 0.202656701 0.157748133
0.176090986 0.207210541 0.159139544
0.186210990 0.204680875 0.161669880
0.191271007 0.202150553 0.166729867
0.195319414 0.203415722 0.167868152
0.202656642 0.205439776 0.164326221
0.206578091 0.209360987 0.168247998
0.212650120 0.209614009 0.171410859
0.219733983 0.215685993 0.177482873
0.227071404 0.220746413 0.180265740
0.237950951 0.224541828 0.181783870
0.247438118 0.228336439 0.187476411
0.259582728 0.235040858 0.190512195
0.274762839 0.244149238 0.201644182
0.290954828 0.251992732 0.210246563
0.308412015 0.259582758 0.215559870
0.323592365 0.263377398 0.216571867
0.337887585 0.269322872 0.223276734
0.357115984 0.278431237 0.231372744
0.378114879 0.289310843 0.241113007
0.396837682 0.295888871 0.241872042
0.425679862 0.308032870 0.253257692
0.454016417 0.320935845 0.266540378
0.484376997 0.339658201 0.283744663
0.509929955 0.359645396 0.294117421
0.548260450 0.372169524 0.311954647
0.585958362 0.388867676 0.332700789
0.626186192 0.411764562 0.358001202
0.669702828 0.439089000 0.383301854
0.180265993 0.214294761 0.166856259
0.182289988 0.216318503 0.166855991
0.180139467 0.214547798 0.172422498
0.176091090 0.218090251 0.166350186
0.181024536 0.224161968 0.165970549
0.188235253 0.224414930 0.172295928
0.197343513 0.223402932 0.175838247
0.200126514 0.222011253 0.178621247
0.205440000 0.223908991 0.175964415
0.209740788 0.225679770 0.176470488
0.219734251 0.229854241 0.181530595
0.225806236 0.229854241 0.184566975
0.233016893 0.235926256 0.189500362
0.244275987 0.241745770 0.190891787
0.255154818 0.244781837 0.196964249
0.266666323 0.254269242 0.206704706
0.277292907 0.260341257 0.208222508
0.293358564 0.268943727 0.218975246
0.310183287 0.272232711 0.223402962
0.329664618 0.279569894 0.227703989
0.342947245 0.286401004 0.229601726
0.358127862 0.293611377 0.237444997
0.381277472 0.304617226 0.245540768
0.401391536 0.312586963 0.251233518
0.426691979 0.323212981 0.264389575
0.457052290 0.335357308 0.276533961
0.487919062 0.352308512 0.294876784
0.516761243 0.372042686 0.307020813
0.552308440 0.389373899 0.324098378
0.588235140 0.406831414 0.344085902
0.627071500 0.427957058 0.370777786
0.670714974 0.455281496 0.398482263
0.178747997 0.237065345 0.174825996
0.183681354 0.240101263 0.174066886
0.187729344 0.238836125 0.175205544
0.188994482 0.238203987 0.179633319
0.191271096 0.237824440 0.173940182
0.192789301 0.239342049 0.180012569
0.199747324 0.242125288 0.185199320
0.206199005 0.243263632 0.187729344
0.207717001 0.244781628 0.189247534
0.213789001 0.245540634 0.187349796
0.224541649 0.250221282 0.193042278
0.233775988 0.253383636 0.195951909
0.240986645 0.254522264 0.200126648
0.250348002 0.260341287 0.202909291
0.262492001 0.263377696 0.207210824
0.275774628 0.273624271 0.218089998
0.288677812 0.281593651 0.224161997
0.298418611 0.287665635 0.224794582
0.313093007 0.288677633 0.230360657
0.333839387 0.297026992 0.238709643
0.352814615 0.306135386 0.242884368
0.369006872 0.314231634 0.248956621
0.390132755 0.323339254 0.255281627
0.409361184 0.333459526 0.263377875
0.436305910 0.347121924 0.278178632
0.465021938 0.359265983 0.293611646
0.494876713 0.371916711 0.306261718
0.527008057 0.389500260 0.321442068
0.563061237 0.407716632 0.341555625
0.601138413 0.427704155 0.361542791
0.636305869 0.448956579 0.384566426
0.681340992 0.475775003 0.417457640
0.184819996 0.253004044 0.181910068
0.187602654 0.256293416 0.185452387
0.193042055 0.255028337 0.186085030
0.197343171 0.254522175 0.187096909
0.200379491 0.257052511 0.189879537
0.197343096 0.254016131 0.186843932
0.201644644 0.257811666 0.190639034
0.207969964 0.262745291 0.195572317
0.213789001 0.266287059 0.199114189
0.219860986 0.272359073 0.205186963
0.228589833 0.275268912 0.210752994
0.237697765 0.278304756 0.213030040
0.247311682 0.281593651 0.215054005
0.256673038 0.284630030 0.221125990
0.268817037 0.287666410 0.221125990
0.282858819 0.297407001 0.229727983
0.298545212 0.305249840 0.236812055
0.313093007 0.309171051 0.237444580
0.325237066 0.315243065 0.240480974
0.345477402 0.323845387 0.251107037
0.366729736 0.332700759 0.258317739
0.388994217 0.341303051 0.264389992
0.413282990 0.347628027 0.276407510
0.428842872 0.359772056 0.282606035
0.454648972 0.375964582 0.295003295
0.485262334 0.391397983 0.308791995
0.515623093 0.404048085 0.321948111
0.542947471 0.419228435 0.337128460
0.577482581 0.436811984 0.359519005
0.616445363 0.456799179 0.381277174
0.658064604 0.478557616 0.404553771
0.697533011 0.499810040 0.431878984
0.190891996 0.277292818 0.200126827
0.190891996 0.283364803 0.209234431
0.197976187 0.282353163 0.208475739
0.201391667 0.281847060 0.207337409
0.200759009 0.284503400 0.208349273
0.206451476 0.284376889 0.211131901
0.208475739 0.281341136 0.208096296
0.215433285 0.286780655 0.213535696
0.222390667 0.293105483 0.219860494
0.225932986 0.296647817 0.223402947
0.232005000 0.296900809 0.223655984
0.240733832 0.299557120 0.226945251
0.252119064 0.303731382 0.229348764
0.265781403 0.308917999 0.233269989
0.277925402 0.311954409 0.239341974
0.287666202 0.317393988 0.239341974
0.304111600 0.324730963 0.247944370
0.322201371 0.330802947 0.255661219
0.334345430 0.339531809 0.258696944
0.352055401 0.345603794 0.261733353
0.372801721 0.352308393 0.272359401
0.395066231 0.361037225 0.282605976
0.419354975 0.371916801 0.294623464
0.443643034 0.384060800 0.303731859
0.463756830 0.396204799 0.312207669
0.492472947 0.409613937 0.323972374
0.525237501 0.422264040 0.337634474
0.558127820 0.437444389 0.358380824
0.585452199 0.452624798 0.373561203
0.616445363 0.471979558 0.388867795
0.651992559 0.495002955 0.408222586
0.691460967 0.521062374 0.437950969
0.199367806 0.306388587 0.218342990
0.199367806 0.305249780 0.222644210
0.201518029 0.311321765 0.225300595
0.207590371 0.310309976 0.228842795
0.207969800 0.311068773 0.231878787
0.214041799 0.307020783 0.224794656
0.215180308 0.314105123 0.232384309
0.221505702 0.311069101 0.229348704
0.229854599 0.316381752 0.234661594
0.234535292 0.321062475 0.239342287
0.240480796 0.321188986 0.241871983
0.248577058 0.321188986 0.239848256
0.257685155 0.324983805 0.243263990
0.270588279 0.331055850 0.247564837
0.287033796 0.336243004 0.251486599
0.299177796 0.341682583 0.259961784
0.309803963 0.347754568 0.259961784
0.328399748 0.353826582 0.267299175
0.345857024 0.361163735 0.272106022
0.363567621 0.369892567 0.279949337
0.383681327 0.377861828 0.288677990
0.404933721 0.385451913 0.298797995
0.427830756 0.396204978 0.308032483
0.452118814 0.408348978 0.317140877
0.476407349 0.420493543 0.326249272
0.503352225 0.434029222 0.340923637
0.535737038 0.447691321 0.356609851
0.565338433 0.462871194 0.374067217
0.598228812 0.470841408 0.394813597
0.627324343 0.496647716 0.413535923
0.658570588 0.521315515 0.433776140
0.695002973 0.547121763 0.465654790
0.206957996 0.333712995 0.236558989
0.206957996 0.330677003 0.239595383
0.213662416 0.332574189 0.241999179
0.214168027 0.337381363 0.239468858
0.217077896 0.338013828 0.248956352
0.223150194 0.335357189 0.242504999
0.227198184 0.335863501 0.243516877
0.229095504 0.341429502 0.246046513
0.237444803 0.339911282 0.244528890
0.243516788 0.345224380 0.249841988
0.252625167 0.346995175 0.254522324
0.260721028 0.348513365 0.258064270
0.269829452 0.349652022 0.258444011
0.279190183 0.355344594 0.264009982
0.294876635 0.361417025 0.265781224
0.306767970 0.365970999 0.272106558
0.321947962 0.372042954 0.278178185
0.334724545 0.379380137 0.280708164
0.354205996 0.387223393 0.288551211
0.371157527 0.393042356 0.294370532
0.392789721 0.402150631 0.306894392
0.415053964 0.412270367 0.318026274
0.436812282 0.421884686 0.324604213
0.459709018 0.432637393 0.332321286
0.485515356 0.443263769 0.341429263
0.509804130 0.455408156 0.353320628
0.543327093 0.469955981 0.373814136
0.573687613 0.484123737 0.390006602
0.604806781 0.500442803 0.412017792
0.639468312 0.513346255 0.434788346
0.668058157 0.544971704 0.455155164
0.699557185 0.569892347 0.485388994
0.214927569 0.359266132 0.254775137
0.214294985 0.358127922 0.256546378
0.221631989 0.358127773 0.260215193
0.228715971 0.361163706 0.261353791
0.226059139 0.363061517 0.255660564
0.231625855 0.365338206 0.258190900
0.237065420 0.364579290 0.258064568
0.242757857 0.364199817 0.257684857
0.247185156 0.367868215 0.256799221
0.253257155 0.370904624 0.259835631
0.263883740 0.373307854 0.263883561
0.275268883 0.376343817 0.269955575
0.285641611 0.380645186 0.275395155
0.294750005 0.383681506 0.281467170
0.306514561 0.389373988 0.282226145
0.318152934 0.393042326 0.287666023
0.329285145 0.396963716 0.291587770
0.346868724 0.402403116 0.295256138
0.362049162 0.414547920 0.307400167
0.378494501 0.419607788 0.311827928
0.398735017 0.425806314 0.321821719
0.421758562 0.435294151 0.334345460
0.445920050 0.447311610 0.343326569
0.467172474 0.456419855 0.349399239
0.492346287 0.466160834 0.359013259
0.520176888 0.478558093 0.372169197
0.544971585 0.490702122 0.387855679
0.581024826 0.502846122 0.406072438
0.612776518 0.523719192 0.427703917
0.647311509 0.545224667 0.453257352
0.682099760 0.561417103 0.476407528
0.706388533 0.588741541 0.494623542
0.230107978 0.389626980 0.272991955
0.227071598 0.395698965 0.269955575
0.230740026 0.394560218 0.273877025
0.236053199 0.394560188 0.278431237
0.238203958 0.396458000 0.279949427
0.238203958 0.390386015 0.276913047
0.241239712 0.392662674 0.274383336
0.247817755 0.393548042 0.274889290
0.256420106 0.395319194 0.278178185
0.265401989 0.401265472 0.284124464
0.271473974 0.401391983 0.281341106
0.284124255 0.403668672 0.285135984
0.298798323 0.408981651 0.290069640
0.312966049 0.417077988 0.293611974
0.322074413 0.420113593 0.299683958
0.338646621 0.423402876 0.307653159
0.350031972 0.426439196 0.311954051
0.359013528 0.429728359 0.313472152
0.374193996 0.432763994 0.319544971
0.394940346 0.442125410 0.326122969
0.415686697 0.448830009 0.335736990
0.436179996 0.456167161 0.346110016
0.455028474 0.465528458 0.352434993
0.476280898 0.474636078 0.358507007
0.499809980 0.486021608 0.371410340
0.528526068 0.502087653 0.388867617
0.560152054 0.521062970 0.409108132
0.587476432 0.533206940 0.427324891
0.620872796 0.548007846 0.442884147
0.657558560 0.571031153 0.467678398
0.695003510 0.593801618 0.494876593
0.727640986 0.609994054 0.515876055
0.242505014 0.428336382 0.296774030
0.247817978 0.426059723 0.296520978
0.249083132 0.429980963 0.297786146
0.253257573 0.428209901 0.300695717
0.255914003 0.428210169 0.301075369
0.255914003 0.429348379 0.295635790
0.263504326 0.430866718 0.300189704
0.270335436 0.432258099 0.301201642
0.278684705 0.433776110 0.304996550
0.285768867 0.439848363 0.311069340
0.291967392 0.442884743 0.313978493
0.302087367 0.444908470 0.317014366
0.316508651 0.449082732 0.321948022
0.331435710 0.456040412 0.325237393
0.343073785 0.459076673 0.331309348
0.356989175 0.462112278 0.334978193
0.371789992 0.465148568 0.341809064
0.382289588 0.467552394 0.344339073
0.397470027 0.468437791 0.346110284
0.415433764 0.479822755 0.352182359
0.436686128 0.490828365 0.363947093
0.459962517 0.498671651 0.374952734
0.483618230 0.506009221 0.381404221
0.504870653 0.515116870 0.395446092
0.526122987 0.528779030 0.406072110
0.552688003 0.541429400 0.422137707
0.583681107 0.556483090 0.440986454
0.611005425 0.566350400 0.456925899
0.640986681 0.581151247 0.477798790
0.674256504 0.596331596 0.496773899
0.706388235 0.619607925 0.523212910
0.732194662 0.642378390 0.548260391
0.256546736 0.460214704 0.321062475
0.260720998 0.462871850 0.315369725
0.268437773 0.462239444 0.321315527
0.271474153 0.465275049 0.324351579
0.274130464 0.463883698 0.324224979
0.274130464 0.465401530 0.318152964
0.281720310 0.468437791 0.322200984
0.287539691 0.471473753 0.326628685
0.297660083 0.472485811 0.330423474
0.307147741 0.477419466 0.336495966
0.313219756 0.478684574 0.339658588
0.325237453 0.481720477 0.342820734
0.337381482 0.485894740 0.348892748
0.351296782 0.491207749 0.352688015
0.361796468 0.490955144 0.357115716
0.376343787 0.493990898 0.358886808
0.394560188 0.500062883 0.363440990
0.407842875 0.504490733 0.370145559
0.421758473 0.507020712 0.373940706
0.443516701 0.512460470 0.381404459
0.457938462 0.520809472 0.389373720
0.478178740 0.530929446 0.400506109
0.502593458 0.537128508 0.405945718
0.523845911 0.546236575 0.419354916
0.545098245 0.559898734 0.436053485
