Assets/Resources/EldamarStudio/100 Horror LUTs Pack/LUTs/cube/Draak LUT.cube
LUT_3D_SIZE 8
DOMAIN_MIN 0.000000 0.000000 0.000000
DOMAIN_MAX 0.903226 0.903226 0.903226
0.137254998 0.058823999 0.066666998
0.153320551 0.074889451 0.082732551
0.173308089 0.094876900 0.098798096
0.197849646 0.112080999 0.109297641
0.248323992 0.143326998 0.144212380
0.303478748 0.174193740 0.172422469
0.389120847 0.219228283 0.209107995
0.524730742 0.285262793 0.265654802
0.152941003 0.092472993 0.091713995
0.154079556 0.110942543 0.103099450
0.178368449 0.116761088 0.114484094
0.207716897 0.135610193 0.128526002
0.254016370 0.161037549 0.152055994
0.311448723 0.192662999 0.182542801
0.396205276 0.237317979 0.219101831
0.519291759 0.292852342 0.270840973
0.166224003 0.158254102 0.132321090
0.177229896 0.168501094 0.140290990
0.191271186 0.173181191 0.147375092
0.219860733 0.185705200 0.156736091
0.264009982 0.209993988 0.177862078
0.324225187 0.240860343 0.209234998
0.415053666 0.278811008 0.239721701
0.538140476 0.339278787 0.295888662
0.178747997 0.237065345 0.174825996
0.191271096 0.237824440 0.173940182
0.207717001 0.244781628 0.189247534
0.240986645 0.254522264 0.200126648
0.288677812 0.281593651 0.224161997
0.352814615 0.306135386 0.242884368
0.436305910 0.347121924 0.278178632
0.563061237 0.407716632 0.341555625
0.206957996 0.333712995 0.236558989
0.217077896 0.338013828 0.248956352
0.237444803 0.339911282 0.244528890
0.269829452 0.349652022 0.258444011
0.321947962 0.372042954 0.278178185
0.392789721 0.402150631 0.306894392
0.485515356 0.443263769 0.341429263
0.604806781 0.500442803 0.412017792
0.256546736 0.460214704 0.321062475
0.274130464 0.463883698 0.324224979
0.297660083 0.472485811 0.330423474
0.337381482 0.485894740 0.348892748
0.394560188 0.500062883 0.363440990
0.457938462 0.520809472 0.389373720
0.545098245 0.559898734 0.436053485
0.651992381 0.608855307 0.498671532
0.368500561 0.615559578 0.434534997
0.389753282 0.613662302 0.448956281
0.402150661 0.620872676 0.456166625
0.443643272 0.630739927 0.471600175
0.493864655 0.639848292 0.483871102
0.555218458 0.654142976 0.507273793
0.623023272 0.671094537 0.536116242
0.715496540 0.713851631 0.594686866
0.560025394 0.782289624 0.621378779
0.584313512 0.788741589 0.640734076
0.591271162 0.792156816 0.636685550
0.623402715 0.796204746 0.648576796
0.661353827 0.802023768 0.661100447
0.704111338 0.816824675 0.681593776
0.760910869 0.827577174 0.700569451
0.817583621 0.842378438 0.728779554
0.133712545 0.067046449 0.090575546
0.149020001 0.075648546 0.090954997
0.174446538 0.092473097 0.110942543
0.202277005 0.123845994 0.130929902
0.235041186 0.146489203 0.154332817
0.294117540 0.184946001 0.188488349
0.382669002 0.226439282 0.223023251
0.512966394 0.282605976 0.274762958
0.146615997 0.107400090 0.111321993
0.154459000 0.108159088 0.108538538
0.174825996 0.120682992 0.120682992
0.199493736 0.137507543 0.137507543
0.242125094 0.167362362 0.165844545
0.297912508 0.196963936 0.187982276
0.382795542 0.239974827 0.230233982
0.507147610 0.299050987 0.280834913
0.156736091 0.155092105 0.135484099
0.177609444 0.162176087 0.145730183
0.187349990 0.170019105 0.153573990
0.212776646 0.186084747 0.162935004
0.252624720 0.208728746 0.184819996
0.313725740 0.236938715 0.214168534
0.403668523 0.283112019 0.248703331
0.538519621 0.341303051 0.311069071
0.183048546 0.220746174 0.183681533
0.187350005 0.234155372 0.192030102
0.208096460 0.238836169 0.193927735
0.235420644 0.250600994 0.205565825
0.281973183 0.274509698 0.226312280
0.342947364 0.301834553 0.248324007
0.429981083 0.347122103 0.285135895
0.563947022 0.412523717 0.354585707
0.212523997 0.334092528 0.240860343
0.216698349 0.330550402 0.250727385
0.235926896 0.338267088 0.253763288
0.271094263 0.346110195 0.265148729
0.320809603 0.363693804 0.277798831
0.386337817 0.394687086 0.307779968
0.483871013 0.438456774 0.348007441
0.602024019 0.502087235 0.415053785
0.260341734 0.454143286 0.322960019
0.264769107 0.458697468 0.327514082
0.287665844 0.465907663 0.327766806
0.330803007 0.474130124 0.342947274
0.384819716 0.492219806 0.364452899
0.446932495 0.510563016 0.383554667
0.538646281 0.548893213 0.431751847
0.646046519 0.608728588 0.499051273
0.369512975 0.610626280 0.446552843
0.381657541 0.609108567 0.452245563
0.403541744 0.616951466 0.455028355
0.444781929 0.628210008 0.471853554
0.494497150 0.640480757 0.489816546
0.555344880 0.657305479 0.521189451
0.628462970 0.677672267 0.550158083
0.723213136 0.720683038 0.605439484
0.549272418 0.778114855 0.624161720
0.567615211 0.779126763 0.623023629
0.582542837 0.783048630 0.632511139
0.614800870 0.790132880 0.642504871
0.651612639 0.794813633 0.654269516
0.699051321 0.807716370 0.680961490
0.755724013 0.821125984 0.703225732
0.819607556 0.839848399 0.736116230
0.141176000 0.078431003 0.118406095
0.146236554 0.083491549 0.123087004
0.169386089 0.102719903 0.135610089
0.202277005 0.127008095 0.152814999
0.239847988 0.156736106 0.177862093
0.301580995 0.191144899 0.213029981
0.386843562 0.235800087 0.251486301
0.514610887 0.292472899 0.305123329
0.149778903 0.107400090 0.122707449
0.157621905 0.115243092 0.132827446
0.173687547 0.130171001 0.146615997
0.200252742 0.150917366 0.161037549
0.250095010 0.175964534 0.184946090
0.308792084 0.205313087 0.215939343
0.390385717 0.250980705 0.255281478
0.509550929 0.304870516 0.306388378
0.167868093 0.164579093 0.168501094
0.176850453 0.172801629 0.174446538
0.201517999 0.187350005 0.184946179
0.219860733 0.197090447 0.196331546
0.263251066 0.220999092 0.216318995
0.324730724 0.250727087 0.244022727
0.407969564 0.292852283 0.280329168
0.536748648 0.349651814 0.340923339
0.194939554 0.247185647 0.219860733
0.197596192 0.253131092 0.223782539
0.215180442 0.258949637 0.225679994
0.245288089 0.267552614 0.237824440
0.285136074 0.286274612 0.251865804
0.345351189 0.313219279 0.272486001
0.438076913 0.354332924 0.311574996
0.560657680 0.415180206 0.375332087
0.213914990 0.339279085 0.270209074
0.225047275 0.345856696 0.279064089
0.238962993 0.350158095 0.279696167
0.273750722 0.358001262 0.288298309
0.325110286 0.377609104 0.304743946
0.388741195 0.403035730 0.325363725
0.483112186 0.445667356 0.367995083
0.602782845 0.506514609 0.434787989
0.272612274 0.466666758 0.354458749
0.281720519 0.473118186 0.360657901
0.306767613 0.474256754 0.364579707
0.341429293 0.487919152 0.372802079
0.389499933 0.502466857 0.390765458
0.456546485 0.519291461 0.412397116
0.547754526 0.557874978 0.461480200
0.652877688 0.612776816 0.523719251
0.375711381 0.610626459 0.465781063
0.394054294 0.617963374 0.479569793
0.412397474 0.627197623 0.484503269
0.448829800 0.632005394 0.494117379
0.492220342 0.644528687 0.508159339
0.554712236 0.654648840 0.529158652
0.623023629 0.677292645 0.566603482
0.723339677 0.718785584 0.615433335
0.566350579 0.779000640 0.632384479
0.583048820 0.783807874 0.646173298
0.592156887 0.788235307 0.644402325
0.621378660 0.793042183 0.655660808
0.661733031 0.799999893 0.667931736
0.703605354 0.807969630 0.681467235
0.756229997 0.824288249 0.710056901
0.818342686 0.837318063 0.738140583
0.147375003 0.091334641 0.159266636
0.154459104 0.090069897 0.157748535
0.175205633 0.105756000 0.170777991
0.196711004 0.126122996 0.175458282
0.240986541 0.154712453 0.207589984
0.296900868 0.192663088 0.241745740
0.387476265 0.234914273 0.277545631
0.513851762 0.296521157 0.342061967
0.159266010 0.117520280 0.163820192
0.164326370 0.122580640 0.170398533
0.179886445 0.133586451 0.175458193
0.198608637 0.146868736 0.188361645
0.242125198 0.175078839 0.215433285
0.300695896 0.205945373 0.241113380
0.387096822 0.252624929 0.288931280
0.513725519 0.308412164 0.340796888
0.169386089 0.168501094 0.192789197
0.176344097 0.176217288 0.203542173
0.197596088 0.184061095 0.207590178
0.217837006 0.194181100 0.220493644
0.263630629 0.219734460 0.246299833
0.318279654 0.253383815 0.273371160
0.414168268 0.298418999 0.318785608
0.530803204 0.358127713 0.371536911
0.190512002 0.241113275 0.242757991
0.195193008 0.246299639 0.235167623
0.215053648 0.259582639 0.256419837
0.248323992 0.276407272 0.269702643
0.291334391 0.293231815 0.289057165
0.351170093 0.318279654 0.310436606
0.441872209 0.366729915 0.352182269
0.569892406 0.427830577 0.418469101
0.215939358 0.341429204 0.315749288
0.226312175 0.351549447 0.307021111
0.247565076 0.358253926 0.313219279
0.283491373 0.366856635 0.323718816
0.331309170 0.383681208 0.337381393
0.396204978 0.407210499 0.362555385
0.486274481 0.450727522 0.407590002
0.603541851 0.509677410 0.463883728
0.269702643 0.466666460 0.378115386
0.284250379 0.471347362 0.383681387
0.304996729 0.479190350 0.397723168
0.344845116 0.489310384 0.402909726
0.396078378 0.505502880 0.418468922
0.457179368 0.522327423 0.444781363
0.543833017 0.561290324 0.481846750
0.658697069 0.614421189 0.542821050
0.376976550 0.616192222 0.493485212
0.396963984 0.620113552 0.494623452
0.411511809 0.622390866 0.500442982
0.449209243 0.631878555 0.514737666
0.498165846 0.640860200 0.530676544
0.561290443 0.658064187 0.552309036
0.629728258 0.682352960 0.578621268
0.723086834 0.725996196 0.639215827
0.554585576 0.780644894 0.652498424
0.567362309 0.781403840 0.651233435
0.587096632 0.784819663 0.661859572
0.614547610 0.791271269 0.669576406
0.649588704 0.799367309 0.680581987
0.699936509 0.809360981 0.692346334
0.755724311 0.822517455 0.720176816
0.820619583 0.844275773 0.754079401
0.151423201 0.103478804 0.213914990
0.157622010 0.106640995 0.214041814
0.177988991 0.121569000 0.223403081
0.204553992 0.141935199 0.229601383
0.242884189 0.163819999 0.246806189
0.300695986 0.197343275 0.281214178
0.393928289 0.240480989 0.321694970
0.520935953 0.303478807 0.387096792
0.168374360 0.128526181 0.214168549
0.169006541 0.138773009 0.223023534
0.186717093 0.144971281 0.223782539
0.212903365 0.162681639 0.237065360
0.248070717 0.181404352 0.253510535
0.303984791 0.211132348 0.285135984
0.395066559 0.256167203 0.331562191
0.522200942 0.317393988 0.395192742
0.176596910 0.181783885 0.241999000
0.178368449 0.187729463 0.243643284
0.196837097 0.194307178 0.250727177
0.227071553 0.208855450 0.265275419
0.260974020 0.228842288 0.282859087
0.325489759 0.255281270 0.311321825
0.416571856 0.299936980 0.356356561
0.542567611 0.359012991 0.416065842
0.193042204 0.253510445 0.288425028
0.198734745 0.257811278 0.294244349
0.218216538 0.271094084 0.298418999
0.248323992 0.285515428 0.308159620
0.293738186 0.297153831 0.327387452
0.356609821 0.326502264 0.355091810
0.448196977 0.369133413 0.394180745
0.572042823 0.428589582 0.457938224
0.216318801 0.343074203 0.340038180
0.234409004 0.351422936 0.348892987
0.251486272 0.368248105 0.359645993
0.299304187 0.390512526 0.380012393
0.349398971 0.407337368 0.402783155
0.407210648 0.424920738 0.409993738
0.497280180 0.461353540 0.449589163
0.611511827 0.518659174 0.501328170
0.282858700 0.475142539 0.429980963
0.292979211 0.480581760 0.430360526
0.315243632 0.493485183 0.439468652
0.357621849 0.504490972 0.455155164
0.407716721 0.518659174 0.466034174
0.472232670 0.542062163 0.491587728
0.555344522 0.570904255 0.524731398
0.663251102 0.623529255 0.581530929
0.389753461 0.620240271 0.530929625
0.398355275 0.625806272 0.537254870
0.420240432 0.630360603 0.541808844
0.452751189 0.637950897 0.551296711
0.503858268 0.653130651 0.560531437
0.564199746 0.669070125 0.583554685
0.633902788 0.688171864 0.614421546
0.727514207 0.732447803 0.664009929
0.550916553 0.785072923 0.675522029
0.565844417 0.783554792 0.667931616
0.582289636 0.789120853 0.677798927
0.612776697 0.794686973 0.685515404
0.656040370 0.800505579 0.701581299
0.700695813 0.813788772 0.716761112
0.762428701 0.829095364 0.739784777
0.827324569 0.845414400 0.768880367
0.149020001 0.121441990 0.283870727
0.155218199 0.125743449 0.284124166
0.184946090 0.139784828 0.294244081
0.212396994 0.155850902 0.297406465
0.255028635 0.179379985 0.314737260
0.305502981 0.205565736 0.334724724
0.394940019 0.245920286 0.375711262
0.524098694 0.300189704 0.441113383
0.157242462 0.148893192 0.281214744
0.165464997 0.152308747 0.291967154
0.185325548 0.160531193 0.293485075
0.215433180 0.172675654 0.301707923
0.258949727 0.195445940 0.319038600
0.313219458 0.219607934 0.337001890
0.392156661 0.263503820 0.381277382
0.530676484 0.323718995 0.448197186
0.172296256 0.201265097 0.307653368
0.179886356 0.205819070 0.320429981
0.197090447 0.208349198 0.316255450
0.233522996 0.221252352 0.328020185
0.275648147 0.239342436 0.338646650
0.329158813 0.265528202 0.368880391
0.415306717 0.305882424 0.402783006
0.543200493 0.366729766 0.467678756
0.185831904 0.267678440 0.344212353
0.197216749 0.274003983 0.344592124
0.216698349 0.278304845 0.350537539
0.250221521 0.291587740 0.364326119
0.298671633 0.310436487 0.383934021
0.364832431 0.333586365 0.403162330
0.452119023 0.373940647 0.445414454
0.581277728 0.438836187 0.509297788
0.212397188 0.360910475 0.399494171
0.223276377 0.367109358 0.405059993
0.250221431 0.374699622 0.411005646
0.292599440 0.391144812 0.425933152
0.346995175 0.407210380 0.442504644
0.407084167 0.432637632 0.465528101
0.503731728 0.468311399 0.502719700
0.619607985 0.523213267 0.549525619
0.278052002 0.479696721 0.469829440
0.288424760 0.488551497 0.478304684
0.317393810 0.499177724 0.488171816
0.356103331 0.511321962 0.500316381
0.422770262 0.540670216 0.527893484
0.487412721 0.561922729 0.554079652
0.566982627 0.582416236 0.572422504
0.670588255 0.625679612 0.617077470
0.387476265 0.627071559 0.568248034
0.400253028 0.624415040 0.571157336
0.426565379 0.633143604 0.582922220
0.461100549 0.645287812 0.593927920
0.513599277 0.663377643 0.612397254
0.572169542 0.678178549 0.624794304
0.645288050 0.702719986 0.655407548
0.749146104 0.744212091 0.696774423
0.554838598 0.785452485 0.707779527
0.567868412 0.785072923 0.698038876
0.581277609 0.790132761 0.706641078
0.609108031 0.794433773 0.712080836
0.644022703 0.802656353 0.718912065
0.693105400 0.812903523 0.732447803
0.756862521 0.828589618 0.755977333
0.829474747 0.851233423 0.792283475
0.146742716 0.143453285 0.406451553
0.156989008 0.150031552 0.408981711
0.188235208 0.162175909 0.414800823
0.231498927 0.178241640 0.419481546
0.284250379 0.199746996 0.425806373
0.349525452 0.224288434 0.446426094
0.427324533 0.262365282 0.464895844
0.530930042 0.315623254 0.505755901
0.148766547 0.171916738 0.401012093
0.160405025 0.174066991 0.403288990
0.188614741 0.180645242 0.407337099
0.232257903 0.195572555 0.416065812
0.286527574 0.218469188 0.431499034
0.356230289 0.244781628 0.452751279
0.431246281 0.280202299 0.471220821
0.541429281 0.335104078 0.519038320
0.156989098 0.217710286 0.421884745
0.165464997 0.226438895 0.428210169
0.195319101 0.232637569 0.426692188
0.241619632 0.244781733 0.435167551
0.299051374 0.264010370 0.447691470
0.365464658 0.286654085 0.466540366
0.445920259 0.321695358 0.489184141
0.550537229 0.372928500 0.530297160
0.172042638 0.297659993 0.449082941
0.183301374 0.293105781 0.446552813
0.216319084 0.299051374 0.453130841
0.261226892 0.316761613 0.467678636
0.321315616 0.332700551 0.479822755
0.391651005 0.360025376 0.498165816
0.480581820 0.392536223 0.525490165
0.587982476 0.446046889 0.573687613
0.208349273 0.393927902 0.486148000
0.218722090 0.396331459 0.496141732
0.252245188 0.401012003 0.501960635
0.291840464 0.409993798 0.506514728
0.357115656 0.425174177 0.523719430
0.430993199 0.450600922 0.541808546
0.518153131 0.480581462 0.565970659
0.626818597 0.531815290 0.614547491
0.281973481 0.516887963 0.554459453
0.298418969 0.520809472 0.560025454
0.325110495 0.522833645 0.568754077
0.368627518 0.533080220 0.574193537
0.429095685 0.545983255 0.592410028
0.493611932 0.565970778 0.605818987
0.580898225 0.592410028 0.629222035
0.679443181 0.633775949 0.669070303
0.408349544 0.646552801 0.637697518
0.404807091 0.638836265 0.629854202
0.433269829 0.648070633 0.632637680
0.471220911 0.657684863 0.646552503
0.520303547 0.669449866 0.660721004
0.598735034 0.699936748 0.688551247
0.675268769 0.722707510 0.715496540
0.755470872 0.751296639 0.743073583
0.559645355 0.789373636 0.737001717
0.570271850 0.786337733 0.734092176
0.588614881 0.791018307 0.740037799
0.614421368 0.799999952 0.752561569
0.651992321 0.808728755 0.760152102
0.706641436 0.827071667 0.776723564
0.765464842 0.837318242 0.792536497
0.839341879 0.861353576 0.827830315
0.103099026 0.174066812 0.587602556
0.128147021 0.175964832 0.585325897
0.182037011 0.189120725 0.591524601
0.247058824 0.205186471 0.589120805
0.327134848 0.233269960 0.596584201
0.416445285 0.264009804 0.605819166
0.508412242 0.310942411 0.621884882
0.611258447 0.363820642 0.646426558
0.108412012 0.201265275 0.586716950
0.126376018 0.204300970 0.582416415
0.183301806 0.211005822 0.587982118
0.252118975 0.231752157 0.593421996
0.332953811 0.256040365 0.601644456
0.424794227 0.291081578 0.618595719
0.519291520 0.332827181 0.633396387
0.619734585 0.387602806 0.655028582
0.115876041 0.253637075 0.588488460
0.145857200 0.260341883 0.595066488
0.194560111 0.263757139 0.601264775
0.262365580 0.280328810 0.598608255
0.339152187 0.301328063 0.608095646
0.430739909 0.337128341 0.622390807
0.528905690 0.377862066 0.643263638
0.628842294 0.422517508 0.669323504
0.127514362 0.333586454 0.611258388
0.151929080 0.335863471 0.611511528
0.208728924 0.342821181 0.613915086
0.282352835 0.359392464 0.622643948
0.363567203 0.382795751 0.629601240
0.451865792 0.408222616 0.648070693
0.549398661 0.444275796 0.664136529
0.648323953 0.487918973 0.687286556
0.198735178 0.440227807 0.634787798
0.210752904 0.441113204 0.635673463
0.243516982 0.443010837 0.641239524
0.305376261 0.449714988 0.645287991
0.391271174 0.465274990 0.656293452
0.477672160 0.491587639 0.670335054
0.573308051 0.523719192 0.683617830
0.673877060 0.560151756 0.711321950
0.308538705 0.568247616 0.679569662
0.319670826 0.569133282 0.683491409
0.345477730 0.569386303 0.685262203
0.385072559 0.571916282 0.684503317
0.436812282 0.576976478 0.689057529
0.518279254 0.592283368 0.704617441
0.614421189 0.616192162 0.719544470
0.708032668 0.646299720 0.746995509
0.447691083 0.696774542 0.735989869
0.456420094 0.697406709 0.737634480
0.470082462 0.693358541 0.739911318
0.506641150 0.700822294 0.747375071
0.552688301 0.707906425 0.754332542
0.615559995 0.718911946 0.765464783
0.686527252 0.738772988 0.780012608
0.780645192 0.767742097 0.811258495
0.593168497 0.801897585 0.799240708
0.586464226 0.809234440 0.793042183
0.606198549 0.806577682 0.799873352
0.631625235 0.813535810 0.805565774
0.670588076 0.819101810 0.814800918
0.722580373 0.835167289 0.832004726
0.790638566 0.853383780 0.853131056
0.855407596 0.886906743 0.876407564
