Assets/Resources/EldamarStudio/100 Horror LUTs Pack/LUTs/cube/Draak LUT.cube
LUT_3D_SIZE 5
DOMAIN_MIN 0.000000 0.000000 0.000000
DOMAIN_MAX 0.903226 0.903226 0.903226
0.137254998 0.058823999 0.066666998
0.167995006 0.089563996 0.093484998
0.221631572 0.127514407 0.127514407
0.325743258 0.187349871 0.178494990
0.524730742 0.285262793 0.265654802
0.162428722 0.150664285 0.127767280
0.183680996 0.157242268 0.140543982
0.241239995 0.185704991 0.161163718
0.337887108 0.237065122 0.212523580
0.534851432 0.328399658 0.292346656
0.190891996 0.277292818 0.200126827
0.215433285 0.286780655 0.213535696
0.277925402 0.311954409 0.239341974
0.395066231 0.361037225 0.282605976
0.585452199 0.452624798 0.373561203
0.276786983 0.490575224 0.346363127
0.309803665 0.507906556 0.352940947
0.383681536 0.523592532 0.381024539
0.499431133 0.557242274 0.425806254
0.662871897 0.636685908 0.520683229
0.560025394 0.782289624 0.621378779
0.586717248 0.791144729 0.634661555
0.643263817 0.796584606 0.654902041
0.717267454 0.818848729 0.682605922
0.817583621 0.842378438 0.728779554
0.138899282 0.073876999 0.108538993
0.161796272 0.095129706 0.126502290
0.217710406 0.135357410 0.158254415
0.316508412 0.200758845 0.218090117
0.514610708 0.289437085 0.295256108
0.164072990 0.147121981 0.148766696
0.186337978 0.166097403 0.164452702
0.232763991 0.188994408 0.187349692
0.337128550 0.240354106 0.239974976
0.534218729 0.333965659 0.324477971
0.197090298 0.280835122 0.230487108
0.219987273 0.292346805 0.241619110
0.277292818 0.313598692 0.257684976
0.389247417 0.363946676 0.302846223
0.583175063 0.458570629 0.397090226
0.281973571 0.491967231 0.367615253
0.316381931 0.500821948 0.381024659
0.381783545 0.521695077 0.399746805
0.490955114 0.554965019 0.434408426
0.667552173 0.634788096 0.537381470
0.564073443 0.779000640 0.628336310
0.580518544 0.784946442 0.639595270
0.635420501 0.797343612 0.657558560
0.714737475 0.813788831 0.687286437
0.816065669 0.840100884 0.737634480
0.149652421 0.094117999 0.184313998
0.167995006 0.109170996 0.186969995
0.214420989 0.140543580 0.211890981
0.320176691 0.209614128 0.273371398
0.514864147 0.298291981 0.362428784
0.169639707 0.165085703 0.209867001
0.182036698 0.170271710 0.217077568
0.230107412 0.194180995 0.236053407
0.332574546 0.254395992 0.295256138
0.532447636 0.344971269 0.381657094
0.205945417 0.287665963 0.290322810
0.222264409 0.302719563 0.297786266
0.293611377 0.339405358 0.332194805
0.401264697 0.379000545 0.368880242
0.581530333 0.466413379 0.459202766
0.297280133 0.502593100 0.426691711
0.318532437 0.514990330 0.429348558
0.392409831 0.530044138 0.448956132
0.500442982 0.565085292 0.490575254
0.671726584 0.646932185 0.579886317
0.552940965 0.776976585 0.673877597
0.576470435 0.782542408 0.662745059
0.630107164 0.795952022 0.678305030
0.713725150 0.812903166 0.709045053
0.822896779 0.852371991 0.761543393
0.148007870 0.128526121 0.307147115
0.176091120 0.140543997 0.315243244
0.235420406 0.172296122 0.326755136
0.326755136 0.219734251 0.363061279
0.521821618 0.305502802 0.457305640
0.166730002 0.194180831 0.327640980
0.188235417 0.201011702 0.333206683
0.254395992 0.223023400 0.355850816
0.349652112 0.267805547 0.384566844
0.543959439 0.356862783 0.480834812
0.194180995 0.318785697 0.387476116
0.221631825 0.333839089 0.403162688
0.299810082 0.352814674 0.422517389
0.411132514 0.394054085 0.458570242
0.594307363 0.474256784 0.538013697
0.298292249 0.515117109 0.507274151
0.328273267 0.532321393 0.519291282
0.410752654 0.556862950 0.542820871
0.528905332 0.600379288 0.593548357
0.689563632 0.658064187 0.644908071
0.562428713 0.786717355 0.719165087
0.581783593 0.789626777 0.721062660
0.631246209 0.800505757 0.728905797
0.710815907 0.819481432 0.747628093
0.833775699 0.852245390 0.799873590
0.103099026 0.174066812 0.587602556
0.166350543 0.184819683 0.590259433
0.286527783 0.218469143 0.594180703
0.440733910 0.277419239 0.610879302
0.611258447 0.363820642 0.646426558
0.112840034 0.239721522 0.587982297
0.177102998 0.247564837 0.597469747
0.297659397 0.274383247 0.601644337
0.451486230 0.330803514 0.625426590
0.623023391 0.409614384 0.660468102
0.155471176 0.378747374 0.616825044
0.205692530 0.383301795 0.626438916
0.328399777 0.406198382 0.632637203
0.482605934 0.456040382 0.658823550
0.655534625 0.520177007 0.689436793
0.342188388 0.600885451 0.687666059
0.368501067 0.600252926 0.696394682
0.434155524 0.605439544 0.698291957
0.559013128 0.624414921 0.719797492
0.723213017 0.673370957 0.760404706
0.593168497 0.801897585 0.799240708
0.599620223 0.805059731 0.800885439
0.648450017 0.816951215 0.809740543
0.737760723 0.839468956 0.833269596
0.855407596 0.886906743 0.876407564
