Assets/Resources/EldamarStudio/100 Horror LUTs Pack/LUTs/cube/Dreq LUT.cube
DOMAIN_MIN 0 0 0
DOMAIN_MAX 1 1 1
LUT_3D_SIZE 32
0.054901998 0.000000000 0.000000000
0.054901998 0.000000000 0.000000000
0.057052772 0.000000000 0.000000000
0.062618837 0.000000000 0.000000000
0.071726546 0.000379548 0.000758999
0.080834940 0.003415935 0.006830999
0.089943320 0.006451677 0.012902999
0.099051282 0.009487708 0.014041712
0.107400000 0.011765001 0.012523903
0.113472007 0.011765004 0.015559516
0.125363737 0.017584000 0.015686000
0.135483727 0.021631740 0.019733995
0.146868646 0.024667645 0.023529001
0.161796063 0.027956998 0.024288032
0.173940822 0.034028992 0.033396408
0.188488185 0.042504799 0.040100995
0.205186382 0.050094996 0.049209379
0.223402977 0.056166992 0.059456415
0.241619021 0.062239014 0.062492035
0.257052362 0.071094364 0.065528356
0.272232741 0.082099989 0.070461996
0.290448993 0.092219993 0.076534003
0.315116495 0.098291993 0.082858987
0.348513722 0.104364000 0.095003001
0.375078976 0.112713285 0.098039001
0.407716274 0.123212978 0.103604980
0.450727165 0.134851068 0.115243062
0.496268302 0.143959448 0.124351434
0.547121704 0.158380806 0.138772801
0.596963763 0.171789959 0.152181968
0.649083138 0.184819594 0.164326206
0.709803998 0.200000003 0.176470995
0.048829999 0.003036387 0.000000000
0.060973998 0.000000000 0.003036387
0.060973998 0.004300999 0.005186613
0.064389609 0.006072000 0.007337161
0.071346998 0.005692549 0.009108387
0.077798553 0.003415935 0.009867387
0.086906932 0.008981999 0.008349065
0.094370611 0.012523675 0.011258708
0.102845997 0.015559710 0.011765001
0.113472007 0.017837003 0.012523906
0.122453868 0.020746129 0.018469386
0.136495858 0.024667868 0.022770382
0.148766398 0.028842384 0.029981028
0.161796063 0.034029000 0.035673775
0.173940822 0.040100992 0.036432795
0.186084986 0.046172999 0.045540575
0.203668565 0.054648802 0.053763188
0.223402977 0.062238991 0.062492188
0.241619021 0.068311013 0.065528415
0.257052362 0.079949714 0.065781385
0.276027739 0.085515648 0.068564259
0.295509130 0.093232125 0.074509740
0.318026394 0.101581372 0.083111979
0.348513722 0.113472387 0.101074994
0.381910264 0.121821664 0.106388286
0.414041698 0.132321358 0.111322045
0.452751458 0.143959463 0.120809771
0.493231922 0.153067842 0.127387822
0.538773060 0.162175536 0.139152363
0.593168914 0.174826026 0.145098001
0.648197532 0.188741371 0.156609580
0.706767619 0.206072003 0.179506615
0.049209226 0.008223000 0.002150774
0.061353773 0.005186613 0.011638386
0.060594771 0.008601999 0.006072226
0.068184778 0.010879161 0.006578161
0.076280780 0.010752773 0.007843452
0.075268768 0.013029935 0.009614226
0.088172093 0.011132224 0.017836679
0.097280055 0.017204223 0.014800711
0.105376191 0.020746097 0.017583998
0.117520556 0.023782484 0.020367000
0.126754865 0.026818678 0.021884998
0.137887508 0.031878546 0.027956994
0.149525777 0.036179774 0.031751998
0.159898818 0.042251773 0.037824258
0.173940822 0.048323769 0.043517001
0.188235208 0.054395765 0.048576962
0.203415602 0.060467772 0.054648969
0.222137988 0.068943568 0.059962198
0.237318024 0.076533787 0.059962202
0.254902124 0.083870947 0.066666998
0.275774747 0.092220224 0.070461996
0.296267986 0.096520998 0.074762776
0.316887736 0.104490727 0.082858987
0.349272817 0.114611000 0.097027004
0.381910264 0.128779277 0.110309511
0.418089628 0.137887657 0.113345899
0.456293374 0.149272770 0.121948287
0.497406423 0.160025448 0.132953987
0.544338703 0.169133693 0.144338965
0.596963763 0.181783274 0.149398997
0.654649019 0.195192814 0.155597582
0.712333798 0.212144002 0.180391997
0.052245162 0.015559838 0.006452000
0.061859615 0.016318936 0.016066000
0.062365998 0.017204322 0.010626227
0.063883997 0.020746322 0.012902999
0.080582000 0.017710613 0.009487838
0.078052007 0.021125998 0.009867064
0.087160319 0.023402836 0.017963000
0.100316443 0.024035320 0.023149550
0.109424256 0.030107319 0.022391031
0.121062979 0.033649646 0.028463161
0.129032284 0.035420869 0.027450999
0.141429514 0.041746158 0.032764155
0.152435347 0.046679512 0.037697513
0.159645900 0.052624997 0.038583029
0.175838396 0.058696989 0.047691409
0.189753354 0.064768992 0.053131156
0.203921214 0.070841320 0.053889871
0.223402962 0.076913320 0.058823824
0.238077193 0.085389137 0.058950201
0.253257543 0.092978999 0.064516202
0.276533991 0.099050991 0.074257158
0.298798263 0.106135122 0.081341028
0.317520291 0.112586662 0.087792501
0.349778563 0.121695057 0.098798163
0.380645096 0.131562278 0.105882153
0.415559620 0.145224497 0.116381831
0.455534130 0.154838964 0.120430097
0.498038858 0.166983157 0.134092271
0.550916910 0.175205812 0.145350978
0.603541672 0.189120889 0.152941003
0.660341263 0.203415141 0.156482980
0.717647016 0.218215987 0.176596835
0.055281546 0.025806095 0.011765000
0.061353546 0.031878773 0.018595999
0.061353769 0.033650000 0.010752773
0.063883997 0.032891002 0.006830999
0.074889451 0.033270452 0.023149548
0.080961451 0.030234063 0.017077548
0.089943320 0.034788094 0.021505097
0.100695990 0.038836256 0.023908548
0.111701548 0.041872550 0.025047192
0.120809942 0.047944549 0.031119965
0.127767459 0.048956547 0.029601676
0.139911711 0.054649252 0.034282252
0.152814895 0.061100900 0.041113351
0.162681550 0.064389542 0.044149030
0.180898279 0.070461541 0.053004406
0.193548441 0.076533541 0.056167256
0.206071988 0.082605831 0.056546710
0.219607577 0.088678442 0.053889595
0.243896395 0.094750464 0.066034392
0.258190989 0.103605196 0.070967741
0.279063702 0.110436089 0.078557923
0.303731710 0.117520124 0.089690410
0.322327942 0.126755014 0.098545030
0.352434993 0.136116460 0.107147358
0.382036358 0.142947555 0.110942543
0.412396848 0.151802540 0.113978662
0.450980127 0.163567141 0.123466484
0.493484855 0.175711885 0.132574081
0.550411165 0.183681533 0.141302824
0.608349264 0.196078494 0.149398983
0.662618577 0.212903082 0.157242075
0.717267454 0.225047097 0.169386089
0.058317933 0.044022866 0.011765000
0.064389937 0.050094865 0.023908999
0.066160932 0.051865995 0.022138000
0.068185002 0.049335998 0.015812773
0.074889451 0.045414448 0.017077548
0.077925064 0.048450064 0.020113936
0.089057706 0.053004637 0.026692256
0.100695990 0.055787869 0.028716164
0.111322001 0.056293935 0.027704030
0.117773555 0.057052936 0.031119971
0.129791051 0.063124932 0.037192002
0.142947316 0.068184927 0.041745931
0.155850708 0.072485998 0.047185354
0.165717945 0.073497936 0.050221033
0.183933929 0.079569936 0.053257413
0.192536056 0.085641935 0.050095003
0.204174250 0.091713935 0.053131253
0.218848556 0.097786054 0.059709281
0.234788030 0.103858076 0.069070011
0.256293416 0.112713426 0.081214778
0.276027739 0.118026674 0.086148128
0.298292130 0.123592734 0.092726186
0.319291562 0.132827014 0.101581417
0.346616000 0.144971818 0.104617029
0.383554846 0.152055934 0.115496635
0.415433496 0.160910904 0.120050937
0.448323965 0.172548994 0.123592995
0.499556869 0.181783885 0.135610476
0.547374547 0.196584806 0.142061934
0.605059862 0.208475888 0.152181968
0.662112534 0.222517520 0.163314208
0.714231014 0.237191871 0.175458863
0.063883997 0.059709318 0.021884996
0.067425676 0.063250996 0.021378677
0.075648457 0.067172773 0.027071452
0.078052163 0.067552321 0.028463159
0.082479768 0.064769320 0.030866642
0.085515380 0.065654710 0.031752255
0.093611643 0.066160642 0.034787998
0.102466993 0.070588291 0.037318390
0.112081096 0.072232768 0.036559321
0.119924329 0.074004002 0.041366484
0.131815314 0.077293314 0.047311999
0.141935572 0.083365314 0.051360253
0.156103671 0.088298671 0.054649319
0.167994708 0.089943029 0.056546643
0.179379985 0.093738317 0.061859734
0.195192799 0.102213509 0.064895511
0.207716316 0.106894188 0.063757189
0.223908558 0.111954309 0.069576412
0.239088997 0.118026331 0.074889041
0.257305712 0.124351360 0.081720717
0.280455291 0.133459732 0.090069994
0.304364115 0.138772994 0.094750315
0.328905463 0.146362826 0.102340475
0.356229931 0.156103820 0.110183097
0.383554846 0.168247998 0.115496576
0.423403293 0.177608982 0.125743300
0.458444387 0.189247072 0.129664734
0.501960754 0.198355451 0.135736987
0.558507204 0.212776795 0.147627994
0.607083976 0.227957174 0.157241955
0.666540146 0.239974916 0.171157196
0.726375282 0.251866311 0.186590999
0.069955997 0.074889697 0.034028992
0.069702610 0.079570018 0.030993028
0.075395070 0.080961473 0.030613480
0.084503457 0.081467539 0.036179543
0.088298835 0.081467539 0.043769836
0.091334768 0.082732700 0.042504996
0.099430606 0.084376991 0.040101390
0.106894284 0.084376991 0.046425998
0.113725379 0.087412797 0.044908382
0.122833773 0.090449184 0.050094999
0.133206993 0.093485147 0.056166995
0.146616250 0.096900985 0.058570541
0.155724347 0.101834342 0.060468286
0.169892028 0.105376020 0.061227318
0.181783408 0.111195408 0.068690993
0.190765083 0.114104889 0.069070190
0.208981469 0.124730699 0.072106190
0.227324143 0.128146574 0.076407567
0.243516713 0.133206710 0.081467457
0.263124704 0.137634426 0.090575710
0.283491671 0.145603731 0.095003277
0.305755675 0.154712126 0.101075277
0.331561983 0.161669686 0.107273787
0.363440603 0.172295898 0.116381802
0.394054145 0.182036698 0.121568568
0.426945239 0.192789361 0.129032314
0.469703048 0.204174355 0.137128055
0.511448383 0.213282436 0.140164450
0.561922729 0.227703810 0.152814671
0.622517347 0.241239876 0.166603372
0.670208812 0.257305682 0.174319804
0.731688738 0.268691003 0.187223300
0.076027997 0.091587901 0.045414094
0.074509799 0.097660087 0.043137383
0.076407194 0.097153999 0.043769997
0.082985260 0.098165929 0.045287933
0.090575546 0.096268088 0.052877646
0.092852838 0.099683933 0.049842030
0.101707675 0.100442775 0.044275906
0.109170996 0.103352092 0.045667481
0.117520086 0.103352092 0.054016192
0.126628473 0.106388479 0.057052583
0.134977773 0.109424315 0.062238995
0.148134157 0.112460248 0.064263001
0.160278350 0.114737444 0.065022096
0.169892028 0.118026093 0.065275066
0.185072407 0.126628414 0.073371314
0.195319086 0.129285097 0.073624201
0.207463279 0.133839086 0.075142190
0.229980633 0.144718081 0.080075979
0.248576954 0.147880971 0.089310877
0.268058389 0.151676267 0.099683903
0.289310753 0.158507347 0.105376258
0.310310096 0.167615235 0.109424189
0.329158574 0.176723599 0.115496181
0.364958823 0.188235208 0.123971999
0.398355365 0.199620292 0.128526181
0.435293972 0.209487766 0.134345397
0.475269139 0.219102100 0.143453166
0.520556450 0.228462726 0.146995544
0.570271671 0.242124900 0.157621711
0.625426531 0.256293386 0.175079182
0.686147690 0.270208955 0.185705483
0.731688917 0.288424999 0.182669088
0.082100004 0.112839535 0.054522492
0.085136384 0.118912295 0.054522485
0.085768968 0.114231721 0.058697000
0.088551968 0.111828014 0.061986007
0.093611933 0.117520496 0.061986037
0.090575553 0.123592496 0.058950424
0.100442521 0.119418018 0.053383850
0.109171003 0.120303489 0.053889945
0.117520101 0.124604493 0.060088973
0.132700473 0.124604493 0.066160977
0.138898998 0.127640873 0.069196619
0.151169777 0.130676717 0.070335008
0.162934512 0.132574007 0.071473651
0.169892028 0.133206502 0.074383460
0.185072407 0.139278501 0.077419065
0.200252801 0.143073827 0.078304529
0.215053678 0.147501498 0.082732201
0.233017027 0.153826490 0.092219986
0.260341465 0.159898520 0.104364008
0.276154369 0.165844023 0.110815525
0.295382738 0.173687264 0.113345519
0.316635132 0.182795629 0.115496263
0.338266969 0.191904008 0.121568963
0.371663392 0.201012403 0.127640963
0.402909547 0.214800686 0.131562188
0.438962787 0.228336334 0.137381181
0.481341153 0.240354493 0.146489561
0.523845792 0.252498478 0.155597940
0.577103019 0.264515966 0.159139648
0.631498814 0.278557688 0.175078899
0.686527133 0.294496983 0.191903993
0.740796506 0.312712997 0.191777498
0.085262865 0.131182745 0.063630871
0.085389383 0.128525898 0.049083002
0.088425227 0.134598121 0.061985999
0.091714129 0.133079991 0.069829158
0.098165676 0.135483548 0.070335321
0.105249934 0.139025867 0.062239062
0.107273549 0.137507543 0.066793129
0.118279405 0.136748701 0.068816870
0.126881734 0.140796959 0.074130222
0.135610357 0.142947733 0.078051999
0.142061859 0.142947733 0.075395130
0.154206127 0.145983607 0.080455512
0.168247864 0.150157869 0.082226738
0.178114906 0.153699875 0.082985841
0.187982276 0.154458866 0.080708452
0.205565855 0.158127680 0.088551670
0.221252188 0.164200053 0.093105741
0.237065136 0.172296152 0.100189865
0.257558882 0.180644885 0.107779875
0.276533902 0.186716884 0.111574516
0.295635730 0.192789346 0.117520481
0.316888124 0.199873745 0.119544744
0.338519990 0.207337365 0.121821992
0.369133800 0.222011775 0.127893999
0.407084167 0.231119573 0.136242703
0.444908291 0.243643194 0.143326670
0.487919062 0.256293803 0.152435064
0.532826960 0.270840973 0.161543459
0.585958362 0.288298637 0.173307985
0.640607178 0.300948709 0.182415843
0.690828443 0.315875858 0.197722718
0.735356987 0.334091872 0.203795001
0.094370991 0.149398997 0.072738737
0.088298738 0.152434841 0.063630603
0.094497479 0.147754252 0.064009994
0.095003091 0.153826252 0.073371157
0.099177547 0.154585257 0.075268999
0.108285934 0.152687937 0.074383311
0.116382189 0.156735927 0.077925250
0.121062502 0.153699964 0.077419259
0.130929992 0.155977160 0.081214353
0.137002006 0.159013212 0.084250741
0.149146259 0.163188249 0.085515387
0.155218259 0.163188249 0.086527511
0.166983008 0.166223869 0.089184351
0.177861989 0.171410248 0.088804737
0.192283154 0.174952254 0.091081575
0.208602250 0.179379791 0.097659796
0.226818249 0.182416171 0.103731796
0.242504567 0.189247578 0.108032733
0.259329677 0.195572555 0.111321747
0.277546287 0.203921258 0.116635159
0.301454991 0.211890981 0.119670764
0.321948230 0.219102114 0.123592734
0.342694461 0.226565748 0.123972237
0.374952525 0.241746157 0.131942004
0.412144542 0.252371967 0.142314956
0.450221568 0.264262915 0.150031239
0.492979318 0.277039975 0.159013122
0.541555703 0.290701807 0.169639707
0.591017962 0.306514621 0.179379970
0.643896282 0.319418192 0.186211199
0.699177742 0.335736811 0.202023834
0.745477498 0.357368499 0.217963248
0.099684000 0.168753639 0.080708288
0.095129617 0.173687279 0.078051642
0.095509134 0.173434272 0.078304648
0.101834483 0.171283633 0.082858801
0.099557094 0.176217169 0.080202639
0.107147291 0.170904279 0.084756643
0.116255678 0.173813641 0.089690000
0.123719350 0.176090702 0.090322651
0.132068440 0.176091090 0.088045545
0.139279008 0.179885790 0.091840826
0.151802868 0.182416379 0.094876766
0.163187981 0.186717629 0.096774250
0.172675654 0.187855989 0.099810347
0.179000676 0.190638632 0.096774019
0.194560260 0.194939628 0.100189641
0.211637959 0.201011628 0.106388152
0.229854628 0.206704468 0.112460442
0.248070627 0.209740698 0.115496218
0.263757020 0.212776974 0.116002291
0.282859057 0.220240295 0.121568710
0.304491073 0.230487004 0.128020257
0.331815481 0.239595145 0.131056130
0.351043493 0.248830006 0.131435633
0.384440184 0.262998551 0.139531910
0.421252191 0.274762988 0.148639992
0.462745279 0.286653936 0.159139633
0.500190139 0.301834196 0.165211648
0.549905062 0.314610630 0.176091239
0.602276862 0.329411447 0.185578778
0.652624547 0.343326807 0.196837202
0.703352153 0.355091810 0.203415588
0.760278344 0.381657273 0.229727998
0.094117999 0.191018090 0.088045962
0.097406641 0.193042427 0.090575643
0.098545000 0.194434032 0.091207996
0.099051133 0.195445910 0.092220128
0.102846451 0.197975576 0.094623998
0.105882064 0.194939971 0.094623998
0.114231348 0.196710750 0.097659677
0.121189021 0.198608071 0.097406708
0.129032046 0.200126126 0.096647926
0.144212455 0.209234521 0.105755545
0.154079840 0.206957877 0.109297864
0.165464982 0.209741026 0.110309996
0.178747639 0.214674383 0.111701377
0.193422034 0.217710063 0.114484027
0.202530414 0.217710063 0.111448415
0.216445237 0.222264022 0.112966217
0.233143374 0.227830335 0.116002217
0.251613021 0.233776450 0.119797572
0.269829065 0.236812085 0.122833975
0.290069371 0.242884085 0.127893969
0.312080771 0.252498507 0.135863289
0.335104138 0.263630897 0.142441168
0.362681508 0.273118049 0.145730510
0.396078736 0.285515815 0.151929006
0.432005018 0.297407001 0.157748044
0.472611994 0.311195672 0.165211707
0.517900109 0.326376051 0.173814029
0.560404897 0.341555625 0.179886028
0.615433395 0.356482863 0.189120859
0.668817103 0.371916205 0.203541979
0.720809162 0.388235182 0.220619589
0.769385993 0.406452000 0.235799998
0.094117999 0.224415213 0.109297559
0.100189999 0.215306818 0.106261946
0.103478640 0.219481394 0.104490623
0.102086991 0.221758395 0.103351980
0.100189582 0.222390816 0.103605121
0.111954063 0.222264320 0.100695997
0.122580633 0.221758395 0.108285673
0.127514407 0.225679815 0.109550700
0.131056324 0.228968799 0.107273981
0.141176090 0.230486885 0.108791940
0.156356454 0.230866402 0.114990413
0.170271829 0.232258230 0.116381995
0.184819639 0.235926762 0.118658990
0.199494034 0.238962442 0.123592407
0.208602414 0.241998821 0.123592407
0.222517788 0.244401991 0.122959986
0.239215821 0.246552393 0.125110596
0.258064568 0.249715135 0.130044386
0.278937429 0.258064419 0.141049951
0.291587412 0.266666740 0.138519630
0.317014456 0.275142550 0.144971311
0.343453377 0.284883261 0.150031552
0.368753493 0.294370383 0.148766890
0.402150720 0.312587202 0.157874525
0.440101266 0.322707087 0.161796287
0.481720358 0.336622298 0.168248087
0.527261496 0.353700459 0.176850408
0.572548866 0.368880749 0.182922408
0.620366573 0.381404191 0.196964219
0.667298913 0.397722751 0.212650359
0.717899740 0.416191995 0.229095384
0.778494418 0.436811954 0.241871998
0.094117999 0.245793983 0.118532605
0.097786196 0.248703390 0.113092579
0.101707973 0.243896544 0.114357963
0.103478812 0.249209598 0.114357956
0.101201802 0.250348032 0.115876056
0.109297805 0.244275793 0.116887912
0.128652632 0.246679589 0.119165279
0.134218991 0.246679589 0.121694893
0.136496082 0.251233578 0.119417988
0.145604134 0.254522592 0.119417988
0.160530865 0.256925792 0.125236988
0.173687518 0.256925792 0.125237241
0.186211154 0.259582639 0.127134800
0.198861226 0.262618542 0.132700801
0.212270603 0.265654385 0.132700801
0.230992988 0.268690795 0.137507796
0.246173382 0.271726787 0.137507796
0.262871563 0.274509788 0.141555965
0.280582011 0.283617735 0.153699994
0.303099006 0.290322334 0.151929244
0.320935726 0.301328450 0.154585600
0.350790590 0.312966645 0.160151809
0.379886061 0.324857295 0.159013495
0.417836726 0.336242795 0.168121710
0.451233268 0.349904984 0.172675312
0.490448952 0.361922443 0.175711676
0.534978092 0.379127115 0.184313983
0.584313393 0.396205217 0.197975978
0.630107343 0.413535774 0.202403799
0.683997273 0.429222196 0.222896919
0.730550170 0.445667386 0.244149178
0.785198987 0.462365597 0.262365580
0.091081999 0.273118377 0.127640992
0.097153611 0.273118377 0.126122415
0.098671585 0.275774747 0.123465955
0.104237974 0.274003983 0.123972028
0.105755992 0.279190540 0.126502350
0.111827999 0.274636447 0.129538253
0.124478318 0.272612303 0.128020316
0.138772801 0.275522172 0.132321477
0.142567888 0.276281089 0.130044192
0.153194293 0.281594008 0.130044192
0.163567126 0.283238322 0.134344995
0.178241313 0.285768390 0.137381256
0.191524446 0.286906749 0.135483995
0.201897234 0.289943010 0.140796989
0.217077598 0.292978942 0.143326998
0.234028980 0.294497013 0.145097986
0.255281359 0.297533393 0.152688190
0.271094143 0.301834583 0.152688190
0.287159979 0.310942203 0.161290199
0.310689420 0.317267179 0.161037356
0.337633938 0.328652471 0.163693994
0.360910565 0.339785129 0.169765994
0.393295646 0.353699893 0.170777991
0.429981083 0.362808287 0.175711706
0.467931479 0.378747582 0.181783691
0.505502462 0.389499873 0.190385640
0.545098186 0.405945331 0.193928048
0.592662752 0.426186085 0.207084179
0.643516600 0.441366166 0.222643822
0.688551486 0.459582597 0.232005298
0.745351136 0.478684783 0.258949935
0.792789221 0.492726386 0.285136193
0.085642420 0.306388557 0.138519987
0.094750196 0.303478956 0.142820761
0.098039001 0.303225756 0.139658198
0.101834163 0.304364115 0.138519973
0.110183448 0.304743558 0.135483593
0.116002418 0.307779908 0.138013929
0.124604739 0.307020783 0.135989979
0.134345278 0.306641221 0.135230973
0.144971088 0.309677631 0.141049981
0.160151497 0.312713236 0.141049981
0.168500572 0.313472122 0.143326685
0.181277394 0.314863801 0.145730242
0.196457624 0.317900062 0.147627980
0.211891055 0.320935667 0.148387015
0.227450967 0.323971957 0.154838562
0.241998777 0.325869530 0.155470982
0.260847747 0.327387720 0.158760190
0.280834943 0.331056505 0.166603580
0.299050987 0.340164125 0.166603580
0.322833717 0.345856696 0.166603580
0.350284576 0.355723858 0.169133574
0.379632801 0.370145261 0.175837979
0.407337397 0.379380107 0.181909978
0.441239893 0.388994426 0.182921991
0.478557855 0.405945837 0.189373553
0.521315455 0.422897011 0.195825234
0.564832270 0.433522701 0.212523580
0.604680836 0.457558423 0.216445431
0.653637171 0.473118097 0.235547096
0.703099310 0.488804370 0.255281359
0.745983720 0.507274091 0.271727115
0.800632596 0.528526545 0.305123568
0.082606025 0.327641040 0.144592017
0.091714405 0.336748630 0.153700411
0.096521184 0.338140070 0.147248417
0.101834156 0.337128192 0.143453389
0.110183440 0.335104436 0.147628412
0.113219060 0.338140070 0.144592017
0.121568359 0.341176361 0.149652019
0.132321045 0.342061996 0.151423022
0.144971117 0.343074113 0.153447017
0.160151526 0.346110493 0.159266025
0.175331891 0.349146098 0.159266025
0.191777483 0.349905014 0.159518987
0.208602309 0.351296663 0.159772024
0.224035084 0.354332924 0.160531059
0.242251843 0.357368529 0.169639423
0.255407989 0.362808019 0.168880165
0.273877382 0.366856217 0.169133216
0.296015412 0.370525002 0.172675595
0.311195046 0.376596987 0.175711989
0.334977746 0.380139351 0.175711989
0.361163735 0.385325968 0.175711989
0.388741076 0.395193130 0.179253861
0.416445047 0.409740984 0.187982023
0.452877879 0.421885014 0.194054037
0.489057630 0.436053306 0.206451297
0.532700896 0.451739669 0.212523669
0.583048999 0.466919959 0.215560004
0.631625772 0.485135943 0.239847958
0.668817580 0.506514847 0.251739681
0.715623081 0.525236964 0.271979898
0.762934804 0.543453276 0.295256227
0.803668976 0.561923027 0.320304006
0.076786995 0.373940736 0.159013376
0.080328673 0.377482355 0.162555039
0.089437053 0.380138725 0.165211648
0.096268155 0.380138725 0.161922529
0.105376445 0.378620923 0.164959013
0.113219060 0.376850158 0.159519449
0.128905639 0.377356082 0.159013376
0.140417352 0.378494740 0.162934646
0.152561352 0.380012751 0.164832100
0.165717497 0.385072887 0.168880358
0.183681235 0.388109207 0.166350007
0.200885341 0.391144812 0.172422260
0.219101936 0.393042386 0.174699366
0.235926747 0.396078706 0.174699366
0.251613170 0.399114311 0.176217407
0.272233129 0.402150542 0.180518806
0.290069491 0.409361273 0.184313521
0.313092798 0.413662523 0.189247012
0.334724784 0.413282722 0.190132633
0.352687746 0.422138065 0.195952371
0.373181492 0.427071720 0.197849631
0.400885582 0.435167730 0.201771140
0.434155703 0.448450387 0.210626200
0.475901544 0.460594386 0.214041367
0.512333751 0.477292955 0.220113933
0.552940965 0.492979378 0.233776003
0.599747062 0.508159697 0.241113096
0.641492486 0.524098396 0.254016340
0.684756219 0.534345210 0.270335168
0.726755202 0.551549554 0.287919164
0.773687541 0.572295904 0.313851923
0.815053999 0.598102748 0.343833029
0.070715003 0.418722451 0.170398742
0.071853355 0.416065812 0.165844366
0.084882773 0.424541175 0.174319729
0.088931158 0.423276007 0.173054889
0.097407006 0.422643453 0.175205737
0.114104800 0.421125650 0.175205737
0.127007902 0.420619726 0.176090986
0.145224676 0.422264427 0.181024686
0.159392744 0.423276544 0.182289466
0.173813745 0.428210199 0.181910217
0.189879745 0.431372613 0.181024596
0.209993720 0.434408903 0.182289243
0.228209719 0.436306179 0.189120635
0.246679276 0.438583434 0.190132767
0.265148640 0.441619039 0.191777468
0.287033767 0.446552515 0.190385804
0.308286190 0.449588895 0.194939986
0.329538018 0.457938284 0.204300717
0.352561712 0.459962219 0.209360734
0.380771488 0.464263082 0.211131960
0.402782947 0.471473724 0.217204735
0.423023462 0.476533860 0.219228476
0.455660969 0.486021459 0.225427210
0.491081804 0.498165458 0.228462830
0.529032469 0.511068583 0.239468560
