Assets/Resources/EldamarStudio/100 Horror LUTs Pack/LUTs/cube/Dreq LUT.cube
LUT_3D_SIZE 8
DOMAIN_MIN 0.000000 0.000000 0.000000
DOMAIN_MAX 0.903226 0.903226 0.903226
0.054901998 0.000000000 0.000000000
0.071726546 0.000379548 0.000758999
0.107400000 0.011765001 0.012523903
0.146868646 0.024667645 0.023529001
0.205186382 0.050094996 0.049209379
0.272232741 0.082099989 0.070461996
0.375078976 0.112713285 0.098039001
0.547121704 0.158380806 0.138772801
0.055281546 0.025806095 0.011765000
0.074889451 0.033270452 0.023149548
0.111701548 0.041872550 0.025047192
0.152814895 0.061100900 0.041113351
0.206071988 0.082605831 0.056546710
0.279063702 0.110436089 0.078557923
0.382036358 0.142947555 0.110942543
0.550411165 0.183681533 0.141302824
0.076027997 0.091587901 0.045414094
0.090575546 0.096268088 0.052877646
0.117520086 0.103352092 0.054016192
0.160278350 0.114737444 0.065022096
0.207463279 0.133839086 0.075142190
0.289310753 0.158507347 0.105376258
0.398355365 0.199620292 0.128526181
0.570271671 0.242124900 0.157621711
0.099684000 0.168753639 0.080708288
0.099557094 0.176217169 0.080202639
0.132068440 0.176091090 0.088045545
0.172675654 0.187855989 0.099810347
0.229854628 0.206704468 0.112460442
0.304491073 0.230487004 0.128020257
0.421252191 0.274762988 0.148639992
0.602276862 0.329411447 0.185578778
0.091081999 0.273118377 0.127640992
0.105755992 0.279190540 0.126502350
0.142567888 0.276281089 0.130044192
0.191524446 0.286906749 0.135483995
0.255281359 0.297533393 0.152688190
0.337633938 0.328652471 0.163693994
0.467931479 0.378747582 0.181783691
0.643516600 0.441366166 0.222643822
0.070715003 0.418722451 0.170398742
0.097407006 0.422643453 0.175205737
0.159392744 0.423276544 0.182289466
0.228209719 0.436306179 0.189120635
0.308286190 0.449588895 0.194939986
0.402782947 0.471473724 0.217204735
0.529032469 0.511068583 0.239468560
0.690069377 0.571916282 0.289310545
0.079949267 0.623655796 0.252877980
0.126628518 0.630107701 0.247438103
0.204680562 0.629981041 0.265022367
0.299050897 0.640354276 0.269829273
0.393295556 0.646552801 0.288425267
0.502340257 0.659582615 0.311827838
0.618722081 0.680202544 0.348513842
0.748260498 0.714105070 0.410246819
0.356862307 0.821505547 0.450600535
0.369512916 0.827197611 0.462365538
0.413788646 0.828842342 0.459835410
0.479696035 0.832131267 0.481720209
0.557494938 0.836305976 0.504364192
0.647691190 0.846173406 0.530170381
0.732195079 0.854775429 0.561416626
0.834788382 0.858064413 0.603668392
0.058823999 0.000000000 0.021125998
0.067046449 0.000379548 0.024667548
0.104617454 0.016824547 0.037950549
0.146489292 0.037570998 0.057558641
0.198608547 0.059456188 0.074003734
0.272486180 0.089942992 0.097533256
0.374952555 0.122959994 0.123339541
0.545983255 0.156609684 0.160025418
0.052498095 0.036812000 0.026565094
0.075648546 0.037950546 0.041492995
0.104617454 0.049715448 0.050094996
0.146868646 0.065401636 0.068564542
0.201391190 0.088172443 0.083111905
0.269449770 0.115496539 0.102213733
0.379506558 0.147121996 0.129538253
0.546995163 0.182036817 0.167868525
0.082353003 0.091208450 0.059076548
0.094876997 0.099430993 0.066540092
0.118279189 0.099810541 0.074003644
0.155092001 0.115496442 0.079823099
0.212650448 0.135483995 0.105376542
0.282226622 0.162555352 0.118279278
0.393548369 0.194054186 0.147248477
0.567488849 0.243643180 0.174825817
0.092473000 0.171030641 0.108918093
0.100316092 0.173813999 0.099810541
0.133966088 0.174952641 0.104111090
0.175458282 0.189500287 0.117899641
0.226691827 0.205945373 0.128020450
0.300569355 0.233270362 0.140037999
0.422137827 0.275142431 0.167615190
0.602909446 0.332194805 0.204553992
0.094623551 0.272865623 0.142314747
0.104617350 0.274509728 0.142947644
0.139784634 0.279570073 0.143579826
0.191524446 0.290575266 0.156356737
0.250221640 0.299051195 0.168880552
0.336116135 0.323592722 0.178621173
0.467172682 0.376344174 0.202276915
0.646426201 0.438962638 0.247058824
0.067299455 0.413156271 0.186084673
0.097786263 0.415559471 0.191018283
0.153447196 0.421378821 0.189374089
0.227071375 0.435547084 0.202403724
0.305882365 0.449588895 0.211005732
0.396837175 0.465654463 0.229727715
0.523719311 0.507526994 0.254269272
0.697912693 0.571790099 0.313092977
0.067931570 0.625426650 0.272738844
0.124983810 0.625047088 0.277925104
0.203036264 0.631878316 0.283111989
0.296900541 0.640607119 0.291461051
0.397975743 0.651612878 0.307147264
0.505502880 0.664136589 0.331309348
0.619987249 0.681720197 0.364832222
0.752434969 0.716381609 0.426439166
0.350790322 0.824541330 0.459203213
0.376217455 0.818342566 0.473750502
0.411764592 0.823529422 0.473624378
0.479569852 0.830360115 0.490069598
0.557368457 0.835800231 0.511321545
0.644149303 0.844275653 0.538899422
0.734977543 0.853890002 0.576090932
0.828968644 0.866919816 0.608855188
0.051739097 0.001517998 0.075142190
0.067805447 0.011385454 0.080328651
0.108159095 0.021125998 0.082226098
0.147248283 0.037950546 0.097153902
0.198988095 0.066540092 0.112713277
0.270968080 0.094370633 0.136622444
0.374952465 0.124478281 0.165212095
0.545224488 0.145730570 0.194560230
0.067046449 0.043896098 0.084630094
0.074003644 0.048197452 0.088172443
0.105756097 0.053636640 0.093232095
0.152435452 0.073624097 0.109677188
0.203668296 0.093990996 0.116635092
0.270588428 0.121062636 0.138646200
0.382289827 0.144591838 0.172295913
0.554206133 0.174320117 0.214927241
0.085515901 0.094749995 0.103352092
0.098039001 0.103731640 0.097027183
0.120682999 0.114357993 0.117520094
0.160278350 0.124098733 0.124605000
0.214674279 0.142567903 0.140290990
0.282606065 0.164453089 0.154585823
0.399873555 0.194181100 0.182542801
0.573054850 0.237950757 0.222264066
0.091334641 0.176596642 0.129917994
0.100695543 0.183681533 0.137887195
0.135989636 0.189500183 0.144971102
0.177862093 0.193421990 0.153194353
0.226312280 0.211005628 0.164073542
0.302466720 0.230866551 0.183681443
0.424161643 0.273118287 0.202783197
0.605439365 0.324731350 0.246552870
0.093358897 0.273245096 0.172295988
0.098671898 0.280708641 0.175837740
0.140164286 0.281847000 0.179253384
0.191524640 0.288424850 0.181657180
0.253763199 0.300569385 0.189500183
0.336116105 0.330676734 0.212144271
0.471220464 0.377229571 0.237318277
0.647817671 0.438456863 0.284882993
0.048956182 0.424541175 0.224035189
0.092220351 0.421125650 0.229348361
0.145603999 0.427324593 0.230613813
0.221125826 0.439468831 0.238329828
0.303984702 0.452371746 0.248576626
0.398987949 0.468817353 0.263883471
0.530423641 0.510689020 0.295509011
0.695635557 0.575458586 0.346109897
0.048703436 0.622264564 0.305249900
0.112081073 0.627324343 0.308791548
0.197469756 0.631625712 0.321442157
0.296141535 0.639468729 0.330929458
0.396457851 0.649588645 0.347375154
0.505249619 0.660974145 0.367488623
0.619734585 0.682479620 0.395572454
0.753699839 0.717773616 0.466287047
0.360025108 0.824161768 0.489563495
0.385831475 0.820999324 0.505502820
0.419860721 0.823782444 0.508538961
0.483491212 0.829601228 0.516255498
0.560277939 0.837318122 0.536242783
0.647817492 0.841998696 0.558507323
0.736369371 0.850980282 0.592030466
0.828968704 0.865401626 0.630486965
0.063883640 0.008981644 0.141809002
0.076027900 0.014421450 0.132700741
0.112460449 0.023023644 0.137381643
0.148007289 0.045413997 0.138519987
0.199747190 0.070841350 0.165971085
0.272486061 0.097912997 0.188741282
0.374572903 0.124984354 0.221505284
0.554459035 0.137381196 0.269323260
0.063377991 0.049715448 0.131056547
0.082732543 0.050853994 0.130677089
0.113598995 0.061480451 0.144845098
0.151928991 0.077925541 0.145604074
0.206831098 0.093105897 0.165971085
0.271979839 0.115876086 0.187476546
0.383428454 0.148134187 0.229348272
0.551802754 0.162302107 0.272359282
0.086654350 0.107653543 0.155471534
0.096015356 0.108033001 0.158128083
0.123845905 0.122200996 0.158886984
0.165717632 0.127641097 0.167868629
0.211385190 0.144086093 0.189500272
0.288551658 0.165591449 0.207084015
0.403036177 0.195192918 0.239342347
0.580265403 0.216571718 0.283997446
0.087413348 0.180518642 0.176091284
0.105123095 0.176470742 0.183681548
0.132068351 0.192283645 0.194686741
0.173813999 0.210246637 0.206324935
0.237191379 0.219987288 0.210878849
0.310309738 0.241239890 0.231752187
0.436938614 0.273118258 0.261353552
0.614547610 0.318911910 0.305629432
0.088804714 0.281087995 0.225932837
0.101201907 0.282226533 0.229854628
0.143832758 0.290449083 0.231372640
0.193927646 0.299430847 0.240354285
0.261480272 0.314357728 0.246932626
0.349525839 0.338899344 0.270209074
0.482479125 0.377608925 0.296774298
0.653890014 0.436179787 0.342947483
0.015686270 0.423023194 0.273877382
0.051233184 0.429981112 0.282985538
0.136875361 0.430360556 0.285515249
0.216065899 0.444528490 0.298292398
0.307147622 0.455534667 0.303731978
0.403289199 0.472612351 0.319291353
0.541303039 0.518912315 0.351296663
0.701454520 0.574067175 0.408222437
0.019860985 0.622517169 0.369133532
0.068184629 0.629728198 0.369513094
0.179885939 0.634408355 0.374952286
0.285641938 0.643137157 0.388614625
0.396457762 0.650474250 0.406072289
0.506008744 0.666540146 0.421378940
0.624794483 0.682479203 0.453383833
0.752941132 0.720556557 0.512839735
0.359645337 0.821505547 0.538266778
0.379380196 0.819228351 0.536622405
0.422264636 0.824288428 0.550410867
0.484250247 0.830739558 0.557368577
0.560151398 0.834661543 0.574320018
0.649968207 0.840986550 0.592030108
0.741429150 0.852118850 0.625932753
0.834408522 0.863883734 0.664895535
0.063630998 0.025047192 0.205819175
0.079190098 0.028969193 0.210246637
0.111954190 0.037571095 0.210626185
0.159392640 0.056040641 0.216951385
0.209107995 0.081467390 0.226944983
0.275142729 0.105249539 0.245794177
0.377103239 0.126881897 0.291081250
0.561922431 0.137254998 0.354585856
0.068058185 0.060974188 0.209867090
0.086654350 0.069702893 0.209614366
0.122327901 0.072359443 0.217584088
0.164073542 0.085389093 0.220746279
0.215053648 0.100948989 0.232131526
0.274383754 0.126502454 0.253257453
0.392030478 0.148007378 0.295129448
0.566982985 0.162428826 0.358633697
0.076154098 0.126882091 0.223023176
0.094497450 0.128526196 0.226691723
0.122200996 0.130803093 0.228589267
0.167742103 0.139784649 0.234914467
0.217710286 0.154332891 0.249842182
0.290069729 0.167868540 0.272106618
0.408475667 0.197469905 0.307526976
0.587855577 0.218469083 0.367235988
0.080835000 0.197849646 0.251865625
0.097659647 0.197722822 0.255787551
0.125364006 0.203542173 0.257305533
0.180518627 0.213409439 0.263377815
0.234788164 0.225047633 0.277166188
0.320809364 0.246679187 0.298165560
0.449082643 0.269702911 0.339658380
0.624541521 0.302339971 0.382669359
0.068438008 0.287286192 0.278811008
0.092599995 0.283365101 0.284250408
0.132321283 0.296774298 0.293611377
0.191903993 0.315116823 0.304996818
0.274003983 0.341303140 0.335863382
0.363820255 0.349905193 0.346995175
0.498545349 0.380392283 0.374193549
0.670841396 0.432764351 0.423782378
0.003415545 0.426438928 0.344085723
0.025806537 0.430487275 0.357621461
0.111574821 0.440227807 0.354585618
0.204047635 0.456293464 0.370651752
0.308791906 0.473497629 0.385072649
0.416192263 0.485135943 0.401897728
0.551676035 0.521695018 0.426438749
0.712080717 0.577735782 0.481846839
0.004048100 0.630107701 0.438836366
0.033776194 0.631625533 0.450600743
0.146742642 0.640227616 0.456166834
0.278684556 0.644908309 0.462365568
0.388488561 0.659835637 0.474003643
0.509044766 0.673118293 0.493990988
0.625932753 0.688804626 0.521821499
0.760024905 0.727134705 0.574952602
0.353067517 0.821505547 0.591650665
0.369639635 0.820999444 0.588108957
0.412650287 0.828589499 0.599999785
0.479569852 0.829348564 0.605439544
0.557368755 0.836305976 0.619987249
0.646552324 0.844023049 0.642378151
0.740923345 0.853257239 0.668943763
0.837318420 0.867678642 0.698924541
0.049209263 0.037191741 0.314990729
0.073877200 0.037950739 0.316887975
0.123466358 0.053636838 0.317647070
0.179379985 0.066919737 0.317647070
0.235673264 0.087792799 0.330803216
0.307147741 0.107653253 0.342314720
0.391524106 0.130043998 0.365717977
0.575711608 0.133460000 0.448070794
0.053763721 0.078810737 0.316508740
0.074509807 0.083364926 0.314484239
0.123466447 0.086907186 0.311827719
0.175458282 0.097406730 0.320809454
0.235167637 0.108791888 0.330929637
0.309550911 0.130423546 0.346236736
0.398228735 0.147880986 0.374826074
0.579506636 0.161416709 0.447944403
0.047944270 0.141049996 0.335863173
0.071726911 0.145730197 0.324731380
0.120303646 0.143706441 0.329664797
0.176470742 0.152688295 0.331309110
0.240986556 0.164073542 0.343580186
0.315749615 0.180139095 0.361922711
0.411385536 0.198229104 0.392409831
0.598861516 0.216192186 0.467552364
0.025806535 0.214800730 0.343706101
0.050727434 0.216445535 0.349272698
0.109550655 0.222390994 0.357115805
0.177355736 0.224667996 0.355597824
0.251866072 0.239215747 0.374446779
0.333965540 0.251865745 0.386084706
0.459329545 0.270461828 0.421758473
0.638077199 0.311068624 0.495003253
0.006451812 0.312586933 0.391777188
0.022897083 0.319291353 0.387476325
0.098798275 0.321695387 0.392915577
0.173055097 0.330297291 0.401770890
0.273624450 0.338899195 0.420999438
0.375585169 0.354079723 0.437824100
0.508159161 0.382289648 0.469070017
0.684123755 0.426186115 0.524983943
0.000000000 0.440101206 0.432384729
0.002783259 0.442125469 0.439341992
0.080328822 0.452245444 0.451486468
0.197849542 0.460847557 0.465654463
0.309171379 0.480455458 0.477419466
0.441872448 0.516508460 0.514484227
0.574446738 0.538519740 0.531056225
0.724478245 0.578494430 0.575205505
0.003542452 0.632890582 0.533839226
0.015180371 0.632005334 0.534345448
0.139278919 0.639974952 0.548766673
0.268058211 0.649335861 0.549019277
0.396837175 0.663883567 0.565591574
0.516255438 0.683112025 0.585072696
0.639341831 0.695888519 0.604174554
0.780139327 0.734724700 0.653763533
0.352182120 0.819734454 0.663251400
0.370398521 0.823782325 0.659962296
0.407589972 0.828209937 0.665528119
0.472106189 0.831625521 0.669829130
0.554585576 0.836306036 0.684882700
0.640986443 0.847438574 0.693738341
0.743706226 0.856420040 0.719797492
0.837444425 0.872485578 0.747375131
0.004553996 0.047059000 0.494876802
0.017457275 0.050348002 0.483491540
0.116128802 0.058064710 0.492852539
0.197975993 0.067805357 0.497659475
0.287033379 0.081593908 0.506894469
0.379886299 0.097280003 0.511322021
0.474003822 0.113092996 0.528905809
0.592409730 0.133712545 0.551422894
0.001897740 0.090069704 0.488930851
0.011511724 0.092220448 0.489563733
0.109171301 0.097912706 0.493611753
0.201644540 0.102719903 0.497153819
0.288298517 0.110436089 0.511448443
0.380392283 0.127767190 0.519291580
0.480961531 0.144971281 0.536243081
0.601264834 0.163061097 0.558380783
0.000759096 0.153447092 0.503731549
0.004807197 0.156103835 0.501454711
0.081088006 0.160531387 0.501328349
0.189753339 0.168374106 0.506388187
0.283997387 0.176217377 0.518532574
0.380012542 0.185579002 0.527640879
0.491081744 0.205186576 0.545983732
0.615939021 0.223023087 0.569006920
0.004427648 0.241745561 0.522707224
0.003415642 0.237191558 0.518912196
0.015939383 0.245034978 0.519417822
0.173813999 0.247817636 0.529538274
0.283617914 0.260215223 0.541429520
0.393295348 0.271220744 0.551549733
0.512713492 0.289310634 0.568121254
0.654522121 0.316255182 0.603036106
0.000000000 0.360025346 0.549145877
0.001517999 0.360784471 0.550031781
0.003795094 0.357748091 0.556989014
0.131435543 0.357368827 0.563314676
0.283238262 0.366350174 0.568880677
0.413788646 0.383428365 0.586463928
0.541935503 0.398987740 0.599999964
0.686527371 0.438077450 0.634661734
0.003794996 0.498545438 0.591271281
0.001138547 0.502086997 0.599241078
0.000379555 0.500063419 0.604300916
0.156862751 0.508791625 0.607210636
0.309930176 0.514231622 0.611385465
0.447058916 0.528778970 0.628210247
0.587729454 0.549145997 0.645414293
0.732953608 0.588867724 0.676533759
0.004553996 0.650474191 0.650095105
0.050600793 0.650727272 0.642884254
0.141429469 0.654142797 0.655154943
0.279316753 0.663377464 0.656167209
0.399114728 0.677925289 0.670967579
0.530550301 0.693611860 0.690828562
0.665148556 0.723339498 0.721694827
0.789627016 0.744085908 0.739911497
0.354206145 0.825806201 0.735357225
0.377735168 0.822517157 0.739025593
0.412902832 0.827324390 0.737254620
0.481846750 0.833143413 0.748766601
0.559012890 0.839089334 0.756736040
0.653257668 0.850094795 0.767615318
0.749019742 0.863124609 0.789120555
0.849462330 0.875648618 0.816318929
0.000000000 0.050980002 0.721062422
0.000379548 0.051359549 0.721441984
0.077166371 0.052498192 0.723339498
0.221758634 0.059962351 0.728779197
0.342188179 0.069576174 0.728779197
0.465148747 0.083617978 0.737254620
0.585199237 0.112460561 0.742314994
0.706767380 0.152055606 0.757621527
0.007084001 0.099810250 0.723845601
0.000000000 0.102593377 0.719164610
0.041492596 0.106767818 0.721441925
0.218089655 0.109550983 0.733206630
0.346489459 0.116508365 0.734472036
0.465528309 0.134471774 0.741049647
0.585578680 0.154712066 0.750790715
0.710942149 0.190512329 0.765464544
0.001897736 0.177988917 0.728020310
0.000000000 0.177735463 0.731182635
0.001518006 0.178114921 0.730170608
0.201644644 0.183427915 0.737128556
0.339278907 0.191397920 0.739911377
0.465528339 0.208855167 0.749145627
0.589120567 0.230613545 0.754079580
0.719923794 0.261859715 0.766223609
0.000000000 0.268311441 0.733965755
0.000758999 0.272359371 0.739279032
0.002277285 0.277039766 0.740543544
0.163693815 0.284503639 0.746236444
0.327260882 0.295382619 0.751549661
0.466287434 0.310942411 0.756609678
0.598102331 0.334344983 0.765085101
0.730423570 0.369386464 0.776217401
0.001518192 0.406578183 0.750410795
0.004174729 0.404807001 0.754838586
0.002530012 0.397723198 0.755850494
0.077925190 0.399620533 0.757495105
0.315496504 0.413156360 0.760404587
0.471220702 0.432637364 0.771410167
0.611385226 0.457178980 0.776596904
0.742314696 0.485262126 0.790385962
0.001897740 0.563440502 0.781657338
0.001517991 0.559772253 0.773687243
0.016192392 0.560278475 0.779506326
0.180645093 0.558254182 0.783428192
0.343200088 0.561796129 0.780139327
0.500442505 0.572422385 0.788235188
0.638709664 0.594813466 0.798987746
0.765844285 0.617836773 0.807590306
0.145477742 0.714231074 0.804174721
0.176470369 0.713978231 0.807210565
0.261353403 0.715623140 0.808728874
0.352561712 0.718658924 0.811132073
0.461353362 0.722201347 0.819101870
0.572548985 0.727767050 0.824541509
0.686147749 0.743706524 0.836179793
0.809234560 0.761796236 0.844529033
0.413155973 0.841239452 0.830739617
0.433016717 0.846679091 0.837950647
0.449209273 0.849715471 0.847564697
0.514990330 0.847691417 0.846426606
0.584692776 0.851612747 0.845667362
0.670208514 0.861859441 0.852877557
0.762808025 0.872106135 0.866919816
0.867299438 0.894623578 0.890828371
