Assets/Resources/EldamarStudio/100 Horror LUTs Pack/LUTs/cube/Dreq LUT.cube
LUT_3D_SIZE 5
DOMAIN_MIN 0.000000 0.000000 0.000000
DOMAIN_MAX 0.903226 0.903226 0.903226
0.054901998 0.000000000 0.000000000
0.099051282 0.009487708 0.014041712
0.173940822 0.034028992 0.033396408
0.290448993 0.092219993 0.076534003
0.547121704 0.158380806 0.138772801
0.069955997 0.074889697 0.034028992
0.106894284 0.084376991 0.046425998
0.181783408 0.111195408 0.068690993
0.305755675 0.154712126 0.101075277
0.561922729 0.227703810 0.152814671
0.094117999 0.224415213 0.109297559
0.127514407 0.225679815 0.109550700
0.208602414 0.241998821 0.123592407
0.343453377 0.284883261 0.150031552
0.620366573 0.381404191 0.196964219
0.061606873 0.463251263 0.183555126
0.146236271 0.468816966 0.194180831
0.281087518 0.487159938 0.208349288
0.456420124 0.523086429 0.238457114
0.699430764 0.607084274 0.315370083
0.356862307 0.821505547 0.450600535
0.398355216 0.826818585 0.459582567
0.516634762 0.832637191 0.491840631
0.671979725 0.847691417 0.537507534
0.834788382 0.858064413 0.603668392
0.053257290 0.000000000 0.059202701
0.092219993 0.015053997 0.067046285
0.169006705 0.051359702 0.095129706
0.292726278 0.101707868 0.135104120
0.544212341 0.151043996 0.185452104
0.079443708 0.076533988 0.082099698
0.108538993 0.096141987 0.095508993
0.182795703 0.116761692 0.113472693
0.306135237 0.158634111 0.152055711
0.560910642 0.223023400 0.201770842
0.090829000 0.221379101 0.149778411
0.132067978 0.225679815 0.153067827
0.211890981 0.242378086 0.159266114
0.341176093 0.284883261 0.190006539
0.624667645 0.380771607 0.246046796
0.032511007 0.465780824 0.223782405
0.133206710 0.472106367 0.229348525
0.278810650 0.490069240 0.251486301
0.448577106 0.521189332 0.278052002
0.709550858 0.610120356 0.360784203
0.355724066 0.824161768 0.485262305
0.406957328 0.826059520 0.498165578
0.517267346 0.832257688 0.517520249
0.667804718 0.842757761 0.559772134
0.829474688 0.866666615 0.628715932
0.063377582 0.015053578 0.169386402
0.102340281 0.025806293 0.172675401
0.177861989 0.064136826 0.187096819
0.290448993 0.107273571 0.221125975
0.555597842 0.133332998 0.311448634
0.085009411 0.098418698 0.184439987
0.109170996 0.105629280 0.188361406
0.185072824 0.125236705 0.201771110
0.309171230 0.160278410 0.237444818
0.574319899 0.199114531 0.317267358
0.080328591 0.223023400 0.223655984
0.123592824 0.234787986 0.226312399
0.222390816 0.268184781 0.267552376
0.362428814 0.298671693 0.287159950
0.641366363 0.366350651 0.358633786
0.004553996 0.470082104 0.323466271
0.082732536 0.482859224 0.332068533
0.267931968 0.501202047 0.351929396
0.455154955 0.529285073 0.381783962
0.722327411 0.614294648 0.468310922
0.354711801 0.817583561 0.572674930
0.401644200 0.824541330 0.569765687
0.515875578 0.829981029 0.588994443
0.677292705 0.848324001 0.628968835
0.834788203 0.867931962 0.689310610
0.038076874 0.039216001 0.350411117
0.104237705 0.052624710 0.353320241
0.214547396 0.077798583 0.356609643
0.341556281 0.113724999 0.382795244
0.576976538 0.131435990 0.466286898
0.029475302 0.121315278 0.359139383
0.101581439 0.127513990 0.360784113
0.215812400 0.148133859 0.373687267
0.347121954 0.173307985 0.398102522
0.596584320 0.205312833 0.490828633
0.003289416 0.269196540 0.414547503
0.065401874 0.271853358 0.406704545
0.224668100 0.284882933 0.421125948
0.387349844 0.305502832 0.444528520
0.652751744 0.365718067 0.526122630
0.001012128 0.491714120 0.482985258
0.008981571 0.495256245 0.494243950
0.257811368 0.518785238 0.515496671
0.500569224 0.572169423 0.570145369
0.738393724 0.617963374 0.613662004
0.351929039 0.821505547 0.682732284
0.399746805 0.823149920 0.685262501
0.510056555 0.832890451 0.691208363
0.664263010 0.849968433 0.718279779
0.840227723 0.871473789 0.762808621
0.000000000 0.050980002 0.721062422
0.026312394 0.055534583 0.719797552
0.297153771 0.062112577 0.732194781
0.491461039 0.090702116 0.739025712
0.706767380 0.152055606 0.757621527
0.002656833 0.159266531 0.730803370
0.003795180 0.153826639 0.729158700
0.274889380 0.165464982 0.732194781
0.494370639 0.190132514 0.748133779
0.713598847 0.241619200 0.763187528
0.000632584 0.330423534 0.738646150
0.000632584 0.330170453 0.749399185
0.236306205 0.344212621 0.757748365
0.499936640 0.375078738 0.766476870
0.734092593 0.420240581 0.783807397
0.007463882 0.597343028 0.789753437
0.039974611 0.598987937 0.785325706
0.305502594 0.598355353 0.788235545
0.545477152 0.615686059 0.796078563
0.777482688 0.654522300 0.820493340
0.413155973 0.841239452 0.830739617
0.443390012 0.845161378 0.845034778
0.548766375 0.854269445 0.841872036
0.692979038 0.866666615 0.855154872
0.867299438 0.894623578 0.890828371
