Assets/Resources/EldamarStudio/100 Horror LUTs Pack/LUTs/cube/Drowned LUT.cube
LUT_3D_SIZE 5
DOMAIN_MIN 0.000000 0.000000 0.000000
DOMAIN_MAX 0.903226 0.903226 0.903226
0.000000000 0.035294000 0.101961002
0.089942701 0.052624710 0.117014416
0.235420823 0.096773997 0.152308583
0.404301226 0.155977130 0.212776870
0.710562587 0.230233967 0.272106111
0.057558414 0.135357410 0.153953284
0.126881406 0.144844711 0.163440987
0.246552825 0.170018986 0.185325697
0.430107385 0.220366985 0.232131585
0.733080447 0.291081637 0.300189972
0.175331980 0.285135984 0.228210405
0.210625976 0.287413090 0.228842825
0.315243781 0.310689390 0.243896410
0.507020652 0.353826404 0.282226533
0.790132642 0.435673624 0.356483221
0.373940378 0.521062374 0.339405239
0.420367122 0.530170560 0.345350981
0.515875936 0.542315245 0.357495546
0.674004138 0.569133282 0.395446122
0.867551923 0.651865959 0.479569823
0.722327590 0.839848459 0.590132594
0.741176426 0.843516648 0.608728409
0.791397631 0.849588990 0.628842115
0.870967627 0.869576454 0.662238836
0.952055633 0.889436781 0.714484513
0.000000000 0.045414291 0.153953284
0.087665990 0.057558414 0.161163703
0.220746100 0.111827567 0.199747130
0.399367392 0.177862406 0.251360118
0.707526863 0.239342138 0.313598692
0.066413701 0.129158705 0.180138692
0.128526121 0.148766711 0.195825696
0.244655386 0.182795689 0.223655969
0.419354826 0.229854688 0.267046273
0.727893531 0.301201701 0.334218651
0.185452119 0.284756690 0.261859685
0.226944983 0.292346805 0.267425388
0.323466092 0.314611226 0.276913673
0.507273495 0.358127922 0.313599110
0.791524172 0.441872507 0.394813508
0.390006244 0.520683289 0.363567263
0.427577376 0.525616586 0.367362529
0.521062493 0.541682422 0.383301407
0.667552412 0.571410537 0.414420933
0.873750627 0.651865780 0.516635120
0.718152702 0.842378318 0.610120177
0.737760723 0.839848459 0.614041686
0.791777492 0.847691417 0.639215529
0.872991860 0.861732960 0.670967698
0.949398816 0.888804615 0.720682800
0.010499994 0.065401994 0.255028814
0.109551117 0.081720419 0.250727266
0.223023400 0.124224991 0.266792983
0.409867108 0.185705408 0.310689390
0.711827576 0.249209389 0.391144812
0.101075269 0.160531282 0.261859685
0.151423097 0.166729987 0.269449383
0.249462709 0.191271693 0.286401391
0.434028953 0.238709822 0.329285353
0.735989988 0.310056806 0.415054083
0.206072405 0.300821990 0.309929967
0.253130823 0.308664978 0.331182659
0.363693774 0.342694819 0.351170361
0.534471810 0.376090795 0.380012393
0.801264942 0.454016596 0.463124633
0.414421529 0.533080399 0.429348558
0.446552962 0.532700539 0.435926944
0.539026082 0.550411105 0.450980544
0.683112025 0.576343834 0.482985139
0.880329072 0.663251221 0.572422624
0.730677009 0.833269596 0.654901981
0.743833005 0.837824166 0.656167030
0.790639043 0.846932173 0.675775051
0.869322956 0.866919875 0.708159328
0.954585612 0.892726183 0.752308547
0.100189991 0.110942118 0.387603134
0.175711527 0.128526121 0.396331251
0.299683630 0.161542997 0.403921396
0.451486230 0.202023998 0.422897130
0.749145985 0.262618542 0.507906139
0.155344859 0.199114278 0.398861259
0.207084104 0.208222702 0.395951718
0.322580814 0.223023400 0.409487814
0.481847107 0.255407691 0.430740118
0.768753707 0.323845655 0.526249051
0.249209240 0.342694819 0.441239536
0.290069699 0.347248405 0.442125231
0.412776768 0.362049550 0.459835649
0.578620970 0.388235122 0.494117558
0.822517276 0.472612321 0.571030796
0.447438240 0.547501266 0.520936131
0.483744502 0.554332435 0.538519740
0.585705101 0.575585306 0.562428892
0.725996256 0.615180433 0.600379288
0.893991172 0.679569960 0.658950090
0.745350897 0.841492712 0.724225044
0.759645641 0.844655335 0.725996196
0.798861504 0.854142606 0.743706465
0.875268757 0.869829416 0.756862760
0.950411081 0.893990934 0.802276909
0.244781628 0.168753818 0.689563572
0.317646682 0.179253653 0.683997273
0.465907574 0.204174802 0.689563572
0.660467923 0.247438207 0.699430585
0.863630414 0.324730754 0.720809758
0.260847479 0.263630658 0.690322518
0.333333343 0.267931521 0.685388803
0.487792492 0.285262376 0.696141601
0.672359288 0.320683062 0.710183442
0.865148604 0.387223303 0.731435716
0.352814168 0.426565617 0.701328456
0.407716572 0.429854184 0.707273483
0.545730591 0.445541054 0.715749383
0.717267752 0.477039754 0.727134705
0.884250462 0.526755154 0.750284135
0.571536779 0.650854111 0.752055764
0.596331477 0.651359975 0.759898901
0.669070244 0.654522300 0.761796296
0.779633224 0.673118234 0.773181558
0.918532610 0.712334216 0.797469616
0.758760571 0.864769399 0.825300455
0.768627584 0.865907729 0.836558998
0.809613764 0.871853113 0.844528794
0.883112133 0.889057696 0.861353576
0.954458833 0.916887701 0.892093599
