Assets/Resources/EldamarStudio/100 Horror LUTs Pack/LUTs/cube/Drowned LUT.cube
LUT_3D_SIZE 8
DOMAIN_MIN 0.000000 0.000000 0.000000
DOMAIN_MAX 0.903226 0.903226 0.903226
0.000000000 0.035294000 0.101961002
0.030107545 0.032511450 0.102720000
0.109677091 0.055661097 0.123086996
0.193421990 0.076280639 0.143453285
0.276407182 0.108032994 0.166223809
0.375964463 0.146868736 0.201644734
0.519797266 0.183301702 0.232005000
0.710562587 0.230233967 0.272106111
0.009740546 0.079949096 0.118026547
0.057938091 0.083871000 0.114863545
0.122200996 0.096774444 0.135610089
0.195445731 0.114358090 0.155218005
0.275648385 0.140164390 0.178747803
0.384566486 0.173940465 0.205060452
0.518912017 0.214547992 0.235041291
0.715749383 0.250094801 0.283997625
0.068943903 0.153574005 0.163061097
0.107779540 0.153953448 0.166603550
0.148893103 0.164579108 0.174826086
0.215053633 0.171157449 0.182669088
0.294496983 0.196584091 0.199114382
0.400759161 0.224668086 0.227577627
0.548639894 0.266287297 0.261733294
0.740164340 0.308032811 0.306261986
0.129538640 0.236559272 0.203415647
0.153067634 0.232511267 0.201391190
0.192663088 0.246299729 0.212396994
0.251739651 0.252245277 0.221884996
0.335104167 0.276154429 0.238329992
0.441492468 0.302213877 0.256672740
0.591650546 0.335863292 0.290954918
0.768501043 0.388361663 0.336748987
0.216951385 0.342441380 0.252245396
0.240354374 0.339784980 0.265654802
0.271727085 0.348513365 0.254648983
0.324857384 0.352435380 0.263630539
0.403795362 0.364199996 0.281214178
0.510436475 0.393421739 0.298039228
0.652877986 0.436812460 0.330550283
0.817836702 0.492346823 0.386338025
0.338519722 0.477545470 0.319164723
0.358886719 0.480708450 0.325869292
0.389247298 0.485388964 0.322580457
0.450853735 0.495256215 0.333713084
0.525616944 0.506514668 0.344338924
0.620367229 0.524604440 0.368121475
0.732194483 0.558760226 0.404427439
0.861732960 0.617204368 0.465401769
0.515496552 0.650853574 0.410372972
0.525237262 0.655787110 0.419734567
0.550916851 0.659202874 0.424920559
0.599999905 0.667805552 0.440733582
0.659961760 0.676533699 0.453889549
0.735737026 0.693611503 0.481720120
0.808349490 0.707020521 0.500189841
0.900569081 0.744971037 0.561543345
0.722327590 0.839848459 0.590132594
0.727261305 0.843010724 0.605945408
0.746489346 0.845034599 0.609740376
0.776849806 0.846299767 0.617204070
0.817077756 0.854142725 0.637571156
0.857052505 0.867805481 0.654142559
0.910436273 0.876028001 0.686021209
0.952055633 0.889436781 0.714484513
0.003542452 0.036052998 0.118785545
0.033650000 0.039974999 0.126628548
0.109677188 0.061480448 0.141050085
0.180898190 0.093231998 0.168121561
0.259582549 0.122960187 0.189626902
0.365211725 0.161037445 0.221505255
0.513852000 0.192156821 0.253004581
0.703984737 0.234155655 0.291840822
0.024667548 0.076786995 0.139911547
0.055154644 0.081087545 0.150537997
0.111195184 0.101075090 0.155977100
0.180139184 0.121442184 0.172422290
0.264262915 0.152055800 0.200758919
0.377103001 0.179759726 0.223782361
0.518026531 0.216192290 0.255408257
0.710815907 0.254775822 0.301580966
0.078684546 0.153573990 0.178747997
0.108538546 0.153574005 0.175964564
0.140164092 0.155471548 0.186970457
0.205945373 0.178241640 0.194686636
0.288172096 0.200506091 0.218216538
0.400505930 0.230360270 0.241745636
0.542061865 0.269449919 0.272232831
0.732194781 0.311195195 0.320177257
0.136622533 0.236938730 0.217078090
0.156230450 0.239342630 0.211511999
0.194940075 0.241998985 0.221378729
0.251739621 0.254522294 0.231498629
0.327134490 0.274130166 0.251613081
0.435926467 0.303099304 0.266793400
0.586970508 0.338140279 0.301075637
0.761543095 0.387602448 0.351170212
0.221632004 0.339911193 0.262492090
0.236811936 0.343074203 0.265781194
0.269702733 0.343326837 0.269955516
0.325616390 0.355976939 0.279823184
0.404680550 0.366603196 0.288804561
0.505249798 0.396204978 0.308665365
0.655661106 0.438077122 0.346236259
0.813915193 0.492473364 0.399367183
0.335989892 0.479822636 0.320935994
0.351169974 0.475648195 0.321947992
0.390765220 0.482985437 0.328146577
0.448071003 0.491587460 0.341935724
0.522833645 0.506514668 0.352940917
0.613662422 0.517394483 0.367741734
0.731562018 0.554332554 0.404933929
0.861732960 0.616445303 0.475015551
0.508159101 0.650347829 0.420746088
0.526249290 0.656040549 0.429728270
0.549778223 0.654522359 0.432764083
0.597090483 0.661100447 0.440987021
0.657685041 0.675395131 0.457938254
0.730550289 0.687539458 0.478937566
0.808728993 0.705376267 0.507021010
0.895761907 0.741050065 0.565844238
0.721315145 0.836179495 0.599747002
0.726502120 0.834914327 0.604047716
0.740670443 0.838836312 0.610246897
0.767868459 0.838836253 0.615686178
0.813029647 0.851992607 0.637318432
0.856546342 0.862618327 0.663251221
0.908032596 0.875268996 0.687033594
0.948513508 0.890448868 0.717773378
0.000000000 0.043136999 0.166856200
0.040354453 0.051739097 0.174825996
0.108918190 0.069702998 0.175584987
0.180518627 0.097533353 0.195951998
0.266287297 0.133965984 0.224921077
0.372295827 0.166476741 0.253131092
0.509550810 0.206831291 0.283618182
0.706514716 0.238836065 0.323971927
0.033270452 0.092852540 0.175585091
0.065781087 0.089690439 0.175964534
0.118279092 0.112080991 0.185325637
0.188741192 0.133206993 0.204174638
0.271347642 0.158633754 0.230866641
0.374699533 0.193168551 0.257937998
0.524098754 0.224414825 0.286021471
0.706641555 0.266034454 0.327387661
0.083871007 0.151929095 0.199114189
0.103731640 0.168501019 0.198608637
0.155851096 0.171537101 0.217837006
0.216192290 0.184061095 0.230866536
0.294497192 0.210752904 0.250853896
0.396078348 0.241745725 0.271853179
0.544591606 0.272486001 0.300822377
0.734977663 0.315622985 0.348387003
0.152688086 0.247944549 0.250095099
0.174699187 0.246806085 0.245667636
0.208728626 0.253004283 0.257052183
0.261985838 0.260847360 0.257811189
0.340290844 0.280834764 0.272739083
0.441745996 0.310562611 0.293738186
0.595698714 0.341049701 0.330170751
0.766730189 0.392662704 0.377356261
0.238077179 0.343833089 0.293105900
0.247691631 0.350917190 0.286400706
0.285895050 0.351676285 0.293864787
0.335863292 0.356356561 0.297660083
0.410246491 0.372042954 0.314990163
0.514611006 0.399367273 0.338013828
0.659076691 0.441619307 0.370398283
0.815053642 0.497912824 0.426185906
0.354838818 0.480455637 0.353194088
0.369386464 0.486148208 0.357115477
0.401770920 0.489690036 0.358760059
0.456673086 0.495635688 0.368121296
0.531815231 0.510563135 0.379126996
0.614421427 0.522580743 0.394939721
0.736116469 0.561796188 0.432511091
0.859582365 0.621505439 0.497912437
0.529032528 0.653004527 0.448576659
0.540417314 0.655660987 0.453763515
0.562681675 0.659329593 0.461985976
0.607463419 0.668690741 0.472359180
0.670208752 0.675774813 0.478304565
0.739278615 0.689943075 0.504743695
0.810752571 0.707147479 0.533206582
0.902593136 0.747754395 0.587855697
0.720430017 0.844655216 0.615939498
0.729664922 0.841619372 0.614294887
0.748386741 0.839848459 0.619860768
0.777229369 0.845414162 0.637697875
0.817583680 0.851486385 0.650094867
0.857558429 0.862492025 0.666413546
0.904743731 0.877545834 0.700822115
0.950663924 0.888298631 0.724224985
0.003922000 0.050474640 0.226944640
0.050474543 0.063377991 0.224921092
0.121441998 0.080328740 0.224035189
0.177735269 0.106514998 0.233143643
0.268184751 0.140290990 0.255787641
0.371916473 0.172295988 0.276533991
0.515369952 0.204047933 0.317900270
0.711448550 0.244402170 0.366856396
0.047311544 0.107273899 0.228462636
0.078178182 0.110942446 0.219607621
0.126375735 0.119417734 0.239089087
0.189879730 0.133965999 0.241366088
0.269702762 0.160910636 0.259708911
0.376597077 0.194181085 0.287033528
0.531435668 0.226312563 0.323466182
0.714610755 0.263757169 0.367362469
0.099431001 0.166856110 0.245288089
0.113472186 0.173434556 0.246805996
0.164073467 0.185705096 0.249968201
0.225932732 0.195825085 0.264896005
0.305376381 0.216192096 0.277292997
0.410625994 0.246805906 0.313092738
0.556483269 0.279316664 0.341682285
0.737254858 0.321062654 0.388867617
0.159772277 0.243896633 0.267931998
0.175711632 0.249462634 0.273371190
0.225932732 0.258823663 0.295383006
0.284250289 0.279190630 0.299304247
0.349778384 0.289690256 0.313346088
0.450727373 0.316887736 0.332194984
0.597849548 0.352055609 0.364959002
0.771031082 0.400000066 0.414168268
0.255408019 0.346869290 0.335610002
0.265022010 0.355977029 0.320809513
0.299810261 0.363440990 0.335357159
0.352182209 0.367615640 0.339531630
0.423529387 0.378494710 0.346995175
0.530044317 0.407969594 0.375711739
0.665528297 0.446299762 0.412144274
0.815686166 0.503984571 0.470082164
0.361796081 0.485768735 0.383301616
0.380265474 0.487792283 0.389247298
0.418722361 0.492093593 0.396331280
0.469196707 0.504617095 0.401391655
0.538519800 0.512080967 0.414800704
0.625426829 0.528526485 0.432637632
0.737507641 0.568880022 0.472359002
0.864389777 0.626944840 0.530676544
0.535610199 0.654395819 0.487033635
0.549778461 0.655660868 0.488045692
0.568627179 0.657305181 0.488804728
0.621884882 0.665528536 0.506388307
0.672485828 0.674509883 0.513472676
0.740037739 0.691081583 0.536749065
0.813409150 0.710436225 0.558507204
0.903605103 0.748260260 0.611638010
0.728905797 0.836052954 0.636052966
0.736495852 0.833902478 0.641113341
0.746868789 0.839468539 0.649462461
0.776470244 0.842251897 0.653889716
0.814041793 0.850094914 0.670335233
0.857811630 0.862997890 0.688298345
0.907273710 0.877039969 0.714863956
0.955850780 0.890828431 0.739911377
0.024162190 0.072106190 0.284503371
0.072738893 0.083364740 0.286021173
0.133080184 0.098671995 0.285262287
0.200379178 0.122580543 0.293737978
0.278810978 0.145730197 0.304744154
0.380392164 0.179759532 0.325489730
0.530676842 0.213156089 0.368121386
0.726628423 0.251360148 0.423655957
0.080075830 0.124984346 0.293485343
0.097786181 0.129285187 0.292346984
0.149145931 0.137887180 0.294244349
0.213789076 0.152814895 0.295129508
0.282226533 0.171663180 0.301328510
0.389500201 0.200885639 0.333713084
0.536875606 0.229854733 0.379886180
0.727893591 0.273371160 0.424794525
0.130044192 0.187982202 0.297660083
0.146109641 0.187476441 0.299683630
0.186337888 0.198229000 0.305629164
0.241619617 0.206451640 0.307906300
0.310057074 0.224035278 0.325869352
0.417204261 0.250727087 0.352940947
0.563567460 0.281214386 0.392410070
0.754585624 0.326375663 0.446552902
0.173813999 0.262871653 0.322833180
0.198102176 0.266793519 0.324730843
0.239215717 0.274889171 0.332574546
0.299936980 0.290195823 0.346615821
0.372675449 0.303478628 0.355597377
0.475901455 0.328146547 0.384946108
0.619860828 0.357115567 0.419734389
0.777735472 0.410246640 0.471094012
0.251359999 0.356356382 0.363314360
0.274889171 0.360278368 0.374952644
0.320177197 0.372802287 0.383807570
0.389500052 0.387729377 0.399240762
0.461986154 0.408855170 0.415180355
0.559645832 0.422770381 0.424794614
0.681214452 0.455787480 0.459076434
0.827450752 0.510436296 0.518026292
0.382795453 0.494117469 0.435041130
0.397723287 0.497153461 0.435420454
0.435926557 0.503858089 0.444781661
0.492346406 0.511701524 0.455281794
0.562175691 0.525869727 0.470334947
0.645666957 0.540290475 0.483491510
0.756356716 0.578494728 0.524478137
0.868311346 0.637318194 0.577862263
0.554965377 0.659203053 0.534851491
0.562808454 0.663504064 0.536242545
0.589500308 0.668058336 0.542694509
0.626818180 0.670714855 0.547375202
0.683617890 0.681973338 0.558254361
0.749146342 0.694623590 0.576723933
0.821758270 0.711701393 0.596584380
0.907273889 0.760025322 0.648576975
0.728526235 0.835926473 0.668058157
0.734345555 0.841745555 0.668943942
0.752561510 0.839468539 0.673497856
0.777735412 0.844781995 0.681720316
0.815306604 0.858443618 0.699051321
0.861985981 0.864769101 0.715496302
0.908412218 0.875268757 0.738646209
0.955724001 0.893105388 0.759898961
0.079949729 0.101833992 0.362302750
0.117267273 0.110056542 0.366477162
0.182795733 0.122959986 0.368754089
0.245034888 0.144591644 0.374066740
0.320556700 0.161796257 0.376343906
0.406957448 0.187855989 0.389500201
0.548134267 0.214674279 0.428462982
0.743073761 0.259582728 0.486147970
0.114484534 0.146109924 0.366477162
0.136875272 0.153953448 0.359139711
0.185831740 0.161037356 0.368500918
0.253130913 0.171157628 0.371536940
0.327513933 0.190006346 0.377735734
0.415180027 0.210752800 0.397596747
0.555470943 0.237697646 0.429981172
0.741429329 0.278558254 0.495635629
0.155344740 0.219101846 0.378368109
0.178368077 0.212523624 0.373434246
0.216445342 0.214041740 0.374699622
0.279822707 0.227071375 0.382922173
0.352561921 0.243643284 0.394686967
0.444655359 0.258444071 0.408475727
0.582922161 0.290954918 0.443516821
0.765717745 0.337254733 0.511574864
0.212523624 0.283744633 0.389879495
0.224920824 0.289690286 0.396964073
0.269702733 0.296015203 0.402909636
0.323972374 0.300316662 0.406704634
0.405059993 0.316761523 0.420493305
0.493611634 0.329285085 0.439215481
0.634787798 0.364073247 0.479063660
0.794054329 0.420620114 0.533080339
0.290828645 0.382036656 0.433017373
0.303858101 0.384819806 0.438836098
0.345224470 0.392662853 0.447185278
0.408728570 0.403289258 0.459329814
0.492473185 0.424415171 0.475395352
0.583554924 0.436938673 0.493358672
0.703858256 0.469323188 0.529285192
0.834914863 0.523719132 0.578874350
0.404933721 0.504996479 0.487539709
0.420366555 0.505502939 0.494117498
0.456672907 0.510815740 0.508918464
0.513852000 0.525743067 0.518406332
0.596204937 0.551676035 0.541935265
0.679443240 0.569639206 0.557874739
0.773054898 0.594307303 0.582542777
0.878557801 0.643896282 0.630360484
0.566856265 0.661227286 0.582669497
0.579000711 0.662365854 0.579380274
0.604300916 0.669829190 0.592662632
0.644022882 0.681593895 0.602150500
0.701707542 0.693358898 0.620240450
0.766349971 0.705250025 0.631499350
0.827197552 0.722960055 0.649589002
0.922074318 0.768880367 0.695002913
0.740290701 0.841998637 0.710815847
0.744591653 0.840354502 0.711448073
0.759898841 0.843390405 0.715875804
0.782416284 0.846932352 0.726122856
0.813788712 0.854395747 0.735483646
0.860088646 0.867046416 0.744718552
0.906641424 0.880834818 0.771663189
0.948892891 0.896267951 0.793421805
0.152561277 0.135610282 0.492346257
0.186084375 0.138266549 0.491461068
0.244908080 0.145730376 0.492346674
0.320303619 0.163693994 0.502466559
0.411511451 0.181783691 0.502466559
0.510436296 0.197975740 0.512586832
0.613535523 0.228716001 0.527008235
0.768627584 0.269196361 0.565211892
0.168248013 0.173181280 0.489183992
0.196584284 0.177103281 0.494496822
0.250348061 0.184566826 0.492346257
0.330170482 0.194307104 0.500948548
0.412017882 0.207969636 0.507779777
0.515623033 0.225173920 0.517773509
0.623529673 0.250095010 0.533460021
0.764452994 0.292599529 0.568627059
0.195572570 0.240607083 0.504996836
0.226312369 0.243896529 0.503731787
0.276154399 0.244275898 0.503352523
0.345477730 0.253637105 0.506261826
0.433523297 0.266287088 0.515876055
0.535230815 0.280582011 0.529158592
0.643263638 0.305376381 0.546489596
0.782922208 0.351423353 0.587223172
0.243896335 0.325110555 0.516381919
0.262112588 0.324604630 0.518658936
0.313345820 0.323719025 0.522833645
0.386337936 0.333586276 0.524225175
0.474256754 0.345730722 0.536369503
0.570778072 0.356230378 0.549778342
0.681341231 0.380139202 0.567488551
0.812523663 0.432511121 0.608475745
0.329411656 0.423656195 0.545603514
0.352561712 0.424415201 0.551549911
0.386464477 0.433776081 0.553320706
0.447438300 0.435673833 0.562934756
0.529917598 0.445540667 0.570018530
0.625047207 0.460721135 0.585705519
0.726502240 0.482985258 0.602909565
0.843390286 0.534724772 0.644908309
0.451233000 0.544085741 0.594560564
0.472738624 0.544591784 0.605186462
0.496394455 0.550284505 0.594686985
0.546109915 0.561796129 0.606198549
0.623276651 0.575078964 0.620999515
0.708032727 0.589626729 0.640101254
0.790385485 0.619861007 0.661354005
0.889943242 0.662239075 0.694623530
0.586084485 0.670082271 0.645920336
0.591018260 0.675774574 0.651233137
0.615433276 0.680581808 0.649968326
0.657052577 0.689057231 0.660468161
0.716002405 0.703984737 0.678937554
0.780265749 0.730044246 0.706514716
0.848576844 0.745603502 0.727640808
0.923086643 0.780139267 0.751170397
0.740164280 0.842125177 0.760152102
0.753447056 0.846173406 0.760151803
0.757368386 0.848956585 0.763187885
0.787855685 0.850094974 0.771157384
0.825932860 0.861606300 0.786717117
0.863377512 0.876154423 0.797596335
0.904743850 0.887033224 0.814674258
0.954206049 0.900442839 0.835673571
0.244781628 0.168753818 0.689563572
0.272738516 0.171790108 0.684376717
0.334851027 0.182036817 0.681214273
0.420113444 0.194686964 0.692219734
0.522707343 0.216318801 0.693484545
0.629601240 0.240606785 0.695382297
0.746363044 0.278684378 0.707526863
0.863630414 0.324730754 0.720809758
0.247691512 0.210626379 0.690575123
0.285515636 0.213156193 0.690448880
0.337633967 0.218722224 0.685768425
0.424794227 0.226565525 0.686527431
0.525869608 0.242883980 0.695382416
0.633143425 0.268311054 0.695888400
0.746489763 0.299557328 0.707021058
0.857305348 0.347121716 0.728020549
0.269955635 0.282606095 0.694876552
0.292220086 0.282352626 0.696268022
0.354079813 0.289183915 0.686400712
0.442504615 0.299430728 0.692978859
0.538393319 0.313852161 0.697026968
0.646299720 0.334092140 0.707400441
0.760910749 0.363314092 0.715243459
0.868184686 0.403668642 0.728905380
0.315370083 0.369006574 0.699430764
0.340670496 0.374699533 0.696268082
0.393801361 0.381277740 0.697659433
0.476027548 0.387982428 0.698798239
0.571030617 0.401897520 0.707906425
0.672612190 0.416192353 0.713472307
0.780139208 0.446300060 0.728020489
0.876407206 0.481467426 0.737634420
0.405566156 0.487539530 0.708918273
0.428589642 0.487666041 0.716887772
0.464769244 0.483617842 0.714610577
0.528652728 0.490322858 0.717014313
0.616698086 0.502845943 0.722453773
0.702466965 0.521948159 0.734345615
0.801264942 0.542314947 0.743200541
0.892093599 0.573560774 0.759898782
0.540923238 0.617204368 0.743706465
0.552055597 0.618722022 0.746995449
0.575585127 0.617204189 0.741682172
0.618089676 0.617204368 0.746868610
0.675774515 0.622264504 0.750917017
0.745224357 0.637950540 0.762302220
0.833017111 0.656799674 0.771663189
0.912207365 0.680708230 0.789120436
0.656546474 0.744718313 0.783301711
0.659708798 0.744971037 0.779253423
0.679316640 0.748134077 0.780898273
0.708538651 0.750790775 0.788488388
0.755344868 0.754332423 0.792916059
0.807590425 0.760404825 0.801517904
0.866287112 0.775205553 0.813156009
0.938520074 0.798482060 0.828589618
0.758760571 0.864769399 0.825300455
0.758760571 0.864262998 0.828969002
0.775205672 0.865401626 0.834029317
0.792662621 0.864642620 0.836053252
0.828336477 0.872485638 0.845287919
0.871220529 0.883491457 0.857305348
0.914610982 0.895255983 0.868564606
0.954458833 0.916887701 0.892093599
