Assets/Resources/EldamarStudio/100 Horror LUTs Pack/LUTs/cube/Drowned LUT.cube
DOMAIN_MIN 0 0 0
DOMAIN_MAX 1 1 1
LUT_3D_SIZE 32
0.000000000 0.035294000 0.101961002
0.003036387 0.032258388 0.101961002
0.008223000 0.033523228 0.099810228
0.016824998 0.034029163 0.099304162
0.030107545 0.032511450 0.102720000
0.051359929 0.041619062 0.108792000
0.070081994 0.048197001 0.112333678
0.089942701 0.052624710 0.117014416
0.109677091 0.055661097 0.123086996
0.124857493 0.058697488 0.129158989
0.151675865 0.064642996 0.129411995
0.172928512 0.068690740 0.135483727
0.193421990 0.076280639 0.143453285
0.217204064 0.090701997 0.149272963
0.235420823 0.096773997 0.152308583
0.253636986 0.100442804 0.160151809
0.276407182 0.108032994 0.166223809
0.303099126 0.120176986 0.170524567
0.327387989 0.132321015 0.179632977
0.351676017 0.138898998 0.188741356
0.375964463 0.146868736 0.201644734
0.404301226 0.155977130 0.212776870
0.440860450 0.165085509 0.216065496
0.480328918 0.174193904 0.225173905
0.519797266 0.183301702 0.232005000
0.560657263 0.193801329 0.239468664
0.604680181 0.205945998 0.248577058
0.656293273 0.218089983 0.257685423
0.710562587 0.230233967 0.272106111
0.763440549 0.244149178 0.290828168
0.815939128 0.259329587 0.310309589
0.870588005 0.274509996 0.325489998
0.003036387 0.032258388 0.095889002
0.000000000 0.035294000 0.095889002
0.013788613 0.034408614 0.100190006
0.020872613 0.039089162 0.103605390
0.027830256 0.044275999 0.109550998
0.054396316 0.050727449 0.120935999
0.073118381 0.054775707 0.114357680
0.096268080 0.057052772 0.125236705
0.118026383 0.060215287 0.132953718
0.130929500 0.067805097 0.123086996
0.149019733 0.070841484 0.132068127
0.169892371 0.078811251 0.136495605
0.190385893 0.083871126 0.143453285
0.214168385 0.090955034 0.149526000
0.232384428 0.099810384 0.155344978
0.253004402 0.108285576 0.165591389
0.273371190 0.112586804 0.169259802
0.298292130 0.120176986 0.170524567
0.327387989 0.132321015 0.179632977
0.357242018 0.144465715 0.194307372
0.382036477 0.151043773 0.202023998
0.407337129 0.159013256 0.211764738
0.437824100 0.168374106 0.219228372
0.477293313 0.183301523 0.231245905
0.519038379 0.192409903 0.238077000
0.563440621 0.201518059 0.244148985
0.610246897 0.211511940 0.251612663
0.659329653 0.221125603 0.260721028
0.702973008 0.233270273 0.275142431
0.757874489 0.243643135 0.283238620
0.811132014 0.258064181 0.301328331
0.861480415 0.277545601 0.331561983
0.010373225 0.044275999 0.098419003
0.009487612 0.043010615 0.107020997
0.012902999 0.046046771 0.100569226
0.027324161 0.047311932 0.109171547
0.033396319 0.054269772 0.116255775
0.060721029 0.060341772 0.121315770
0.080455765 0.063883543 0.124351449
0.100316472 0.066919930 0.118532486
0.122074679 0.068184905 0.131941766
0.132827014 0.074509524 0.126502484
0.157241970 0.082099870 0.132447898
0.173434481 0.085136257 0.139531761
0.191524282 0.092853002 0.146742418
0.213283002 0.097153775 0.153573960
0.231498986 0.104364410 0.157748222
0.254269570 0.111321963 0.164326221
0.275521934 0.120429963 0.173434600
0.298039317 0.125996187 0.174825951
0.326881975 0.136622012 0.183933973
0.357242018 0.144465715 0.194307372
0.385705203 0.154712260 0.205692738
0.411258906 0.163061485 0.211005643
0.439089239 0.173434526 0.217963234
0.478557944 0.186590672 0.230107784
0.520303726 0.197217062 0.237697780
0.565591037 0.206325084 0.246552765
0.613156378 0.215939358 0.255660832
0.658444047 0.226692080 0.268058211
0.710309863 0.238456652 0.286780596
0.758127809 0.252372175 0.298418522
0.813282549 0.264895529 0.305755794
0.863124967 0.284882784 0.333332986
0.013156001 0.062491998 0.107020997
0.016951161 0.059455935 0.114105001
0.023782160 0.056925938 0.114990383
0.033649318 0.063757159 0.108411998
0.043896157 0.066034451 0.119418226
0.068563931 0.069449842 0.120303839
0.087033480 0.075521842 0.126628667
0.104364537 0.078557864 0.127640545
0.124857835 0.082353160 0.127640933
0.135483518 0.085894845 0.134218991
0.158254027 0.090955034 0.137760982
0.178747252 0.097280249 0.143832996
0.195066288 0.102593638 0.149904996
0.213789001 0.108539134 0.158380881
0.234028980 0.113598987 0.161416754
0.253257424 0.119670987 0.168121323
0.277293175 0.128526345 0.172928214
0.300442934 0.136369571 0.179633409
0.328399837 0.144212201 0.188741207
0.357242018 0.153067559 0.197849527
0.384440035 0.159772575 0.203162745
0.413788944 0.168880194 0.213283002
0.441872329 0.180771843 0.217204154
0.479064077 0.192916170 0.227071643
0.520809412 0.204048291 0.235927001
0.564832270 0.211891472 0.246047139
0.614421129 0.220493153 0.256673098
0.659961820 0.231119722 0.268817276
0.711827755 0.244528964 0.290575773
0.765970528 0.258444190 0.309804082
0.816698134 0.274509996 0.320682704
0.867931843 0.292726010 0.335862994
0.009740546 0.079949096 0.118026547
0.018848933 0.077672385 0.118405998
0.028968999 0.073624544 0.118785545
0.042757705 0.073244996 0.118658930
0.057938091 0.083871000 0.114863545
0.076154098 0.080834612 0.117899932
0.091840319 0.087539315 0.128146544
0.106641248 0.093358703 0.134471551
0.122200996 0.096774444 0.135610089
0.140417010 0.102846451 0.144718483
0.158633739 0.103858545 0.145857006
0.177229539 0.108285986 0.149904996
0.195445731 0.114358090 0.155218005
0.213662520 0.122960478 0.161543041
0.237697527 0.125996128 0.164832413
0.255534351 0.131815091 0.172296256
0.275648385 0.140164390 0.178747803
0.300822496 0.151170418 0.183428124
0.331182569 0.154206052 0.192536533
0.358759910 0.165211558 0.200506359
0.384566486 0.173940465 0.205060452
0.411132127 0.181024969 0.208349451
0.444781482 0.190259084 0.220240474
0.478684723 0.202403814 0.226312548
0.518912017 0.214547992 0.235041291
0.563187540 0.223529533 0.246553108
0.608728707 0.230360538 0.261227459
0.663377404 0.236432537 0.264263093
0.715749383 0.250094801 0.283997625
0.768374264 0.264895707 0.305376619
0.820493162 0.281340986 0.325996369
0.869069993 0.299557000 0.341176003
0.024920933 0.092093870 0.121062934
0.034029320 0.095129482 0.124098547
0.038836159 0.097153768 0.126628771
0.049715318 0.096141770 0.130423933
0.067046478 0.096014999 0.133080319
0.082226865 0.096014999 0.123971932
0.097912543 0.100568928 0.132068306
0.111448415 0.105502702 0.140037939
0.124857835 0.108538896 0.143579930
0.140417010 0.111954071 0.144718483
0.158633739 0.118026808 0.150916994
0.178874254 0.125110671 0.155976996
0.198481932 0.130296990 0.159772009
0.216698125 0.132068098 0.161543041
0.234914884 0.135104477 0.170651406
0.256546706 0.142947733 0.176343992
0.279823124 0.150031865 0.182922050
0.306641549 0.157748416 0.189753145
0.334218949 0.166350052 0.201644897
0.361796290 0.174952358 0.202403933
0.389120638 0.184566662 0.209614247
0.415939122 0.193169117 0.216192052
0.444781482 0.202403858 0.223276079
0.484250724 0.214547873 0.229348868
0.524984539 0.226691991 0.239974931
0.570272148 0.234661669 0.251612961
0.617331088 0.239721924 0.264769137
0.660341740 0.251612931 0.279443502
0.714990497 0.262997925 0.287792742
0.765591323 0.275648415 0.301201940
0.813409209 0.290955275 0.318406016
0.856926024 0.311701000 0.341176003
0.042630997 0.114357993 0.139279321
0.046679385 0.112334251 0.139785260
0.055787772 0.115369864 0.138519868
0.060847640 0.117140993 0.140797168
0.073624544 0.116128862 0.145604327
0.088804930 0.118279636 0.147248715
0.103984676 0.120809317 0.145730644
0.119164698 0.125237018 0.149905324
0.132953763 0.129032314 0.154206321
0.148133859 0.133839160 0.157748327
0.163693726 0.137255058 0.158507317
0.183934242 0.139279321 0.166603580
0.204047993 0.145730644 0.172042996
0.222264066 0.149019644 0.173687354
0.240480825 0.154332742 0.178241730
0.263503969 0.159772307 0.184946314
0.284882873 0.167235985 0.191018313
0.310183227 0.173307985 0.197090313
0.337507665 0.180518374 0.205439627
0.364832699 0.189626679 0.214041993
0.394054323 0.198735058 0.217836991
0.425047249 0.206831321 0.226312444
0.457431793 0.214421496 0.233902633
0.496900380 0.224162325 0.239974812
0.534092188 0.236306310 0.248324275
0.580265641 0.245667309 0.258823633
0.629475176 0.251359999 0.269829124
0.674004138 0.263503999 0.282985747
0.724604607 0.275648624 0.295382828
0.775711298 0.287792593 0.309803933
0.826059341 0.302593589 0.324351579
0.875142634 0.323845655 0.343706310
0.057558414 0.135357410 0.153953284
0.063883379 0.133966088 0.149020001
0.067931771 0.135230929 0.156736210
0.080834992 0.135736853 0.153700143
0.087286532 0.136116415 0.154838994
0.094876930 0.140417635 0.155851007
0.106767677 0.141809091 0.160152003
0.126881406 0.144844711 0.163440987
0.141302705 0.146363094 0.164200082
0.155597493 0.149778694 0.169386700
0.170777872 0.152941152 0.169639707
0.190006241 0.155598000 0.172422543
0.208981633 0.156736344 0.178115278
0.226944745 0.162555322 0.180897996
0.246552825 0.170018986 0.185325697
0.267931670 0.176090986 0.190765277
0.292219669 0.182162985 0.196837664
0.314863712 0.188867569 0.203542128
0.342188448 0.195951715 0.210626006
0.366224080 0.201518059 0.216192365
0.398734987 0.212270722 0.225047708
0.430107385 0.220366985 0.232131585
0.465907663 0.226818487 0.241239786
0.503857911 0.238962904 0.248830006
0.545983255 0.248703688 0.257179290
0.585198998 0.258064687 0.264896005
0.636559129 0.265148699 0.274762779
0.685515583 0.277292699 0.288045883
0.733080447 0.291081637 0.300189972
0.781277299 0.301581651 0.312586933
0.827197790 0.317267656 0.331688583
0.878052294 0.339278996 0.348387003
0.068943903 0.153574005 0.163061097
0.078810811 0.155092001 0.156230375
0.083617777 0.155724421 0.160531312
0.089942999 0.157748163 0.168880150
0.107779540 0.153953448 0.166603550
0.107020929 0.158127904 0.161670089
0.113345772 0.161417007 0.163441002
0.126881406 0.161543474 0.170272097
0.148893103 0.164579108 0.174826086
0.161037117 0.161543489 0.177862480
0.176849872 0.165085226 0.178747892
0.194560245 0.168121368 0.180012733
0.215053633 0.171157449 0.182669088
0.230740026 0.174699128 0.183428124
0.251992404 0.183807507 0.190006182
0.273244798 0.190512091 0.193801090
0.294496983 0.196584091 0.199114382
0.319417715 0.203288674 0.206451982
0.346742928 0.212397069 0.215686128
0.371537387 0.216698363 0.220746443
0.400759161 0.224668086 0.227577627
0.436179399 0.235547185 0.235167965
0.469829470 0.241745666 0.244275600
0.506894052 0.255660921 0.253383994
0.548639894 0.266287297 0.261733294
0.595066309 0.274763107 0.270968020
0.638077140 0.281341016 0.278558075
0.691966891 0.293231994 0.293738425
0.740164340 0.308032811 0.306261986
0.785705149 0.321948260 0.318405926
0.830992877 0.333966047 0.332447678
0.870462060 0.358254105 0.353700101
0.078051537 0.171790004 0.172169477
0.090196297 0.177862003 0.172169477
0.095762208 0.177229792 0.171789989
0.100063011 0.176976815 0.172422484
0.107779548 0.178241462 0.172675550
0.122959927 0.169133082 0.175711945
0.129791006 0.175837845 0.173308164
0.137634203 0.177988723 0.177229702
0.148893118 0.176723883 0.183934480
0.164073527 0.179759488 0.183934480
0.182036504 0.185451999 0.186970115
0.198102251 0.189373761 0.187855512
0.215812653 0.192409858 0.189120635
0.236812040 0.195951536 0.192536533
0.258064389 0.205059916 0.201644897
0.279316783 0.211764500 0.201012179
0.299050987 0.217836484 0.201391697
0.319417715 0.224541068 0.206451997
0.346742928 0.233649477 0.218596011
0.379633367 0.239974514 0.227830842
0.410626471 0.247817755 0.236685738
0.442252100 0.257052600 0.243769646
0.475901484 0.266034454 0.247311994
0.515369892 0.275142074 0.256420374
0.554712296 0.284503281 0.263251483
0.600000024 0.293611646 0.272232980
0.650221169 0.302593410 0.284630090
0.695762277 0.311701059 0.299810439
0.746995151 0.326248825 0.312334001
0.794813037 0.343200386 0.324477971
0.840354264 0.361037463 0.338393182
0.885642469 0.379506469 0.356736481
0.098797865 0.187096864 0.172548994
0.096394777 0.193168864 0.181277871
0.104237996 0.199240863 0.181277871
0.109297872 0.195951834 0.183807865
0.116128862 0.193168551 0.187096864
0.128778934 0.199240804 0.187602937
0.143959314 0.192662731 0.183048993
0.152814567 0.198228866 0.184566870
0.164199874 0.199746996 0.190133005
0.181530505 0.200632393 0.190133005
0.196710870 0.203668743 0.190132990
0.208855122 0.207716465 0.195192873
0.225679860 0.210752636 0.199240878
0.248197019 0.214041740 0.204048038
0.264136404 0.220493287 0.207843423
0.285388798 0.229601681 0.214547992
0.308159381 0.236179739 0.217583865
0.331688702 0.242251724 0.223276570
0.361290067 0.249082848 0.233143866
0.385831863 0.255407870 0.234155864
0.418848723 0.263377607 0.242884248
0.452245355 0.271473855 0.250980258
0.487539470 0.278810978 0.256040841
0.521441936 0.290701956 0.262365907
0.570018828 0.297532856 0.273751020
0.614800930 0.306008637 0.281087995
0.661353767 0.317141056 0.291207999
0.702087283 0.335863262 0.308791548
0.744971573 0.350284576 0.313345969
0.797596157 0.361922920 0.331815392
0.847438157 0.376723856 0.350284725
0.895003140 0.394939870 0.368501008
0.113978505 0.210373238 0.186717242
0.114990368 0.212397248 0.185705394
0.120430246 0.212396979 0.194434255
0.126502246 0.214674145 0.191903934
0.132574245 0.208981514 0.194939837
0.141429260 0.216445178 0.198229253
0.154079318 0.220999241 0.197217256
0.167615414 0.218216240 0.196078539
0.177103162 0.222011253 0.199494094
0.191523999 0.222011253 0.198229253
0.206830859 0.222896859 0.200252995
0.224035516 0.227956980 0.206325233
0.237697884 0.230992883 0.211258605
0.260594517 0.234282240 0.216192037
0.277545661 0.240354240 0.219228417
0.297533065 0.248830050 0.224667981
0.318785429 0.254902065 0.230739981
0.342568129 0.261100560 0.235546991
0.370145559 0.268564254 0.240480706
0.398987710 0.272612512 0.245287731
0.427071452 0.280581743 0.250980467
0.461353481 0.288677990 0.259076238
0.497912705 0.294876516 0.265148729
0.535104156 0.305123270 0.271220714
0.580138803 0.314737499 0.285895258
0.623403013 0.324984163 0.291081578
0.666414082 0.336369455 0.297280133
0.708918393 0.354585409 0.315496504
0.757115781 0.368501067 0.326502085
0.801391363 0.383681417 0.336622417
0.851739168 0.395952225 0.361037552
0.898038983 0.414168268 0.382669240
0.129538640 0.236559272 0.203415647
0.131435901 0.236559272 0.199620649
0.137634411 0.235547140 0.199747130
0.147754624 0.235926434 0.207084313
0.153067634 0.232511267 0.201391190
0.157621637 0.235547274 0.205186874
0.167615280 0.240480632 0.207337350
0.179759413 0.245540634 0.210120276
0.192663088 0.246299729 0.212396994
0.202529818 0.246679276 0.209740832
0.218595505 0.246679276 0.213662416
0.233523130 0.247311652 0.216192260
0.251739651 0.252245277 0.221884996
0.272739023 0.255534649 0.225173637
0.290954977 0.261606634 0.229095414
0.312713414 0.268943787 0.234534994
0.335104167 0.276154429 0.238329992
0.356356531 0.279822618 0.243769586
0.380139321 0.288424969 0.244275659
0.409993649 0.295383006 0.253257304
0.441492468 0.302213877 0.256672740
0.472865373 0.310309619 0.266792983
0.509298146 0.316634655 0.273118019
0.548766553 0.326755166 0.279190272
0.591650546 0.335863292 0.290954918
0.638962626 0.344339311 0.306261957
0.674383700 0.359519571 0.305755615
0.719924033 0.374699175 0.322707236
0.768501043 0.388361663 0.336748987
0.815433383 0.403415799 0.351802826
0.859202862 0.420367211 0.370525181
0.901454628 0.438836277 0.397849619
0.151043996 0.260847986 0.213030040
0.150537997 0.261101007 0.213283002
0.155344993 0.261101007 0.210879266
0.162935004 0.263125032 0.211638033
0.175079063 0.267931998 0.217330545
0.175079063 0.261859983 0.214294940
0.181657314 0.263124704 0.215306729
0.192409992 0.267552078 0.219481051
0.205313087 0.272865117 0.224035054
0.220493495 0.275901496 0.224035054
0.238077059 0.276281029 0.229854733
0.252498478 0.274762750 0.230360731
0.266666979 0.274003655 0.228462994
0.284883082 0.277293026 0.228716031
0.303099036 0.283365011 0.234788030
0.326122582 0.289437026 0.240860030
0.350411057 0.295509011 0.244402036
0.374319583 0.301580995 0.245540619
0.395572007 0.307653040 0.248577014
0.425426811 0.318532735 0.261480391
0.457431734 0.328526258 0.266034275
0.491081387 0.337128013 0.267805040
0.524478495 0.343453050 0.279696047
0.563693941 0.355597824 0.285768807
0.603921294 0.365464747 0.294370711
0.647058606 0.373687387 0.305755675
0.694877028 0.381024987 0.320430040
0.740417361 0.396204591 0.332574010
0.785199404 0.411384881 0.347374856
0.829222322 0.428336382 0.364579409
0.870588541 0.447185606 0.385199547
0.910056949 0.468438029 0.412523985
0.175331980 0.285135984 0.228210405
0.169259965 0.288172364 0.231246024
0.177355990 0.288425386 0.227197990
0.183174968 0.288425386 0.226818398
0.187982082 0.289310843 0.232890412
0.205439806 0.286147982 0.238582909
0.202909499 0.285135984 0.230487287
0.210625976 0.287413090 0.228842825
0.223529086 0.291081727 0.230107829
0.238709480 0.294117451 0.230107829
0.250980705 0.297153831 0.235926837
0.266413569 0.299557120 0.239974737
0.280961186 0.301328033 0.240606993
0.297027051 0.304617405 0.240860030
0.315243781 0.310689390 0.243896410
0.338266790 0.316761404 0.249968410
0.362555385 0.322833389 0.256040394
0.386843801 0.328905374 0.261479974
0.410752416 0.334977388 0.269829363
0.443137497 0.338266760 0.270082384
0.474003822 0.345097959 0.277040005
0.507020652 0.353826404 0.282226533
0.542694449 0.364705414 0.291840792
0.576090872 0.376850188 0.297912836
0.622137487 0.386717081 0.308539003
0.666033685 0.397216707 0.318659067
0.709803700 0.408096403 0.329538405
0.752561331 0.420493364 0.341682374
0.790132642 0.435673624 0.356483221
0.833776116 0.452624738 0.375205547
0.876027942 0.470841169 0.396710932
0.913092613 0.489690393 0.421631575
0.197216794 0.316634774 0.238583192
0.198355600 0.307653368 0.239215612
0.198734820 0.314990759 0.240100995
0.208854944 0.313219786 0.242125303
0.211891040 0.312081218 0.248197496
0.215939060 0.317140847 0.242125005
0.230866462 0.316634774 0.249968305
0.236053199 0.316634774 0.242504984
0.248197377 0.318152964 0.241745889
0.261733085 0.319544286 0.243390173
0.274003714 0.322580636 0.244402185
0.286147952 0.323592782 0.248450443
0.302087069 0.326248944 0.251486450
0.318532616 0.329284996 0.253257602
0.334598601 0.333206773 0.258444220
0.355218589 0.336875618 0.261480004
0.376470596 0.342947602 0.267551988
0.401518106 0.349652022 0.271726578
0.432890624 0.357494771 0.273750961
0.460721076 0.360784143 0.281720787
0.492220461 0.367615521 0.287413031
0.523592710 0.376217574 0.293990970
0.558760285 0.388235092 0.301707685
0.596710742 0.398102582 0.310056984
0.634661615 0.412524045 0.318406284
0.680075884 0.423276365 0.330423772
0.722580731 0.435420781 0.341556072
0.765085459 0.447564781 0.355597794
0.799873412 0.464769393 0.365591615
0.846932113 0.479949325 0.396711111
0.891714215 0.499303997 0.422391176
0.928146601 0.520556748 0.445161402
0.216951385 0.342441380 0.252245396
0.223023385 0.342441380 0.252245396
0.224541411 0.336242765 0.252245396
0.231372491 0.344085991 0.256040215
0.240354374 0.339784980 0.265654802
0.240733624 0.345477253 0.255787313
0.246805504 0.348513365 0.255281508
0.258823425 0.348513365 0.257685006
0.271727085 0.348513365 0.254648983
0.284630179 0.348513365 0.258443713
0.296774209 0.349905044 0.257052392
0.310436368 0.352435380 0.260594428
0.324857384 0.352435380 0.263630539
0.343074054 0.355344594 0.267172813
0.359519601 0.359645784 0.274509966
0.377988756 0.364199996 0.278178573
0.403795362 0.364199996 0.281214178
0.422643930 0.370271981 0.286653757
0.454649180 0.378494203 0.285389155
0.479696542 0.385072559 0.290449142
0.510436475 0.393421739 0.298039228
0.543833137 0.402530134 0.307147115
0.578368008 0.414168179 0.313725173
0.616445124 0.424667895 0.321441889
0.652877986 0.436812460 0.330550283
0.693738103 0.449209481 0.342441648
0.735737026 0.461733043 0.355218261
0.777229846 0.474889189 0.370398611
0.817836702 0.492346823 0.386338025
0.849968433 0.510310113 0.407337308
0.899304152 0.528146565 0.440986961
0.935736835 0.552435338 0.460341811
0.237697959 0.364453107 0.271726966
0.246173158 0.375332117 0.268564403
0.248197138 0.373054922 0.269196987
0.253889859 0.369639128 0.271094441
0.264516532 0.374952137 0.279063582
0.270082563 0.374952137 0.273497581
0.274889231 0.377482444 0.270588309
0.281214267 0.378874123 0.268817455
0.292473048 0.379506528 0.267425567
0.307653427 0.379506528 0.273497581
0.319924116 0.379506528 0.272106439
0.334092379 0.381530792 0.273877561
0.351043701 0.384060979 0.278810918
0.369006664 0.384314001 0.282099575
0.386843771 0.390006542 0.290828377
0.406325102 0.395446122 0.294497222
0.427450925 0.398228914 0.296900779
0.455281526 0.396457702 0.299936563
0.476533979 0.402529716 0.302972972
0.499683917 0.410752475 0.307273805
0.527261257 0.419860542 0.312207162
0.562049270 0.431625277 0.318658710
0.601264596 0.440860122 0.327893555
0.637191355 0.453004152 0.334977567
0.672612190 0.465781122 0.343959242
0.709551096 0.477166414 0.354585618
0.750537217 0.487286180 0.370778054
0.789753258 0.502466559 0.386211395
0.832004726 0.520303607 0.406072378
0.868184566 0.538520098 0.430234134
0.897533536 0.557874739 0.455661118
0.933965564 0.582163513 0.467805147
0.268058062 0.400885999 0.296014994
0.274130046 0.406957984 0.280834645
0.274003804 0.404933989 0.279822826
0.278811127 0.402403802 0.281341046
0.291840971 0.405312985 0.282100022
0.291841030 0.405312955 0.282100022
0.299936712 0.407843292 0.281594008
0.308538705 0.409235001 0.282985747
0.319923997 0.409993887 0.285515875
0.338013500 0.412903011 0.288678020
0.350284755 0.412903041 0.291840881
0.364453226 0.414927304 0.292346984
0.381910622 0.417963386 0.293991357
0.402403891 0.420746088 0.297280014
0.417583495 0.423782498 0.303351998
0.440227598 0.427071840 0.304870039
0.459456176 0.430360794 0.305123061
0.476534009 0.432890594 0.306008607
0.494750053 0.435926974 0.309044987
0.524351776 0.441998959 0.317647368
0.552055776 0.446426243 0.324351966
0.582922280 0.453257293 0.330423981
0.619481444 0.465148985 0.337001979
0.652877927 0.477293015 0.349146008
0.691081226 0.491714269 0.360783994
0.730044007 0.505250037 0.371283680
0.768754005 0.517647088 0.382922083
0.802150369 0.532827377 0.404174447
0.836052716 0.550663948 0.422264665
0.870461583 0.568880439 0.444275945
0.903352618 0.587982595 0.468817234
0.937002003 0.609488070 0.492093980
0.303984761 0.437318027 0.303604990
0.304490745 0.437824011 0.302340001
0.310562730 0.439595014 0.297912389
0.314484537 0.438583195 0.301581025
0.325110823 0.440860212 0.303478569
0.327514023 0.438456386 0.296268374
0.337634653 0.443517029 0.303858042
0.343706369 0.445161760 0.301328033
0.352055460 0.445161760 0.301707685
0.368247718 0.446173608 0.306767523
0.383428127 0.454648733 0.312587261
0.399620354 0.454648733 0.313599378
0.415559649 0.456926048 0.313599378
0.432764053 0.459709108 0.315243721
0.445414633 0.460215181 0.321315706
0.470208853 0.463250935 0.324983895
0.493358940 0.466287196 0.328399360
0.512334287 0.469955742 0.330296963
0.532701135 0.475142360 0.329032362
0.559266448 0.480961382 0.340417385
0.583934486 0.485136122 0.341935784
0.610499740 0.491208106 0.348387241
0.643390059 0.503352404 0.360025048
0.679443240 0.515496373 0.372169733
0.710562885 0.523086369 0.382036418
0.748513341 0.536748707 0.395066023
0.786970198 0.550790429 0.408475488
0.820367098 0.565970838 0.427451134
0.851106644 0.583808064 0.448703498
0.882605672 0.602024078 0.465275526
0.915876210 0.622011602 0.488298684
0.951170385 0.645161748 0.516381979
0.338519722 0.477545470 0.319164723
0.340417475 0.477545470 0.315369725
0.342820734 0.479443192 0.313472480
0.350157887 0.479443192 0.319797307
0.358886719 0.480708450 0.325869292
0.363440543 0.476154268 0.316761672
0.374067098 0.484503388 0.320936143
0.382922471 0.485642016 0.325110465
0.389247298 0.485388964 0.322580457
0.404427677 0.485388964 0.328652471
0.415812582 0.490322590 0.329031974
0.434914470 0.495256215 0.334851742
0.450853735 0.495256215 0.333713084
0.465275168 0.497786462 0.333207011
0.479063809 0.501075447 0.337634712
0.501328528 0.503478646 0.341302931
0.525616944 0.506514668 0.344338924
0.545604289 0.509550869 0.349398911
0.564326763 0.514357746 0.348892987
0.591145098 0.518532455 0.359772474
0.620367229 0.524604440 0.368121475
0.641619623 0.527640879 0.367109597
0.669196725 0.537001908 0.378494233
0.700316310 0.547374785 0.388867795
0.732194483 0.558760226 0.404427439
