Assets/Resources/EldamarStudio/100 Horror LUTs Pack/LUTs/cube/Emberword LUT.cube
LUT_3D_SIZE 5
DOMAIN_MIN 0.000000 0.000000 0.000000
DOMAIN_MAX 0.903226 0.903226 0.903226
0.117647000 0.031373002 0.043136999
0.156230003 0.056546707 0.070588000
0.210500002 0.096773997 0.104616992
0.294371009 0.154964998 0.152055874
0.475015581 0.230360791 0.235546961
0.160784006 0.122580700 0.108538993
0.175837994 0.127513990 0.117393695
0.223908693 0.152055696 0.138266698
0.310309708 0.194560692 0.183428273
0.488424897 0.275774688 0.256166935
0.189626992 0.242631406 0.177861989
0.209867001 0.249841809 0.196204990
0.269449830 0.272738397 0.219101399
0.363314539 0.309677541 0.247817993
0.551549196 0.397090197 0.327134639
0.280581981 0.447438240 0.319924235
0.300569534 0.457558393 0.320556670
0.362808108 0.479822695 0.347754538
0.474004120 0.510183275 0.377862155
0.635167599 0.587096930 0.473118216
0.543073595 0.754965425 0.595445573
0.572042704 0.762049437 0.605186582
0.622896552 0.772548974 0.624921024
0.700063169 0.789120793 0.654522419
0.799367547 0.813662589 0.703984737
0.146742716 0.043136999 0.103984989
0.157874718 0.069322996 0.113472700
0.209867418 0.107906409 0.143200412
0.295256138 0.162808001 0.194560125
0.467552453 0.237697691 0.265275091
0.157874718 0.116381988 0.143200412
0.180771694 0.135357410 0.154332399
0.224920973 0.163820699 0.171030700
0.312586844 0.205060109 0.218469247
0.491966933 0.283238411 0.293358684
0.201391831 0.248829693 0.212523818
0.217710420 0.256672680 0.225300685
0.272359103 0.278937101 0.249209389
0.361037225 0.315875977 0.278937697
0.551169872 0.405945480 0.361163795
0.282605857 0.454269528 0.344086230
0.308159232 0.457305670 0.355597705
0.366729766 0.474636376 0.368374646
0.470081985 0.507273972 0.407589853
0.643010795 0.592030227 0.496521056
0.550031304 0.750663817 0.599999607
0.571410418 0.758886397 0.610879123
0.623656034 0.767235994 0.629474580
0.696520984 0.787602901 0.660594463
0.798102379 0.814294577 0.708285809
0.179759577 0.062112574 0.202024415
0.185958281 0.080708295 0.204301119
0.220998988 0.120303832 0.216445401
0.290702164 0.171663120 0.253130972
0.478305012 0.246552557 0.332953393
0.195445582 0.133080274 0.219354689
0.202656418 0.138899699 0.224920988
0.235673711 0.173940405 0.244528577
0.314231277 0.209614113 0.272359520
0.496521205 0.287413120 0.360784262
0.202656835 0.239974409 0.284503400
0.223909110 0.249462277 0.292979419
0.283112407 0.293611377 0.319797367
0.384566665 0.334851384 0.356736124
0.563946605 0.416065753 0.436938792
0.289183974 0.453889817 0.417330801
0.313599110 0.466034114 0.414674252
0.386211097 0.494497299 0.445414424
0.490954965 0.528779149 0.484250516
0.655787766 0.604807317 0.561290085
0.551043570 0.751549125 0.650980175
0.575331986 0.756103754 0.651612997
0.625553429 0.770524740 0.668564558
0.700695574 0.786464334 0.694750190
0.802023590 0.823529124 0.736622572
0.240354121 0.078431003 0.365085244
0.255660832 0.099683709 0.371536821
0.284883142 0.132700577 0.374826252
0.344465375 0.195193127 0.400379270
0.493358642 0.254775524 0.456040233
0.251739413 0.147121996 0.377103120
0.263883710 0.164073572 0.385199249
0.299177676 0.185072824 0.392536402
0.357495129 0.238709986 0.422897130
0.514610887 0.298291981 0.480834961
0.273751140 0.260214984 0.426818520
0.299556971 0.276660413 0.433016837
0.342061818 0.308664978 0.451992393
0.410120398 0.352561384 0.472991645
0.569133341 0.416318536 0.531815231
0.302213967 0.444529116 0.523086369
0.329285145 0.457178831 0.537887096
0.401644379 0.480455101 0.555597961
0.527008355 0.548513412 0.594560266
0.677039623 0.616571963 0.634914577
0.549778461 0.749651849 0.712333798
0.563440859 0.760278463 0.711448491
0.613409162 0.770145297 0.719165087
0.708791912 0.795572281 0.746615946
0.812523544 0.829854727 0.790765584
0.397849470 0.053510334 0.669955552
0.408601880 0.080075711 0.673624277
0.450094759 0.134724826 0.675142586
0.520809591 0.220872939 0.694876552
0.620240450 0.333839625 0.707906425
0.405945480 0.157621816 0.669702530
0.416445315 0.169765696 0.674889445
0.454775572 0.211258814 0.682732284
0.531309068 0.278431267 0.693231821
0.631372452 0.378368169 0.718658924
0.417963207 0.315369785 0.696014762
0.437950492 0.320556372 0.692726016
0.483491331 0.350031346 0.703225970
0.564326346 0.409993768 0.718279600
0.658190727 0.496014744 0.742441118
0.482605875 0.499177635 0.752182186
0.499304026 0.509803891 0.756483316
0.548893213 0.541429520 0.750917017
0.623782158 0.589120924 0.764705539
0.729917765 0.656799614 0.787476420
0.608728409 0.756230295 0.818722606
0.615433156 0.757495463 0.828968942
0.656293154 0.765971005 0.833902121
0.734977722 0.798987687 0.848829746
0.856799603 0.859455764 0.880202472
