Assets/Resources/EldamarStudio/100 Horror LUTs Pack/LUTs/cube/Emberword LUT.cube
LUT_3D_SIZE 8
DOMAIN_MIN 0.000000 0.000000 0.000000
DOMAIN_MAX 0.903226 0.903226 0.903226
0.117647000 0.031373002 0.043136999
0.138014004 0.039974999 0.055660997
0.162302002 0.060341999 0.072105996
0.190006644 0.084629998 0.089690350
0.229601383 0.111954376 0.119797379
0.278178483 0.144844994 0.144971475
0.351549566 0.177735567 0.179380283
0.475015581 0.230360791 0.235546961
0.145098001 0.076027997 0.067805447
0.142694086 0.080328546 0.079190098
0.170145094 0.092473090 0.088172443
0.195951998 0.111701444 0.108538546
0.234661639 0.130803198 0.130550340
0.285515547 0.157368988 0.157115549
0.360657722 0.195825294 0.193168551
0.466540009 0.243769497 0.235420823
0.162302002 0.133965999 0.122200996
0.171283633 0.144591644 0.120303549
0.184187084 0.145730197 0.134092093
0.209614351 0.153953448 0.140291095
0.248450294 0.175458282 0.155218095
0.296900988 0.203668386 0.182922348
0.367236197 0.236559182 0.214674085
0.496268153 0.288424820 0.264009923
0.179253638 0.200126633 0.153574005
0.189753100 0.207210541 0.161796540
0.201391280 0.212270990 0.165717646
0.232005000 0.220872998 0.176596627
0.271853179 0.239722088 0.197469994
0.322580487 0.263124377 0.218469292
0.397596538 0.298924565 0.246173635
0.519924223 0.350537628 0.299936771
0.202150390 0.289943188 0.209107995
0.222264439 0.299557656 0.227703735
0.232764080 0.299937189 0.223150089
0.266793430 0.310057163 0.235041186
0.310183376 0.324984372 0.253763199
0.365970910 0.349651933 0.271726966
0.450980484 0.388361782 0.299177676
0.568500936 0.443516999 0.353447199
0.264389724 0.415053457 0.297659993
0.263503999 0.413788736 0.295635730
0.288424820 0.425426811 0.300316334
0.321062356 0.432511210 0.311574966
0.372295707 0.451739281 0.328779459
0.434535474 0.471726745 0.348513484
0.520303547 0.502972960 0.385452002
0.623782456 0.559772551 0.451359719
0.350537270 0.576976538 0.408096254
0.373813808 0.573054552 0.409866810
0.390512556 0.580012739 0.421758264
0.425047278 0.592662811 0.431245983
0.474256814 0.600505590 0.442251652
0.535230994 0.615559578 0.469702542
0.603415787 0.635800600 0.502466559
0.695256233 0.677292764 0.559139967
0.543073595 0.754965425 0.595445573
0.566729724 0.760025442 0.597849488
0.576596677 0.760784328 0.602150559
0.605439425 0.766603589 0.616192222
0.641998410 0.774825752 0.628462613
0.686653733 0.786843717 0.647691429
0.746489167 0.801518023 0.679316878
0.799367547 0.813662589 0.703984737
0.129411995 0.039216001 0.071346998
0.138014004 0.047817998 0.079949096
0.166983008 0.068185002 0.092852540
0.192030191 0.093232095 0.110056639
0.220999196 0.123466350 0.133586541
0.274257004 0.153194457 0.163693801
0.345730722 0.185958445 0.196204841
0.464515746 0.236432344 0.246173218
0.138014004 0.080328554 0.092472993
0.143453091 0.088172443 0.089310989
0.166983098 0.093991093 0.108538635
0.192409649 0.114358090 0.122201093
0.226059541 0.135230556 0.146616012
0.283997715 0.163693801 0.170018986
0.353194296 0.196204841 0.199241027
0.464642584 0.241239682 0.254269361
0.148893088 0.137507647 0.119038187
0.176091358 0.141809091 0.136369094
0.183807537 0.145350650 0.137507632
0.208096460 0.155471548 0.150031552
0.241239890 0.179000527 0.167615280
0.294244468 0.200506181 0.188108802
0.365970999 0.236812115 0.225047737
0.489184201 0.285135865 0.279316962
0.182668999 0.202403635 0.171157643
0.188108891 0.205186278 0.174319744
0.207337454 0.210246727 0.183807641
0.229601175 0.221252546 0.185579091
0.268311620 0.240481094 0.202024087
0.319164813 0.260847270 0.224035278
0.401138723 0.299810201 0.262365460
0.525490224 0.354206115 0.313472301
0.206451535 0.292599529 0.221758187
0.218216538 0.293611377 0.228968918
0.227577537 0.299557537 0.232637286
0.264010191 0.309424192 0.244402274
0.308285713 0.320303291 0.260467798
0.363693714 0.348133713 0.278052062
0.448956102 0.382416099 0.314231634
0.567741990 0.447564811 0.370524794
0.257937938 0.409361243 0.299810261
0.259835571 0.410246670 0.302719533
0.287033617 0.415686250 0.305376291
0.317900181 0.427071631 0.314737260
0.369133711 0.443137378 0.335104257
0.428969264 0.464263260 0.355344653
0.511448264 0.497912735 0.395698756
0.625932992 0.558886826 0.456166804
0.356862545 0.571410239 0.413662285
0.365464568 0.578874290 0.419607550
0.390765101 0.578747571 0.427450895
0.429854274 0.588994086 0.444402456
0.478051811 0.602656543 0.462871730
0.536369085 0.619228601 0.481087744
0.608855069 0.641998827 0.509803832
0.698545039 0.681720495 0.567994595
0.543326557 0.751549542 0.601644278
0.557494998 0.750410855 0.595066488
0.571916223 0.752055168 0.604427218
0.598608434 0.764073551 0.614927053
0.634914398 0.771916568 0.627830386
0.686021566 0.781404018 0.646805644
0.738772869 0.797090292 0.677798390
0.796078503 0.815559745 0.705376387
0.149020001 0.044654999 0.120682999
0.150158450 0.055281546 0.120303549
0.166983098 0.080708101 0.133207098
0.191271096 0.099177644 0.141049996
0.231246099 0.127767086 0.163061097
0.282859087 0.157495096 0.190765351
0.348387092 0.193421990 0.226312563
0.468564570 0.241239876 0.273624301
0.153320551 0.087033994 0.126628548
0.164706007 0.088551991 0.125363991
0.174826086 0.107020542 0.139532089
0.199493751 0.123466350 0.150410995
0.232764199 0.142568201 0.171663284
0.288804531 0.171157748 0.199873284
0.360278159 0.207969740 0.239721805
0.469955772 0.255281657 0.286780655
0.165464908 0.130044192 0.158381000
0.176470906 0.140291005 0.170904085
0.195192993 0.153574005 0.176344082
0.215180442 0.168880552 0.183807641
0.253131002 0.188868001 0.201391280
0.303225994 0.214674205 0.225300342
0.375838280 0.248323798 0.256166995
0.499050856 0.298165739 0.305755913
0.194560096 0.211132541 0.203795001
0.194433913 0.214674294 0.207337454
0.217963085 0.229601279 0.216698542
0.241745740 0.239342630 0.224794179
0.280961633 0.252245277 0.242125079
0.329664558 0.270588607 0.259203076
0.408981830 0.304490983 0.289563477
0.522707164 0.359139740 0.340164632
0.213156089 0.300822198 0.261733085
0.222137734 0.306641608 0.259708822
0.241366193 0.316508174 0.269450009
0.269070536 0.319923729 0.270588547
0.310183167 0.335231185 0.285895079
0.369892716 0.356736124 0.308539152
0.454016447 0.393042475 0.342061877
0.574066997 0.453636885 0.403036147
0.267425656 0.427197725 0.337254822
0.279190719 0.425553530 0.334345490
0.295508713 0.428715736 0.342188478
0.330803096 0.443643093 0.349651843
0.379380018 0.453763723 0.366350353
0.437697560 0.474889100 0.386843532
0.526122630 0.505376160 0.421884537
0.632637441 0.566729665 0.483364820
0.365464568 0.575331867 0.439089388
0.375331849 0.581404090 0.450727373
0.405439645 0.584946454 0.452498466
0.434661806 0.593548298 0.465781361
0.477292806 0.603668511 0.480581850
0.541555703 0.620872557 0.503479004
0.612017632 0.640480876 0.530550539
0.700190067 0.682605684 0.580898046
0.552814364 0.752940834 0.602023602
0.570524812 0.755977273 0.615433097
0.581783533 0.761416733 0.622517347
0.608095884 0.769259751 0.630613208
0.646426499 0.775205493 0.641492784
0.687159657 0.786590815 0.662618339
0.737381220 0.798228920 0.685641706
0.800632417 0.812523782 0.714610577
0.162555635 0.056040641 0.169892281
0.164579198 0.067425996 0.175078735
0.177862093 0.081467189 0.173434541
0.196711004 0.105376355 0.180518642
0.231878385 0.133206800 0.198987991
0.279316843 0.158507243 0.216192290
0.354332626 0.197343573 0.255155265
0.470714748 0.245919973 0.312713802
0.174825996 0.092852637 0.173814192
0.175585002 0.102593198 0.179379985
0.185705096 0.112460442 0.181657195
0.202909276 0.128905550 0.196584195
0.238583356 0.150031641 0.209234998
0.284377158 0.173055202 0.227577448
0.364073485 0.211132348 0.269449800
0.473118246 0.256926179 0.316508502
0.182163432 0.133207098 0.192283541
0.190385997 0.143706635 0.202403724
0.203795090 0.157874733 0.207969725
0.214674085 0.168374300 0.212144271
0.250727385 0.189120755 0.231752187
0.299177974 0.216951087 0.254522294
0.382036656 0.253004283 0.290449113
0.494623631 0.297533095 0.342441618
0.190512002 0.198481634 0.235420644
0.197975650 0.199240729 0.241619647
0.214800894 0.210246637 0.245540634
0.247185633 0.239974648 0.265148610
0.282352746 0.258823723 0.277166247
0.334218472 0.281467527 0.297533303
0.417710215 0.317900002 0.330297261
0.538772702 0.371410400 0.393674642
0.213914990 0.298798621 0.289436817
0.222137630 0.303352535 0.296900988
0.241745636 0.313219279 0.305503070
0.278052092 0.330423385 0.319924027
0.327008009 0.351929009 0.336242825
0.387982011 0.371157408 0.357874453
0.466540366 0.405566067 0.391524166
0.580518544 0.460468203 0.444402337
0.265148640 0.419228196 0.369513065
0.271347523 0.425806552 0.373434365
0.300316334 0.434155732 0.379759550
0.337381363 0.450980484 0.393801391
0.392662734 0.465148538 0.412017554
0.443896353 0.487033397 0.429854453
0.529158652 0.512713253 0.461480111
0.636432648 0.571410298 0.515622914
0.370271891 0.577609122 0.475015819
0.386211008 0.582036853 0.482605815
0.401644319 0.588741541 0.486401021
0.443643272 0.598228812 0.499683887
0.487792313 0.609108567 0.517267525
0.549019396 0.626185715 0.536875427
0.619607925 0.650980175 0.563061178
0.705376446 0.693232059 0.614927173
0.554838598 0.752055228 0.634408176
0.565211713 0.751169920 0.631878555
0.579380095 0.757874668 0.638836086
0.608222425 0.763693750 0.645667613
0.643390059 0.770778000 0.659582615
0.687918782 0.783301473 0.673750699
0.737381220 0.798608303 0.697786272
0.800885320 0.815180361 0.733839214
0.191270992 0.061859995 0.236558989
0.194433987 0.073624000 0.238962799
0.202277094 0.092473090 0.245288000
0.221632197 0.115622841 0.251359999
0.248323992 0.140291005 0.261606187
0.292599559 0.168121442 0.285515428
0.356356561 0.199747190 0.304617465
0.480075955 0.247438177 0.362935007
0.201517999 0.103099450 0.239215732
0.201897651 0.106641188 0.243770003
0.211258546 0.116002090 0.249083087
0.227703735 0.135989547 0.257431835
0.253131002 0.155091986 0.271094263
0.295762330 0.184060991 0.281088084
0.364200115 0.218595892 0.316887945
0.484376907 0.260721147 0.363693506
0.206957996 0.153573990 0.260973990
0.209993899 0.158380806 0.260467947
0.228968993 0.162176087 0.267931998
0.240986541 0.179886356 0.276154637
0.263251096 0.202150390 0.289816290
0.308665156 0.220493451 0.306262076
0.382036358 0.256926268 0.340670377
0.506135285 0.303352237 0.391018003
0.216318995 0.199746981 0.298419058
0.226565287 0.209614351 0.300822169
0.241745725 0.224035278 0.305503070
0.260088176 0.244022831 0.314484447
0.288171977 0.258823723 0.323845834
0.337508082 0.287412971 0.347248644
0.419987112 0.317520440 0.376597196
0.539405227 0.369133413 0.428083420
0.214800999 0.286653996 0.337634385
0.235799983 0.291081667 0.345856816
0.254775286 0.298418999 0.359519273
0.286654174 0.318405747 0.370145589
0.343074173 0.353953183 0.396457970
0.395446181 0.382163197 0.409614146
0.478937179 0.414294749 0.439468443
0.588741183 0.471600205 0.491208196
0.263124466 0.419102192 0.409614354
0.275268912 0.424415082 0.418468982
0.295635521 0.438203841 0.425174147
0.337887555 0.454269379 0.440101355
0.401264936 0.479317188 0.469196647
0.473370999 0.509044945 0.495382935
0.548513710 0.534851253 0.515243232
0.648576856 0.582542837 0.566223502
0.371031255 0.581657231 0.514484167
0.381277710 0.582795858 0.521695137
0.405313164 0.591903627 0.525363564
0.443643183 0.602530003 0.539405286
0.504743457 0.623276293 0.562934458
0.556736231 0.634155452 0.575331748
0.625300765 0.656672716 0.604174733
0.715876043 0.700190008 0.650095105
0.544465601 0.752688110 0.659202814
0.548766375 0.757748127 0.649209440
0.572169423 0.760404706 0.659961700
0.608475506 0.769386232 0.672612369
0.641492724 0.774572790 0.687539637
0.688424826 0.789121032 0.703858197
0.739025593 0.805818856 0.724857569
0.806198716 0.826059341 0.753573418
0.225173727 0.078431003 0.328652471
0.233016729 0.086274996 0.336495459
0.245540828 0.100695640 0.341176391
0.255028725 0.121062644 0.343706369
0.287033707 0.146109730 0.356230468
0.323212743 0.184060991 0.365970701
0.388235271 0.212650433 0.392915577
0.486021489 0.249715447 0.433775991
0.226059735 0.110942543 0.328020245
0.228336543 0.119164996 0.330423713
0.242504731 0.127008095 0.342567712
0.259962112 0.141302824 0.343959630
0.288677901 0.165591642 0.350664288
0.324477911 0.194560736 0.368247896
0.388614833 0.224794284 0.395446211
0.495382428 0.269070357 0.443390161
0.245161071 0.159266457 0.352561831
0.245161176 0.169892296 0.358507246
0.260088474 0.172928482 0.359898448
0.277293086 0.183302000 0.367615551
0.303352624 0.207969725 0.375331998
0.338266999 0.236179724 0.390259147
0.405692369 0.266287178 0.416445374
0.511321843 0.305376172 0.456546366
0.249715373 0.227071375 0.374699533
0.259962082 0.229475081 0.378747463
0.272485971 0.234788179 0.384946376
0.299557626 0.254522294 0.394054174
0.328525931 0.270082176 0.403415829
0.362808198 0.297912627 0.421125472
0.437191904 0.325237036 0.453383952
0.555597425 0.377356350 0.500695705
0.258443981 0.284250468 0.426692158
0.275268704 0.295635521 0.426185906
0.294370472 0.307021171 0.433270127
0.328905463 0.334851623 0.444275916
0.366350174 0.357368618 0.451739460
0.410626113 0.384566456 0.474256724
0.481340557 0.414547712 0.495888799
0.595319331 0.461859435 0.543832958
0.279949725 0.409108192 0.485641986
0.292852253 0.416824698 0.490069509
0.315116704 0.424541175 0.498924732
0.348007619 0.435673833 0.509804070
0.412650347 0.459329724 0.527767479
0.485515475 0.504996419 0.552055478
0.562555015 0.541049540 0.568880022
0.652245402 0.584440231 0.605565906
0.376597285 0.579759836 0.567741573
0.379126936 0.572675288 0.571916103
0.404554397 0.588361919 0.581277788
0.440986931 0.601644397 0.591271579
0.492093503 0.624414802 0.612523615
0.567995071 0.651106954 0.629601538
0.650727570 0.677672267 0.654775560
0.732068300 0.718026280 0.697659850
0.539911330 0.748639762 0.692852616
0.557242155 0.752434790 0.689057350
0.565464735 0.757495224 0.697280049
0.594307363 0.765338182 0.703858495
0.633523285 0.780265629 0.713599026
0.691587448 0.789500475 0.732194662
0.751296341 0.807336867 0.754459381
0.812270403 0.830107510 0.780898213
0.289816260 0.073877007 0.480581850
0.296394527 0.082732551 0.479316980
0.310942262 0.098925009 0.482858568
0.330802917 0.122707352 0.483997226
0.357748449 0.151929095 0.493864477
0.395825744 0.187981993 0.504743814
0.444655299 0.230993271 0.519797266
0.532068253 0.270461529 0.546489537
0.292093575 0.113472283 0.477798998
0.292599529 0.120556258 0.486527264
0.310942262 0.128273457 0.480581850
0.329538345 0.145730376 0.484756202
0.359266371 0.172296107 0.491461068
0.402277082 0.207083821 0.511827826
0.451739103 0.250095010 0.525743246
0.542062104 0.290575713 0.553194106
0.304617077 0.167741820 0.489184171
0.301328093 0.176343992 0.494623542
0.316634893 0.184187099 0.495509177
0.338646650 0.199367434 0.497280210
0.371031284 0.220872805 0.510309756
0.411005557 0.248956367 0.523592770
0.461733162 0.288045466 0.539278567
0.550663829 0.326628923 0.563440561
0.321189284 0.242251635 0.514104903
0.321947992 0.245161384 0.514737606
0.335863262 0.252877980 0.517014861
0.358886898 0.268564284 0.520430267
0.393674731 0.288424939 0.534471869
0.438330293 0.316255391 0.545097888
0.486274213 0.354964912 0.562428892
0.579506457 0.397343606 0.600632489
0.329411656 0.320303291 0.541682363
0.340923190 0.322200805 0.548766673
0.361037284 0.337381363 0.551802695
0.389120579 0.354712099 0.560151696
0.424288154 0.373434663 0.566729724
0.470714986 0.404300928 0.579759717
0.527514398 0.443010747 0.601897478
0.613915086 0.483491540 0.630486965
0.338267267 0.413788706 0.605818987
0.354206294 0.421252280 0.604933798
0.380897909 0.433776289 0.608349264
0.422011465 0.450727731 0.610246897
0.474003911 0.484629989 0.618215978
0.526122451 0.513219416 0.629601598
0.582921982 0.549652457 0.649589002
0.665781021 0.586716950 0.671853542
0.415180266 0.575331867 0.668437541
0.422264248 0.570778131 0.664769232
0.437191635 0.582163155 0.661606848
0.474003851 0.593295336 0.669449866
0.518785715 0.608981550 0.685641706
0.587349951 0.637571275 0.700695813
0.669070125 0.685135782 0.728905797
0.746363044 0.719924092 0.747754514
0.549651742 0.751043379 0.745857060
0.555471182 0.750664055 0.741682291
0.569006920 0.755597711 0.744971335
0.597722769 0.766097188 0.759898841
0.634914756 0.779126942 0.770145297
0.684882879 0.798481762 0.776090741
0.756229937 0.818216562 0.804174542
0.830993056 0.842631221 0.828842163
0.397849470 0.053510334 0.669955552
0.401391327 0.066034012 0.669955552
0.413661957 0.087160110 0.672612429
0.434028804 0.114737436 0.676280797
0.465148956 0.155092001 0.679063737
0.506135404 0.206198633 0.689310551
0.561796486 0.265148342 0.699051321
0.620240450 0.333839625 0.707906425
0.395192832 0.102972828 0.675648093
0.396837294 0.114357702 0.666666746
0.414294869 0.126881793 0.670335114
0.438709855 0.149525389 0.674636602
0.474003792 0.188108504 0.688171864
0.520050466 0.233396709 0.698418677
0.564958751 0.289943039 0.701581240
0.627577603 0.356229872 0.712840080
0.403921366 0.177356020 0.671979845
0.409487635 0.181784093 0.686147869
0.417710602 0.194307193 0.675395548
0.444655210 0.211258575 0.681340814
0.477672338 0.242125005 0.690195680
0.519164741 0.283997446 0.696520984
0.575964451 0.334724635 0.708412409
0.636179566 0.393042445 0.722959816
0.411764652 0.263251096 0.689563572
0.418848693 0.265781194 0.691334486
0.433649361 0.276660323 0.690322399
0.458823234 0.296647459 0.694749713
0.499810070 0.322454274 0.704111218
0.542061865 0.358633608 0.712460518
0.593801379 0.406072259 0.724478066
0.652624547 0.464010447 0.739531755
0.438962787 0.373308182 0.705376387
0.444022775 0.375079364 0.700948954
0.454522491 0.378747463 0.706894636
0.476027519 0.385072857 0.711701274
0.518658936 0.412902981 0.719544590
0.567488492 0.446046621 0.729664505
0.617963135 0.487160087 0.742188573
0.679822743 0.539531946 0.755724132
0.473244607 0.469576538 0.741049767
0.476913035 0.473750889 0.741429269
0.495761991 0.486021429 0.745604157
0.521189213 0.504490733 0.740923285
0.557748199 0.524731219 0.743073642
0.599240720 0.551170230 0.755344450
0.656293333 0.585452139 0.763693750
0.714737475 0.628463149 0.780645072
0.509803891 0.602783322 0.792915821
0.502213836 0.603036106 0.787476361
0.525616586 0.609234393 0.789753139
0.563820362 0.619987249 0.789753258
0.608349383 0.643896103 0.793801308
0.667552054 0.675648391 0.800632179
0.718405783 0.707400084 0.808728755
0.778874159 0.747881353 0.828210056
0.608728409 0.756230295 0.818722606
0.615433156 0.754965425 0.822644055
0.618469298 0.757748306 0.833775878
0.643516421 0.765338421 0.837191582
0.678304553 0.773560584 0.838582933
0.721821606 0.791903794 0.846805692
0.783554554 0.818216622 0.860720575
0.856799603 0.859455764 0.880202472
