Assets/Resources/EldamarStudio/100 Horror LUTs Pack/LUTs/cube/Emberword LUT.cube
DOMAIN_MIN 0 0 0
DOMAIN_MAX 1 1 1
LUT_3D_SIZE 32
0.117647000 0.031373002 0.043136999
0.117647000 0.031373002 0.043136999
0.121947996 0.035674002 0.047437999
0.129285157 0.039216001 0.052245162
0.138014004 0.039974999 0.055660997
0.144086003 0.046046998 0.061732996
0.150158003 0.052118998 0.067805000
0.156230003 0.056546707 0.070588000
0.162302002 0.060341999 0.072105996
0.168374002 0.066414006 0.078178003
0.174446732 0.072485998 0.078431003
0.180518985 0.078557998 0.082479514
0.190006644 0.084629998 0.089690350
0.204428002 0.090701997 0.098545000
0.210500002 0.096773997 0.104616992
0.218975186 0.102845997 0.110688992
0.229601383 0.111954376 0.119797379
0.241745993 0.122833990 0.131309405
0.253890038 0.128906012 0.140417039
0.266034007 0.134977996 0.141176000
0.278178483 0.144844994 0.144971475
0.294371009 0.154964998 0.152055874
0.318152994 0.161036998 0.161163509
0.330296993 0.167108998 0.170271903
0.351549566 0.177735567 0.179380283
0.377229631 0.188488305 0.191271648
0.405566067 0.198102131 0.205945998
0.438962400 0.210246891 0.218089983
0.475015581 0.230360791 0.235546961
0.514990330 0.249841943 0.255534172
0.559266150 0.269829184 0.275015593
0.607842982 0.294117987 0.290196002
0.123718992 0.037445001 0.055281773
0.123718992 0.037445001 0.049209002
0.125869766 0.043896228 0.047058776
0.131056383 0.048323616 0.053004384
0.138393551 0.049462162 0.061732996
0.147122398 0.058190998 0.067805000
0.148134395 0.061733320 0.063756995
0.158127666 0.067299381 0.069449708
0.166855991 0.070968002 0.073624387
0.168374002 0.072486006 0.075142398
0.174446732 0.078557998 0.081214383
0.182542726 0.082606256 0.085515387
0.189626619 0.087666385 0.091587611
0.198861286 0.093485355 0.098545000
0.210500002 0.096773997 0.104616992
0.218975186 0.105249800 0.113092795
0.229601383 0.113472573 0.118279576
0.241113409 0.122201420 0.124604985
0.250853628 0.125869617 0.131309435
0.268564314 0.137507617 0.137634382
0.279317141 0.142188355 0.141935378
0.294371009 0.150917009 0.150031611
0.318405986 0.161290020 0.161416501
0.336369008 0.173181772 0.176343903
0.355344266 0.181530476 0.183174998
0.378873914 0.192915946 0.194307268
0.405060142 0.204174772 0.208981618
0.435926795 0.216318876 0.221125603
0.466666311 0.233775958 0.235926419
0.507653177 0.249336034 0.250221401
0.554079771 0.266793340 0.269449949
0.604807377 0.291081607 0.293232381
0.127640769 0.049968772 0.058823999
0.129790992 0.047817998 0.052751228
0.129790992 0.052118998 0.057431772
0.132827386 0.057431772 0.058190998
0.138393551 0.058190770 0.067425549
0.147501931 0.065527938 0.071726769
0.153320998 0.067425549 0.076280773
0.154965281 0.070461936 0.073497772
0.167362183 0.076028004 0.080329001
0.172928542 0.078811012 0.083112009
0.178747728 0.084629998 0.088931002
0.186843723 0.088678256 0.095003001
0.194813281 0.092853002 0.098797999
0.200885549 0.098925002 0.102845997
0.209234834 0.103858352 0.108917996
0.223276734 0.109550804 0.117393792
0.232384354 0.117140993 0.121947996
0.243263796 0.124351799 0.124984220
0.252371818 0.127387822 0.131056234
0.265527934 0.138772786 0.141429767
0.281846941 0.149019510 0.145604029
0.294497222 0.153573766 0.151422992
0.316255242 0.163440764 0.161416501
0.334471762 0.175585032 0.176596910
0.357115269 0.187602699 0.187096775
0.381150991 0.196710661 0.194560438
0.407210767 0.208096221 0.208728775
0.437571108 0.220240206 0.224161759
0.467931688 0.233396739 0.236811802
0.508918047 0.255154699 0.255534172
0.553067565 0.272359431 0.269702822
0.599620461 0.296647787 0.291967213
0.134471998 0.063883997 0.061353996
0.133712783 0.063377611 0.057811547
0.139658153 0.062998161 0.059961773
0.135863006 0.067805000 0.067805000
0.140417382 0.068184547 0.073118001
0.151296765 0.073371157 0.075268775
0.154080003 0.075648323 0.078304842
0.161037281 0.077292703 0.083618164
0.164073095 0.080329090 0.084377065
0.174699798 0.085895173 0.089943007
0.182289988 0.091967165 0.096014999
0.189120889 0.097280249 0.102086991
0.199367166 0.100316346 0.108158998
0.205692843 0.106261902 0.108918063
0.211764842 0.112334155 0.114990316
0.222517624 0.117140993 0.122200958
0.237191975 0.124478154 0.128019989
0.246932149 0.130550146 0.129917562
0.256672978 0.134218976 0.136622176
0.267299175 0.141809180 0.145730555
0.282605737 0.153320730 0.153447255
0.295762151 0.160404861 0.157494992
0.313598633 0.166603342 0.163946494
0.335230827 0.179885998 0.179126903
0.356736153 0.190765157 0.188488126
0.379885823 0.201517835 0.198861659
0.407716960 0.211132169 0.208475992
0.438077122 0.223276153 0.225173980
0.468437433 0.237950489 0.236812130
0.509424150 0.254649103 0.255534172
0.556230009 0.279822737 0.275901198
0.596077979 0.304491013 0.291461170
0.145098001 0.076027997 0.067805447
0.140164554 0.079063706 0.068184994
0.145477548 0.078178316 0.070714772
0.149904937 0.077292934 0.073497549
0.142694086 0.080328546 0.079190098
0.157874480 0.083364934 0.079190098
0.159392774 0.086021766 0.079569548
0.162175834 0.089057833 0.082479417
0.170145094 0.092473090 0.088172443
0.173181489 0.095509484 0.091208071
0.181657329 0.101454996 0.097153544
0.188741460 0.106767990 0.102845989
0.195951998 0.111701444 0.108538546
0.207843035 0.114990093 0.114104547
0.214041546 0.121062830 0.119924285
0.223276347 0.125110731 0.126375988
0.234661639 0.130803198 0.130550340
0.249588981 0.139278993 0.134851024
0.261732996 0.145351008 0.143959433
0.271473795 0.149019808 0.150664002
0.285515547 0.157368988 0.157115549
0.301454574 0.166856423 0.163187549
0.311068922 0.170018539 0.169133052
0.337887377 0.184439898 0.183301449
0.360657722 0.195825294 0.193168551
0.383048654 0.204933673 0.200885326
0.405819148 0.214927554 0.213029996
0.436179876 0.227071539 0.225173980
0.466540009 0.243769497 0.235420823
0.506008327 0.261985838 0.252624929
0.552434742 0.282100022 0.276280642
0.594939530 0.309424460 0.294497430
0.145098001 0.088171996 0.076913066
0.148134395 0.091208383 0.079949453
0.147501931 0.092093870 0.084629998
0.149525940 0.091587931 0.085135929
0.148766875 0.092473321 0.082226485
0.154838875 0.095508933 0.085262865
0.164958611 0.096014999 0.087792546
0.168753773 0.098165773 0.090322644
0.173560932 0.101960935 0.094623998
0.179253489 0.107653484 0.100316465
0.185199007 0.113598995 0.106261931
0.191777065 0.115622997 0.110309675
0.196710706 0.117773637 0.113851637
0.201771036 0.121062867 0.117140934
0.210879415 0.127134860 0.117140934
0.224288732 0.133206993 0.125363857
0.235420749 0.138772920 0.129411995
0.246805608 0.145350993 0.131815344
0.261733025 0.151423022 0.140923038
0.273876995 0.157495022 0.150031418
0.285515547 0.164958805 0.158633739
0.299683779 0.173560992 0.166223943
0.314104557 0.179126918 0.172169447
0.335356981 0.185198933 0.175205842
0.357621342 0.199620277 0.191650927
0.383048385 0.211005673 0.200885624
0.411891133 0.221126065 0.206957996
0.442251891 0.236179918 0.219101980
0.472612619 0.248323902 0.233902797
0.506514728 0.265021861 0.249841943
0.545856833 0.284123659 0.271726549
0.585831940 0.306388080 0.297533065
0.155218005 0.107906319 0.093611643
0.153194398 0.105882064 0.091587387
0.154080003 0.106767677 0.092473000
0.154080003 0.106767677 0.095256001
0.155218452 0.106767677 0.092852548
0.163440675 0.107653059 0.095888935
0.166982993 0.110689320 0.098924674
0.174446315 0.112334028 0.101960704
0.179126993 0.116129316 0.104237996
0.185198992 0.122201316 0.106768005
0.193801314 0.123213314 0.120430313
0.199873328 0.125237316 0.120430060
0.205945313 0.127514318 0.123592317
0.210879028 0.132194996 0.127766997
0.219987407 0.138266996 0.127766997
0.226691991 0.144338995 0.132573992
0.239974663 0.148893192 0.140038058
0.250727147 0.154585734 0.142694741
0.264010340 0.162555009 0.148007363
0.278937668 0.168627650 0.157115683
0.292978883 0.174699634 0.166224062
0.308791816 0.182163313 0.176344320
0.327134311 0.188488305 0.185578823
0.345983535 0.199367329 0.193422228
0.364958614 0.212270603 0.201012015
0.388740957 0.224667981 0.214294657
0.417963147 0.234282315 0.220113993
0.448323876 0.247438431 0.228209987
0.483744621 0.265021980 0.245541111
0.519418061 0.278937161 0.262492269
0.559266090 0.299936503 0.280708313
0.602024317 0.326122642 0.303099006
0.160784006 0.122580700 0.108538993
0.161037385 0.122833312 0.108792022
0.156863004 0.123592407 0.104616992
0.160657838 0.124857247 0.105882153
0.161416844 0.124857247 0.105882153
0.165464774 0.123592407 0.106388219
0.174446315 0.127767026 0.112713374
0.175837994 0.127513990 0.117393695
0.181909993 0.130550385 0.118912086
0.187981993 0.135736987 0.118026704
0.196963876 0.135989994 0.125996158
0.202403724 0.137634695 0.132321432
0.211891070 0.138773054 0.132700697
0.218974993 0.144592032 0.138266698
0.223908693 0.152055696 0.138266698
0.235546991 0.156482980 0.143073693
0.243137196 0.164073184 0.147627890
0.254522264 0.167362571 0.153573990
0.265654981 0.174446464 0.157621756
0.280582368 0.182415992 0.166224062
0.294117957 0.188488692 0.175332025
0.310309708 0.194560692 0.183428273
0.330803007 0.200885683 0.194180787
0.349019825 0.213029712 0.203289196
0.368880689 0.224161983 0.210752696
0.394054323 0.236559004 0.219860658
0.423402846 0.246679351 0.229474992
0.456040591 0.259961993 0.237823993
0.488424897 0.275774688 0.256166935
0.528273106 0.293864161 0.274383634
0.567741811 0.311701179 0.290828675
0.611765027 0.340543985 0.307526708
0.162302002 0.133965999 0.122200996
0.165338397 0.136242718 0.122201391
0.164200097 0.139278874 0.121062547
0.162934929 0.142314941 0.118785255
0.171283633 0.144591644 0.120303549
0.169007033 0.141556039 0.116508164
0.175585091 0.144592091 0.119797319
0.181909993 0.147248387 0.128020093
0.184187084 0.145730197 0.134092093
0.190259084 0.148766592 0.131056473
0.198481873 0.148893103 0.133839116
0.202783167 0.150158271 0.136116162
0.209614351 0.153953448 0.140291095
0.224035054 0.157242090 0.145857096
0.225047186 0.165844411 0.145857096
0.235546798 0.170145392 0.150664091
0.248450294 0.175458282 0.155218095
0.258823514 0.183301508 0.160152048
0.268184900 0.186337888 0.166477114
0.282100379 0.196457744 0.175332263
0.296900988 0.203668386 0.182922348
0.311068982 0.208981991 0.191777185
0.329158485 0.215306982 0.197849184
0.346742719 0.227451012 0.206325009
0.367236197 0.236559182 0.214674085
0.393295646 0.247185409 0.222896650
0.427198142 0.257305145 0.233017057
0.463630855 0.272485524 0.245414078
0.496268153 0.288424820 0.264009923
0.534471393 0.304617018 0.281973302
0.577608883 0.324604273 0.302973062
0.617078125 0.348893076 0.315117091
0.168374002 0.152182013 0.140416995
0.171410382 0.152182013 0.131309390
0.174446762 0.154459268 0.131309226
0.177103326 0.157495350 0.133965641
0.180392027 0.159772038 0.135483935
0.183428422 0.156736434 0.126375556
0.183681488 0.156230509 0.120050497
0.185831770 0.158127785 0.122833714
0.190259084 0.160910606 0.131056488
0.199367478 0.163946986 0.137128472
0.205439493 0.164073497 0.139911115
0.207589999 0.164073497 0.140923008
0.212270513 0.166477025 0.143326819
0.224035054 0.172422498 0.148893490
0.230107829 0.178494498 0.148893505
0.238330156 0.182289824 0.153700501
0.249209374 0.186843976 0.158254310
0.261859894 0.192409918 0.163187683
0.277039558 0.195445552 0.175332472
0.289184242 0.209613889 0.184440136
0.305249989 0.218848497 0.189753249
0.323212981 0.223908663 0.195066616
0.341302484 0.227450997 0.203921959
0.356482893 0.239595026 0.209993973
0.376343817 0.247184992 0.220746487
0.401770830 0.257558167 0.232637465
0.433270156 0.272485554 0.245161071
0.469702870 0.287665904 0.260341436
0.506135583 0.305502445 0.275395304
0.547628045 0.321821153 0.289057463
0.593042254 0.339784652 0.306767702
0.638330519 0.364073485 0.336369485
0.171536863 0.167488873 0.141176000
0.171663389 0.170398742 0.149525389
0.172548994 0.170398742 0.142568007
0.176091120 0.172675714 0.140796706
0.181530550 0.175331876 0.140543669
0.189626932 0.174825937 0.141555935
0.187602669 0.171790317 0.142568186
0.190512121 0.171410874 0.142568037
0.194813102 0.173940733 0.146110103
0.199620485 0.179127365 0.145730868
0.208728880 0.179253876 0.148892999
0.214800864 0.183301866 0.153952882
0.218848869 0.186211228 0.154585510
0.227197900 0.190259039 0.155344993
0.235926837 0.193674862 0.160658002
0.246805996 0.197343677 0.165464997
0.256420076 0.203415662 0.171536982
0.266540408 0.210878983 0.176596865
0.277166069 0.216191918 0.184187070
0.295129716 0.222011581 0.187982485
0.307527006 0.231119737 0.196837604
0.323718995 0.237191737 0.201897740
0.342061490 0.242378369 0.207084119
0.362807930 0.251739740 0.213156134
0.384819567 0.263883740 0.221505418
0.408096164 0.272612393 0.234408647
0.436432868 0.284756690 0.248070866
0.472864956 0.299936414 0.260847420
0.514610708 0.317773640 0.278684646
0.549778700 0.334218919 0.292346835
0.589880049 0.352055699 0.309803814
0.633396983 0.376343995 0.340164125
0.176596999 0.182669252 0.145224512
0.180644989 0.187729388 0.156356648
0.174573258 0.188614994 0.152687997
0.178368092 0.188614994 0.150411159
0.184439987 0.190512255 0.149272516
0.188614666 0.190512255 0.150664195
0.193674684 0.192030564 0.153700054
0.192283005 0.190639243 0.155091733
0.198355094 0.191398144 0.158506989
0.203921497 0.196204990 0.159266204
0.212776870 0.198482245 0.158001378
0.219861001 0.198482260 0.161036998
0.227071643 0.202277258 0.165970638
0.234282210 0.205186516 0.165464997
0.243390143 0.213535666 0.171536982
0.252877980 0.216572061 0.179633245
0.263504177 0.219608054 0.185705245
0.273244977 0.226438835 0.191144824
0.283744305 0.231119528 0.195825517
0.297153443 0.239215434 0.199114352
0.311575204 0.243390471 0.204047993
0.325743258 0.250348121 0.212017730
0.344085753 0.257558733 0.216192007
0.365338176 0.266666621 0.222264513
0.388867825 0.282100260 0.232637540
0.414547890 0.292852551 0.244528905
0.440987051 0.301960796 0.259709328
0.475901216 0.314104766 0.273371488
0.513598859 0.331941903 0.284756362
0.552561581 0.350158185 0.301201910
0.589753509 0.367362559 0.318912148
0.633396745 0.390512258 0.349272519
0.179253638 0.200126633 0.153574005
0.186463997 0.203921631 0.162302345
0.186337769 0.206830993 0.163946867
0.181404471 0.206830993 0.158760160
0.189753100 0.207210541 0.161796540
0.190512002 0.207969636 0.162555635
0.194433644 0.208222672 0.163946971
0.198355287 0.210752994 0.164199650
0.201391280 0.212270990 0.165717646
0.210879132 0.215686157 0.171789646
0.217710227 0.217583865 0.173687503
0.224794641 0.219734639 0.172422379
0.232005000 0.220872998 0.176596627
0.241366416 0.221378997 0.179633021
0.251359850 0.231751978 0.184819639
0.260467798 0.236685798 0.192156807
0.271853179 0.239722088 0.197469994
0.280961573 0.243390277 0.202277005
0.292599678 0.246932611 0.204807326
0.307020634 0.255534291 0.211258635
0.322580487 0.263124377 0.218469292
0.335737139 0.267172635 0.223529145
0.353826612 0.276154488 0.229474634
0.374066889 0.285262376 0.235547155
0.397596538 0.298924565 0.246173635
0.424415261 0.314104944 0.258570671
0.452245623 0.324224710 0.273245007
0.485009402 0.334598064 0.287792772
0.519924223 0.350537628 0.299936771
0.559772313 0.368754208 0.316002458
0.597090781 0.389626831 0.335610241
0.642125309 0.411385268 0.365970999
0.177482992 0.221379027 0.165718004
0.186084613 0.221631989 0.168753669
0.190638736 0.223276287 0.171283767
0.192916036 0.225553066 0.173560992
0.193042517 0.225679576 0.173687503
0.196078122 0.228715971 0.176723897
0.199114323 0.226691708 0.177735955
0.202403679 0.227197781 0.176850349
0.207463995 0.230487049 0.175332025
0.219607994 0.236559048 0.181404024
0.223023176 0.237065032 0.189879909
0.228589505 0.238836259 0.191397771
0.235547379 0.242125392 0.191524059
0.245161057 0.245414034 0.197849035
0.257305831 0.251486003 0.200885415
0.266540170 0.255154848 0.205566034
0.279190183 0.257938206 0.209108040
0.293105572 0.261860013 0.209361061
0.302213997 0.267932028 0.209361076
0.318912029 0.276533723 0.219987065
0.339025766 0.285388768 0.231625468
0.358760178 0.293738067 0.240986899
0.374067008 0.300189525 0.244402021
0.392283022 0.309550881 0.250727028
0.415306568 0.320683032 0.261100560
0.442378312 0.332827002 0.273244977
0.472992003 0.345477104 0.285389006
0.503352046 0.360657454 0.297532976
0.536369443 0.375837833 0.312586844
0.575838089 0.393042386 0.332574368
0.619101763 0.413662583 0.357874960
0.658571005 0.440987021 0.388235003
0.189626992 0.242631406 0.177861989
0.192662612 0.245667011 0.180898383
0.194812998 0.243769735 0.179633051
0.197975904 0.245793819 0.181656986
0.202024415 0.249841809 0.185704991
0.202150896 0.249968350 0.185831517
0.205186516 0.247944057 0.191397578
0.209867001 0.249841809 0.196204990
0.216065660 0.253763795 0.198102713
0.225679994 0.254775792 0.196584404
0.229095861 0.257937938 0.199747279
0.238203824 0.258317381 0.204048157
0.246805996 0.261226982 0.205819055
0.254269451 0.266666412 0.209993795
0.269449830 0.272738397 0.219101399
0.274383187 0.276407212 0.217330784
0.287792206 0.277925402 0.220746398
0.305249572 0.280455559 0.224920988
0.314357966 0.289184362 0.227577835
0.323466361 0.295256376 0.233143821
0.342062145 0.301960826 0.240480825
0.363314539 0.309677541 0.247817993
0.383175373 0.318406284 0.253510386
0.401391387 0.333585918 0.265654415
0.426438659 0.342947274 0.274256706
0.454522282 0.354079366 0.285388976
0.485389054 0.366729468 0.297532976
0.518532395 0.381909817 0.309676975
0.551549196 0.397090197 0.327134639
0.584946156 0.415812552 0.344718337
0.620872974 0.437318176 0.365085155
0.655534565 0.462239385 0.388235003
0.194560200 0.268690795 0.192409799
0.200000226 0.264516205 0.200253189
0.203035831 0.269702613 0.196837798
0.207083970 0.269955933 0.201138422
0.213156447 0.273751050 0.208728328
0.211132184 0.271726787 0.202656597
0.216065675 0.276407272 0.205312788
0.219101712 0.273371309 0.206451505
0.225173891 0.276407689 0.210246995
0.234282285 0.278051972 0.212144300
0.239974856 0.278557897 0.214927047
0.247059241 0.281594038 0.217963442
0.256546795 0.281973571 0.220999435
0.263124794 0.285262555 0.223782793
0.276154399 0.289183795 0.226439178
0.288930982 0.297659606 0.235546783
0.295002967 0.300695598 0.234028980
0.311448365 0.303478569 0.238962561
0.324098796 0.312586933 0.245540962
0.335610330 0.318911970 0.248956800
0.352308750 0.326881737 0.255028784
0.374573231 0.333459765 0.262112647
0.397090763 0.341302961 0.269576013
0.415306807 0.354205877 0.277166605
0.435800076 0.367109358 0.287033290
0.465654403 0.377735555 0.297532976
0.496015102 0.390385658 0.310183048
0.523719192 0.405566007 0.324224770
0.561922550 0.420746386 0.334471643
0.598861337 0.439468741 0.358001143
0.634408772 0.462492138 0.383427948
0.669322968 0.488298774 0.412270606
0.202150390 0.289943188 0.209107995
0.208222762 0.289943188 0.216698587
0.212144211 0.289437175 0.216572002
0.215180159 0.296774328 0.215559989
0.222264439 0.299557656 0.227703735
0.219228044 0.296521276 0.220873132
0.222264186 0.299557388 0.221884862
0.228209704 0.302213907 0.224667892
0.232764080 0.299937189 0.223150089
0.241872475 0.302213907 0.228462979
0.248070985 0.303858191 0.228589505
0.257685065 0.305882454 0.233143449
0.266793430 0.310057163 0.235041186
0.273244977 0.310816169 0.237697959
0.282858998 0.312586933 0.238962799
0.295002967 0.317393780 0.244655564
0.310183376 0.324984372 0.253763199
0.319291621 0.328019977 0.255028188
0.332700789 0.335357159 0.263250947
0.346616000 0.340164393 0.265275180
0.365970910 0.349651933 0.271726966
0.384187162 0.356736332 0.276787102
0.406578273 0.362681866 0.285009354
0.428968996 0.376217186 0.293864787
0.450980484 0.388361782 0.299177676
0.475015819 0.401897848 0.312460303
0.508159280 0.414674342 0.324857384
0.535483837 0.429854423 0.339025617
0.568500936 0.443516999 0.353447199
0.603415549 0.463757157 0.368627340
0.641998947 0.485895187 0.398608357
0.678430974 0.512587190 0.435041189
0.214294985 0.308918536 0.226691559
0.220366970 0.313725531 0.234029323
0.223655790 0.316761523 0.234282359
0.226059154 0.317394108 0.233143553
0.229474992 0.326122969 0.239215553
0.227197617 0.323845625 0.236938909
0.228589296 0.325237304 0.237065241
0.233269975 0.326628983 0.239468709
0.240101069 0.327261537 0.243137464
0.249209464 0.327261537 0.246173084
0.254775584 0.328905672 0.242757872
0.265528142 0.331941813 0.245793968
0.277798623 0.336748987 0.250221580
0.286653996 0.342821062 0.250727564
0.292725980 0.343580127 0.254142702
0.302972555 0.345983326 0.259582579
0.317520380 0.349904925 0.266540349
0.335104585 0.354712546 0.273750573
0.344212204 0.357748181 0.279822588
0.358886510 0.361416906 0.281593561
0.377862036 0.369513124 0.287286311
0.400000125 0.379886121 0.295003086
0.412397116 0.383175492 0.298165947
0.438203484 0.397343218 0.309297979
0.463251144 0.409614116 0.317140847
0.490196198 0.424415201 0.327134281
0.518532634 0.439595610 0.345351070
0.551928997 0.454775244 0.357748121
0.582669199 0.468564183 0.374573201
0.614927292 0.487160057 0.393422067
0.645794094 0.510183156 0.413788736
0.682226121 0.534471929 0.450221568
0.226439029 0.342315018 0.241872013
0.232511014 0.342315018 0.254016757
0.234282017 0.347121984 0.257052988
0.234534979 0.347627997 0.255534798
0.235547021 0.344339043 0.254395992
0.241619021 0.350411028 0.260468006
0.241871983 0.350664020 0.255661041
0.245414019 0.350917071 0.253637016
0.252245098 0.351676166 0.255408019
0.261353493 0.354586005 0.261353523
0.264642894 0.351676136 0.255661011
0.276028246 0.353194296 0.257938027
0.290955305 0.358507365 0.262871653
0.304870009 0.367109150 0.265908003
0.310941994 0.373181880 0.271979988
0.319417804 0.376344174 0.277798951
0.331815183 0.379380167 0.283871025
0.347248584 0.382037014 0.288931012
0.362429023 0.382037044 0.288931012
0.377103329 0.387856007 0.295002997
0.392283678 0.395572752 0.302466750
0.410247117 0.404933870 0.310562998
0.430613935 0.413535565 0.316382021
0.448829949 0.422643960 0.322454035
0.472359538 0.432258278 0.335863292
0.500822604 0.447185636 0.351422936
0.533713043 0.466920078 0.369639158
0.567109346 0.482100427 0.387855917
0.597849607 0.499936908 0.402909786
0.633523047 0.519418180 0.421885133
0.669576168 0.540037990 0.442884535
0.700442910 0.558760047 0.465402007
0.246932372 0.381277382 0.273751080
0.244654998 0.378494740 0.271979809
0.248576790 0.380644977 0.277672797
0.247944206 0.382289529 0.277040213
0.247185096 0.378874183 0.274003834
0.253257722 0.382542372 0.272864997
0.256799400 0.386084706 0.276407361
0.260341346 0.386337757 0.276028097
0.267172486 0.388614863 0.279443622
0.276280880 0.395699233 0.287539363
0.285136223 0.392915845 0.281973362
0.292220116 0.391903728 0.281973630
0.303605318 0.395319402 0.285009712
0.315496385 0.402023762 0.286654383
0.329158694 0.403035849 0.292726398
0.340037704 0.411511809 0.298798382
0.352561563 0.415306926 0.304870367
0.367741942 0.418343157 0.309677392
0.382922381 0.420493394 0.309677392
0.398102760 0.428842753 0.320809364
0.415180385 0.434914738 0.324984103
0.433270156 0.443137527 0.331309378
0.454649031 0.452119082 0.337634355
0.478178740 0.458570659 0.349019378
0.503225982 0.472233027 0.361922622
0.529412031 0.483744711 0.378494680
0.558507383 0.499810457 0.396711081
0.585072398 0.514990807 0.414927274
0.613156438 0.530171216 0.427830338
0.646932244 0.546489477 0.448197395
0.680961192 0.568374157 0.474003941
0.707526982 0.594180703 0.502846420
0.264389724 0.415053457 0.297659993
0.263251066 0.415812850 0.288931340
0.266413510 0.417077690 0.295888782
0.265654743 0.416318446 0.297659993
0.263503999 0.413788736 0.295635730
0.271094620 0.418342531 0.294117540
0.272739142 0.419481039 0.294244051
0.282352746 0.424161732 0.297280014
0.288424820 0.425426811 0.300316334
0.295256227 0.432258219 0.307147264
0.302466869 0.431625605 0.307400465
0.309677452 0.432511210 0.307400256
0.321062356 0.432511210 0.311574966
0.331435740 0.437318206 0.313345999
0.341682404 0.442251474 0.317773700
0.360151708 0.445667267 0.325743467
0.372295707 0.451739281 0.328779459
0.387729138 0.455408096 0.334724873
0.404174745 0.459709227 0.338519752
0.417457372 0.464516073 0.342061758
0.434535474 0.471726745 0.348513484
0.452751458 0.476786852 0.353573889
0.473118216 0.484124184 0.360784441
0.495635808 0.491966963 0.372928470
0.520303547 0.502972960 0.385452002
