Assets/Resources/EldamarStudio/100 Horror LUTs Pack/LUTs/cube/Ener LUT.cube
LUT_3D_SIZE 8
DOMAIN_MIN 0.000000 0.000000 0.000000
DOMAIN_MAX 0.903226 0.903226 0.903226
0.043136999 0.023529001 0.007843000
0.066540092 0.027830547 0.008601999
0.198988095 0.011005904 0.011764999
0.335230976 0.002783356 0.000000000
0.482479185 0.003035997 0.000000000
0.638330460 0.001897740 0.006072264
0.810626268 0.033269987 0.003289004
0.965211570 0.121947780 0.007969820
0.074003547 0.057938091 0.007463549
0.109297536 0.054016095 0.000758999
0.207969651 0.072106093 0.009487906
0.338393182 0.064642645 0.000000000
0.483744621 0.072865196 0.005945647
0.635926604 0.093485542 0.000379548
0.807210982 0.123592377 0.000379548
0.965717733 0.177356333 0.017457247
0.189500183 0.168374196 0.003162904
0.227957174 0.172675639 0.015812907
0.246047094 0.158254102 0.000000000
0.363946736 0.167994648 0.000379548
0.490322351 0.178494468 0.003162903
0.645287693 0.204806834 0.003415738
0.820240259 0.238709569 0.004807197
0.975205481 0.272865325 0.030992985
0.318405926 0.280834645 0.000000000
0.339531839 0.277672648 0.003922000
0.370525092 0.278810978 0.003922000
0.393548638 0.257937908 0.001138644
0.516888261 0.285009295 0.001518192
0.662112653 0.312334180 0.000000000
0.824667871 0.345983565 0.005060354
0.975711405 0.379759282 0.076660424
0.455281377 0.423023373 0.000000000
0.483870834 0.419354737 0.004807003
0.503732085 0.420493275 0.003162904
0.529031932 0.416191995 0.000000000
0.566350400 0.396205187 0.000000000
0.695256233 0.429095566 0.003035997
0.847691298 0.465148658 0.043896168
0.987096608 0.500442803 0.143832594
0.614927471 0.593168736 0.004048004
0.625047505 0.596710622 0.000000000
0.661859453 0.600632489 0.003036094
0.696015000 0.605692804 0.000759096
0.729032159 0.589626610 0.006071994
0.765717745 0.571663499 0.061986461
0.883744299 0.590385735 0.142820999
0.990512192 0.619860709 0.244908512
0.763314545 0.764579535 0.078811109
0.773181558 0.768247962 0.097786359
0.802150607 0.765970588 0.112334102
0.836179554 0.774699271 0.134218454
0.873497546 0.770904362 0.162681714
0.900316477 0.755218267 0.217330515
0.930297256 0.723086238 0.271979809
0.992409945 0.734851301 0.359265924
0.891840637 0.902339816 0.423276365
0.899683595 0.909298062 0.437444329
0.918152809 0.910183787 0.439595133
0.946616173 0.907147408 0.456166834
0.972295821 0.913852155 0.471094370
0.992283165 0.908286035 0.500063360
0.998734832 0.892599642 0.539151907
0.996078014 0.874889433 0.566982329
0.052498095 0.031752452 0.016824547
0.070461988 0.030993452 0.013662547
0.188741192 0.016065549 0.021884996
0.302340299 0.036052998 0.028589547
0.445667386 0.042125188 0.034914549
0.603795171 0.061353538 0.039089095
0.778874278 0.096900985 0.052624829
0.957368612 0.148133799 0.094623983
0.072865091 0.057938091 0.013282999
0.095509090 0.062618993 0.017583545
0.185958639 0.071979992 0.018722093
0.303099275 0.085768543 0.022264451
0.444528759 0.096647538 0.030613905
0.603415906 0.120936021 0.036812287
0.777229607 0.148766562 0.046805799
0.952181756 0.190385506 0.092093654
0.179000631 0.145224541 0.010120096
0.206831113 0.155471548 0.024288096
0.219228178 0.150790557 0.019101642
0.327766836 0.164073557 0.018722095
0.464769006 0.181150928 0.031246092
0.619228125 0.208728746 0.032384641
0.794560313 0.241492838 0.056420021
0.963187873 0.282858908 0.108412445
0.299937099 0.263377726 0.003795093
0.321821272 0.265021831 0.008602096
0.346489727 0.265021831 0.005819450
0.379379928 0.250980556 0.026059639
0.490955263 0.276786625 0.034282185
0.639721513 0.308412284 0.043263830
0.805439353 0.346742272 0.071726896
0.960657775 0.380897820 0.131562248
0.440354407 0.406957716 0.003036094
0.458191365 0.409993798 0.006072091
0.487160265 0.407589912 0.004933544
0.520177245 0.410373271 0.014421450
0.551423132 0.387602389 0.056926183
0.680202007 0.422390938 0.071347348
0.839848280 0.464769095 0.115496375
0.975458324 0.502087176 0.190259174
0.594939947 0.580139458 0.006451639
0.608475506 0.585578620 0.006451639
0.644908071 0.587223291 0.012270895
0.675901413 0.593927801 0.009487733
0.710436285 0.579632998 0.064389557
0.751675904 0.561796188 0.119165078
0.873497546 0.586970210 0.187729105
0.986211061 0.623402715 0.274762899
0.752814531 0.752434850 0.141682371
0.761796117 0.756230295 0.144465461
0.779506564 0.752688289 0.143832982
0.813535869 0.757115901 0.158760279
0.857305586 0.758633971 0.184187293
0.884377003 0.741935551 0.232258096
0.917014599 0.716381848 0.279190093
0.984060764 0.727261066 0.360910594
0.881088078 0.902087331 0.436432749
0.884630263 0.903098881 0.436432928
0.905629218 0.898671567 0.434914529
0.929791033 0.899557352 0.443263739
0.961922765 0.905882180 0.471473932
0.987349629 0.902466714 0.498545110
0.998734832 0.892220080 0.543706238
0.997469962 0.865528226 0.576343656
0.076787099 0.036811996 0.084503189
0.117140643 0.034155548 0.085768551
0.203795105 0.019481093 0.083744094
0.312207520 0.027071452 0.077039644
0.444276094 0.053257290 0.092473097
0.592536151 0.097533256 0.125363991
0.755597770 0.149525285 0.154838383
0.949272573 0.196963966 0.194560155
0.102593094 0.080328546 0.071979992
0.140291005 0.082605645 0.064516544
0.201011658 0.088931441 0.073624194
0.314231187 0.101454638 0.079443552
0.438329995 0.124857627 0.109424353
0.588614941 0.161416903 0.132447913
0.764958918 0.187982097 0.154459119
0.941429079 0.231245890 0.188740894
0.155218095 0.155092001 0.071347103
0.188488558 0.171663105 0.074383192
0.252372086 0.170019105 0.089184098
0.331815630 0.180139095 0.089943096
0.450474203 0.205186382 0.117520094
0.607463717 0.233523190 0.134977832
0.779253483 0.262365639 0.170524985
0.955977261 0.311448067 0.207589999
0.289057285 0.276154548 0.097786188
0.309930652 0.275016069 0.108538643
0.344718367 0.276913643 0.102087446
0.370777816 0.265148640 0.112333730
0.489563376 0.290195733 0.129918084
0.626818240 0.322959930 0.153194278
0.795319319 0.361796170 0.177102834
0.954079390 0.401518166 0.232384607
0.429475099 0.404933393 0.116508380
0.434661478 0.413662195 0.124730833
0.473245114 0.410373151 0.126755178
0.506388605 0.409614325 0.127514184
0.539026141 0.390006274 0.141556188
0.670082092 0.429475129 0.175332189
0.832764149 0.470588475 0.211132094
0.973054647 0.518406153 0.278937131
0.588741064 0.585958481 0.161922991
0.602656782 0.584946394 0.163820550
0.632890463 0.590512514 0.161796078
0.669955850 0.593168914 0.166982934
0.704111397 0.587729096 0.186717272
0.741808832 0.566982567 0.217457175
0.864136755 0.599620759 0.274763107
0.986337721 0.639974654 0.366097450
0.738519609 0.755977452 0.263377458
0.750790238 0.765084982 0.271600306
0.771157384 0.763061166 0.277292848
0.814168453 0.765338480 0.287160009
0.851739287 0.766982734 0.303225666
0.876913369 0.749272823 0.327640653
0.913725495 0.724604487 0.361290544
0.990891933 0.740417540 0.444781780
0.876533747 0.907147586 0.505502760
0.873497784 0.911195397 0.512207448
0.892852664 0.904743791 0.515496552
0.927261233 0.905123353 0.524604678
0.956230164 0.911827922 0.546615660
0.987349749 0.908159554 0.561290145
0.992915750 0.894496858 0.593168497
1.000000000 0.872232616 0.630993187
0.122833282 0.026818715 0.186843559
0.160531178 0.015306646 0.194813371
0.218089730 0.034029353 0.174066931
0.308918625 0.036432646 0.164326280
0.452751368 0.055154737 0.170904726
0.592789352 0.075901188 0.189373985
0.763567269 0.109930344 0.223276332
0.933712780 0.205313116 0.284503430
0.148640081 0.090828896 0.166982830
0.177355841 0.101075090 0.159898728
0.220366731 0.104111090 0.165464833
0.310057133 0.104870088 0.154079378
0.437697351 0.122453839 0.166223735
0.587602794 0.145604089 0.191650987
0.756862938 0.172928572 0.229095563
0.914105058 0.260468215 0.296141624
0.189879730 0.169512838 0.160784632
0.220366731 0.174952641 0.169386640
0.264769107 0.184313640 0.165464640
0.337887704 0.197722733 0.165464640
0.454143167 0.212903202 0.183807358
0.595572233 0.241872281 0.216698274
0.764199793 0.294750035 0.269829184
0.935483873 0.348134041 0.330676824
0.235420629 0.270841271 0.144718289
0.262365371 0.268816829 0.158886999
0.319544375 0.292852372 0.182668924
0.390765280 0.296647280 0.202530280
0.483112246 0.310816258 0.217077821
0.615813017 0.339785159 0.240101367
0.774319828 0.379126936 0.284503549
0.934471607 0.429474920 0.344465375
0.385831714 0.406831026 0.205819279
0.408475727 0.410246372 0.215939179
0.444781572 0.411891371 0.225679919
0.495382607 0.413409144 0.233902469
0.531815171 0.402024001 0.238583177
0.658950090 0.444655567 0.277292907
0.816571832 0.489816695 0.321189016
0.956736326 0.539405286 0.390891910
0.544212461 0.577356219 0.273118109
0.563567042 0.576090932 0.274888992
0.595698953 0.581277847 0.284630269
0.645287752 0.582416356 0.293232352
0.687792301 0.590005994 0.298671752
0.724478483 0.568754077 0.323719352
0.847944200 0.611891091 0.377103209
0.966350436 0.658191144 0.460974067
0.705755532 0.749525547 0.377103180
0.709550858 0.757368803 0.380265564
0.735989988 0.752561450 0.381277740
0.780771673 0.750664175 0.384946197
0.817836761 0.758886695 0.393168807
0.855534434 0.751549721 0.418342531
0.890575647 0.727134943 0.448829830
0.972296000 0.750411212 0.517267525
0.849209309 0.900063097 0.570019066
0.853384197 0.900316238 0.565084934
0.873497605 0.902213931 0.574066877
0.905882239 0.901834428 0.585325539
0.933333158 0.907273650 0.597849250
0.971410811 0.910815895 0.618469059
0.986717165 0.896014988 0.642884076
0.993800998 0.881087780 0.673371196
0.182542995 0.009361193 0.332827389
0.211132541 0.025426740 0.325363636
0.267172873 0.044528902 0.313852161
0.330550283 0.074383192 0.303352624
0.451992184 0.073624000 0.299051195
0.605565965 0.089690447 0.309171170
0.781657279 0.120556280 0.333333462
0.942820907 0.203415781 0.386590660
0.204806745 0.107653543 0.302340180
0.228842378 0.118785352 0.300316423
0.275016010 0.124605000 0.300822079
0.344844997 0.136748642 0.292599529
0.447691619 0.137887090 0.286274552
0.595192671 0.151676461 0.306135267
0.769639134 0.178874016 0.333080202
0.933965802 0.243896127 0.382669091
0.252372086 0.203668386 0.285136193
0.269829452 0.215053648 0.289816290
0.308791906 0.213915199 0.280202270
0.357621729 0.219734550 0.288931072
0.464642406 0.220872998 0.290449262
0.606957555 0.245920286 0.310309887
0.776976585 0.285895109 0.355218381
0.938899398 0.353952974 0.418595821
0.271473825 0.301581085 0.285515368
0.297659874 0.303226084 0.298292309
0.352940738 0.300316513 0.297912836
0.411511809 0.328146487 0.306388617
0.496141821 0.332447648 0.309930354
0.632764280 0.359392583 0.344971478
0.779253542 0.402782917 0.391144753
0.920176983 0.476786941 0.468058378
0.319544196 0.418216377 0.283365190
0.347374916 0.422137976 0.277672380
0.397217095 0.429981172 0.299051404
0.488931298 0.456546485 0.351423293
0.559392452 0.460468352 0.368754178
0.664642930 0.479696631 0.393674850
0.801518261 0.523972094 0.439089149
0.938266695 0.576091170 0.512333989
0.481973469 0.591650903 0.352941185
0.503732026 0.588867545 0.363946557
0.553953350 0.594813108 0.399241149
0.611005545 0.599114478 0.414041460
0.673371017 0.605439663 0.426185906
0.719544709 0.596331179 0.444655150
0.839721620 0.638203561 0.500063181
0.958507359 0.686653733 0.571663499
0.667678356 0.753826618 0.506514668
0.677672327 0.757748365 0.508285820
0.705249846 0.757621467 0.506641209
0.743706465 0.758380592 0.507653117
0.802530169 0.763946772 0.519797444
0.842504561 0.762302577 0.536242545
0.872232556 0.744339228 0.550411165
0.963314235 0.774952292 0.622897089
0.817963183 0.905882239 0.660847604
0.826312602 0.906514883 0.659708977
0.842378318 0.904111385 0.657937944
0.874509752 0.908286035 0.670841575
0.915623009 0.907147408 0.683491409
0.946868956 0.914863884 0.693485081
0.979632974 0.905376196 0.710815847
0.993421793 0.889310598 0.733459592
0.234914467 0.036938734 0.510436177
0.263883471 0.047185540 0.512460470
0.322200924 0.066919640 0.503478825
0.390765280 0.086400740 0.484882921
0.475395381 0.115117185 0.478558004
0.620619714 0.107526734 0.477419466
0.784819603 0.132574245 0.500822425
0.948133707 0.223276511 0.509424448
0.263251305 0.132321090 0.482099533
0.280961275 0.134724811 0.477798641
0.325363845 0.144086093 0.482353091
0.391777128 0.151043370 0.468564451
0.466160804 0.166729987 0.458190769
0.611511648 0.157368809 0.460847467
0.777988315 0.185452268 0.479949176
0.939152241 0.252751440 0.500695944
0.305123359 0.237191468 0.466919452
0.317773551 0.240227476 0.474130452
0.361037165 0.241872087 0.467425704
0.414673924 0.246932626 0.457179189
0.490196198 0.258444190 0.458823264
0.622517467 0.254901946 0.458949804
0.788235068 0.289943129 0.489057630
0.940037847 0.365591049 0.524225235
0.329791099 0.315875918 0.465022117
0.348892927 0.325616539 0.471726537
0.399746984 0.340038002 0.462492079
0.450221270 0.351423353 0.457052290
0.512840211 0.362049222 0.460594445
0.639216006 0.359392911 0.472359419
0.781783462 0.401264727 0.493738174
0.927261233 0.478304863 0.555724144
0.343832999 0.465527922 0.469829023
0.362934798 0.469829172 0.481467187
0.418848753 0.462239116 0.487666249
0.497406542 0.470841080 0.490575463
0.577229619 0.496014923 0.501960695
0.678178251 0.509298086 0.521189392
0.810246587 0.549652278 0.554585695
0.921442151 0.612397015 0.620240092
0.420999736 0.602782965 0.469069958
0.443263471 0.602023900 0.468184918
0.483997375 0.611891091 0.479696572
0.551423252 0.625679791 0.502466559
0.648956120 0.649335444 0.565085411
0.730550230 0.651992202 0.591018438
0.830107510 0.679063499 0.627577484
0.939278662 0.719797492 0.683111787
0.578621030 0.762049258 0.534092486
0.591777325 0.764832139 0.544465542
0.630740225 0.761922538 0.570398450
0.690069497 0.767868102 0.611131787
0.752941370 0.773560822 0.635294080
0.821125567 0.775458515 0.650853872
0.856040716 0.763693511 0.660341501
0.949398935 0.799746692 0.711954415
0.781024575 0.904617250 0.721821606
0.791777074 0.904617131 0.730423808
0.810120106 0.905249894 0.744338810
0.843769491 0.905629516 0.752941012
0.873371363 0.912081063 0.758633554
0.924351811 0.913345933 0.766729712
0.958507061 0.914104879 0.784819424
0.985199034 0.898418784 0.793548226
0.286907017 0.079696566 0.729917526
0.309930235 0.086021282 0.722074509
0.369766086 0.101581089 0.716255605
0.447311997 0.123466276 0.715496540
0.527261496 0.147754267 0.703858495
0.640607238 0.170778006 0.703731537
0.803794980 0.167235985 0.694243789
0.948133945 0.243896052 0.690069377
0.303478807 0.156862542 0.707526743
0.327641010 0.160910547 0.704111218
0.372928381 0.169133186 0.707147241
0.450980544 0.181151018 0.697153986
0.532827437 0.195572466 0.696900606
0.638329983 0.216824800 0.683617651
0.795952022 0.211891070 0.686906993
0.937760592 0.269955754 0.673244596
0.346489489 0.268437654 0.704870582
0.356862843 0.276786834 0.702087522
0.406578064 0.280328780 0.693611801
0.470714569 0.289563477 0.694876730
0.550031424 0.303731918 0.689689815
0.644402027 0.312207371 0.688425064
0.805313230 0.312334001 0.690448880
0.936875284 0.378621250 0.683238089
0.391271621 0.382416189 0.686274171
0.417584091 0.397343725 0.685768545
0.450853825 0.397343695 0.684250653
0.503984630 0.402656615 0.684756517
0.569133759 0.412144214 0.687286556
0.658317804 0.423023313 0.679443657
0.805059791 0.427324563 0.679696441
0.929538012 0.489057243 0.686021090
0.405692458 0.490196258 0.696900845
0.433902353 0.495635331 0.695762217
0.479316920 0.501075268 0.688930690
0.551928997 0.530676842 0.693358779
0.616445303 0.535483420 0.690575421
0.683112204 0.546110213 0.689943075
0.812523544 0.562175572 0.695256531
0.926122546 0.615812898 0.715370059
0.425806552 0.669702470 0.703099549
0.453890026 0.671600163 0.707147241
0.500189722 0.666160762 0.705629587
0.573434532 0.666540504 0.710436225
0.664769053 0.670461476 0.720936000
0.735736728 0.690448999 0.735357225
0.837064981 0.706262052 0.738646209
0.932574272 0.745730281 0.766729653
0.522833526 0.776344001 0.668817282
0.546742260 0.776849806 0.679569781
0.576596975 0.775711536 0.674383581
0.634408951 0.779633045 0.695635617
0.698292017 0.786843538 0.704491019
0.788994670 0.802150488 0.757621527
0.851233244 0.804807186 0.776344001
0.930929303 0.829854250 0.810246348
0.703731418 0.909298062 0.734219015
0.713598549 0.917014480 0.746236682
0.735989928 0.909044981 0.754838467
0.782669067 0.914104819 0.788235247
0.835799873 0.914990485 0.820113897
0.889437258 0.918026805 0.850474358
0.935863197 0.921947777 0.846679509
0.964832366 0.914990485 0.857178986
0.340164781 0.172928780 0.903858542
0.360278368 0.175332069 0.896394491
0.414421082 0.188867614 0.896900654
0.487919152 0.207590222 0.894749761
0.574193180 0.238709778 0.895761907
0.663883805 0.281087607 0.889816582
0.786338031 0.314231455 0.889690042
0.953320801 0.343326539 0.888171554
0.362934887 0.225933328 0.897406578
0.387729347 0.235800326 0.891840518
0.427704275 0.241745576 0.892599702
0.496268183 0.258950144 0.884756386
0.575964689 0.279822588 0.887539387
0.666666806 0.308791637 0.884250522
0.779506564 0.344718397 0.875521898
0.953700066 0.361163884 0.871347368
0.402909905 0.342061877 0.894496799
0.426565349 0.346489638 0.892473042
0.464516073 0.353193998 0.891460836
0.526628792 0.366350174 0.890575528
0.601264894 0.384313881 0.884756327
0.691587627 0.408981621 0.882732630
0.791271329 0.434408247 0.879696488
0.952814519 0.453004509 0.878431320
0.476786941 0.476913184 0.881720245
0.496141613 0.475648046 0.878684640
0.523466289 0.484377116 0.880581737
0.570145249 0.492220044 0.881720603
0.632258296 0.500063360 0.871600389
0.704743624 0.516128778 0.870841622
0.797343552 0.535736740 0.870335221
0.943959594 0.546995521 0.867678404
0.514231563 0.571663439 0.880328596
0.539658248 0.585199237 0.876280785
0.580771863 0.605439484 0.874889374
0.630487204 0.620366752 0.876154244
0.679822803 0.625806391 0.875142455
0.741808832 0.634408653 0.877039850
0.815180063 0.647438228 0.873118341
0.941429675 0.654775143 0.871600032
0.559392691 0.708032608 0.885009527
0.575458527 0.711827636 0.878811061
0.615053773 0.710942507 0.879696488
0.663630605 0.710183501 0.879949391
0.728526413 0.736875296 0.879822612
0.784566700 0.747501254 0.877419651
0.841239989 0.759266257 0.886527836
0.940670609 0.765211582 0.885894656
0.578747153 0.847944081 0.882732272
0.601138473 0.848450482 0.882985294
0.628968954 0.846046805 0.884756327
0.683997452 0.838962853 0.885388970
0.737887144 0.835800350 0.884756327
0.809487700 0.831119299 0.880834818
0.862744987 0.840354085 0.889310658
0.943706393 0.850474358 0.894876480
0.701074898 0.925869823 0.858190596
0.707400143 0.926628768 0.858443916
0.722960055 0.923212945 0.856293321
0.760657370 0.928525925 0.868311226
0.801011980 0.927260756 0.872106373
0.851106763 0.927893579 0.884630024
0.904743791 0.930676520 0.915369809
0.950537801 0.941555738 0.924477756
