Assets/Resources/EldamarStudio/100 Horror LUTs Pack/LUTs/cube/Ener LUT.cube
LUT_3D_SIZE 5
DOMAIN_MIN 0.000000 0.000000 0.000000
DOMAIN_MAX 0.903226 0.903226 0.903226
0.043136999 0.023529001 0.007843000
0.162555113 0.020873006 0.011765000
0.404807240 0.000000000 0.003289416
0.681847095 0.004933870 0.000000000
0.965211570 0.121947780 0.007969820
0.169006705 0.147121996 0.001644708
0.216445416 0.132447690 0.000000000
0.426692098 0.149778411 0.004933705
0.685768366 0.181530699 0.002656578
0.973434508 0.247311652 0.021884792
0.381909966 0.345350802 0.000000000
0.422138095 0.347628087 0.000000000
0.481340796 0.327007949 0.000632584
0.719038367 0.380645394 0.000000000
0.986084580 0.444149375 0.113599174
0.654396117 0.635673285 0.001012128
0.689942837 0.644908607 0.008855128
0.754712284 0.650474370 0.000000000
0.810246229 0.613156140 0.105503105
0.992030144 0.650727272 0.276533872
0.891840637 0.902339816 0.423276365
0.909044743 0.908918619 0.432511032
0.955218196 0.914104939 0.454522222
0.992283165 0.902719617 0.509930313
0.996078014 0.874889433 0.566982329
0.074510001 0.037571292 0.062491700
0.165844113 0.017963292 0.055660985
0.375079095 0.031752121 0.073624276
0.630740106 0.112207122 0.112207279
0.950031281 0.182036787 0.171536788
0.127893701 0.130803406 0.050094694
0.210626394 0.141935408 0.064136408
0.384946495 0.168753982 0.084123686
0.644908249 0.211258397 0.116508402
0.954459250 0.282352507 0.182036638
0.359392673 0.325996101 0.078811124
0.394054085 0.333586365 0.082479395
0.453890204 0.316888094 0.103732109
0.693358600 0.378747791 0.142314687
0.969133198 0.458570182 0.229095370
0.625933290 0.625679970 0.143453225
0.661479950 0.626945078 0.147121936
0.729917824 0.638077080 0.162934676
0.785072505 0.608981609 0.216192067
0.990132630 0.660215139 0.363061339
0.876533747 0.906641364 0.483491093
0.886527836 0.900442600 0.479822874
0.941682696 0.903984904 0.505882263
0.992915988 0.902340353 0.542061806
0.997469962 0.868690550 0.612270892
0.151675999 0.012397422 0.251106977
0.224920988 0.028462704 0.236052990
0.374699384 0.052371986 0.221758395
0.640607119 0.090069696 0.249335647
0.941049993 0.195192620 0.329790950
0.214800701 0.165717706 0.219101816
0.259582400 0.177229404 0.209614128
0.388108671 0.181150988 0.217836395
0.640986681 0.224035263 0.260341555
0.936495602 0.324857652 0.371663630
0.277925402 0.342694789 0.208728373
0.340670377 0.349904805 0.225679815
0.471473396 0.370778233 0.273370951
0.675268710 0.417710513 0.324857682
0.940923214 0.514231563 0.430613607
0.565971136 0.624921143 0.357874781
0.604554176 0.625932813 0.356103510
0.695383132 0.630486846 0.369639397
0.771283925 0.619102120 0.406957805
0.965338469 0.694497228 0.531941593
0.832384408 0.900316179 0.611891031
0.850600779 0.898039103 0.611638129
0.904111385 0.902972400 0.628716052
0.968500972 0.906514645 0.655154884
0.995572388 0.885388970 0.701328456
0.251107007 0.047059000 0.569133282
0.319417685 0.068691000 0.559645772
0.447691530 0.106640995 0.539784849
0.665148258 0.118659124 0.528020263
0.950157762 0.227071464 0.548893213
0.299051285 0.220746696 0.529917657
0.351423115 0.223655835 0.531941712
0.463377953 0.237444401 0.522453964
0.664516270 0.243010700 0.516888261
0.943579912 0.343326747 0.556103647
0.348513395 0.383933961 0.517140985
0.408601999 0.402276963 0.524604678
0.523845315 0.429095775 0.529917717
0.702719688 0.447438419 0.544971645
0.932068050 0.554711759 0.618216038
0.446300089 0.652372122 0.526755154
0.487792403 0.659203291 0.532574296
0.615686119 0.677545965 0.571789682
0.765971124 0.696521282 0.644655347
0.941555798 0.749399066 0.716508567
0.765085161 0.908918619 0.728399694
0.786337733 0.909550786 0.746362865
0.848703384 0.910815954 0.779886305
0.930423796 0.913852096 0.789752841
0.975838065 0.901707590 0.814294755
0.340164781 0.172928780 0.903858542
0.399240673 0.185072660 0.894370615
0.529790938 0.220746189 0.892093599
0.692473292 0.287918866 0.891081631
0.953320801 0.343326539 0.888171554
0.390765518 0.314484328 0.891714036
0.440480530 0.320050359 0.888171732
0.555217922 0.347880900 0.893105447
0.702466726 0.393042326 0.886780620
0.954079628 0.432763964 0.881973445
0.507021010 0.547754169 0.890069187
0.552434862 0.553826451 0.881214321
0.629854262 0.568627179 0.881593764
0.747501612 0.590132594 0.879063606
0.950158179 0.612397432 0.878431141
0.567235589 0.744971216 0.885515451
0.609993875 0.745350957 0.883744121
0.697912812 0.750537932 0.879316747
0.804300964 0.772801876 0.880961597
0.938646317 0.791017890 0.884882748
0.701074898 0.925869823 0.858190596
0.719417751 0.924225032 0.866160870
0.776849985 0.924604654 0.871727049
0.868058085 0.929411650 0.891966879
0.950537801 0.941555738 0.924477756
