Assets/Resources/EldamarStudio/100 Horror LUTs Pack/LUTs/cube/Ener LUT.cube
DOMAIN_MIN 0 0 0
DOMAIN_MAX 1 1 1
LUT_3D_SIZE 32
0.043136999 0.023529001 0.007843000
0.043136999 0.023529001 0.007843000
0.043136999 0.023529001 0.007843000
0.049462158 0.024794161 0.007843000
0.066540092 0.027830547 0.008601999
0.096900865 0.030866936 0.014673999
0.127260998 0.028842678 0.013156323
0.162555113 0.020873006 0.011765000
0.198988095 0.011005904 0.011764999
0.226312518 0.007969514 0.011764997
0.265274853 0.004933871 0.005946001
0.300695747 0.003922000 0.001897744
0.335230976 0.002783356 0.000000000
0.371410102 0.000000000 0.000253032
0.404807240 0.000000000 0.003289416
0.443010777 0.000000000 0.001518196
0.482479185 0.003035997 0.000000000
0.521947682 0.006578009 0.000000002
0.561416984 0.000506000 0.000000010
0.598102748 0.000000000 0.008349362
0.638330460 0.001897740 0.006072264
0.681847095 0.004933870 0.000000000
0.727134466 0.008222505 0.000252992
0.766603708 0.017330905 0.006325001
0.810626268 0.033269987 0.003289004
0.853383958 0.052877642 0.000000000
0.892346978 0.074130058 0.000000000
0.928778946 0.095382430 0.000000000
0.965211570 0.121947780 0.007969820
0.989247143 0.145730168 0.033017341
1.000000000 0.168753579 0.069449946
1.000000000 0.196078002 0.105881996
0.043136999 0.023529001 0.007843000
0.037064999 0.023529001 0.004807387
0.041366000 0.027830549 0.004807387
0.051992159 0.028336613 0.004807387
0.072232544 0.027830547 0.005186839
0.099936470 0.030866936 0.008601999
0.130297244 0.031373002 0.004554002
0.163946792 0.025553683 0.009234607
0.199747190 0.017077904 0.013282614
0.229348913 0.014041513 0.008728612
0.265401363 0.011005871 0.008728612
0.298671514 0.005946004 0.002909617
0.331056237 0.003922000 0.000000000
0.366097063 0.003036387 0.000000000
0.407842845 0.003036387 0.000253029
0.443643212 0.000632583 0.000885613
0.482479185 0.000000000 0.000000000
0.521947682 0.001771002 0.001264991
0.561416984 0.000506008 0.006071999
0.603668749 0.008349359 0.003289356
0.638709724 0.011005643 0.003795260
0.677798867 0.016065739 0.000000000
0.721315503 0.023782361 0.000000000
0.766603708 0.041618906 0.000253002
0.808349550 0.055281281 0.004048288
0.851739645 0.074130028 0.001644715
0.892853081 0.094370447 0.000000000
0.931815386 0.110562816 0.000000000
0.965591133 0.123845361 0.007969820
0.987475932 0.151043355 0.029474910
0.997849226 0.176090971 0.062492017
1.000000000 0.199114397 0.096774384
0.047437999 0.027830549 0.007843000
0.045667000 0.027830549 0.006957613
0.052498549 0.032131549 0.006072226
0.062365703 0.031878840 0.008602225
0.082226545 0.028589547 0.008855226
0.107779704 0.035167936 0.003036065
0.137634411 0.035674002 0.007084000
0.167994753 0.035674002 0.002656711
0.201138511 0.029601678 0.009993678
0.230107993 0.026565287 0.008096000
0.270588547 0.023529647 0.007843000
0.304996789 0.020493519 0.003795004
0.335483789 0.016824998 0.000000000
0.367615074 0.016824998 0.000253032
0.402529776 0.016824998 0.002150774
0.442378372 0.016571969 0.000000000
0.480328947 0.015053772 0.000000000
0.521062255 0.016951341 0.000000000
0.563567221 0.021505559 0.003035999
0.599367797 0.029854361 0.002909578
0.639974713 0.037065480 0.001771226
0.674889266 0.041366316 0.000000000
0.715369999 0.049336016 0.000252992
0.762934983 0.061479777 0.004300999
0.804048002 0.077419050 0.000126514
0.846552730 0.091207750 0.001771226
0.889057577 0.109171063 0.000506064
0.930170655 0.124351434 0.002150774
0.964326501 0.143326759 0.012270819
0.988867700 0.164325923 0.033776358
0.998228788 0.190765202 0.064136505
1.000000000 0.210752770 0.096268229
0.057305161 0.038962997 0.007843000
0.057305161 0.038962997 0.007843000
0.062112547 0.043263998 0.006578161
0.079316996 0.043010838 0.005313000
0.094497375 0.035420544 0.011385001
0.116128996 0.042757932 0.004554001
0.142947644 0.048071161 0.003795160
0.174573153 0.049335998 0.008728711
0.204174265 0.048577096 0.004174905
0.231499314 0.045540832 0.005186517
0.269576401 0.042504869 0.005313001
0.307274073 0.040733904 0.003795004
0.340670496 0.037697803 0.000000000
0.371916115 0.037824288 0.000000000
0.405312955 0.038836159 0.002024255
0.441619396 0.041366156 0.004048196
0.478558183 0.040101320 0.001265161
0.518026531 0.042631302 0.001897575
0.562302053 0.052372139 0.002529997
0.597975969 0.058950134 0.000000000
0.637697875 0.066160642 0.000000000
0.677166283 0.072233155 0.000000000
0.714231491 0.078431629 0.000000000
0.761669993 0.087539256 0.003795002
0.804680586 0.098671436 0.003289004
0.843010306 0.109930143 0.000000000
0.886021197 0.123086289 0.000000000
0.929284990 0.139025748 0.002277287
0.963820279 0.159519121 0.017077975
0.984566987 0.179253474 0.038583193
0.999240994 0.206577897 0.070715010
1.000000000 0.225933149 0.101834163
0.074003547 0.057938091 0.007463549
0.074762546 0.058697093 0.007843000
0.076913320 0.062239092 0.005313226
0.087666094 0.063124478 0.003415838
0.109297536 0.054016095 0.000758999
0.124477923 0.057052478 0.006830999
0.147628188 0.065528318 0.005313323
0.175711706 0.070208833 0.006072449
0.207969651 0.072106093 0.009487906
0.235294059 0.069070473 0.000379516
0.268816978 0.066413678 0.000000000
0.303478509 0.065401547 0.000000000
0.338393182 0.064642645 0.000000000
0.371536613 0.062365994 0.000000000
0.410626203 0.065528117 0.000000000
0.448071063 0.070967540 0.004047996
0.483744621 0.072865196 0.005945647
0.518026531 0.071853533 0.003795416
0.557494998 0.083997563 0.006831028
0.594560266 0.088551901 0.002656544
0.635926604 0.093485542 0.000379548
0.678684533 0.099177994 0.000000000
0.718658924 0.105503015 0.000000000
0.764706194 0.114863746 0.000000000
0.807210982 0.123592377 0.000379548
0.848070920 0.132068068 0.000000000
0.884503186 0.139025673 0.000000000
0.930044293 0.157242432 0.000000000
0.965717733 0.177356333 0.017457247
0.986084640 0.195446178 0.041872140
0.993927956 0.212650582 0.071853176
1.000000000 0.239975005 0.108286001
0.101327926 0.082226865 0.004427936
0.107399926 0.088298865 0.007463548
0.110309705 0.089057863 0.003542000
0.118406095 0.090069868 0.003036065
0.133586317 0.087413251 0.006830999
0.136621922 0.078304872 0.006830999
0.161922961 0.088930927 0.005313323
0.187096924 0.090701997 0.002277292
0.214421198 0.087665930 0.001518066
0.244402453 0.087286472 0.000379516
0.280455679 0.087159991 0.000000000
0.312333822 0.086653933 0.000000000
0.343706280 0.086653933 0.000000000
0.374572992 0.086653993 0.000000000
0.404933751 0.092725992 0.000000000
0.444022775 0.098291926 0.000000000
0.482985258 0.101327926 0.001012001
0.520809174 0.101454571 0.000506066
0.557494998 0.105249949 0.000759036
0.596964121 0.114611298 0.003795356
0.635926664 0.120809920 0.003415935
0.674383163 0.125869796 0.002403807
0.709550560 0.129791006 0.000000000
0.761163771 0.141935810 0.000000000
0.800379574 0.149019808 0.002277288
0.841998637 0.158380836 0.002024263
0.883997202 0.169006929 0.000000000
0.917900264 0.178494811 0.000000000
0.958127737 0.194054738 0.010625975
0.984186947 0.212017879 0.031372447
0.996457696 0.228842586 0.059709176
1.000000000 0.246047005 0.096142001
0.141302645 0.119165316 0.001391678
0.147374630 0.120177314 0.001897614
0.153447181 0.121948317 0.002783001
0.160657957 0.121948317 0.000000000
0.172675639 0.121189319 0.002783001
0.173561022 0.114231698 0.002783001
0.179126963 0.105123319 0.002783001
0.206451699 0.112334028 0.001391678
0.230866417 0.112713538 0.000759096
0.255914003 0.118026316 0.002530323
0.289563417 0.115496635 0.005059999
0.323972434 0.115496635 0.005059999
0.355977267 0.116634987 0.002783001
0.387982339 0.118532315 0.000000000
0.420619816 0.124604315 0.000000000
0.453383774 0.128273115 0.000000000
0.486527175 0.131182641 0.000000000
0.521947682 0.132447630 0.000000000
0.560278296 0.137381300 0.000000001
0.604553819 0.145983681 0.000253035
0.642125189 0.149399325 0.001391678
0.681973279 0.155218452 0.003415676
0.720429838 0.161543429 0.005186511
0.767235994 0.171283811 0.007590321
0.809740543 0.178874001 0.000759037
0.850600958 0.186337665 0.001391678
0.894117713 0.197343320 0.000000000
0.927514315 0.208475441 0.000000000
0.966223717 0.220367119 0.018216295
0.987982213 0.235547498 0.049841855
0.996837378 0.253890216 0.079443604
0.994939983 0.272359639 0.109297998
0.169006705 0.147121996 0.001644708
0.184946105 0.150410980 0.000000000
0.191018239 0.150410980 0.000000000
0.194560692 0.149146140 0.006325160
0.206325248 0.148387149 0.006325155
0.215180397 0.143579990 0.000000000
0.215306699 0.138267085 0.000000000
0.216445416 0.132447690 0.000000000
0.243769810 0.133966088 0.000000000
0.266793221 0.139531925 0.002150777
0.296394557 0.141935572 0.003542132
0.329791039 0.142567992 0.004554003
0.360910922 0.143706635 0.005692647
0.393295377 0.146489412 0.002150708
0.426692098 0.149778411 0.004933705
0.458443791 0.153446794 0.001644708
0.493358374 0.158001363 0.000126516
0.523592234 0.160784379 0.000632576
0.563061237 0.168880418 0.001644707
0.603162408 0.174446344 0.000000000
0.646299481 0.179506704 0.001644708
0.685768366 0.181530699 0.002656578
0.729158700 0.190132976 0.007843000
0.776217699 0.200758800 0.009361196
0.817204237 0.210879117 0.006578424
0.855281293 0.218342423 0.000253036
0.898545384 0.226944819 0.001011999
0.933080435 0.236812100 0.003288997
0.973434508 0.247311652 0.021884792
0.990259230 0.262871861 0.052371833
0.998481989 0.278052062 0.095256455
0.995445967 0.297786266 0.122580700
0.189500183 0.168374196 0.003162904
0.211511865 0.174446180 0.000885613
0.223656192 0.173940092 0.000000001
0.227198184 0.175711244 0.002530067
0.227957174 0.172675639 0.015812907
0.247312024 0.169639349 0.002530067
0.248323783 0.166603416 0.001517998
0.247564718 0.162808478 0.000000000
0.246047094 0.158254102 0.000000000
0.273371518 0.155218482 0.000000000
0.301454782 0.160152107 0.001517998
0.332068235 0.164199844 0.001517998
0.363946736 0.167994648 0.000379548
0.391524166 0.170778006 0.003162904
0.424415231 0.170778006 0.008222899
0.457685083 0.173940480 0.006198909
0.490322351 0.178494468 0.003162903
0.526755154 0.185199499 0.002024086
0.566097081 0.197217003 0.005186962
0.603541732 0.201011837 0.002656641
0.645287693 0.204806834 0.003415738
0.687286377 0.209614187 0.004174967
0.732574522 0.215812698 0.006957585
0.779253781 0.227324292 0.006325001
0.820240259 0.238709569 0.004807197
0.859835327 0.249462500 0.002530328
0.896774054 0.258064181 0.003035998
0.933459759 0.264136910 0.010119991
0.975205481 0.272865325 0.030992985
0.991397917 0.288804382 0.059582341
0.993927956 0.304617554 0.096774265
1.000000000 0.319797188 0.133207083
0.225932986 0.198734984 0.000126516
0.241113380 0.204806983 0.000126517
0.252372265 0.200126216 0.000000003
0.257558972 0.198987663 0.000000002
0.258317977 0.206072047 0.000632515
0.264389992 0.203036442 0.000632517
0.263504177 0.200000152 0.005059997
0.265401512 0.195319504 0.004301002
0.270335138 0.188614890 0.000000001
0.273371518 0.179506496 0.000000000
0.303604990 0.182289883 0.005818995
0.333839029 0.185452238 0.007589996
0.364326268 0.189626500 0.005313000
0.394560546 0.195066020 0.000126516
0.424921304 0.195066020 0.000126516
0.462618768 0.199873626 0.000379517
0.498671681 0.205819458 0.001644709
0.532827079 0.212523907 0.005060473
0.569259942 0.221631527 0.011132479
0.608601868 0.225300372 0.008728640
0.653636932 0.230233982 0.009487737
0.698925078 0.237191617 0.009488000
0.738646448 0.246173486 0.003921970
0.778114915 0.255281895 0.000885579
0.815686107 0.264516175 0.000253000
0.855028331 0.273750693 0.000126516
0.896774054 0.282353014 0.003035998
0.936242402 0.288424999 0.021251986
0.978241146 0.297153860 0.046932463
0.992409527 0.315116912 0.075774878
0.991018116 0.334724605 0.109044783
1.000000000 0.344085962 0.148387492
0.256546736 0.220366865 0.000000000
0.262998253 0.226438865 0.002909870
0.269576102 0.230360642 0.005060096
0.277166277 0.226818442 0.003288999
0.282479525 0.228209868 0.000379548
0.286021858 0.227703929 0.002909870
0.297153860 0.224668324 0.000379548
0.302593440 0.219987318 0.003668709
0.308412611 0.213914990 0.002150774
0.309298217 0.206957385 0.000000000
0.315243751 0.203668743 0.000000000
0.341555715 0.206704602 0.002024001
0.371283919 0.209740505 0.002024001
0.403415859 0.214294776 0.000000000
0.433775932 0.222264603 0.000000000
0.461732894 0.224667802 0.002403804
0.502213657 0.233269989 0.001391678
0.541176379 0.241492569 0.001012129
0.575331986 0.246046782 0.002530131
0.614548087 0.252371728 0.003036130
0.654016495 0.259329587 0.003921741
0.696521282 0.264389724 0.004933873
0.735863149 0.267931849 0.001012129
0.772548914 0.279822886 0.000759096
0.816571832 0.288931280 0.000000000
0.857685149 0.298039049 0.000000000
0.899683893 0.307653129 0.004554060
0.939152241 0.318532735 0.029980849
0.970651507 0.321947873 0.048197508
0.994433761 0.332321405 0.078305125
0.995192885 0.350284725 0.111575037
0.994180977 0.365464866 0.149020001
0.286906987 0.249715239 0.000000000
0.295003235 0.255787224 0.005060127
0.302973002 0.253636777 0.002024230
0.303478599 0.254143149 0.005060165
0.309930265 0.252245486 0.001644708
0.317899913 0.255534500 0.001391679
0.324478507 0.255028546 0.003415934
0.333333492 0.250348240 0.002024256
0.340544164 0.245034665 0.003922000
0.341808975 0.240227491 0.002150771
0.347627997 0.235041112 0.000000000
0.353700519 0.227956980 0.000000000
0.377988487 0.230992883 0.000000000
0.408475786 0.234535277 0.000505999
0.438836217 0.243643656 0.004047996
0.472865283 0.251992434 0.000379548
0.504743516 0.256546229 0.003415936
0.546236455 0.266413391 0.001391680
0.579633236 0.270841479 0.000000000
0.616572082 0.276660502 0.000000000
0.654142976 0.284629762 0.000000000
0.693485141 0.291714102 0.001897744
0.733206749 0.293232232 0.000126512
0.775331795 0.305376261 0.002024256
0.818595827 0.315243542 0.004047996
0.858570635 0.325743228 0.006830986
0.898671806 0.334977508 0.012144117
0.938140154 0.344085872 0.037950676
0.975711644 0.350284398 0.063377634
0.991904020 0.358633637 0.090449110
1.000000000 0.371663839 0.119418189
0.996204972 0.388741493 0.149020001
0.318405926 0.280834645 0.000000000
0.325237036 0.283491284 0.003795002
0.334345430 0.283238292 0.003542000
0.341809124 0.279569805 0.001265161
0.339531839 0.277672648 0.003922000
0.349398941 0.283744633 0.001644709
0.356483281 0.284756631 0.001391678
0.363693982 0.284882993 0.003922000
0.370525092 0.278810978 0.003922000
0.374319792 0.275395155 0.003921998
0.377988279 0.272865266 0.001012129
0.384060532 0.265907675 0.001138644
0.393548638 0.257937908 0.001138644
0.417330712 0.260721266 0.000885612
0.444149464 0.267173052 0.004300996
0.479316950 0.275142461 0.004174649
0.516888261 0.285009295 0.001518192
0.552687824 0.291081280 0.003289424
0.586084962 0.297153920 0.000253032
0.622264743 0.303225994 0.000000000
0.662112653 0.312334180 0.000000000
0.698544919 0.321441799 0.000000000
0.737887502 0.324984133 0.000000000
0.781404197 0.336116284 0.002024260
0.824667871 0.345983565 0.005060354
0.868058264 0.353067607 0.017457275
0.902466714 0.365211755 0.027071346
0.941935062 0.372548908 0.051992513
0.975711405 0.379759282 0.076660424
0.994560361 0.390512049 0.105249770
0.998861372 0.402656615 0.140417188
0.998861372 0.417583972 0.160404995
0.351550013 0.308918059 0.000000000
0.354838639 0.306135446 0.000253032
0.362175822 0.304744035 0.000000000
0.369766086 0.305756032 0.001012129
0.375711590 0.305503041 0.004174968
0.378747970 0.311575025 0.004174968
0.383808017 0.312587023 0.001391678
0.392030358 0.314231366 0.001391676
0.400379151 0.315496087 0.003668968
0.409487545 0.309424102 0.003668966
0.411132097 0.311574906 0.001265161
0.414927065 0.308539033 0.001771224
0.424161673 0.302719980 0.004428000
0.438836068 0.296647996 0.003668968
0.457052827 0.296647996 0.000632584
0.488425016 0.301201999 0.002150772
0.525616586 0.310057044 0.003668968
0.564326525 0.321189016 0.003289424
0.597723007 0.327261031 0.000253032
0.634408712 0.333586067 0.000000000
0.675521731 0.343200475 0.000000000
0.718279302 0.354079932 0.000000000
0.754965007 0.363314033 0.000000000
0.794560730 0.372548908 0.000000000
0.834282279 0.381910294 0.003542255
0.874130249 0.388488412 0.017204598
0.915876091 0.392536134 0.044529092
0.955344439 0.404680908 0.071853451
0.982542574 0.414421231 0.094876826
0.994180799 0.426059246 0.120177180
0.996331036 0.440607011 0.150537580
0.996331036 0.452751040 0.190006033
0.381909966 0.345350802 0.000000000
0.387981951 0.345350802 0.003036387
0.395572156 0.340417385 0.001138642
0.402150542 0.343200356 0.000000000
0.406198829 0.350537360 0.001391583
0.412144303 0.344971389 0.007210577
0.412650377 0.345983386 0.002150578
0.422138095 0.347628087 0.000000000
0.432258219 0.349905223 0.000632584
0.433776289 0.348893195 0.000632585
0.448703676 0.345730335 0.003542454
0.452624947 0.341935366 0.001265160
0.459708780 0.337001741 0.004048225
0.472232401 0.333079934 0.009740963
0.481340796 0.327007949 0.000632584
0.501960754 0.329411775 0.000000000
0.530929804 0.336116582 0.000632584
0.565085530 0.345857203 0.000632584
0.603794992 0.354585409 0.000253032
0.645540774 0.363440752 0.000000000
0.681087732 0.371916562 0.000000000
0.719038367 0.380645394 0.000000000
0.758001387 0.387602776 0.000000000
0.800506234 0.399746805 0.000000000
0.842378557 0.411258399 0.013661987
0.878684342 0.419987321 0.030107208
0.912586689 0.425427228 0.053636763
0.949272394 0.432005286 0.080961831
0.986084580 0.444149375 0.113599174
0.998735011 0.450348020 0.144465521
0.999367416 0.459456205 0.176596940
0.999367416 0.474003375 0.211258397
0.421884567 0.386590570 0.000000000
0.418342590 0.381783605 0.000632583
0.433017135 0.386084586 0.005819195
0.442884237 0.381024569 0.004806995
0.446679324 0.385199130 0.004047996
0.442631602 0.385199398 0.002024004
0.455660760 0.384187400 0.002783001
0.458950192 0.382542700 0.001644708
0.468817502 0.384819776 0.001644708
0.470461756 0.388108760 0.000000001
0.477798849 0.387602687 0.000506066
0.486907005 0.380518317 0.001518196
0.493738085 0.372928411 0.004553996
0.505376399 0.367109388 0.013915224
0.512333989 0.361037403 0.009108391
0.523845613 0.359772414 0.000000000
0.540543795 0.364326596 0.000000000
0.569386303 0.372549176 0.000632576
0.614167988 0.381656796 0.002403802
0.651612759 0.390765131 0.000000000
0.692220211 0.401770771 0.000000000
0.727640569 0.410373241 0.000000000
0.765717685 0.416572064 0.000632497
0.805945814 0.426438779 0.012017795
0.841619313 0.436306059 0.025679782
0.883744478 0.446932226 0.048070427
0.919164896 0.454522699 0.071346857
0.955597639 0.462491959 0.094876505
0.984819591 0.469070554 0.129917756
0.996457994 0.484756529 0.154459372
0.996963978 0.493611753 0.190891951
1.000000000 0.507273555 0.234914601
0.455281377 0.423023373 0.000000000
0.458317369 0.421505183 0.003035997
0.463377535 0.419481367 0.001265002
0.475269169 0.424288213 0.004807003
0.483870834 0.419354737 0.004807003
0.481593907 0.420114100 0.001012001
0.485135853 0.423656166 0.000000000
0.498418599 0.422011465 0.000126516
0.503732085 0.420493275 0.003162904
0.506767690 0.425806373 0.001644708
0.512713194 0.424541175 0.001518192
0.521821558 0.423023105 0.000000000
0.529031932 0.416191995 0.000000000
0.540037990 0.408349335 0.009614006
0.544845164 0.403542191 0.007843234
0.554206312 0.399241179 0.007590197
0.566350400 0.396205187 0.000000000
0.581024528 0.401012182 0.000000001
0.622517407 0.407463402 0.002150775
0.659961700 0.418089539 0.002656835
0.695256233 0.429095566 0.003035997
0.734725118 0.440227449 0.005059995
0.771916151 0.447059005 0.006957483
0.812776744 0.457558662 0.024920899
0.847691298 0.465148658 0.043896168
0.883870959 0.472865373 0.062112503
0.923719227 0.482353181 0.090069443
0.957115829 0.492472917 0.115369804
0.987096608 0.500442803 0.143832594
0.997975826 0.506008923 0.177229583
0.993674815 0.523339629 0.198102757
0.998481810 0.536116183 0.247059003
0.483997524 0.455914110 0.000632577
0.495509088 0.458949715 0.004807009
0.502087116 0.457684875 0.003542000
0.506894290 0.457811534 0.000000000
0.510689557 0.459708691 0.000379548
0.519797146 0.456420034 0.000632576
0.521947682 0.460341543 0.001264991
0.527260900 0.461479992 0.001264990
0.537760973 0.459961653 0.000759095
0.540796638 0.462998033 0.003795483
0.547374725 0.462112218 0.003289424
0.556862652 0.461100101 0.002530320
0.568501055 0.459329188 0.000000001
0.577355683 0.456040531 0.000000000
0.580771506 0.452624679 0.000000000
0.587349892 0.447817683 0.003542004
0.597976089 0.441113114 0.005439579
0.608855128 0.435041130 0.000000006
0.633143961 0.435041159 0.000000009
0.665401578 0.444275558 0.002150787
0.701201618 0.455787420 0.007084256
0.736622691 0.467552423 0.014294554
0.775838017 0.476660043 0.020493060
0.816824794 0.488298774 0.039721485
0.851865888 0.495888948 0.060973853
0.888677955 0.502593517 0.082732305
0.926629007 0.509171605 0.101961106
0.954079807 0.521189153 0.134977981
0.982795537 0.530676782 0.160404518
0.996710598 0.536875308 0.190638572
0.996710598 0.542188168 0.222897157
0.996710598 0.557368577 0.250221580
0.529538035 0.498418987 0.003668972
0.538646400 0.501454592 0.000632585
0.541556001 0.500189781 0.000506001
0.543327153 0.500949025 0.000000000
0.547122419 0.505249977 0.000379548
0.556230009 0.499177963 0.003415932
0.560278296 0.500948668 0.006198641
0.564705968 0.500948727 0.007336996
0.571283996 0.499430865 0.006578092
0.577229500 0.502466559 0.003795481
0.586084843 0.508412004 0.001012129
0.594940245 0.509676993 0.002277286
0.605439961 0.507399976 0.002530323
0.616824925 0.501581013 0.000000003
0.622896969 0.495509058 0.000000000
0.626312792 0.492093801 0.000000000
0.634408951 0.485768795 0.002024191
0.645287991 0.477546006 0.003036395
0.651359975 0.471474022 0.000000035
0.672865391 0.474256635 0.000000035
0.706767738 0.481846750 0.007843067
0.745730460 0.492220074 0.022264168
0.784946442 0.503984571 0.041745514
0.818342924 0.513092935 0.050853923
0.850221574 0.520177066 0.070082299
0.886401236 0.527640700 0.094117649
0.926629007 0.536496103 0.120177172
0.956988990 0.545604467 0.144465938
0.981783628 0.554965138 0.169512972
0.995951951 0.562302053 0.200885355
0.999746978 0.569006622 0.235294253
0.999746978 0.578621030 0.265402049
0.575079083 0.546489775 0.006704647
0.575838089 0.546742737 0.003668970
0.580644965 0.547628105 0.000632583
0.582542539 0.547754586 0.000000000
0.585199416 0.551549375 0.000000000
0.587096810 0.550284386 0.000632579
0.596205056 0.549272418 0.003668965
0.607969761 0.552055478 0.003415644
0.620113730 0.552055717 0.002276996
0.630233705 0.553067625 0.001265126
0.636433005 0.553447068 0.001012129
0.645540893 0.557495296 0.000000000
0.654649019 0.559392810 0.002277287
0.664136767 0.558254123 0.002530325
0.665148795 0.552182138 0.000000001
0.680834770 0.543706298 0.000000000
0.688804626 0.539911568 0.000000000
0.697786331 0.534598529 0.003036215
0.701708138 0.530676723 0.008602417
0.713346064 0.524604738 0.027830731
0.734598517 0.525743127 0.043010715
0.767742038 0.533206761 0.058696993
0.805186808 0.545224249 0.074510060
0.838583291 0.554332674 0.091587648
0.871979594 0.561163783 0.109804019
0.905629277 0.567235768 0.133839369
0.942315102 0.573940456 0.160657853
0.968121707 0.578494847 0.184946626
0.987855673 0.590259373 0.211891532
0.997722983 0.601264656 0.243390426
1.000000000 0.611131966 0.282479644
1.000000000 0.622138083 0.322327763
0.614927471 0.593168736 0.004048004
0.616824687 0.591271460 0.002909647
0.620872736 0.596964180 0.001771226
0.621378660 0.595699012 0.000000000
0.625047505 0.596710622 0.000000000
0.634155452 0.595192492 0.000000000
0.636053026 0.598987937 0.004427578
0.648450434 0.597343206 0.005819256
0.661859453 0.600632489 0.003036094
0.669449449 0.602909446 0.001897740
0.677672446 0.601012170 0.001897740
0.685768485 0.604933679 0.001897740
0.696015000 0.605692804 0.000759096
0.706135452 0.606957495 0.002024260
0.712713480 0.604174435 0.000632584
0.713851750 0.595698655 0.000000000
0.729032159 0.589626610 0.006071994
0.739152431 0.586590886 0.009487567
0.745983660 0.583554506 0.018595992
0.753573716 0.579633236 0.046426356
0.765717745 0.571663499 0.061986461
0.785958230 0.572675645 0.084250465
0.816951454 0.581783652 0.099051453
0.850347936 0.587349653 0.126122728
0.883744299 0.590385735 0.142820999
