Assets/Resources/EldamarStudio/100 Horror LUTs Pack/LUTs/cube/Eyes LUT.cube
DOMAIN_MIN 0 0 0
DOMAIN_MAX 1 1 1
LUT_3D_SIZE 32
0.109803997 0.101961002 0.054901998
0.106767610 0.098924614 0.048829999
0.112333775 0.100189775 0.051360000
0.123972163 0.103225842 0.057431996
0.139532000 0.105881996 0.062744997
0.157747999 0.105881996 0.062744997
0.175964639 0.105881996 0.062744997
0.195825696 0.104237713 0.061100710
0.217078105 0.102719903 0.059582900
0.238330498 0.105755515 0.062618509
0.271220863 0.102972873 0.054016128
0.304617256 0.103984736 0.055028513
0.339152277 0.104743645 0.056546710
0.375332028 0.102213971 0.051233035
0.408728391 0.105249576 0.054269414
0.446932405 0.105881996 0.050095003
0.489437163 0.107400186 0.050094996
0.535610080 0.110436410 0.054269422
0.584187031 0.113472022 0.051233023
0.629981101 0.110942349 0.042631350
0.675521731 0.109803997 0.037318259
0.722074270 0.110815868 0.037317999
0.770271480 0.113978021 0.043136999
0.809740722 0.120050810 0.043136999
0.851486564 0.123845704 0.047690995
0.891208291 0.129664660 0.049588684
0.927135050 0.138773069 0.049082998
0.960531414 0.147881448 0.061226986
0.985957980 0.164958954 0.078684635
0.996078014 0.184946164 0.098671705
0.995192647 0.208855182 0.125236779
0.992156982 0.239216000 0.164706007
0.112839609 0.101961002 0.045793612
0.106767610 0.098924614 0.048829999
0.114484549 0.102339998 0.053510774
0.129538551 0.103731766 0.056673225
0.147501841 0.103605390 0.058570541
0.157747999 0.108918384 0.071853384
0.175964639 0.106388062 0.064263061
0.197469980 0.107526705 0.064389706
0.219354808 0.107273906 0.063377999
0.238330498 0.105755515 0.059582904
0.271220863 0.108791865 0.059709385
0.302593499 0.110056743 0.053004261
0.336116374 0.110815644 0.053889871
0.372548670 0.108033001 0.054269418
0.408728391 0.108285964 0.057305802
0.444528610 0.111321576 0.053130779
0.486401170 0.113472186 0.050094616
0.531941891 0.116508573 0.051865615
0.578115046 0.119544812 0.051233023
0.626691759 0.122580417 0.042631350
0.672485769 0.123845734 0.039216001
0.718026459 0.123972252 0.037318259
0.764452517 0.123339370 0.037444502
0.809740722 0.135230422 0.046173386
0.851486564 0.136748612 0.043896098
0.891208291 0.140417337 0.044907998
0.926123023 0.148387387 0.045540676
0.954459429 0.160025448 0.055154987
0.987855792 0.169133812 0.077925622
0.995572388 0.187982559 0.093358964
0.994813323 0.209234983 0.116128944
0.998228967 0.233144000 0.155597612
0.122327544 0.110563003 0.051739547
0.122706771 0.105376385 0.050474387
0.116634771 0.106641002 0.051360000
0.130044386 0.107652999 0.057938386
0.148007780 0.105629317 0.057432223
0.157115847 0.115243778 0.065528154
0.175964639 0.111574680 0.064769454
0.199114695 0.111827709 0.060594771
0.222390771 0.114105001 0.062365998
0.240607202 0.112460293 0.059076998
0.269070089 0.117393866 0.058823999
0.298418492 0.118405998 0.052751746
0.330929726 0.119038418 0.049968131
0.367362052 0.116761774 0.053257287
0.403794795 0.120556772 0.058191415
0.446679384 0.118658960 0.054016393
0.484629959 0.123212770 0.050980002
0.530170918 0.126881570 0.049715012
0.578747809 0.129917979 0.046678998
0.624920726 0.135104418 0.046932351
0.669702470 0.136242777 0.039722007
0.713978469 0.138014004 0.038203873
0.758507013 0.136495769 0.035673503
0.806071937 0.144591779 0.044781905
0.847185552 0.149778545 0.044781711
0.886906922 0.152561530 0.045919988
0.923845649 0.159140065 0.049462125
0.957748413 0.169639766 0.060215216
0.983933985 0.181277826 0.076154627
0.997849226 0.199240923 0.100442924
0.994307220 0.220872805 0.121189177
0.997849226 0.242125213 0.159392774
0.131941989 0.122706994 0.057558838
0.133712783 0.116634995 0.054522451
0.136622325 0.117014550 0.051106837
0.135610312 0.116255321 0.057431996
0.149652168 0.112080768 0.059329838
0.157874927 0.123339705 0.059709065
0.177103311 0.122833520 0.060215320
0.197849527 0.120429702 0.058823999
0.224415019 0.123466089 0.058064904
0.243643180 0.123972163 0.057558838
0.268058032 0.127261162 0.058823999
0.296647251 0.129285157 0.055281743
0.326248914 0.130423516 0.050727639
0.362808198 0.127893835 0.053004261
0.400252789 0.131941825 0.055028509
0.442631215 0.134598508 0.054016393
0.485136002 0.136116311 0.052245162
0.526502132 0.140923321 0.050980173
0.577482998 0.143327132 0.044908162
0.626059353 0.147881016 0.045920357
0.669702470 0.151423156 0.045794003
0.713219345 0.152435020 0.040733870
0.755977154 0.152687997 0.037697516
0.802276969 0.156483009 0.042251907
0.845287800 0.161543444 0.046046872
0.882100046 0.165971145 0.043389987
0.918532252 0.171537101 0.049968064
0.957242310 0.179127276 0.061353728
0.984693110 0.192156971 0.077419482
0.997343183 0.210120082 0.097912923
0.997343183 0.232637361 0.124857567
0.997343183 0.253510326 0.160910845
0.138772994 0.135230541 0.053763453
0.139911547 0.129158542 0.052624710
0.145604223 0.129917771 0.047817547
0.153067991 0.128779456 0.048323613
0.158381015 0.123466447 0.061606452
0.164453000 0.132574067 0.055534452
0.182416320 0.134092003 0.058191318
0.202023983 0.134471551 0.059582997
0.221378639 0.134851098 0.058444452
0.245667443 0.137887493 0.055408064
0.267046332 0.138014004 0.057432324
0.294370532 0.138772994 0.056420196
0.325869381 0.139911458 0.055281546
0.359519511 0.142694101 0.058570966
0.398861378 0.142694101 0.053004265
0.439974576 0.148260608 0.050221004
0.481720179 0.153573990 0.052118644
0.522706687 0.158760548 0.053637009
0.571284354 0.158760548 0.047564998
0.621884882 0.161543190 0.047059000
0.667425454 0.164579287 0.045920454
0.711321771 0.167994961 0.044908423
0.756862879 0.171030566 0.041998550
0.799620748 0.171283543 0.039215904
0.842504978 0.175458565 0.043390449
0.881973624 0.181910530 0.045287877
0.915496528 0.187856033 0.045034610
0.951929271 0.190891638 0.054142989
0.980771780 0.204174355 0.071220510
0.994939983 0.220999166 0.091460831
1.000000000 0.241366208 0.118026562
1.000000000 0.259582996 0.151423007
0.150916994 0.150410935 0.044655066
0.160025388 0.144338936 0.056799844
0.163314164 0.146868929 0.055661097
0.167362228 0.146109834 0.052118771
0.170524999 0.138646066 0.052498065
0.170524999 0.138646066 0.052498069
0.184187323 0.140164003 0.061606709
0.202023983 0.141808718 0.065655001
0.220999092 0.143579930 0.064136997
0.242631048 0.143959492 0.058444444
0.264009923 0.144086003 0.055408061
0.291334569 0.148134008 0.053383809
0.322833568 0.152055651 0.051486067
0.356483132 0.154838875 0.052498192
0.392915875 0.154838875 0.058570959
0.429854602 0.164452866 0.048197269
0.471853167 0.169512987 0.047185000
0.516381681 0.171157569 0.050853651
0.562176049 0.173940927 0.047564998
0.607969463 0.176723570 0.047059000
0.650727272 0.179759666 0.041366264
0.693738282 0.183807924 0.035800196
0.741682529 0.189247355 0.032890938
0.787223041 0.192282975 0.032890938
0.832257986 0.194813222 0.039215706
0.875901341 0.201138660 0.042251747
0.915370047 0.209234938 0.042251997
0.948892891 0.215180397 0.057179376
0.980012655 0.226185828 0.074256897
0.992156982 0.235293910 0.088930897
0.994939983 0.247438207 0.108412243
1.000000000 0.265655011 0.139279008
0.178241640 0.170651317 0.048197001
0.179759711 0.169639319 0.055281773
0.186717317 0.167868316 0.060974225
0.188867643 0.168121323 0.058697160
0.190638870 0.161037087 0.055661097
0.192789644 0.158886313 0.053510323
0.197849646 0.158886313 0.056040645
0.211385310 0.157242030 0.063251294
0.228589416 0.159266323 0.064895771
0.249841809 0.162808314 0.064136989
0.268563867 0.165338635 0.055914126
0.297912747 0.165338635 0.058949992
0.332194954 0.169259995 0.056293324
0.368374348 0.172548994 0.053257290
0.402529806 0.177102998 0.052498188
0.438962609 0.181909993 0.053763356
0.476913184 0.190765381 0.046679195
0.521062255 0.192789644 0.048450325
0.568501294 0.193928286 0.047311973
0.621632040 0.196963966 0.049588677
0.665275097 0.205692306 0.043896422
0.706388593 0.209613994 0.036812194
0.751802742 0.212650016 0.033902679
0.797343254 0.218090057 0.033902679
0.842884183 0.221125662 0.038456675
0.888424933 0.225553304 0.048703335
0.929538012 0.232511058 0.053890318
0.958886385 0.236559317 0.067046434
0.984566629 0.247944281 0.082353279
0.997217000 0.263630718 0.105882458
0.997217000 0.277166307 0.129791200
1.000000000 0.297026992 0.165085316
0.190512285 0.183680996 0.052624710
0.198734999 0.183680996 0.058697060
0.201391697 0.186969995 0.059329938
0.211258858 0.188235164 0.061100710
0.211638302 0.183681145 0.057685453
0.208349228 0.180644751 0.052119069
0.217204705 0.178494409 0.054142904
0.221631989 0.175205410 0.058823999
0.233776003 0.172928706 0.062618703
0.252371788 0.177229688 0.066540472
0.274003685 0.178747863 0.061227124
0.300695747 0.179759994 0.057305705
0.334092647 0.184313998 0.061100710
0.371790081 0.189373732 0.056293674
0.403795093 0.196837410 0.053257294
0.439594895 0.204553694 0.049335711
0.482099652 0.210626081 0.047817517
0.523212671 0.216066122 0.046679281
0.570778191 0.217078000 0.048703291
0.621632040 0.221505344 0.048197359
0.673624456 0.226944685 0.045287747
0.718153238 0.236052826 0.036179874
0.761796474 0.236811921 0.032131515
0.804300904 0.241366506 0.033649713
0.849841833 0.246806115 0.041492704
0.892599583 0.252624720 0.048956368
0.934598029 0.258949816 0.060847998
0.961922407 0.263124853 0.072991990
0.989879608 0.270841390 0.087792806
0.998355269 0.281593680 0.106768154
0.999240875 0.299810469 0.141176537
1.000000000 0.320303410 0.183680996
0.195066094 0.195825189 0.054901998
0.208728492 0.196584284 0.060215097
0.216065779 0.198608190 0.059076581
0.219608158 0.203415364 0.055787809
0.234408990 0.204933643 0.056546807
0.225300312 0.201138258 0.049335971
0.229601547 0.198102325 0.050347771
0.235294372 0.194940001 0.055028319
0.239848197 0.188109100 0.060341999
0.251992196 0.188109100 0.066413999
0.275015831 0.188868001 0.065275125
0.303352416 0.190385997 0.061480161
0.334851563 0.192663088 0.060341995
0.367742032 0.204301089 0.060088962
0.397596806 0.212903410 0.057052579
0.435041070 0.222770289 0.051613003
0.475268364 0.230360284 0.045540806
0.524477661 0.238330469 0.044401988
0.570271969 0.241872147 0.050473999
0.617836833 0.247691110 0.048197351
0.668311059 0.253004193 0.041746005
0.716635227 0.258823216 0.036938969
0.765085459 0.261859596 0.028336573
0.805818915 0.264896005 0.031372808
0.848323822 0.269449979 0.039721899
0.891840696 0.276154399 0.051233660
0.931309223 0.285262167 0.061859999
0.959645510 0.291587919 0.074509986
0.987349629 0.297659993 0.090069711
0.997469902 0.306261808 0.111069158
0.996963620 0.319544286 0.138899624
1.000000000 0.337761104 0.190512091
0.222390503 0.226185963 0.054901991
0.231498897 0.229222357 0.057938382
0.238709494 0.227830693 0.054648936
0.240860179 0.227704152 0.048703037
0.240481004 0.229222432 0.044402033
0.252625018 0.220114052 0.050474036
0.251106679 0.216318652 0.053383835
0.248703256 0.214927003 0.058064476
0.248956591 0.212397113 0.063377604
0.258064955 0.203289509 0.066413991
0.278937846 0.206198633 0.069576122
0.306388468 0.211131990 0.066286996
0.337887168 0.215812638 0.063757159
0.370777637 0.219481498 0.066160962
0.398102731 0.225553498 0.063124575
0.439974785 0.236559004 0.057685003
0.482099682 0.245540500 0.050094813
0.524477661 0.253510088 0.044401988
0.576090991 0.268690497 0.050473992
0.621885061 0.275015503 0.048197344
0.671347201 0.279190242 0.039469004
0.718911886 0.283365011 0.031625997
0.759013474 0.289184004 0.031372961
0.804553926 0.292220414 0.034408581
0.845287800 0.295256227 0.039721511
0.886401296 0.299810022 0.048829846
0.928273559 0.306514591 0.061859995
0.967741907 0.315622956 0.080075987
0.990765274 0.321948022 0.098038964
0.996457994 0.331561983 0.123212881
0.994054437 0.347121686 0.156736165
1.000000000 0.371157467 0.199620485
0.235167742 0.236179873 0.046173129
0.247185260 0.242125377 0.055028513
0.258443892 0.243010998 0.053763352
0.266033858 0.243263707 0.049715161
0.267172545 0.246299669 0.046805870
0.261606872 0.247311935 0.052877869
0.276281178 0.240733862 0.048829872
0.278810889 0.237318024 0.052371994
0.279063880 0.235293970 0.059203088
0.281720489 0.230487362 0.066540480
0.287918985 0.224288866 0.063757129
0.309171379 0.223276481 0.066793256
0.336875290 0.228968874 0.063377872
0.368753940 0.237824038 0.060088970
0.404048234 0.246552870 0.051739585
0.440986782 0.255028665 0.058317799
0.487033367 0.268184930 0.051739492
0.531308949 0.277799010 0.043136999
0.576090991 0.283870846 0.044654991
0.627704144 0.290701866 0.036812350
0.669702709 0.300568849 0.033523262
0.714231253 0.305629015 0.027451001
0.755724132 0.308158994 0.025932763
0.798481941 0.319544792 0.034535099
0.841745555 0.322580576 0.039847996
0.883238435 0.325616539 0.047311660
0.924225211 0.330676824 0.059962250
0.958886564 0.339785188 0.082985841
0.990385771 0.348892897 0.103857987
0.998228788 0.353447080 0.125869378
0.995951712 0.363946736 0.156609550
1.000000000 0.384186983 0.197090134
0.259455979 0.263504505 0.041113261
0.273624241 0.267552227 0.050221130
0.275648504 0.267299503 0.050727483
0.285262525 0.267299503 0.046426263
0.291713953 0.269576192 0.044529006
0.292472899 0.272612184 0.053889997
0.295509309 0.270082504 0.047817744
0.304111689 0.265654802 0.045034744
0.307147413 0.262618423 0.050347745
0.308412254 0.259582460 0.058190975
0.316255510 0.253636986 0.061733391
0.324351758 0.247564971 0.064769253
0.345604151 0.247944236 0.065528356
0.373814255 0.257811248 0.060847737
0.410246521 0.265148401 0.057052579
0.449083030 0.276281029 0.054269798
0.491587430 0.286907226 0.054269809
0.538393080 0.299051404 0.042631272
0.580897987 0.302087039 0.037065260
0.623656154 0.311954528 0.036812086
0.667678714 0.316128761 0.029601745
0.707147121 0.326881379 0.028463127
0.748892725 0.330170482 0.027703993
0.795193076 0.338519812 0.033016905
0.837697864 0.347881228 0.039847996
0.878810883 0.352308482 0.051486321
0.919671118 0.355977327 0.064516313
0.954585671 0.362049699 0.087286867
0.985325396 0.369133651 0.104870118
0.999746978 0.376470476 0.126122162
0.998102248 0.383301824 0.151043534
1.000000000 0.400379509 0.185958266
0.288677633 0.296521634 0.038077358
0.298165381 0.296141595 0.042631269
0.303858399 0.298292398 0.044275779
0.306894630 0.296521634 0.043390360
0.312587082 0.296901077 0.038077358
0.320176721 0.299936712 0.047185358
0.326501966 0.300189972 0.043896329
0.329538345 0.298292577 0.037444361
0.335610718 0.296774179 0.037444364
0.340164453 0.294496775 0.042757370
0.347881138 0.286274284 0.053384099
0.355850875 0.280202270 0.057179354
0.363820642 0.275268644 0.063251361
0.385073036 0.281340659 0.060467999
0.417077631 0.287412643 0.060467999
0.455913752 0.297153592 0.059203163
0.498418808 0.310436606 0.053131167
0.543326735 0.321948200 0.043390375
0.585831642 0.325995982 0.031246359
0.628969073 0.333965719 0.034155648
0.670714676 0.344971538 0.030360358
0.713219464 0.349019259 0.028336611
0.753067434 0.358001143 0.031752475
0.798608601 0.365085274 0.036812097
0.840354502 0.371157557 0.045540635
0.881467640 0.380012631 0.057178959
0.919418156 0.386084646 0.074889570
0.954585850 0.389753431 0.094876781
0.983427942 0.396584630 0.116508409
0.997849226 0.404933602 0.137507439
1.000000000 0.412776828 0.165844053
1.000000000 0.427704275 0.194687277
0.317014098 0.324352026 0.033776000
0.317014098 0.319544345 0.031499356
0.321568608 0.321315587 0.029854938
0.329412013 0.325111061 0.031878807
0.341176510 0.324731469 0.033776000
0.344212145 0.327767104 0.033776000
0.351549357 0.331562400 0.032005291
0.358886749 0.332195044 0.027324619
0.363947123 0.332953990 0.023023002
0.379127532 0.335989594 0.023023011
0.385579050 0.324984044 0.038456678
0.391904056 0.317394018 0.045287970
0.397470057 0.312207431 0.047564968
0.403795093 0.308918089 0.054142967
0.425047457 0.314990073 0.054142967
0.459202856 0.322959840 0.054396000
0.501707554 0.334851205 0.049841810
0.547122121 0.349272579 0.041366048
0.589627028 0.358380973 0.029222036
0.637444735 0.361922652 0.032257974
0.683870733 0.372042745 0.030360296
0.729664445 0.384440035 0.026059255
0.777862489 0.390638560 0.032384984
0.817330897 0.399746954 0.041619129
0.854775548 0.404807299 0.055028275
0.892599583 0.410373330 0.072106317
0.930803120 0.418975115 0.090322994
0.961163819 0.425047100 0.105502591
0.986211002 0.433522880 0.132953614
0.997596204 0.444148988 0.161543146
1.000000000 0.456040233 0.193168774
1.000000000 0.468185008 0.238710001
0.356483221 0.357748389 0.015560018
0.356483221 0.366856784 0.021632018
0.362935007 0.364199877 0.015053816
0.368880630 0.365591556 0.016698178
0.374952376 0.366856694 0.024288138
0.386716872 0.361163467 0.015560018
0.387222797 0.371790022 0.020620016
0.400632083 0.370525092 0.018216593
0.413535446 0.366350472 0.014421331
0.418595880 0.369386762 0.016951006
0.425047398 0.363693506 0.011132010
0.433143646 0.360404402 0.020240445
0.438203812 0.356862366 0.026312601
0.440227836 0.351422787 0.032890599
0.449336201 0.345350832 0.045034587
0.470588595 0.349019617 0.047438391
0.507780015 0.357874781 0.043769814
0.553953111 0.371283948 0.037191577
0.601770997 0.385705352 0.038330398
0.647059083 0.389247030 0.026185695
0.691334903 0.396078140 0.031119326
0.733459949 0.406451523 0.034408540
0.774826050 0.414927304 0.038456976
0.814294517 0.424035698 0.050600998
0.853763402 0.433143497 0.062112398
0.892599583 0.439594954 0.080455311
0.931056082 0.446299523 0.102973044
0.964199424 0.452372223 0.123719350
0.989247203 0.458444208 0.141555786
0.997596204 0.466919541 0.167615145
0.997596204 0.476659983 0.196710780
1.000000000 0.486400962 0.232638001
0.395951778 0.400758773 0.004554200
0.398355573 0.405060172 0.010626199
0.404807359 0.409867555 0.008096201
0.412650585 0.409867227 0.006831165
0.416445374 0.411385238 0.015180266
0.420493394 0.403288692 0.006072137
0.434535205 0.405186445 0.007211009
0.434535205 0.410752803 0.008349301
0.448197395 0.406198591 0.004554200
0.456167102 0.407590270 0.005945524
0.462112606 0.406704664 0.005060006
0.466160864 0.402656138 0.003036004
0.474509925 0.397722572 0.007590205
0.478810787 0.389626592 0.011638209
0.485768378 0.387855589 0.023782197
0.499683768 0.386590570 0.040733807
0.517900169 0.385072768 0.043769807
0.555218101 0.392536342 0.037571013
0.603794992 0.407716781 0.031752165
0.649589062 0.418975234 0.035294082
0.698924720 0.425806344 0.030739799
0.740923464 0.433902591 0.036306128
0.778873980 0.441492766 0.039848499
0.816065729 0.448323876 0.054269806
0.855534077 0.457432270 0.066413797
0.893611491 0.466540247 0.084123760
0.930044055 0.473624378 0.107906245
0.959645391 0.479696691 0.129158616
0.989879608 0.483364969 0.157368749
1.000000000 0.496521384 0.186211139
0.998481810 0.506641388 0.219860747
1.000000000 0.514231563 0.257811785
0.430866390 0.444781363 0.000000000
0.438456565 0.446299583 0.003036003
0.444275767 0.447817773 0.003542000
0.450854152 0.452119321 0.000000000
0.456673175 0.454649031 0.007210811
0.458950162 0.447817624 0.001518066
0.468564510 0.445793509 0.001012130
0.478558183 0.447185189 0.002277292
0.480076194 0.447185189 0.000000000
0.490702182 0.447185189 0.000000000
0.500063181 0.447185189 0.000000000
0.511701643 0.446679115 0.001518192
0.514737725 0.443643004 0.001518192
0.522580385 0.433143556 0.001518192
0.527387619 0.430613548 0.008602185
0.537634373 0.429095358 0.016445417
0.554332554 0.424541175 0.033143621
0.570777953 0.418469191 0.036179390
0.611385167 0.427450985 0.028463006
0.649589062 0.444402188 0.033017006
0.695888698 0.456167132 0.036812194
0.743453383 0.464263380 0.040860187
0.780771673 0.470208853 0.045793977
0.821378827 0.474889189 0.059582710
0.855534434 0.481720299 0.074003987
0.893611491 0.489436984 0.093105622
0.930044174 0.498924911 0.116508305
0.960404396 0.507021189 0.136748806
0.982795417 0.511954546 0.162934601
1.000000000 0.517773390 0.198355541
0.998229027 0.535104632 0.233902752
0.996963978 0.543074191 0.274509996
0.465022087 0.487286091 0.000000001
0.475901097 0.487286091 0.000000000
0.484376669 0.488551080 0.000632576
0.487286270 0.489816278 0.000000000
0.491461128 0.494750500 0.000000000
0.498039097 0.491714180 0.000000000
0.506008863 0.489310354 0.000632576
0.513472497 0.487918675 0.000632576
0.520177126 0.487918675 0.000000000
0.526249111 0.487918675 0.000000000
0.538140118 0.487286091 0.000632576
0.553067625 0.488551080 0.003289246
0.566224039 0.486780137 0.003922000
0.570271730 0.483744562 0.003668968
0.574826121 0.478052109 0.003289424
0.580771923 0.473750889 0.003289424
0.591904104 0.467678517 0.008349401
0.608222544 0.457937717 0.021631600
0.629474998 0.451865733 0.024667997
0.657179117 0.467045933 0.032384597
0.695129693 0.481973469 0.038456738
0.738646388 0.492726535 0.043896578
0.778115511 0.498925030 0.056040566
0.822643936 0.502972662 0.068184584
0.858064532 0.507653177 0.083870858
0.891208291 0.514990151 0.104617208
0.927135050 0.520556152 0.131435558
0.963440537 0.532321393 0.149905279
0.983807385 0.540417492 0.175964504
0.993548214 0.546489537 0.207210541
0.999494016 0.553953171 0.244908541
0.993421972 0.569133580 0.278304964
0.513599038 0.529790998 0.000000007
0.519670963 0.529790998 0.000000001
0.528399765 0.534092009 0.002150772
0.530929923 0.537128031 0.002403805
0.527893960 0.537254632 0.000000000
0.540037990 0.534219027 0.000000000
0.546616018 0.533712983 0.002530320
0.552941024 0.533459961 0.003668965
0.559772074 0.533459961 0.002909869
0.568753958 0.533459961 0.000000000
0.580645025 0.530550063 0.002909867
0.592789531 0.533838987 0.007716957
0.603163004 0.534851015 0.008981995
0.609741032 0.529285073 0.003668965
0.624921381 0.526249409 0.000632583
0.627071977 0.520556986 0.000253032
0.630867004 0.513219774 0.001771223
0.638583422 0.503479004 0.006451963
0.647691011 0.491334975 0.012524010
0.668943405 0.493611604 0.026692390
0.700442553 0.501960754 0.039215986
0.738646448 0.511322200 0.049589153
0.778115571 0.520177484 0.059076995
0.817583978 0.529285073 0.071221031
0.855281591 0.533333302 0.090196297
0.891208351 0.540796995 0.113725655
0.927135050 0.550917029 0.140544012
0.960531414 0.553953409 0.164831996
0.988867760 0.565717995 0.199240685
0.999240994 0.573814034 0.231119379
1.000000000 0.580771625 0.263124615
0.999494016 0.590386033 0.296521038
0.564959109 0.583428442 0.005566004
0.562681794 0.580645144 0.000000002
0.568753779 0.580645144 0.000000000
0.575964391 0.582922101 0.001138643
0.577482462 0.582922101 0.000000000
0.584820092 0.582289696 0.000000000
0.594433784 0.584314108 0.000000000
0.602403462 0.582922399 0.001138643
0.611891210 0.582542837 0.001138643
0.625047624 0.584567130 0.000126516
0.637065113 0.587223232 0.000126514
0.645161092 0.586211085 0.001138643
0.653510332 0.590765119 0.003415639
0.660088480 0.591018140 0.001138643
0.672739208 0.582922518 0.000632583
0.685515761 0.577482462 0.000000000
0.691587925 0.571410418 0.000000000
0.697660089 0.563567400 0.004301208
0.700316489 0.553574085 0.016825039
0.717773497 0.549778759 0.045161735
0.731435835 0.549019396 0.058444362
0.762934864 0.554585516 0.075648487
0.805692554 0.563440919 0.095888868
0.839848697 0.567236185 0.116002738
0.879317045 0.576343775 0.134978026
0.913472652 0.580392063 0.156230390
0.945098341 0.587349713 0.180265725
0.971663415 0.592662811 0.204553723
0.989120841 0.598355353 0.239468366
0.996457994 0.610246837 0.274129868
0.995319366 0.619228482 0.309044540
0.997216642 0.628336370 0.348133743
0.614674449 0.628589690 0.004048004
0.609740794 0.621758342 0.001771000
0.611258447 0.632258177 0.000000000
0.617330432 0.629728198 0.000000000
0.623782039 0.628463209 0.000000000
0.631372571 0.628463209 0.000000000
0.636179924 0.627198040 0.000000000
0.643643200 0.631878674 0.003288997
0.653257430 0.630360484 0.002276998
0.667299211 0.632258177 0.000000000
0.675774753 0.635294318 0.000000000
0.685768425 0.636306167 0.001897740
0.692979097 0.636306167 0.000759096
0.700822234 0.640354216 0.000000000
0.716255546 0.636179924 0.000000000
0.724604726 0.629475296 0.000000000
0.735230923 0.621884704 0.007590186
0.745604277 0.615433216 0.013915289
0.751929462 0.607590377 0.031625733
0.762934744 0.604048073 0.058823720
0.775458455 0.595319450 0.079696722
0.785578728 0.591271222 0.091840729
0.820619524 0.595951915 0.114484482
0.850474715 0.602529943 0.135736898
0.884630263 0.608222902 0.156989276
