Assets/Resources/EldamarStudio/100 Horror LUTs Pack/LUTs/cube/Eyes LUT.cube
LUT_3D_SIZE 8
DOMAIN_MIN 0.000000 0.000000 0.000000
DOMAIN_MAX 0.903226 0.903226 0.903226
0.109803997 0.101961002 0.054901998
0.139532000 0.105881996 0.062744997
0.217078105 0.102719903 0.059582900
0.339152277 0.104743645 0.056546710
0.489437163 0.107400186 0.050094996
0.675521731 0.109803997 0.037318259
0.851486564 0.123845704 0.047690995
0.985957980 0.164958954 0.078684635
0.138772994 0.135230541 0.053763453
0.158381015 0.123466447 0.061606452
0.221378639 0.134851098 0.058444452
0.325869381 0.139911458 0.055281546
0.481720179 0.153573990 0.052118644
0.667425454 0.164579287 0.045920454
0.842504978 0.175458565 0.043390449
0.980771780 0.204174355 0.071220510
0.195066094 0.195825189 0.054901998
0.234408990 0.204933643 0.056546807
0.239848197 0.188109100 0.060341999
0.334851563 0.192663088 0.060341995
0.475268364 0.230360284 0.045540806
0.668311059 0.253004193 0.041746005
0.848323822 0.269449979 0.039721899
0.987349629 0.297659993 0.090069711
0.288677633 0.296521634 0.038077358
0.312587082 0.296901077 0.038077358
0.335610718 0.296774179 0.037444364
0.363820642 0.275268644 0.063251361
0.498418808 0.310436606 0.053131167
0.670714676 0.344971538 0.030360358
0.840354502 0.371157557 0.045540635
0.983427942 0.396584630 0.116508409
0.430866390 0.444781363 0.000000000
0.456673175 0.454649031 0.007210811
0.480076194 0.447185189 0.000000000
0.514737725 0.443643004 0.001518192
0.554332554 0.424541175 0.033143621
0.695888698 0.456167132 0.036812194
0.855534434 0.481720299 0.074003987
0.982795417 0.511954546 0.162934601
0.614674449 0.628589690 0.004048004
0.623782039 0.628463209 0.000000000
0.653257430 0.630360484 0.002276998
0.692979097 0.636306167 0.000759096
0.735230923 0.621884704 0.007590186
0.775458455 0.595319450 0.079696722
0.884630263 0.608222902 0.156989276
0.993674815 0.630233705 0.264895320
0.754459262 0.782542825 0.135104537
0.760784566 0.781656861 0.150158271
0.788994372 0.786590695 0.157621831
0.829474926 0.786970198 0.173434466
0.872991681 0.786590755 0.193801433
0.903226018 0.763567328 0.233396739
0.924731016 0.738772810 0.275268823
0.984060764 0.735230744 0.363693565
0.872232616 0.910183787 0.449209243
0.899556935 0.909171343 0.475774646
0.911574960 0.912081063 0.471473515
0.931815147 0.913978636 0.484376758
0.962049007 0.919165134 0.494370699
0.989879608 0.915243804 0.511827528
0.996711016 0.893864810 0.537254572
0.997343183 0.867045820 0.568247557
0.118405998 0.106261544 0.073244549
0.142694101 0.109044999 0.073244542
0.193548098 0.117267452 0.081087641
0.274130285 0.129411995 0.088551998
0.412650168 0.132827446 0.099556997
0.611385226 0.132574186 0.110562995
0.808728993 0.142694101 0.109550998
0.976849794 0.185705185 0.145224541
0.133712545 0.127387539 0.079949096
0.147754550 0.138393536 0.090575546
0.189247549 0.133206993 0.081467092
0.267805278 0.148134097 0.091714099
0.405059904 0.159519553 0.093232095
0.605313301 0.167235553 0.107779540
0.794813275 0.188867807 0.106894255
0.966856122 0.218469366 0.137507677
0.181404546 0.181404546 0.085768551
0.201011643 0.177482650 0.084123649
0.213915110 0.170019016 0.090955094
0.290954739 0.190765560 0.092093542
0.433270007 0.215433195 0.096015446
0.624161541 0.242125183 0.099810541
0.812650025 0.270208985 0.110815637
0.977482677 0.308159232 0.156609505
0.262998194 0.268437356 0.093358994
0.280708551 0.270841271 0.089310892
0.308032751 0.274004072 0.082985185
0.326375574 0.261480182 0.096394904
0.458697259 0.297153741 0.105123192
0.634408414 0.332320929 0.096141897
0.814800978 0.367994994 0.112080924
0.969006598 0.402277172 0.171410695
0.413535357 0.424035728 0.068437718
0.431499183 0.428842753 0.069576263
0.453384191 0.425553799 0.058444258
0.486653894 0.427197903 0.070588097
0.522327363 0.404048175 0.097912997
0.667552173 0.441239744 0.101707995
0.843390167 0.482479364 0.141808823
0.982163012 0.514104962 0.228842333
0.576723933 0.607210875 0.041492827
0.592662573 0.604427457 0.036306176
0.627324343 0.606831193 0.045667175
0.672106445 0.617077649 0.056166913
0.706008852 0.606957614 0.086274453
0.750284612 0.576217473 0.141429469
0.868437827 0.597217023 0.201897606
0.987476170 0.632510960 0.304490566
0.731309295 0.769639134 0.189626902
0.750790536 0.769639134 0.192915723
0.766856492 0.769639254 0.193168759
0.807716608 0.769639134 0.202150732
0.849841833 0.771790147 0.217583656
0.879063845 0.756103396 0.255534172
0.907147706 0.726249039 0.296520919
0.982542515 0.732827365 0.383554906
0.863756955 0.910815775 0.467931509
0.871473312 0.902846336 0.461985946
0.892473102 0.897280037 0.467172831
0.920809448 0.900822163 0.472232580
0.948639929 0.907020807 0.489816666
0.982289612 0.907526910 0.518152833
0.994560421 0.890955210 0.550031424
0.997090399 0.867425382 0.587349355
0.134850994 0.106641091 0.143326998
0.157622010 0.107020542 0.136369199
0.206198901 0.119924091 0.131688908
0.289942980 0.127008095 0.134345531
0.421379060 0.128652900 0.144212201
0.593548477 0.129411906 0.164073437
0.776090920 0.179380089 0.205819383
0.955218375 0.242757797 0.259582728
0.157242462 0.138393447 0.126628548
0.172548994 0.145857006 0.116381645
0.202277005 0.143073648 0.116381645
0.282479644 0.157242462 0.128526092
0.410878927 0.161796451 0.141808897
0.580392182 0.188614637 0.181151003
0.780898213 0.214168340 0.201264888
0.947375238 0.271220803 0.251233459
0.157495186 0.188994095 0.111195087
0.187349990 0.203922018 0.127387539
0.235926986 0.208475992 0.137887195
0.295383006 0.209234998 0.142568097
0.423656166 0.229601189 0.164579287
0.598735094 0.255787522 0.184819996
0.783934593 0.290575564 0.209614277
0.963820517 0.342441320 0.275015920
0.249209195 0.280455291 0.142947540
0.271094203 0.286780179 0.147248179
0.304364622 0.286780179 0.148386747
0.331309289 0.274509728 0.153953448
0.457811713 0.303858161 0.160404906
0.615686119 0.341808736 0.190512627
0.801518142 0.382795572 0.222390920
0.957748055 0.428842366 0.289816648
0.378368199 0.419102162 0.165211901
0.402656496 0.423276603 0.170398548
0.437065274 0.422897071 0.165211901
0.471853107 0.423782349 0.166729987
0.510689497 0.401012182 0.177735388
0.655407786 0.446805835 0.203415468
0.829601645 0.491081446 0.251739353
0.967868388 0.539911091 0.331941754
0.562175632 0.613029599 0.210626096
0.579253614 0.612523377 0.211511627
0.609108150 0.612903118 0.216825083
0.655914009 0.617204368 0.215432927
0.697280288 0.610120296 0.232763916
0.732447565 0.581910431 0.252245814
0.859582543 0.612903118 0.317394078
0.978494704 0.654522657 0.409740627
0.722201467 0.769386411 0.324351847
0.731688619 0.776217520 0.333965868
0.761543334 0.774320245 0.333839536
0.800000191 0.778367877 0.339658290
0.836053371 0.780518532 0.352688462
0.869829297 0.760910749 0.369512916
0.902087212 0.734851480 0.394939840
0.975584865 0.751043499 0.473371416
0.860214889 0.907906711 0.541555703
0.864009917 0.915622711 0.557874382
0.886400998 0.908412397 0.553953171
0.919038713 0.907527149 0.570018828
0.944971621 0.909550786 0.576596618
0.975205779 0.912586808 0.585705161
0.990385711 0.894876361 0.612270713
0.998734832 0.869575799 0.632131517
0.164832637 0.108158998 0.248576552
0.183175281 0.112080999 0.243516907
0.229095638 0.123845994 0.227577373
0.287665904 0.126628637 0.212017268
0.424035817 0.135357365 0.217583984
0.589120746 0.122833647 0.245414630
0.784946203 0.140796989 0.287160277
0.942820966 0.248576760 0.346362919
0.174319729 0.152308643 0.214421183
0.198988095 0.159898907 0.201138720
0.220366821 0.159899011 0.201771170
0.276660651 0.158254087 0.196331277
0.411764681 0.167741999 0.208855063
0.577735603 0.172042638 0.239848003
0.763440847 0.196711123 0.282099932
0.929411709 0.288298339 0.344971240
0.187982187 0.197343290 0.202909619
0.207842931 0.203162640 0.203668728
0.250727087 0.211764738 0.201391727
0.300189823 0.216571733 0.200632632
0.418722332 0.234155387 0.218595713
0.586843848 0.256799459 0.257432163
0.771663249 0.317014456 0.322201371
0.922833383 0.408728868 0.403541714
0.196711004 0.278178632 0.197976261
0.223276183 0.280202359 0.193169266
0.284250289 0.305755734 0.224288732
0.364452899 0.324731261 0.249082923
0.451106787 0.326375455 0.258064479
0.593675137 0.362808019 0.285136014
0.766476810 0.409993559 0.336116552
0.925490260 0.475648224 0.412270367
0.312080920 0.421252489 0.228209719
0.346869200 0.426692247 0.246046722
0.400885344 0.431751907 0.267172724
0.454016477 0.434029013 0.278937608
0.502593398 0.419607550 0.281214714
0.639089286 0.462365717 0.321695179
0.805313230 0.513219655 0.376343966
0.937887430 0.574699283 0.448703080
0.510309696 0.590765119 0.323592633
0.527134776 0.592156947 0.333839357
0.556356788 0.597343564 0.335737020
0.619354725 0.600126207 0.338646352
0.666413486 0.606072068 0.351549894
0.700948477 0.587223351 0.369006842
0.829980910 0.626059175 0.433776170
0.954585493 0.676280797 0.520682931
0.682858586 0.759645581 0.438077539
0.693358898 0.762302160 0.445034742
0.711448252 0.757368565 0.436811924
0.760657549 0.761290550 0.447185516
0.804048181 0.767362177 0.452498287
0.840227723 0.755471110 0.468184918
0.870967925 0.740543902 0.490828216
0.958760023 0.761037290 0.563440859
0.835546970 0.901454747 0.616445065
0.840860367 0.901581109 0.616065502
0.860594630 0.904617071 0.618721843
0.885262430 0.904743612 0.624288142
0.925490141 0.904237628 0.638330042
0.955724180 0.906641364 0.647817850
0.979253590 0.897280157 0.668943644
0.993927777 0.883871138 0.689310431
0.203035995 0.116761386 0.442884177
0.228083372 0.119165190 0.431372553
0.284503192 0.124604993 0.413535446
0.342820734 0.138393357 0.394307733
0.451107174 0.135736808 0.373561174
0.606704414 0.126755252 0.381910354
0.793295503 0.146869078 0.398355573
0.950917006 0.263503939 0.456166834
0.219101533 0.163440555 0.377861828
0.235926986 0.175332174 0.393801630
0.285389096 0.174446538 0.382416278
0.336875170 0.180012643 0.365464747
0.435040832 0.172928348 0.348133832
0.585705221 0.174446538 0.363946646
0.777103186 0.202276930 0.392156452
0.935104489 0.293611705 0.444655448
0.239089087 0.239848182 0.357242197
0.255028725 0.249715447 0.368248075
0.294623911 0.241366193 0.354838580
0.345097750 0.245667547 0.350031376
0.442631394 0.243643090 0.340544075
0.600632668 0.262365460 0.366603106
0.777735651 0.319418281 0.415559530
0.928526282 0.408601940 0.489943266
0.237950549 0.321189076 0.351296365
0.266160637 0.325110465 0.361037284
0.323592395 0.325743258 0.360910505
0.386084467 0.348260731 0.359645903
0.469449639 0.348766714 0.357115924
0.614041686 0.377609015 0.386590779
0.768754005 0.435926646 0.449462205
0.905629396 0.517646849 0.531309426
0.260088384 0.440227568 0.346742362
0.289943010 0.446552992 0.351169914
0.349399209 0.450474173 0.364959091
0.450094819 0.479822844 0.411891371
0.557874620 0.508412361 0.446932346
0.647438228 0.516508818 0.455913901
0.780265570 0.557621539 0.508918226
0.912207425 0.621758103 0.579126775
0.412270635 0.608981729 0.385578722
0.441619277 0.609487474 0.402277291
0.502087295 0.612143993 0.436053276
0.582795680 0.623908818 0.482099712
0.649841905 0.626691997 0.490069449
0.696521282 0.623529255 0.504364192
0.819228113 0.665401816 0.564958930
0.929032087 0.710183740 0.629601598
0.635673404 0.760025322 0.550537288
0.654143393 0.765591502 0.557368636
0.683365166 0.767109454 0.568627417
0.723845363 0.767236173 0.569639206
0.775711536 0.767109275 0.573940754
0.818848908 0.765844047 0.578621268
0.849462271 0.752941072 0.596710861
0.940037847 0.785072625 0.661859572
0.815180242 0.903478444 0.704490781
0.821378827 0.907527030 0.704490542
0.831372499 0.905629396 0.704237521
0.863377690 0.906009018 0.713472307
0.897153676 0.904743612 0.713219762
0.935483873 0.911954701 0.726122558
0.965211809 0.901201546 0.738646030
0.978368104 0.892093599 0.740037918
0.239088997 0.125236988 0.635926187
0.266413808 0.133586451 0.635673702
0.320682824 0.136748731 0.624921083
0.399747103 0.145224735 0.609361112
0.484883189 0.158127800 0.589753211
0.626312494 0.152687997 0.573308229
0.794939816 0.158633560 0.577735722
0.952055633 0.279569656 0.582922220
0.246046796 0.179759532 0.594181001
0.275648445 0.184819803 0.604806900
0.326628566 0.189500093 0.593548357
0.399367362 0.192156732 0.584566534
0.471600115 0.199873731 0.570145190
0.614041865 0.194180995 0.554206312
0.777988553 0.206325263 0.551296294
0.939152062 0.306388497 0.576091230
0.283870816 0.277925164 0.571030915
0.301581204 0.277672559 0.577609181
0.352055818 0.277799189 0.578241765
0.413409263 0.284503728 0.565844476
0.486527711 0.292093486 0.558380842
0.618975163 0.290069729 0.545224309
0.784440219 0.323592603 0.570398271
0.940923512 0.420619607 0.594054401
0.290828466 0.355218291 0.562175810
0.328779280 0.370525092 0.556230009
0.385831654 0.389247209 0.552688062
0.435547113 0.391651005 0.543959141
0.506008804 0.398608088 0.543959141
0.622644067 0.397469759 0.539658546
0.773308039 0.437571019 0.563693941
0.916887760 0.525616705 0.614168108
0.312334180 0.492473364 0.556735992
0.334092468 0.494497538 0.554965079
0.404807180 0.490702271 0.554332256
0.490955353 0.503731728 0.561163664
0.563946486 0.528399467 0.563567460
0.661733150 0.535610378 0.575711191
0.788994372 0.579759717 0.603162467
0.909804165 0.645287812 0.672485530
0.365591198 0.632258236 0.542062163
0.391777188 0.634535193 0.552434742
0.445414454 0.634282410 0.558507085
0.528905571 0.645287514 0.575585186
0.631372392 0.667678893 0.624920845
0.722707212 0.691334724 0.652118742
0.812270761 0.707906723 0.680202246
0.911448598 0.750411391 0.728399575
0.529159129 0.768121123 0.563694060
0.546615839 0.773560822 0.571663380
0.591650844 0.773054779 0.594686747
0.660974324 0.771030903 0.635673642
0.737381399 0.782289922 0.681087971
0.800252795 0.783048987 0.690322936
0.830486953 0.775079012 0.704743743
0.927008271 0.806831241 0.747627974
0.764579535 0.903352439 0.740037799
0.771536946 0.903858185 0.745603681
0.795066476 0.901834249 0.760910571
0.830739856 0.901834071 0.778621197
0.865148664 0.902213573 0.781277955
0.908159494 0.902339816 0.792156756
0.944085896 0.913725376 0.801264584
0.965844393 0.897153616 0.810626388
0.271853000 0.164326280 0.811005533
0.302213818 0.168753833 0.815053582
0.356609821 0.182416081 0.807716370
0.440607220 0.192409992 0.799367189
0.536749184 0.214168265 0.793674827
0.620746017 0.245414466 0.781404138
0.799873531 0.249209255 0.770777822
0.940290630 0.303225756 0.755344570
0.291334271 0.220872790 0.794813097
0.312713087 0.228462830 0.792789698
0.366730094 0.232258111 0.790892065
0.440227568 0.242251709 0.783807695
0.529917896 0.255787462 0.779127121
0.625806451 0.280455709 0.771916091
0.789626837 0.287413090 0.755724251
0.932574332 0.331689060 0.746236503
0.339026064 0.331182659 0.779380322
0.368248075 0.345477164 0.790891767
0.399367481 0.348387271 0.781783760
0.469576210 0.352561831 0.775458574
0.552182317 0.365464568 0.769006670
0.636053443 0.379380286 0.758001387
0.786717296 0.389500648 0.759013236
0.929285228 0.432890266 0.750664234
0.412650287 0.461986274 0.760151923
0.431752115 0.465401620 0.763693750
0.470461667 0.466793299 0.756862879
0.518658876 0.469955921 0.752941191
0.584440291 0.480455428 0.755471051
0.656673074 0.493485183 0.747501373
0.785958171 0.492473185 0.742314577
0.915496767 0.538646281 0.749525547
0.432131350 0.541682601 0.756989181
0.463504434 0.549399137 0.756103873
0.507400453 0.563061357 0.749652028
0.576470554 0.590132833 0.753194094
0.625047505 0.594433606 0.744844615
0.683744431 0.604554176 0.746236503
0.792789280 0.608475685 0.748892963
0.904996634 0.657052517 0.756862760
0.473245025 0.694117486 0.756736577
0.492726266 0.696900904 0.767615557
0.530170619 0.692473173 0.760657847
0.602150738 0.692473173 0.760278046
0.676786542 0.702593505 0.767615557
0.738267064 0.718279421 0.768500566
0.814168453 0.727640748 0.772422552
0.909930289 0.764958739 0.796204746
0.525363564 0.792030573 0.736495554
0.535104275 0.793169320 0.735736787
0.568500757 0.792156816 0.737128556
0.626185894 0.793042302 0.747754633
0.691714287 0.792410016 0.749905288
0.780265510 0.808096230 0.786337972
0.845667541 0.826059580 0.814294517
0.918026805 0.845161378 0.834787786
0.703478277 0.903098881 0.766856670
0.713725567 0.914231539 0.767488956
0.729285359 0.912207484 0.775964320
0.769006670 0.911448598 0.797216594
0.817204475 0.911448240 0.825174212
0.877166390 0.914990485 0.856673241
0.922074497 0.914358020 0.865022361
0.951422930 0.911448598 0.875016093
0.350790769 0.275015593 0.942820966
0.372295797 0.282858580 0.942441523
0.418975174 0.297533095 0.938899636
0.492093801 0.317899585 0.939152300
0.577988625 0.348766416 0.934724569
0.668184519 0.383301437 0.930549860
0.765718043 0.429348409 0.921441913
0.921947777 0.460974216 0.915496767
0.380139291 0.319671303 0.935483932
0.395952016 0.335357130 0.933079898
0.438962579 0.343832910 0.931688607
0.504870117 0.359392673 0.928399503
0.582036734 0.385578424 0.932826936
0.673750699 0.416445255 0.923465729
0.766856253 0.455660641 0.919924021
0.920936108 0.480581731 0.918912113
0.457558423 0.444908112 0.929917812
0.474383146 0.455154777 0.926755190
0.512207448 0.454775542 0.929664791
0.559392631 0.471979737 0.927007914
0.624794424 0.487286478 0.921062708
0.703099251 0.510436296 0.918406010
0.776723683 0.539405167 0.909171283
0.919924080 0.557494819 0.909550726
0.546869159 0.572296023 0.913852155
0.555724084 0.577988625 0.913725615
0.578873873 0.581530333 0.914104700
0.618595839 0.586970210 0.911827803
0.668437541 0.594307244 0.908665299
0.725110292 0.605565965 0.904743612
0.800000012 0.621632040 0.902719378
0.912966430 0.626312435 0.902846158
0.596204758 0.659961820 0.904996634
0.616698265 0.672232747 0.911827803
0.648703337 0.686274290 0.906767786
0.681214273 0.692979097 0.904490829
0.719671369 0.694749951 0.903478444
0.764958680 0.702846289 0.901327968
0.818216264 0.710309803 0.898671329
0.915369987 0.712713242 0.902846158
0.633902490 0.748007536 0.909171402
0.645920396 0.749525428 0.911701381
0.669702768 0.749399006 0.907020867
0.708412290 0.760657549 0.903098881
0.761796176 0.779506683 0.904237509
0.804554045 0.787729323 0.902340353
0.846426249 0.794307172 0.905249953
0.924983859 0.791524351 0.904996634
0.648197591 0.854143023 0.898418486
0.661479712 0.854016364 0.909297764
0.682985187 0.851992190 0.905249953
0.725869656 0.848830044 0.908791780
0.771789789 0.850094914 0.909298003
0.822643757 0.847311735 0.903352261
0.867805123 0.859582543 0.904996634
0.932320833 0.862618387 0.908032894
0.706388593 0.934977591 0.890828371
0.716255784 0.932447612 0.895761728
0.727514088 0.931814969 0.897785842
0.764958918 0.931308985 0.897153616
0.802150607 0.928525925 0.899557114
0.842757463 0.930929601 0.911574781
0.900569201 0.925236762 0.917773306
0.948007762 0.946742654 0.944212556
