Assets/Resources/EldamarStudio/100 Horror LUTs Pack/LUTs/cube/Eyes LUT.cube
LUT_3D_SIZE 5
DOMAIN_MIN 0.000000 0.000000 0.000000
DOMAIN_MAX 0.903226 0.903226 0.903226
0.109803997 0.101961002 0.054901998
0.195825696 0.104237713 0.061100710
0.408728391 0.105249576 0.054269414
0.722074270 0.110815868 0.037317999
0.985957980 0.164958954 0.078684635
0.190512285 0.183680996 0.052624710
0.221631989 0.175205410 0.058823999
0.403795093 0.196837410 0.053257294
0.718153238 0.236052826 0.036179874
0.989879608 0.270841390 0.087792806
0.356483221 0.357748389 0.015560018
0.400632083 0.370525092 0.018216593
0.449336201 0.345350832 0.045034587
0.733459949 0.406451523 0.034408540
0.989247203 0.458444208 0.141555786
0.654143155 0.667046249 0.001012128
0.682100236 0.671347082 0.003288997
0.754459083 0.677799106 0.008096251
0.817963302 0.632764101 0.120177239
0.992409945 0.658823550 0.293485016
0.872232616 0.910183787 0.449209243
0.902972579 0.914358079 0.477039695
0.949272811 0.917394221 0.480581582
0.991397798 0.911448598 0.518911719
0.997343183 0.867045820 0.568247557
0.131056279 0.105881996 0.123592407
0.183428109 0.115369707 0.113472700
0.340796798 0.129791275 0.122959986
0.637065232 0.150411010 0.156989247
0.962302506 0.224541202 0.225174204
0.152941003 0.170018986 0.103605285
0.208602399 0.183428109 0.117393702
0.342441529 0.202403679 0.136369690
0.646553099 0.236812234 0.162555262
0.967868447 0.312080801 0.239595354
0.303099096 0.338140398 0.136369273
0.359772205 0.339785099 0.135357410
0.414674222 0.330296963 0.144212693
0.688424945 0.400632501 0.181910247
0.971030772 0.481087923 0.284756362
0.606957257 0.647185385 0.185072526
0.638709486 0.645287931 0.188994095
0.719797492 0.657684982 0.202150524
0.785072505 0.622643828 0.252751231
0.981024444 0.672991633 0.399114758
0.864515781 0.905882478 0.507906020
0.882099807 0.904617250 0.519544661
0.929285109 0.903605163 0.534851015
0.986590624 0.901707351 0.569512784
0.998734832 0.868310988 0.614421010
0.184313998 0.117014416 0.329537958
0.240606979 0.123213284 0.306641400
0.359013379 0.135989994 0.280582219
0.648576796 0.122580871 0.301581383
0.946868777 0.250854045 0.394560367
0.207843423 0.204301119 0.267678678
0.250727266 0.208222285 0.266160816
0.357368708 0.209867403 0.261606812
0.634408414 0.244655386 0.307147533
0.935356915 0.376343995 0.436432570
0.224288404 0.355091363 0.260974407
0.286021709 0.362302393 0.278684795
0.461100370 0.413282782 0.341429800
0.657937825 0.448070645 0.386337936
0.922580302 0.557368577 0.506388485
0.524478316 0.637317955 0.400759101
0.567868531 0.642884195 0.418722242
0.663377523 0.645161390 0.429221630
0.738646567 0.638583124 0.458570629
0.941808939 0.714104831 0.581783473
0.825933039 0.902213931 0.658064604
0.838203788 0.895762205 0.649209261
0.889183819 0.903604984 0.667172790
0.955850840 0.908286035 0.692726016
0.991777182 0.883365214 0.712207317
0.246173128 0.134345129 0.690575242
0.316128701 0.141555712 0.684377134
0.455154955 0.160910994 0.659961820
0.676913261 0.166856259 0.630993426
0.951296806 0.283364713 0.625679970
0.284630120 0.263503850 0.647185564
0.343200386 0.270461708 0.648323715
0.468564093 0.278304696 0.629854441
0.675901532 0.284250706 0.608728349
0.941682577 0.401138157 0.634787977
0.330297261 0.429095805 0.615812957
0.403921515 0.449335814 0.613156140
0.527134359 0.479443371 0.613535702
0.684124231 0.486021787 0.608728409
0.914105237 0.597849607 0.668437660
0.407084137 0.678810954 0.594687223
0.455534518 0.684377134 0.618722439
0.599999964 0.689563334 0.639595449
0.760152102 0.729791284 0.694623232
0.911448598 0.776217818 0.761796415
0.744591892 0.909171641 0.736748695
0.773814023 0.909171700 0.760151982
0.839215875 0.905882299 0.798861504
0.912460446 0.906641126 0.809614182
0.960784495 0.899430633 0.828842521
0.350790769 0.275015593 0.942820966
0.405313075 0.292472690 0.937634468
0.535737038 0.330044597 0.939025581
0.691967070 0.394180566 0.928020239
0.921947777 0.460974216 0.915496767
0.442378163 0.417583585 0.932953775
0.483871043 0.424162179 0.933459759
0.581151068 0.453257293 0.923592508
0.711195648 0.495761871 0.919923782
0.920935869 0.537001848 0.913852036
0.590259433 0.633902192 0.916887760
0.615306854 0.641745567 0.907779872
0.674383223 0.646932185 0.912839770
0.762808383 0.666919768 0.901707351
0.914104819 0.679696143 0.909044743
0.639215589 0.775331914 0.908918619
0.670208752 0.778241813 0.910056770
0.737761021 0.786464334 0.904490590
0.821252346 0.804680943 0.907653451
0.924224913 0.813282788 0.904743910
0.706388593 0.934977591 0.890828371
0.723718882 0.932067990 0.895255983
0.782162726 0.929790795 0.901707351
0.859202921 0.930423617 0.911574781
0.948007762 0.946742654 0.944212556
