Assets/Resources/EldamarStudio/100 Horror LUTs Pack/LUTs/cube/Fear LUT.cube
LUT_3D_SIZE 8
DOMAIN_MIN 0.000000 0.000000 0.000000
DOMAIN_MAX 0.903226 0.903226 0.903226
0.019608000 0.062744997 0.078431003
0.043010999 0.066666998 0.090575546
0.159772098 0.061986096 0.101961002
0.278052002 0.061100997 0.098039001
0.406451374 0.081467383 0.097153999
0.548260450 0.098039001 0.123466253
0.730550528 0.095129713 0.154205993
0.933965743 0.098165818 0.188361824
0.004301451 0.108538546 0.093738452
0.053636551 0.112839997 0.097280003
0.163314551 0.124225549 0.100442909
0.273371279 0.133586451 0.094497353
0.401391834 0.146489382 0.102972642
0.544718564 0.159140006 0.135104254
0.735989809 0.159645543 0.163440734
0.935736835 0.166856378 0.192283139
0.000759096 0.209994003 0.100189991
0.040734001 0.213535652 0.103858456
0.154333100 0.206831098 0.096268192
0.268311530 0.219734445 0.112081096
0.387602478 0.231119379 0.127640992
0.544085920 0.247185454 0.153953359
0.742188454 0.260088384 0.178747892
0.937887430 0.278052002 0.202276900
0.001138644 0.309930652 0.140670642
0.009234898 0.308285624 0.139911547
0.151422828 0.309930652 0.144465640
0.265148640 0.312207639 0.148513645
0.394307554 0.328273207 0.162175983
0.552308738 0.344592303 0.177862078
0.753573418 0.371663630 0.191144988
0.943073630 0.394307643 0.223782450
0.000000000 0.422137976 0.183427989
0.033649631 0.427450716 0.183428183
0.169766083 0.425300270 0.180139184
0.291967273 0.428463191 0.187729448
0.413409352 0.428463191 0.190385982
0.572549224 0.454648942 0.204301462
0.770524859 0.486400962 0.212523907
0.951296449 0.514990509 0.234661639
0.053763449 0.573687732 0.215685993
0.136116013 0.579127014 0.216824725
0.251359820 0.577103496 0.215432987
0.371663451 0.580518782 0.217583731
0.503984809 0.585452199 0.219101533
0.636053205 0.591144443 0.217457250
0.803921521 0.614041746 0.231499016
0.963187814 0.647817671 0.254775614
0.237444848 0.757368565 0.241112977
0.277545840 0.755471289 0.246173292
0.366097540 0.756483316 0.246046692
0.473244905 0.764705896 0.244908348
0.597216904 0.762681603 0.248197466
0.726755440 0.759266257 0.257685304
0.848197579 0.761922538 0.253890276
0.968500555 0.775458276 0.276280552
0.392662585 0.918152928 0.310056955
0.418722123 0.920682907 0.307147384
0.474888891 0.918785453 0.307653159
0.563567102 0.919417739 0.312713802
0.666161001 0.919544578 0.315496445
0.778621435 0.919417739 0.323972046
0.880708277 0.920809746 0.337001622
0.987222791 0.919417739 0.341682613
0.000000000 0.075268999 0.139911547
0.045793548 0.067046449 0.132827535
0.151170194 0.078431100 0.144591644
0.249462634 0.096395001 0.165338084
0.368880183 0.115622737 0.183301896
0.519417882 0.126249000 0.204047829
0.713092804 0.121694997 0.224035278
0.927387416 0.108918279 0.249968082
0.007463549 0.101454541 0.133206993
0.045793545 0.113219537 0.140670553
0.139405102 0.125743538 0.153194442
0.244022742 0.141050100 0.164958641
0.367362380 0.157115743 0.186464086
0.517141044 0.170777991 0.203668475
0.712713242 0.171410546 0.220619828
0.924098551 0.171789914 0.249841690
0.000000000 0.201391101 0.164958552
0.045541000 0.194686636 0.174066991
0.122833192 0.204933554 0.159013093
0.245920181 0.214674100 0.181404442
0.369639277 0.231119379 0.194686726
0.527387798 0.246805906 0.214674100
0.723972082 0.261986107 0.232637376
0.926881850 0.279063642 0.256926268
0.000000000 0.297280550 0.188361645
0.010373543 0.299304277 0.190385893
0.144844994 0.303225994 0.195192993
0.248576730 0.303099275 0.192662999
0.373434365 0.321948260 0.202783182
0.537001729 0.339531839 0.227324277
0.740290940 0.368500739 0.242504552
0.932700813 0.390006185 0.264769375
0.001138547 0.417584181 0.233523190
0.044908542 0.416571349 0.225806102
0.171410277 0.417457283 0.233902648
0.286401272 0.423023373 0.234661549
0.399241179 0.425679833 0.227450743
0.568374515 0.448323727 0.244149536
0.766856313 0.483997166 0.257558554
0.949019432 0.512839794 0.277925342
0.042757545 0.572043061 0.247185335
0.132954016 0.568500578 0.251233339
0.244149104 0.571283877 0.257431716
0.362934649 0.574320078 0.254649192
0.501960993 0.578241885 0.259835541
0.634028912 0.579380453 0.259708911
0.798355401 0.610499740 0.268691003
0.962934911 0.642504632 0.292599797
0.222390816 0.750031531 0.268817276
0.263630807 0.753067970 0.273624539
0.356356829 0.750537574 0.275901318
0.471599877 0.752561510 0.278937191
0.589373529 0.753826976 0.280834943
0.718153477 0.753826976 0.274383128
0.840101123 0.759013295 0.287159830
0.966856301 0.770271957 0.304111212
0.386591017 0.916635215 0.333712995
0.413282752 0.925236940 0.327767223
0.470841140 0.912966430 0.339152187
0.563061237 0.912586808 0.340417653
0.666034222 0.918152928 0.342567712
0.776723742 0.917773485 0.353700042
0.883617818 0.919417739 0.361037076
0.987349629 0.923971772 0.370145142
0.003162904 0.079190098 0.249209195
0.021505449 0.070967548 0.249209106
0.141809002 0.079949193 0.239722088
0.244781733 0.097533353 0.243643090
0.364199996 0.128525987 0.268817186
0.499936819 0.146615997 0.287918836
0.689816356 0.139025807 0.309424073
0.913092554 0.108286001 0.329791099
0.001138547 0.132068440 0.239468649
0.028969092 0.124984443 0.234788463
0.130423635 0.137128085 0.231119275
0.233396277 0.149272546 0.249968097
0.352055669 0.170398638 0.272232711
0.496521384 0.186970547 0.295509100
0.692346275 0.184313804 0.312587082
0.907147348 0.172548711 0.335357070
0.000759096 0.201391101 0.232637182
0.017963096 0.204933554 0.237065539
0.135483995 0.213915199 0.257052183
0.234534815 0.220114008 0.256926209
0.349272460 0.238962978 0.279823095
0.502213836 0.255028427 0.301328301
0.705249727 0.264896005 0.313472390
0.916381717 0.273498118 0.337508082
0.003542452 0.293738276 0.268691093
0.024161994 0.299683720 0.268817216
0.149272546 0.297280550 0.277039647
0.239215732 0.303225994 0.276280642
0.364452720 0.320809603 0.289184004
0.519291759 0.343832999 0.305882454
0.722201169 0.363567173 0.319671094
0.931056321 0.385325551 0.343453348
0.001518192 0.413662195 0.296015173
0.055660728 0.406831026 0.296268195
0.172169477 0.412017465 0.301707983
0.274256825 0.412776560 0.297659874
0.389120460 0.416825086 0.304870278
0.553320587 0.446046829 0.315749198
0.758633554 0.477799088 0.327640980
0.945224345 0.507273793 0.347881079
0.049715102 0.561037123 0.323212713
0.133080110 0.560657501 0.321315467
0.239721820 0.564832091 0.325237185
0.360784292 0.564452589 0.325237274
0.487159878 0.572422504 0.328526199
0.623782575 0.576344371 0.331182808
0.795572340 0.606198728 0.334977627
0.959266365 0.639848292 0.359392732
0.222770557 0.746362805 0.346363008
0.264136732 0.750031710 0.338646173
0.357621372 0.746362805 0.347248375
0.469196826 0.753067732 0.344718456
0.587729454 0.753447294 0.347880989
0.716508627 0.753447175 0.352182001
0.845161438 0.755091846 0.347122073
0.967235744 0.770398319 0.374446481
0.404174685 0.914737701 0.391018093
0.428209841 0.918026447 0.397596538
0.486400962 0.916128874 0.405313015
0.573181510 0.913851917 0.407084346
0.672358990 0.917394042 0.409487545
0.776597202 0.915369749 0.411005646
0.881087840 0.918658853 0.420240223
0.986337721 0.918152869 0.428336442
0.006198998 0.069449648 0.362175912
0.001897643 0.073624097 0.360025555
0.127514198 0.094117999 0.356862724
0.241619632 0.102592997 0.346363008
0.356356382 0.129664630 0.359266639
0.502972722 0.149778903 0.372548610
0.692473173 0.134345293 0.400253266
0.910436451 0.093105845 0.427703798
0.002783356 0.139025643 0.343200177
0.009740546 0.146868736 0.339278996
0.125996187 0.147248194 0.340797007
0.227830365 0.155850992 0.333333552
0.347754359 0.177103192 0.348260641
0.495509326 0.189247444 0.378115028
0.695129812 0.180898353 0.399494141
0.905629218 0.158760458 0.428462893
0.000759096 0.217457548 0.344338715
0.003795094 0.218469173 0.338899642
0.129918084 0.229980811 0.335230976
0.230234176 0.228336722 0.340038002
0.344085932 0.243643090 0.354585826
0.497533083 0.257052183 0.377229750
0.698924720 0.261480272 0.403921545
0.908918202 0.258191019 0.431751996
0.000000000 0.296521634 0.329664290
0.008349089 0.302087635 0.341682196
0.142441288 0.307147294 0.354965150
0.255155265 0.321189284 0.367109627
0.366350442 0.325489819 0.367868602
0.515496731 0.341555893 0.384313643
0.716128826 0.357115567 0.412523925
0.919291556 0.375838280 0.429981083
0.000000000 0.409614354 0.373307824
0.066666633 0.407589942 0.376850277
0.185578898 0.414041847 0.380898178
0.279696822 0.414800823 0.375205249
0.391144574 0.415939182 0.377609283
0.553320467 0.442125022 0.395699084
0.753446996 0.471473545 0.416065902
0.937507808 0.502213776 0.435294032
0.032890730 0.556736290 0.397343278
0.124225177 0.557874918 0.399240911
0.234914720 0.559898496 0.397217005
0.354079723 0.560910761 0.402403623
0.483238220 0.563820481 0.399620384
0.615053713 0.569639206 0.406324923
0.793295443 0.602150738 0.421125740
0.953953147 0.635926604 0.445287734
0.208475187 0.741682529 0.426059276
0.251739562 0.748386919 0.422770351
0.346236676 0.741935253 0.424161643
0.459961832 0.741176248 0.424920917
0.586084723 0.742314517 0.432131648
0.709297717 0.747121692 0.430486917
0.839215875 0.749525547 0.435547262
0.960151970 0.767615497 0.458191246
0.428842574 0.909424543 0.477292836
0.453510582 0.911448359 0.481087595
0.503352046 0.915369749 0.482353181
0.586717248 0.909171224 0.480961472
0.676280558 0.910183370 0.488045871
0.782795787 0.911448240 0.490955353
0.882985592 0.915369987 0.497659594
0.983807743 0.919417739 0.507653236
0.000000000 0.094750188 0.475774974
0.000758999 0.101454541 0.471979827
0.135230988 0.113599092 0.466919482
0.264516264 0.125363812 0.462239385
0.375079334 0.139405370 0.451992184
0.506514668 0.152941003 0.464769125
0.705249727 0.130423710 0.498165756
0.914357722 0.094244204 0.527261376
0.003542452 0.162934989 0.464263022
0.003795190 0.167741999 0.450853735
0.140038088 0.173181280 0.462744832
0.262239158 0.176344186 0.453257531
0.371157467 0.181404531 0.444276005
0.508918285 0.190132648 0.458317250
0.707147181 0.176091254 0.492346644
0.911321759 0.153573900 0.520936131
0.003162904 0.248450100 0.437191397
0.007590090 0.251992553 0.441366047
0.149525285 0.250727177 0.446679294
0.255155265 0.250727177 0.443517178
0.364832342 0.252245188 0.442631394
0.508032680 0.260088563 0.462998271
0.712207556 0.257937998 0.495256126
0.915875733 0.261100829 0.524478018
0.002783356 0.331562281 0.437444806
0.023023374 0.327134848 0.447058856
0.161543533 0.330677003 0.446679294
0.267552167 0.334977806 0.440607011
0.378494710 0.333333433 0.447058827
0.529032350 0.346615821 0.468817145
0.726755202 0.355218112 0.493864536
0.922833443 0.377609104 0.520809591
0.001518192 0.416065991 0.446552992
0.076913536 0.411637902 0.450601190
0.186084479 0.419101983 0.456040293
0.304870605 0.432005048 0.460088372
0.443010747 0.448071182 0.480329186
0.578367651 0.452751189 0.484250188
0.760910690 0.473877460 0.502087355
0.940037608 0.505755842 0.526249170
0.064516366 0.558380663 0.484629750
0.134724930 0.562302291 0.486654192
0.243010655 0.563693464 0.481467634
0.366982758 0.569259644 0.487033457
0.492979199 0.573308229 0.493611366
0.632890403 0.573561192 0.491967201
0.797849655 0.604933679 0.512081206
0.954711735 0.640986800 0.542821169
0.244022727 0.741682529 0.519291341
0.285894990 0.738140106 0.513092995
0.364326358 0.739405274 0.517899871
0.464515835 0.740164340 0.518026650
0.590259373 0.743326843 0.520303488
0.714990437 0.745351076 0.520936072
0.836559296 0.744844854 0.520177186
0.963946819 0.773054838 0.554965079
0.477419227 0.907526910 0.573687732
0.491081417 0.907526910 0.570524812
0.539152503 0.905755877 0.573813975
0.610752642 0.906767786 0.573687494
0.695256352 0.907526910 0.577103317
0.790259302 0.909677505 0.579380333
0.889563560 0.911068678 0.591018260
0.983427942 0.918152928 0.598482132
0.000000000 0.127261251 0.599240959
0.028716013 0.129664540 0.591524482
0.196837559 0.137887090 0.594560385
0.322960258 0.143832833 0.585325718
0.450221419 0.145477548 0.584313452
0.579126894 0.146995738 0.581657171
0.726755083 0.124351524 0.593801260
0.929411829 0.090955094 0.615433276
0.000379548 0.184440345 0.584440470
0.034661807 0.188867792 0.583048940
0.189753368 0.192409739 0.581910372
0.320683151 0.193168640 0.577609003
0.445920467 0.190891638 0.576597095
0.572549224 0.189753100 0.571410537
0.725489795 0.174699545 0.583807468
0.924984396 0.159392551 0.621252537
0.002656642 0.273371071 0.579633474
0.052877814 0.271094292 0.573181450
0.195192918 0.269702822 0.576217830
0.322707027 0.271980107 0.571916461
0.443137079 0.267172992 0.566350460
0.566224039 0.262112826 0.563946486
0.733839154 0.257558584 0.584060967
0.933206856 0.266919553 0.625806451
0.004048004 0.361416727 0.565591455
0.071727075 0.356609643 0.568374753
0.208348915 0.359139830 0.567488909
0.324225068 0.358760387 0.565085113
0.444655299 0.356103599 0.562681913
0.570398510 0.353320360 0.564073443
0.743959367 0.358380735 0.581910372
0.939025819 0.383048713 0.618342698
0.017204439 0.460847706 0.570398271
0.115116820 0.461227357 0.567868471
0.229222178 0.459962100 0.572928727
0.349019438 0.460974127 0.570398331
0.479190290 0.460974127 0.572422624
0.611638367 0.462112367 0.576976776
0.782795846 0.478051931 0.592283487
0.945224285 0.519291580 0.630613327
0.116761453 0.569639266 0.577861667
0.172169715 0.571663499 0.569765687
0.271093845 0.576723814 0.573687732
0.387349725 0.576723754 0.575837970
0.534977913 0.590385497 0.589247227
0.683112264 0.610879421 0.607210457
0.819228590 0.620746195 0.618848443
0.956609488 0.651106715 0.640101492
0.276280582 0.739658296 0.607716501
0.312334001 0.742820859 0.607969582
0.387855709 0.739658296 0.611511767
0.500822306 0.741682291 0.615686357
0.621505439 0.744465053 0.621252298
0.724351704 0.747248292 0.618595779
0.845161319 0.755344808 0.628083408
0.960151970 0.781150997 0.655914009
0.521568477 0.904364347 0.661353648
0.535104334 0.901707411 0.664263368
0.582669079 0.901581287 0.667552292
0.651992261 0.903099477 0.676660419
0.719797552 0.902087033 0.672359049
0.803415656 0.909044743 0.677419543
0.891967058 0.909677625 0.683744311
0.980392039 0.914231598 0.688171923
0.086780548 0.162048995 0.739405274
0.169386357 0.163693696 0.739025831
0.290828466 0.163693696 0.739405274
0.415053904 0.162048995 0.739405274
0.548766613 0.150538012 0.733965635
0.683744490 0.133839443 0.727008283
0.813535511 0.105881996 0.725996494
0.946615994 0.098165818 0.724857688
0.096900836 0.211132556 0.727008104
0.163187668 0.216571823 0.732321084
0.284883112 0.212776840 0.730803549
0.414674342 0.209614456 0.728905976
0.551043332 0.198988006 0.728526473
0.678684294 0.185325742 0.726502240
0.812524021 0.169259802 0.720682979
0.936495781 0.162302524 0.720809698
0.096141547 0.298418999 0.729411602
0.176723808 0.297533095 0.732321501
0.289437175 0.296900988 0.725237489
0.413409203 0.294497102 0.721315503
0.546236515 0.287539363 0.724478364
0.683491468 0.276154459 0.720176995
0.811131954 0.264642358 0.718153000
0.944085717 0.268184751 0.723719239
0.104364537 0.400253296 0.721947908
0.174699455 0.394940019 0.719797492
0.291207999 0.395066530 0.717646897
0.416192532 0.391903639 0.711954236
0.551423073 0.391144663 0.717394114
0.683871031 0.382163197 0.718912125
0.809614062 0.375079274 0.712586820
0.947627604 0.391651094 0.723466098
0.152941123 0.511195362 0.711827517
0.222770393 0.511574984 0.713599205
0.318026662 0.510563016 0.714231551
0.434155643 0.506008983 0.711195588
0.564452887 0.500442624 0.718153179
0.695256412 0.500316143 0.717014551
0.820619583 0.496394753 0.712081194
0.954965413 0.527514219 0.732194662
0.245161295 0.630740225 0.723086715
0.289184302 0.629981220 0.717394114
0.369512916 0.630992949 0.715876222
0.478684515 0.630107760 0.718532383
0.602529705 0.633523226 0.716761470
0.722453952 0.633902669 0.721062541
0.840860307 0.634282112 0.725237489
0.960911036 0.669070005 0.746362627
0.337002099 0.754079521 0.722074509
0.368627548 0.751423240 0.716255724
0.432510734 0.746362567 0.716887951
0.526122868 0.749525547 0.722580612
0.637191653 0.752688408 0.723845363
0.757115901 0.762555301 0.734092295
0.867172599 0.776976526 0.748893023
0.958886504 0.796710670 0.770524800
0.538393080 0.906768024 0.755344987
0.561416686 0.902466595 0.762302339
0.593295574 0.902846158 0.760025024
0.660215020 0.902466595 0.769386351
0.741809070 0.903731763 0.775964439
0.819228232 0.911701500 0.783554971
0.894497037 0.906388581 0.785831809
0.968754232 0.918152869 0.797849238
0.219860956 0.217330620 0.893358767
0.269070327 0.216824666 0.893358767
0.366350055 0.217204124 0.894623578
0.481973648 0.211131945 0.895002723
0.615559876 0.206830785 0.894497097
0.745224357 0.197090536 0.890195847
0.872485757 0.191651076 0.887792170
0.983427942 0.199367583 0.885641634
0.233523220 0.261353642 0.898292184
0.275648177 0.256546348 0.882352769
0.366350442 0.254775792 0.889436781
0.485768408 0.251992464 0.886653781
0.615433335 0.248070851 0.889816344
0.744465113 0.241239697 0.887412906
0.869070113 0.239595175 0.888804674
0.984692812 0.246805891 0.885135889
0.250094861 0.343580157 0.885135651
0.293485165 0.346869141 0.887666047
0.377482891 0.342947274 0.891840816
0.499936908 0.339658171 0.884250522
0.616951346 0.337760925 0.885641754
0.755091548 0.333333135 0.887286484
0.873118281 0.337128133 0.885135889
0.985451877 0.345097959 0.882858634
0.292346358 0.449968219 0.885262370
0.339279026 0.452119082 0.881720185
0.413409054 0.451992273 0.884882569
0.514358103 0.455028266 0.883238316
0.635293901 0.451486230 0.881846845
0.754206300 0.446679235 0.874130368
0.873877347 0.450600922 0.878051877
0.982289553 0.455913901 0.883997202
0.369892210 0.572169542 0.884503663
0.406198472 0.574826360 0.883997202
0.470714688 0.574193239 0.879190326
0.560404718 0.574573040 0.879696429
0.660847604 0.573308170 0.878810763
0.769765854 0.579253316 0.880328596
0.877419293 0.576470375 0.877166271
0.981910110 0.581783652 0.874003768
0.445667326 0.689183891 0.880961359
0.469702780 0.688298523 0.878810883
0.531435728 0.691081643 0.881087780
0.610752225 0.692473233 0.881973445
0.697533250 0.698798418 0.881846786
0.788488388 0.694497466 0.882226408
0.884882867 0.699177623 0.882858813
0.977608800 0.703478634 0.877039671
0.523213029 0.798861504 0.891714036
0.533333480 0.804427385 0.880708277
0.579759359 0.803541899 0.878304839
0.645920336 0.804680347 0.879190207
0.723719299 0.805186331 0.882985353
0.807336926 0.808222830 0.882226348
0.887919247 0.810246944 0.878937602
0.969260037 0.819101632 0.885009348
0.582542479 0.919417739 0.878937602
0.602403283 0.915749252 0.893864393
0.634155691 0.917393982 0.888930678
0.684629977 0.912713408 0.884123802
0.753447115 0.908665597 0.885768354
0.824794412 0.914231598 0.882985413
0.896521211 0.918152928 0.895382404
0.959645987 0.929917574 0.911827683
