Assets/Resources/EldamarStudio/100 Horror LUTs Pack/LUTs/cube/Fear LUT.cube
LUT_3D_SIZE 5
DOMAIN_MIN 0.000000 0.000000 0.000000
DOMAIN_MAX 0.903226 0.903226 0.903226
0.019608000 0.062744997 0.078431003
0.134724990 0.067299001 0.104237713
0.335483402 0.069955580 0.091461003
0.587729335 0.099051133 0.126502126
0.933965743 0.098165818 0.188361824
0.000000000 0.185705408 0.094117999
0.130803406 0.181783393 0.090195999
0.330929816 0.204680398 0.111827992
0.590639234 0.225933120 0.152688131
0.935610473 0.249209389 0.203795090
0.007210577 0.362301975 0.165464565
0.119418107 0.363946676 0.165464982
0.332953393 0.366856396 0.170018986
0.608728826 0.403795123 0.196837261
0.948893011 0.452624798 0.230866402
0.105376370 0.618216276 0.216698125
0.244528517 0.621378839 0.226565123
0.464262933 0.627577543 0.225932702
0.695762396 0.635673285 0.225553259
0.968247712 0.678178251 0.263883710
0.392662585 0.918152928 0.310056955
0.457431734 0.920050621 0.308412254
0.611511350 0.918152928 0.318026781
0.805945814 0.919417739 0.324477792
0.987222791 0.919417739 0.341682613
0.001644708 0.080708295 0.220366985
0.119038403 0.071600288 0.213156402
0.302466691 0.109550700 0.233143270
0.544212282 0.144085869 0.274003983
0.914104700 0.110056721 0.311574697
0.002277292 0.171030685 0.207589701
0.111195408 0.185072407 0.225932702
0.286780685 0.210246682 0.246173695
0.546236634 0.237317979 0.278811097
0.913092554 0.245920405 0.315749586
0.003288997 0.350537390 0.269070089
0.122707106 0.352814704 0.268437684
0.308412105 0.359012991 0.269702673
0.582922220 0.398608506 0.294244230
0.935483694 0.447691351 0.322327405
0.090955116 0.608349264 0.309551120
0.233143821 0.614168286 0.307021141
0.452245235 0.616824865 0.310562849
0.686780274 0.621378839 0.312460601
0.966603100 0.674256980 0.348007381
0.404174298 0.913219512 0.384439975
0.461859614 0.916381836 0.385578662
0.617457151 0.914864182 0.386970073
0.804680943 0.916129172 0.394813508
0.986337543 0.918405890 0.410626292
0.001897590 0.083112404 0.420366555
0.084124111 0.099051289 0.416192085
0.299556971 0.123592407 0.401517808
0.546236634 0.149020001 0.425426930
0.913092554 0.088804848 0.481340796
0.000632584 0.212523818 0.394687086
0.101454817 0.215433285 0.387729406
0.289437115 0.220999405 0.389373660
0.544591904 0.240227699 0.422137946
0.912713468 0.229222104 0.477039933
0.000000000 0.354458958 0.394939810
0.128272980 0.355724424 0.401138693
0.340164781 0.381909966 0.418468982
0.584313452 0.395951957 0.432890385
0.929412007 0.441492379 0.482732624
0.069829233 0.600506246 0.445667535
0.228842527 0.603036225 0.449209243
0.438076943 0.607969522 0.449209243
0.678305268 0.617457688 0.455408275
0.956356585 0.671726644 0.494750082
0.439974427 0.904364228 0.514611244
0.500442684 0.906641483 0.523845792
0.639089167 0.907653570 0.523845375
0.807590067 0.910942197 0.537002027
0.987349629 0.915496588 0.554079175
0.000000000 0.136369124 0.634661376
0.187223241 0.140923545 0.628462851
0.413535804 0.146110132 0.623529553
0.639848232 0.141935885 0.614041984
0.928146720 0.093485162 0.642251790
0.001644708 0.255408138 0.607210696
0.184060663 0.255281299 0.611891150
0.410626113 0.252371997 0.604680538
0.630740285 0.244149268 0.604933262
0.937001824 0.240354270 0.646805823
0.012650247 0.416571796 0.591904223
0.197090223 0.417963266 0.597722828
0.422390521 0.416951537 0.605313122
0.649083078 0.407716691 0.600758970
0.943073988 0.453004330 0.649082959
0.161290243 0.617204368 0.606198251
0.273624092 0.615179956 0.609108150
0.485515803 0.623276711 0.610499561
0.738773108 0.654396117 0.639595270
0.961163819 0.688045263 0.670967996
0.524604559 0.902846396 0.684629977
0.576091111 0.905629218 0.691840768
0.690701783 0.904364347 0.704743505
0.826945066 0.909044743 0.706009030
0.974573076 0.915496767 0.714231431
0.219860956 0.217330620 0.893358767
0.340290636 0.215938956 0.893105447
0.545477629 0.208095953 0.888678193
0.780139267 0.193548322 0.889436781
0.983427942 0.199367583 0.885641634
0.245287880 0.319544673 0.888171732
0.349146187 0.318911850 0.892346680
0.554712057 0.314990282 0.887159705
0.783175170 0.309550643 0.884503484
0.983680904 0.319544584 0.883870721
0.346110225 0.515496612 0.886148036
0.421378851 0.514864147 0.879696190
0.594054461 0.514231563 0.884250462
0.793042362 0.514610887 0.879570067
0.986717165 0.525490046 0.882353008
0.462618560 0.716761231 0.879443407
0.523086548 0.717141092 0.881593883
0.660088301 0.723719358 0.881594062
0.817077935 0.725110769 0.882985473
0.974319756 0.733585954 0.881087780
0.582542479 0.919417739 0.878937602
0.622517347 0.915875852 0.889690042
0.718785346 0.916255176 0.892219603
0.844528794 0.916508615 0.886274636
0.959645987 0.929917574 0.911827683
