Assets/Resources/EldamarStudio/100 Horror LUTs Pack/LUTs/cube/Fear LUT.cube
DOMAIN_MIN 0 0 0
DOMAIN_MAX 1 1 1
LUT_3D_SIZE 32
0.019608000 0.062744997 0.078431003
0.019608000 0.062744997 0.078431003
0.019608000 0.062744997 0.078431003
0.025933161 0.064010158 0.082226165
0.043010999 0.066666998 0.090575546
0.073370993 0.066666998 0.093611933
0.106261961 0.069196679 0.101707675
0.134724990 0.067299001 0.104237713
0.159772098 0.061986096 0.101961002
0.187096506 0.058950488 0.101961002
0.220240608 0.061733127 0.101961002
0.249589249 0.060721260 0.099936746
0.278052002 0.061100997 0.098039001
0.308159024 0.066919968 0.097533002
0.335483402 0.069955580 0.091461003
0.370018601 0.075394996 0.092599802
0.406451374 0.081467383 0.097153999
0.442251533 0.086907417 0.103225991
0.475648016 0.089943036 0.109298013
0.511827707 0.095762007 0.118153363
0.548260450 0.098039001 0.123466253
0.587729335 0.099051133 0.126502126
0.633396983 0.101961002 0.129917979
0.681973815 0.101961002 0.142062008
0.730550528 0.095129713 0.154205993
0.781910241 0.088804677 0.164958671
0.836053193 0.086780928 0.173560992
0.887666285 0.089816540 0.179632992
0.933965743 0.098165818 0.188361824
0.974193335 0.105502978 0.199240968
1.000000000 0.113345981 0.209613994
1.000000000 0.125489995 0.215685993
0.019608000 0.059709385 0.090575777
0.010499613 0.059709385 0.081467390
0.025553387 0.064010382 0.079316616
0.038077161 0.065781385 0.083491325
0.054396093 0.067425996 0.094750382
0.079443760 0.072738998 0.105755933
0.107274093 0.070208676 0.098671682
0.133080706 0.075521708 0.106387988
0.158254474 0.077166297 0.108032614
0.190132901 0.074130103 0.098924614
0.220367134 0.074003614 0.098924614
0.247564971 0.076913260 0.096900873
0.276154250 0.078178644 0.096141741
0.308412075 0.082353383 0.098039001
0.338519782 0.088172354 0.097533002
0.368247986 0.088804774 0.096267998
0.403415769 0.093611777 0.098671801
0.439215928 0.099051416 0.102593422
0.472612411 0.102087036 0.106261626
0.511574745 0.105123356 0.115116976
0.552055478 0.109044641 0.124225341
0.591777325 0.110183001 0.130550385
0.633396983 0.111195125 0.135863498
0.681973815 0.114105001 0.145098403
0.735104561 0.111827716 0.154965103
0.785199225 0.108411998 0.164958671
0.836053193 0.107020676 0.174067065
0.887666285 0.104996927 0.182669386
0.931309581 0.108032539 0.194054365
0.969386518 0.118153028 0.198229000
0.994813383 0.127640754 0.205312982
0.996963620 0.137633994 0.215685993
0.013156226 0.069576226 0.089816995
0.010499613 0.069576226 0.091461390
0.014294775 0.067426004 0.078051999
0.036812000 0.073498003 0.082605936
0.056166865 0.076027997 0.094497450
0.082226865 0.082099997 0.101328224
0.111195542 0.078431457 0.102213681
0.136875629 0.081973478 0.098039001
0.160152093 0.089563675 0.105122998
0.190765500 0.089310296 0.098545000
0.223402962 0.091334552 0.098039001
0.247691467 0.091334552 0.096015260
0.275268644 0.094244130 0.094117999
0.308159024 0.097280249 0.095888771
0.336622030 0.101454996 0.095888771
0.369133592 0.104870223 0.095888771
0.399493992 0.106388412 0.098924771
0.435294151 0.111827992 0.104490988
0.471727043 0.116381802 0.112080820
0.508539140 0.119418129 0.120683134
0.549905181 0.120556772 0.124098770
0.593421876 0.122327544 0.133459985
0.635673702 0.122454025 0.142061979
0.686274767 0.125489905 0.153194144
0.735104561 0.126122490 0.158001482
0.785578609 0.123086452 0.164326087
0.833396494 0.122833475 0.172422349
0.883365273 0.123086452 0.183175445
0.931309581 0.127513930 0.194939971
0.972043097 0.134091973 0.201771215
0.992916048 0.144085988 0.209234744
0.989626765 0.151928782 0.226438776
0.006578161 0.087286159 0.088804998
0.005313001 0.087286159 0.089816995
0.014294773 0.086400770 0.089690387
0.029727999 0.085895158 0.082100004
0.054775096 0.091208160 0.095003389
0.082985640 0.095509157 0.096268222
0.110310152 0.096521161 0.099304162
0.138646409 0.096141860 0.099304162
0.164453000 0.102973156 0.098545067
0.192283332 0.105502844 0.098039001
0.222897023 0.108538866 0.098039001
0.249462247 0.110816158 0.096015260
0.274130285 0.111954510 0.095256351
0.307147175 0.114990182 0.095129870
0.335483402 0.118026569 0.094117999
0.367615402 0.121062346 0.095382839
0.402024329 0.125363514 0.099684000
0.433016866 0.127767324 0.105756000
0.471220970 0.132574320 0.116635017
0.507906735 0.137128517 0.125996351
0.545604110 0.138267159 0.133206829
0.590133131 0.138267159 0.134218961
0.636179626 0.138393641 0.145603985
0.687792540 0.141429260 0.157748014
0.738393545 0.139658153 0.163061291
0.786843777 0.142061681 0.167362481
0.832890272 0.139532000 0.171410233
0.881467640 0.141808704 0.182795882
0.931309581 0.146236315 0.193674803
0.969513118 0.152814358 0.205566049
0.998355389 0.162808135 0.213030040
0.988108873 0.169639170 0.236559168
0.004301451 0.108538546 0.093738452
0.000885613 0.109297544 0.088804998
0.010373225 0.109297544 0.090196453
0.030107547 0.110183157 0.095003389
0.053636551 0.112839997 0.097280003
0.083997317 0.112839997 0.094244391
0.110436641 0.117520548 0.098798454
0.136369705 0.121948257 0.101581454
0.163314551 0.124225549 0.100442909
0.193674564 0.124225549 0.097406521
0.221885055 0.127134666 0.097280003
0.247564971 0.130929798 0.096015260
0.273371279 0.133586451 0.094497353
0.303732008 0.136369094 0.097786002
0.334091961 0.139278963 0.095129870
0.367994845 0.142314747 0.097659737
0.401391834 0.146489382 0.102972642
0.437191993 0.151676551 0.111448541
0.470588505 0.151676565 0.117520563
0.507906735 0.157242566 0.127134800
0.544718564 0.159140006 0.135104254
0.584439933 0.159140006 0.142567679
0.633270383 0.159392998 0.145983532
0.685135901 0.162681654 0.158127561
0.735989809 0.159645543 0.163440734
0.785831690 0.158760086 0.167868540
0.835167646 0.163820103 0.174067065
0.883744419 0.163820103 0.183175445
0.935736835 0.166856378 0.192283139
0.973561108 0.171284080 0.204553738
0.993421912 0.178368062 0.219860643
0.996457577 0.190512091 0.238077447
0.007337064 0.129790932 0.090702064
0.001265064 0.135862932 0.093738452
0.008601999 0.136621937 0.090955228
0.028842382 0.136621937 0.091967225
0.056672931 0.137127995 0.094244391
0.074888930 0.137127995 0.091208003
0.107780024 0.139658317 0.095762067
0.136369705 0.143200636 0.098545067
0.162176102 0.145477936 0.097027071
0.184566945 0.145477936 0.091334522
0.217836797 0.148387060 0.091207996
0.246173292 0.155471191 0.093232259
0.271853268 0.160151929 0.092979357
0.297659993 0.160657868 0.091713995
0.328019947 0.160657868 0.097785994
0.367994577 0.163567126 0.104743861
0.399873465 0.166603118 0.109803736
0.428083599 0.170145571 0.114484213
0.461480111 0.172928944 0.120556958
0.506009161 0.178494945 0.134977594
0.546236694 0.178874195 0.139658064
0.586211205 0.177355990 0.143200263
0.630234003 0.177608982 0.149019927
0.684882879 0.183680996 0.161163956
0.732194841 0.184692934 0.166476652
0.778747618 0.185072616 0.170904398
0.826312304 0.188108861 0.176976934
0.880708754 0.188108861 0.183175445
0.937254667 0.193421870 0.192283139
0.977988422 0.197217152 0.203162417
0.998987973 0.201644853 0.215812922
0.999493957 0.208728880 0.228969067
0.002783001 0.158633634 0.092726320
0.004301323 0.159645632 0.093232386
0.006831322 0.163567409 0.096268229
0.023276322 0.165211797 0.093991160
0.051106773 0.165717632 0.094117999
0.077925324 0.161416635 0.093232386
0.103731640 0.158886313 0.090195999
0.132195085 0.165211692 0.092978999
0.157116100 0.171537086 0.093738094
0.178368494 0.176850319 0.092979319
0.208728537 0.172169760 0.092726320
0.240101174 0.173181638 0.094750062
0.270208627 0.178494677 0.097786322
0.299177736 0.180391997 0.098292321
0.329538286 0.184946001 0.104364313
0.362302095 0.184946001 0.110436313
0.399873167 0.187855512 0.117899992
0.429727793 0.190259323 0.123212889
0.465022027 0.191397980 0.131182954
0.501960754 0.197217003 0.140544295
0.547501862 0.201391742 0.144338906
0.590259433 0.201644510 0.145730317
0.634661496 0.203288823 0.151802674
0.686907172 0.206957638 0.159139693
0.737001896 0.213029638 0.169006959
0.785578966 0.210752651 0.175331980
0.833902717 0.210879311 0.182542995
0.884503782 0.214927316 0.188614994
0.931688726 0.220240310 0.202403784
0.975205123 0.224541530 0.209740624
0.998355269 0.229348689 0.222137973
1.000000000 0.237064987 0.237571001
0.000000000 0.185705408 0.094117999
0.004680675 0.185705408 0.092473291
0.003289295 0.189500466 0.099557221
0.019481616 0.190006524 0.100063153
0.044908255 0.191524237 0.097027451
0.074003875 0.186717406 0.095762290
0.103478611 0.186464086 0.098165669
0.130803406 0.181783393 0.090195999
0.154333100 0.190891787 0.093231998
0.175585493 0.200000182 0.098924764
0.207210705 0.199493989 0.099051282
0.237571195 0.195825696 0.101075441
0.266793340 0.196964040 0.102972701
0.299177736 0.199999735 0.105755992
0.330929816 0.204680398 0.111827992
0.358760089 0.207589701 0.116255701
0.396710664 0.209107891 0.125363708
0.431119114 0.212144285 0.132321268
0.467552006 0.213156417 0.141429678
0.502340019 0.218722418 0.145604357
0.546110213 0.222896725 0.153700262
0.590639234 0.225933120 0.152688131
0.635926664 0.228968889 0.158254206
0.689057708 0.232004881 0.165844411
0.740037799 0.235673696 0.169259995
0.790006220 0.240354359 0.178368017
0.841113389 0.237065390 0.185958281
0.889690101 0.243137404 0.189753279
0.935610473 0.249209389 0.203795090
0.974066854 0.246932194 0.216951266
0.997722745 0.254396200 0.223908871
1.000000000 0.265781105 0.239848003
0.000759096 0.209994003 0.100189991
0.004554002 0.209994003 0.094117612
0.003542000 0.213536099 0.101075098
0.010373224 0.215812936 0.106894061
0.040734001 0.213535652 0.103858456
0.068437934 0.211259037 0.100822158
0.098292001 0.212523878 0.103098996
0.125489935 0.210626200 0.103099100
0.154333100 0.206831098 0.096268192
0.175585493 0.215939492 0.108412191
0.207716763 0.219987229 0.108918190
0.237571403 0.219734266 0.110183351
0.268311530 0.219734445 0.112081096
0.296141922 0.222517088 0.112587094
0.329538286 0.225047410 0.118659087
0.358001173 0.228083387 0.122327700
0.387602478 0.231119379 0.127640992
0.430739611 0.234155610 0.137887418
0.467551976 0.237191975 0.146742776
0.503478467 0.243011013 0.151296899
0.544085920 0.247185454 0.153953359
0.592157245 0.250980228 0.162555039
0.635041475 0.254016608 0.165717930
0.689057708 0.257052392 0.174193904
0.742188454 0.260088384 0.178747892
0.793800950 0.263883680 0.180645302
0.844402194 0.266920060 0.190765068
0.892725945 0.272739112 0.192030087
0.937887430 0.278052002 0.202276900
0.976344109 0.279063910 0.214926958
0.999240935 0.276407272 0.226944685
0.999240935 0.294624090 0.236053094
0.003795484 0.234282017 0.124477997
0.000759098 0.234282017 0.109297618
0.000253001 0.236432791 0.111827776
0.008855157 0.237065330 0.116002321
0.031625599 0.234788045 0.112966076
0.061986379 0.237824440 0.109930456
0.092219993 0.238077492 0.106894165
0.117646702 0.234914988 0.107526712
0.142188311 0.231119886 0.111448579
0.175585493 0.234155491 0.120556965
0.205565989 0.240354016 0.121062964
0.232005015 0.242251500 0.121062979
0.259962142 0.244402006 0.121189490
0.293105543 0.249841481 0.121695489
0.326501876 0.249841481 0.127767473
0.359898895 0.252371788 0.131435677
0.389880180 0.255408168 0.134471714
0.421631992 0.258444399 0.137887433
0.467172503 0.261480033 0.140923053
0.509550691 0.267299026 0.155344412
0.549778700 0.271473765 0.158507273
0.592663229 0.275521994 0.160025358
0.641113460 0.281341046 0.168753535
0.692725897 0.284377426 0.174826324
0.746742666 0.287413210 0.183301702
0.799873590 0.291840523 0.187855512
0.850474179 0.297280103 0.190765068
0.896015286 0.300316483 0.205945432
0.939026058 0.303478688 0.209867328
0.976344109 0.308412015 0.216951236
0.999114394 0.315622717 0.227071211
0.996204555 0.328020513 0.239089489
0.003922000 0.258570731 0.125489995
0.003795483 0.252751738 0.124857478
0.000759097 0.259202957 0.113978095
0.002529999 0.263757169 0.117267452
0.018595770 0.264010191 0.118785650
0.061606862 0.261985958 0.113219067
0.089437321 0.259962320 0.117773771
0.119417854 0.257938147 0.120809734
0.145224184 0.255408078 0.123592772
0.172169596 0.258444250 0.124098606
0.199746996 0.261479855 0.124478124
0.230107501 0.263503879 0.126502380
0.258444279 0.264642507 0.129665002
0.290069908 0.268690705 0.133459970
0.323466271 0.271346867 0.136875123
0.354458869 0.271346867 0.140543938
0.390385836 0.276913166 0.145097867
0.424541533 0.282732576 0.150157988
0.460974038 0.285768777 0.155470908
0.503731787 0.294370413 0.158507228
0.548134208 0.298671603 0.167488873
0.592663229 0.302719861 0.168500990
0.641366482 0.308665395 0.171916366
0.692978919 0.311701775 0.180771798
0.746869147 0.312460870 0.182289988
0.800126612 0.317647040 0.190891862
0.850727201 0.324730933 0.197469935
0.896268308 0.327767313 0.203036308
0.939152598 0.333459854 0.218216002
0.976344109 0.338519722 0.222264335
0.999114394 0.344591737 0.229095459
0.996078014 0.352688015 0.239216000
0.001897744 0.284883261 0.131562248
0.001897744 0.280834973 0.135610253
0.003795482 0.279443473 0.131182730
0.002024256 0.284756243 0.125869498
0.011132352 0.286653996 0.128526449
0.055028804 0.285262316 0.120809384
0.089437321 0.286274582 0.124857374
0.118405983 0.284883261 0.129285440
0.148007289 0.283744425 0.133459985
0.173561245 0.286780477 0.131688759
0.202782854 0.287792385 0.133585989
0.232131511 0.286780506 0.135610253
0.260215282 0.287918866 0.137507990
0.289058030 0.290955007 0.142315000
0.322454393 0.293991059 0.150663838
0.357495517 0.298671514 0.149652064
0.389373720 0.300189704 0.154206246
0.427830517 0.306388497 0.159645677
0.464010030 0.308033228 0.164325997
0.503732026 0.314611167 0.167615354
0.548133969 0.321821511 0.170651734
0.593675077 0.327008396 0.175585121
0.641619444 0.334092498 0.176723510
0.697026908 0.339026153 0.182036906
0.748892844 0.341808975 0.186337739
0.803541958 0.344591975 0.193295389
0.854269147 0.352561355 0.205566049
0.898292005 0.357115954 0.211638451
0.941176355 0.362808496 0.213156134
0.974825859 0.367109269 0.226565421
0.997090399 0.373813868 0.233017236
0.994054258 0.381024510 0.243263990
0.001138644 0.309930652 0.140670642
0.000000000 0.309171230 0.144465640
0.001012130 0.309424281 0.144212648
0.005060354 0.308285624 0.139532000
0.009234898 0.308285624 0.139911547
0.049462575 0.308285624 0.133839354
0.085515678 0.308538973 0.135104284
0.119544625 0.309930652 0.140670359
0.151422828 0.309930652 0.144465640
0.179886460 0.312586814 0.145224631
0.205565989 0.316128641 0.144718409
0.234787852 0.314104915 0.146615908
0.265148640 0.312207639 0.148513645
0.289943427 0.314737260 0.148766607
0.322454393 0.316002399 0.158253998
0.358254611 0.322580606 0.160657808
0.394307554 0.328273207 0.162175983
0.429601461 0.331309587 0.166983008
0.469576001 0.331815630 0.169512674
0.510183454 0.338519990 0.175964355
0.552308738 0.344592303 0.177862078
0.598861277 0.350664288 0.180898473
0.644655347 0.359519631 0.183934122
0.699303865 0.365591645 0.186970249
0.753573418 0.371663630 0.191144988
0.804300904 0.374952257 0.196331292
0.858443737 0.380518347 0.209993646
0.902845860 0.385958552 0.218469441
0.943073630 0.394307643 0.223782450
0.977861762 0.397470057 0.229601398
0.996331036 0.402276874 0.239089593
0.993295372 0.411385268 0.250474632
0.004174968 0.331942022 0.150284961
0.000885613 0.334471673 0.149272963
0.000000000 0.337507755 0.150031999
0.002529999 0.338266879 0.149272829
0.013029608 0.336116076 0.146236509
0.046425998 0.336116076 0.149272904
0.081593670 0.333333343 0.149778962
0.117773399 0.332195044 0.153574035
0.153447151 0.331942022 0.158381000
0.189879954 0.331942022 0.164453000
0.210119992 0.340164185 0.159898996
0.234661266 0.341429293 0.157875001
0.263124317 0.339532018 0.157621965
0.293485045 0.339532048 0.157875001
0.323845804 0.336495638 0.160910621
0.358507574 0.342820793 0.163946852
0.395193070 0.350158036 0.168753996
0.432384104 0.355850607 0.174320027
0.474888980 0.358886987 0.174320042
0.517646790 0.367235720 0.183428049
0.560151517 0.374446481 0.188740999
0.604933321 0.380266041 0.190006167
0.653636515 0.386591017 0.192916036
0.702339768 0.392916054 0.195825160
0.755471051 0.401012272 0.201138571
0.807337284 0.408096343 0.207210988
0.855914116 0.410879076 0.213029966
0.907526433 0.413915455 0.219101951
0.945856631 0.424668014 0.232637763
0.978494346 0.430234045 0.246046931
0.998861432 0.432890624 0.255028576
0.995825052 0.441999018 0.258064955
0.007210577 0.362301975 0.165464565
0.001138578 0.359266371 0.153320581
0.000000000 0.361796051 0.158760354
0.002529999 0.363566995 0.163440838
0.013535639 0.363693506 0.164072976
0.058570758 0.369513243 0.158380523
0.086907148 0.364452600 0.158886582
0.119418107 0.363946676 0.165464982
0.151929095 0.364832282 0.171031311
0.180771574 0.362301975 0.164453000
0.214294448 0.365211844 0.170524999
0.242504492 0.367488801 0.170018986
0.272232682 0.366856396 0.168880343
0.302593410 0.366856396 0.166982606
0.332953393 0.366856396 0.170018986
0.363314152 0.371030807 0.173055217
0.399494141 0.376217574 0.179127216
0.437697798 0.380518794 0.187602550
0.474888980 0.386211365 0.195572391
0.520177066 0.392030388 0.184440389
0.563187897 0.398734808 0.190638676
0.608728826 0.403795123 0.196837261
0.659709334 0.407843381 0.202024415
0.711321712 0.419987410 0.202024415
0.764578998 0.426312417 0.207210839
0.816445172 0.435799956 0.213282987
0.864516497 0.444022387 0.218848929
0.910562813 0.444275409 0.222137570
0.948893011 0.452624798 0.230866402
0.980012536 0.460594386 0.243010536
0.998229027 0.466286987 0.250727206
0.992789388 0.475395381 0.248956591
0.003036004 0.390259385 0.175837800
0.001771000 0.394434005 0.166096985
0.002150774 0.393548608 0.164705768
0.007463803 0.396331251 0.172042996
0.020746343 0.396331161 0.175458342
0.066286989 0.392283678 0.171410605
0.096647508 0.395445943 0.175205603
0.127261296 0.392662585 0.170271903
0.160657898 0.394939870 0.176344275
0.191271290 0.395192921 0.177103311
0.219607666 0.395572484 0.175331995
0.250980288 0.396584600 0.179380253
0.281340778 0.396584600 0.180898160
0.311195254 0.396837562 0.180644795
0.337254763 0.398987800 0.181530401
0.372422367 0.396584600 0.179759800
0.402783155 0.399620593 0.184313983
0.439595520 0.403668761 0.189373821
0.477798879 0.413282782 0.189626977
0.520177066 0.419354767 0.200885788
0.569513202 0.427324533 0.198229060
0.615560055 0.433902591 0.202276945
0.665781498 0.438583285 0.204174995
0.717393875 0.448450595 0.208728999
0.764452815 0.456040591 0.211005703
0.817330778 0.464895576 0.215559870
0.865908027 0.475521654 0.220619991
0.909550607 0.477419406 0.225553349
0.949525595 0.480581611 0.229095623
0.980645120 0.489689976 0.241745532
0.999114394 0.498165578 0.252751201
0.994560182 0.508791745 0.254269809
0.000000000 0.422137976 0.183427989
0.000000000 0.423656195 0.184946179
0.000632582 0.428463191 0.181403950
0.016318966 0.424668044 0.178115174
0.033649631 0.427450716 0.183428183
0.076913312 0.425174117 0.186084926
0.108791500 0.423149854 0.183048800
0.136368901 0.424541175 0.186970487
0.169766083 0.425300270 0.180139184
0.203162700 0.428336680 0.186970472
0.230740070 0.428463191 0.184440121
0.261606485 0.428463191 0.186970070
0.291967273 0.428463191 0.187729448
0.322580427 0.428463191 0.190259188
0.350663990 0.430233955 0.192789197
0.381530792 0.429980993 0.190385610
0.413409352 0.428463191 0.190385982
0.445667505 0.429728180 0.196457982
0.485136002 0.440101206 0.193928003
0.525869966 0.445161402 0.198229373
0.572549224 0.454648942 0.204301462
0.624162138 0.464769185 0.208349198
0.673118293 0.471853167 0.206831485
0.721948087 0.479569882 0.208728820
0.770524859 0.486400962 0.212523907
0.817457259 0.492473334 0.216951177
0.867425919 0.503858268 0.223150060
0.909930170 0.508918405 0.234282181
0.951296449 0.514990509 0.234661639
0.977609098 0.518532574 0.240227729
0.998734951 0.528526366 0.253636599
0.997596204 0.540670395 0.260341793
0.000632579 0.456672728 0.190132573
0.000000007 0.456799507 0.199747205
0.003162569 0.458317518 0.203668803
0.019607706 0.460594535 0.198734984
0.052624639 0.452624679 0.188108981
0.091334775 0.460974038 0.199240983
0.123213135 0.460594386 0.194939822
0.152561247 0.459202707 0.192409694
0.180771261 0.459329218 0.194686979
0.214168459 0.462365597 0.194686979
0.242378429 0.462492108 0.191777274
0.273118198 0.462492108 0.194813147
0.306008846 0.461859524 0.197469622
0.336622596 0.462112546 0.195192978
0.370018929 0.462492108 0.201264977
0.400379568 0.461859524 0.198861346
0.429854751 0.463124543 0.199493766
0.458444089 0.462492108 0.201897562
0.497912586 0.468564123 0.207969576
0.538014054 0.472485900 0.206957772
0.582543015 0.479949534 0.206451982
0.630866706 0.491461128 0.207210988
0.682479024 0.503478587 0.213029996
0.729032278 0.510056555 0.210499659
0.774952531 0.516761124 0.213282853
0.823529243 0.523465872 0.217077971
0.871094108 0.529538512 0.223149970
0.913598835 0.538519681 0.243769854
0.954206049 0.547627926 0.245667160
0.982669175 0.553194165 0.248576552
0.993927956 0.558254540 0.256166577
1.000000000 0.570398569 0.265274972
0.003668982 0.483997941 0.199240983
0.000632618 0.496141940 0.199240983
0.010752823 0.496268213 0.206704825
0.037318178 0.496521205 0.209740818
0.079949096 0.498165965 0.206325024
0.110309869 0.498165965 0.206325009
0.141429678 0.498924971 0.204807326
0.171789944 0.498671949 0.204554230
0.201897189 0.498671949 0.206831008
0.232384503 0.498798490 0.206831008
0.262871772 0.498924971 0.203921884
0.292979002 0.498924971 0.206957951
0.324730933 0.497786343 0.209614307
0.357875019 0.495509058 0.207337022
0.391271383 0.498545438 0.213408992
0.419860780 0.496521175 0.207463831
0.448956400 0.498292029 0.206451952
0.479696542 0.501960635 0.211005971
0.513092995 0.498924971 0.211005971
0.555344701 0.504997015 0.214294612
0.599494159 0.510816038 0.216824770
0.645288050 0.518406153 0.218595996
0.691587448 0.527767420 0.219102010
0.743200719 0.536875129 0.219101995
0.785199225 0.545730352 0.225680247
0.829601288 0.554585695 0.231499285
0.877166152 0.562934995 0.235293999
0.919670880 0.569006979 0.241365999
0.954205751 0.577988803 0.248703003
0.983048379 0.583554804 0.255787194
0.999494016 0.588361681 0.265527934
1.000000000 0.597723067 0.277419001
0.015054008 0.530803740 0.211132005
0.034282342 0.531815708 0.211132005
0.052751511 0.535357714 0.213282779
0.074256748 0.535483956 0.216065839
0.106894016 0.537760973 0.213029563
0.134851605 0.535357714 0.210626364
0.165211722 0.535357714 0.208096042
0.195572421 0.535357714 0.206704646
0.225932911 0.535357714 0.208602101
0.256293714 0.535357714 0.210626364
0.286653757 0.535357714 0.207716525
0.317014515 0.535357714 0.210752636
0.348513365 0.536496103 0.214547649
0.381657094 0.537507772 0.213662043
0.412523776 0.543073773 0.217204347
0.445920169 0.543706357 0.216065541
0.475521743 0.542567730 0.212270647
0.505882502 0.544844747 0.213915229
0.537128747 0.543959320 0.211765006
0.576091111 0.543706357 0.211765006
0.614800811 0.545983374 0.218595594
0.658697248 0.552308619 0.223402768
0.706008792 0.563188195 0.225047499
0.752308369 0.572295845 0.222390637
0.794813454 0.581404030 0.224667922
0.838456631 0.589120746 0.231372625
0.885009468 0.597343385 0.235800058
0.922960222 0.607969403 0.239595354
0.960151970 0.614042044 0.248323500
0.984819651 0.619481504 0.256293178
1.000000000 0.623402715 0.268058181
1.000000000 0.630613387 0.283997715
0.053763449 0.573687732 0.215685993
0.065528102 0.577482700 0.219480991
0.091081493 0.577482700 0.221631765
0.113345884 0.577482700 0.220872998
0.136116013 0.579127014 0.216824725
0.163440779 0.576091409 0.212270945
0.187602729 0.577482700 0.216824666
0.221252128 0.575838447 0.215432987
0.251359820 0.577103496 0.215432987
0.280581981 0.579380453 0.217330739
0.310942471 0.579380453 0.218342870
0.341302961 0.579380453 0.213788733
0.371663451 0.580518782 0.217583731
0.404553801 0.583048522 0.217836693
0.438203543 0.584187210 0.220872670
0.469070256 0.585452199 0.219101921
0.503984809 0.585452199 0.219101533
0.535736978 0.586084604 0.219480991
0.567362726 0.587349474 0.217710212
0.600379884 0.587349474 0.217457250
0.636053205 0.591144443 0.217457250
0.673497856 0.589120448 0.222517133
0.719038486 0.595825493 0.224035501
0.761037409 0.604933560 0.228083566
0.803921521 0.614041746 0.231499016
