Assets/Resources/EldamarStudio/100 Horror LUTs Pack/LUTs/cube/Felscylla LUT.cube
DOMAIN_MIN 0 0 0
DOMAIN_MAX 1 1 1
LUT_3D_SIZE 32
0.062744997 0.047059000 0.050980002
0.065781385 0.044022612 0.050980002
0.068817228 0.045287773 0.053130776
0.074383162 0.048323840 0.053636838
0.083491549 0.051359549 0.051739097
0.092599936 0.054395933 0.057811871
0.101707675 0.057432320 0.063883997
0.110815704 0.060468286 0.065022290
0.119924098 0.063504092 0.064262994
0.129032493 0.066540487 0.070335001
0.141049996 0.072485998 0.073497869
0.151170254 0.076533742 0.078557998
0.161416993 0.080708288 0.085768647
0.173560992 0.086780995 0.094117999
0.185704991 0.092852995 0.094117999
0.197849602 0.098924994 0.101328187
0.213029996 0.108032994 0.108917996
0.230613559 0.118911989 0.114357576
0.245793983 0.124984011 0.117393978
0.260974377 0.131056011 0.125996351
0.274257004 0.139025733 0.133206993
0.289437145 0.149145991 0.140291125
0.310689479 0.161290020 0.149652466
0.331941903 0.173434809 0.164832100
0.350916982 0.183301702 0.173181564
0.369133323 0.195192650 0.180645302
0.388868064 0.211385071 0.190765068
0.416192412 0.232637435 0.205945432
0.446173608 0.253889799 0.226438791
0.478305131 0.276913375 0.251233160
0.517014503 0.300316572 0.275901198
0.568627000 0.321568996 0.294117987
0.074889004 0.047059000 0.047944386
0.062744997 0.047059000 0.044907998
0.074383385 0.048323613 0.049208999
0.080961548 0.047564615 0.054395936
0.086527832 0.046426095 0.057432223
0.095635548 0.057432320 0.060847484
0.102213606 0.057938386 0.059329934
0.110815704 0.063757285 0.065528281
0.120682999 0.068816997 0.069576092
0.132068112 0.069576100 0.073371388
0.144086361 0.075521611 0.076533519
0.156230390 0.081594124 0.083617866
0.166350648 0.085642122 0.090701997
0.176597387 0.089816608 0.097153611
0.188741386 0.095888607 0.097153611
0.198482201 0.099557415 0.101960607
0.213029996 0.108032994 0.108917996
0.229980975 0.118911989 0.115622565
0.242757589 0.124984011 0.123465963
0.257937968 0.136622012 0.126502365
0.275016069 0.143200472 0.135104254
0.291461378 0.151170269 0.142314881
0.310562968 0.161416501 0.149399474
0.328905493 0.176470429 0.158760116
0.352435172 0.186337903 0.173940286
0.372169375 0.198229045 0.183681279
0.391397744 0.212903395 0.192789465
0.416192412 0.226565436 0.202909812
0.443516791 0.247817799 0.226059332
0.477039933 0.272612154 0.245920390
0.512587190 0.299051166 0.270335346
0.553447366 0.324604601 0.297153592
0.078431003 0.053510774 0.047059000
0.068437770 0.055660997 0.050474387
0.073497772 0.053510774 0.051739547
0.083618164 0.056546386 0.056546386
0.087792993 0.053889770 0.060594775
0.098671839 0.058950093 0.060088836
0.105249770 0.065275222 0.062365547
0.111321770 0.068564221 0.065907925
0.119924098 0.076407194 0.073497675
0.130676791 0.079190552 0.076533712
0.144971743 0.085009545 0.083870903
0.157115996 0.087033547 0.086907029
0.168121651 0.091714352 0.092346773
0.177229956 0.095003001 0.096394770
0.187476218 0.101074994 0.100189775
0.203668803 0.104743801 0.102845997
0.215813190 0.110816188 0.110436186
0.231499180 0.121695183 0.116508350
0.242125019 0.129285008 0.122580744
0.257052362 0.140923560 0.130423576
0.274130464 0.147374809 0.137254953
0.292346984 0.153194219 0.144338906
0.310562968 0.161416501 0.149652466
0.328778982 0.176596910 0.162808105
0.347248554 0.189373508 0.172169283
0.371536970 0.199873552 0.184566662
0.392789066 0.214800999 0.195699066
0.418722123 0.230233982 0.211385444
0.439215809 0.250347793 0.223023728
0.478937328 0.275142133 0.245540932
0.516888201 0.302466542 0.267678946
0.553321004 0.329790980 0.298038989
0.082226165 0.062618837 0.049588997
0.075648546 0.064389609 0.056926161
0.077799000 0.065654770 0.058317609
0.087413006 0.065148838 0.061353996
0.091208383 0.067805000 0.064389609
0.102467000 0.067805000 0.063124776
0.109550998 0.072865322 0.065148838
0.115622997 0.076407321 0.068943545
0.122454099 0.082479320 0.077293031
0.131562486 0.088551976 0.080834843
0.143959865 0.092093997 0.087159872
0.157115996 0.097912833 0.092220254
0.168121651 0.097912833 0.095256351
0.177229956 0.101075001 0.095382839
0.186337575 0.107146993 0.099430837
0.200126603 0.112080961 0.105629347
0.218090028 0.116888188 0.109171025
0.233270392 0.125363991 0.118279405
0.243643224 0.133839220 0.122580819
0.258317530 0.145730555 0.131182820
0.272865295 0.153447255 0.140290901
0.291081816 0.159519255 0.148387164
0.309171319 0.166223794 0.152055979
0.326248974 0.179126903 0.166097268
0.345730394 0.190765157 0.175458282
0.365464956 0.204174325 0.188361824
0.390259057 0.217330992 0.196458101
0.417583406 0.235546976 0.213156268
0.443263799 0.255154967 0.230107814
0.472865313 0.278684139 0.242504999
0.519671202 0.306008548 0.269070387
0.556863010 0.333332986 0.300568998
0.090195999 0.072865091 0.056419998
0.088298835 0.072865091 0.065907925
0.088804774 0.074256770 0.065275222
0.093864545 0.077672385 0.065148607
0.099556997 0.080708094 0.068184994
0.108665384 0.080708094 0.071220607
0.115243547 0.085009642 0.074256867
0.121315539 0.087413445 0.076913387
0.128146544 0.088551991 0.080708191
0.137254938 0.094623998 0.086780965
0.146363333 0.095635995 0.089563675
0.157495439 0.100948729 0.092979252
0.168121651 0.107020542 0.096015349
0.177735955 0.107526541 0.099051028
0.187096581 0.113598540 0.099177547
0.198608607 0.120050602 0.105629250
0.212650448 0.125743449 0.112080894
0.230613559 0.131815538 0.116002113
0.245793983 0.137887567 0.125110522
0.261353821 0.149146020 0.134598359
0.274636537 0.157874554 0.143706739
0.288045555 0.165211722 0.151423454
0.306388050 0.177229956 0.157748476
0.322074473 0.186337650 0.169892550
0.341808826 0.196204841 0.177862003
0.362302184 0.207337111 0.187982231
0.384566605 0.222643986 0.204807490
0.411890984 0.240859985 0.207843095
0.443390369 0.259456098 0.228716075
0.476787120 0.280834913 0.246679515
0.512081087 0.305629104 0.264516115
0.554585934 0.332953542 0.303984553
0.090195999 0.091081865 0.068563998
0.096267998 0.091081865 0.080708772
0.094370835 0.088931091 0.075142384
0.098671928 0.090701997 0.072106004
0.108665384 0.095888481 0.077292614
0.111700997 0.098924868 0.080329001
0.118279703 0.098924868 0.083365254
0.124351926 0.098292291 0.084756933
0.131182835 0.097280160 0.086780861
0.140290543 0.100696005 0.092852965
0.149398938 0.106767997 0.093106002
0.160531059 0.109803736 0.097659931
0.170398340 0.113851637 0.102087349
0.177735955 0.116634935 0.105123028
0.192915559 0.122706927 0.108159415
0.204680607 0.131182730 0.110689126
0.215306804 0.136748806 0.116255447
0.227830201 0.140923217 0.121821858
0.245793998 0.146995947 0.128146917
0.263757020 0.155850589 0.140037954
0.277672559 0.165464744 0.149778739
0.289816916 0.173054919 0.156862870
0.303352416 0.180265561 0.160784081
0.324604839 0.189373970 0.172928870
0.344845206 0.203036219 0.182795644
0.363314569 0.214421242 0.190005988
0.381531000 0.225553125 0.199114263
0.408855349 0.240859985 0.210879490
0.433522880 0.261732817 0.227197900
0.464642704 0.282479227 0.246426448
0.498924941 0.305123180 0.264516503
0.536369145 0.329917938 0.288804948
0.102846317 0.111828320 0.085768640
0.106387995 0.109297998 0.087792777
0.110309772 0.111448772 0.093485229
0.110563159 0.109171480 0.088298321
0.117773771 0.111448318 0.090701871
0.120809376 0.116634928 0.089437254
0.126375318 0.114611320 0.089943320
0.134092376 0.116255604 0.094623998
0.141809091 0.116508409 0.095635906
0.150917158 0.119544804 0.096394680
0.160024866 0.117899992 0.099178001
0.165085256 0.121948250 0.101201735
0.177988306 0.126122639 0.107906319
0.189626738 0.130803317 0.113978319
0.197976202 0.136875317 0.119291410
0.215559632 0.142947316 0.122327797
0.224920988 0.150410995 0.126881644
0.234914452 0.155091316 0.132953987
0.253131270 0.161163628 0.139026001
0.266287327 0.170018971 0.143074334
0.286401063 0.177229315 0.155218318
0.301455140 0.185705125 0.165970996
0.315370291 0.193548307 0.173687309
0.334218889 0.205059901 0.181024492
0.353193998 0.218722269 0.190891966
0.375584990 0.232510969 0.199999988
0.395193070 0.244275436 0.207716584
0.418469429 0.261480063 0.217836559
0.448197603 0.276913434 0.232763961
0.479569525 0.299936563 0.256293118
0.515496433 0.326375484 0.277672261
0.553573668 0.357242316 0.298924685
0.114737704 0.123213284 0.097406998
0.112839609 0.125110611 0.099051282
0.117520481 0.124731056 0.096268229
0.123086542 0.127767444 0.100569002
0.126122832 0.125490159 0.100948542
0.126628771 0.127766997 0.097912937
0.133838996 0.131182611 0.100695990
0.141555697 0.126502275 0.100695990
0.149904996 0.130296990 0.106767990
0.158127770 0.134218767 0.106388219
0.163946837 0.136369541 0.105882153
0.175584957 0.135736957 0.110563152
0.179759696 0.138773054 0.111321770
0.195445716 0.144086033 0.118152998
0.204301119 0.148766696 0.124224991
0.215053990 0.153193995 0.129538089
0.234788179 0.160784185 0.135610476
0.242757678 0.167615280 0.142441571
0.258950233 0.174699426 0.149525702
0.269955993 0.183554351 0.152814642
0.284503728 0.190765411 0.159898996
0.305756122 0.197849274 0.170019001
0.322327971 0.207210481 0.180771500
0.340543985 0.220872700 0.188361719
0.357115716 0.232004970 0.195066288
0.376723349 0.247185349 0.205565974
0.401265055 0.260088474 0.215433419
0.424794436 0.277166605 0.225679949
0.450727642 0.296015084 0.240100801
0.479696602 0.316508621 0.255787164
0.517899871 0.341682255 0.284882575
0.558127999 0.375837982 0.309170991
0.122327901 0.131562188 0.104237907
0.121568412 0.136116192 0.108032800
0.120303445 0.139405191 0.106135190
0.126122937 0.139152169 0.103605196
0.135230646 0.141809002 0.108538643
0.133713022 0.139152154 0.105502933
0.137760773 0.141429201 0.107779898
0.146868795 0.142441198 0.111322001
0.155976996 0.137887195 0.112081096
0.162048995 0.143959194 0.118153103
0.166729867 0.150031745 0.117773324
0.176344246 0.152056009 0.120050408
0.188108996 0.153953448 0.123466358
0.194434032 0.157242090 0.121188998
0.206072092 0.160784423 0.127260983
0.217330888 0.163061291 0.132574081
0.229475081 0.169133291 0.140164286
0.248830050 0.178241670 0.148007512
0.260974109 0.187350079 0.156862870
0.273371458 0.196457744 0.162681833
0.285515726 0.203668386 0.167994738
0.301961035 0.209994063 0.175332084
0.323213398 0.219354659 0.181530565
0.342061996 0.234534889 0.190638810
0.358760387 0.245920375 0.198988095
0.375964642 0.257811755 0.207083970
0.397723138 0.272992015 0.220240116
0.424794525 0.288172334 0.232890874
0.450980544 0.307906330 0.247691318
0.480076253 0.330929369 0.264389366
0.510310054 0.358380646 0.284882754
0.552814901 0.385705084 0.318279177
0.125363514 0.155850977 0.113345526
0.140543893 0.155850992 0.119418301
0.137634188 0.160404980 0.121062979
0.134218678 0.162428826 0.120809972
0.138267055 0.160025015 0.120683432
0.147375420 0.160025001 0.117647037
0.145857185 0.157368824 0.114610687
0.149905205 0.156356990 0.115243234
0.159013391 0.156103984 0.118153103
0.168120980 0.156103984 0.121189497
0.177102864 0.162175998 0.127261490
0.185958251 0.164200023 0.130929708
0.194180995 0.166477025 0.132953525
0.200506032 0.172422498 0.133333012
0.209614411 0.178494498 0.139404997
0.223656282 0.179633006 0.143073812
0.235547289 0.184313700 0.149272695
0.245793656 0.193422079 0.157115921
0.257938474 0.202530473 0.160151541
0.278431863 0.211638153 0.171790242
0.293485492 0.218848497 0.177862227
0.307779998 0.224920794 0.181151122
0.326249003 0.231499448 0.184566975
0.347501427 0.246679068 0.193674594
0.366350591 0.259582579 0.205060095
0.384440482 0.272992134 0.215559795
0.403795153 0.288172394 0.226312116
0.428083897 0.303352028 0.244528875
0.457811415 0.321189165 0.259835809
0.493232101 0.343073875 0.278558105
0.531309426 0.370904148 0.303099513
0.567994535 0.406957477 0.336495966
0.131309003 0.162681997 0.119544744
0.129032388 0.171410874 0.125616774
0.139911234 0.167109326 0.131688997
0.142947167 0.170145452 0.133206993
0.149652004 0.172043189 0.133206993
0.156230062 0.169512868 0.132700935
0.157748133 0.169512868 0.127134860
0.160025001 0.170145720 0.127008021
0.166350216 0.172169775 0.130044088
0.171157375 0.174319997 0.133080482
0.177355871 0.174320012 0.136116132
0.188487992 0.180391997 0.138140127
0.198481768 0.183301643 0.141429275
0.206831008 0.187602863 0.145224705
0.218595535 0.193674862 0.148639873
0.227703929 0.197343677 0.154711872
0.241872311 0.202403545 0.162808374
0.255028427 0.211511567 0.172043294
0.269449949 0.220619962 0.175078914
0.284377337 0.224162355 0.175331876
0.301581234 0.233016998 0.183175117
0.314737380 0.241112992 0.189247131
0.329158843 0.249209508 0.196204990
0.347627908 0.258823842 0.202529982
0.368880272 0.269449443 0.211638153
0.389120758 0.283744454 0.223149985
0.408855140 0.300948977 0.235293999
0.428336889 0.318532377 0.253510743
0.455281794 0.331055850 0.271726847
0.487159997 0.355850488 0.288930953
0.520809710 0.384187043 0.309930325
0.551169991 0.416571856 0.337255001
0.141429514 0.176849991 0.133712992
0.140417635 0.183934122 0.133712724
0.139911741 0.190386206 0.133712992
0.145224512 0.186843753 0.139784992
0.152055711 0.190639243 0.140923440
0.159772009 0.189247563 0.139278740
0.160784006 0.188741505 0.138266727
0.165717706 0.188741505 0.137128443
0.172169253 0.190639243 0.140164346
0.176470488 0.192410022 0.143200740
0.184440255 0.194560245 0.146236375
0.192536503 0.196584493 0.149272516
0.202403516 0.201517850 0.150410876
0.210879266 0.204554021 0.155597731
0.223023251 0.208855242 0.160404563
0.236812055 0.218595803 0.165844500
0.247438237 0.221632183 0.171916500
0.261479974 0.228462920 0.180518985
0.275268734 0.234787971 0.182163298
0.290449083 0.240354091 0.184439987
0.301834464 0.245288193 0.188234985
0.316761404 0.253257513 0.193295121
0.330044508 0.261480242 0.200379506
0.346363276 0.272485912 0.208349273
0.366856545 0.287665963 0.218722284
0.385325551 0.299556911 0.230613649
0.406324923 0.316128969 0.244402245
0.429095894 0.331308961 0.262618631
0.455281794 0.350284249 0.278810948
0.484376907 0.367741406 0.297026932
0.518405974 0.395572186 0.317014188
0.549145997 0.423656017 0.341302991
0.149020001 0.196204633 0.147375003
0.150158361 0.201138288 0.146615893
0.153574005 0.204933539 0.145856768
0.153574005 0.208475992 0.144338995
0.153574005 0.208475992 0.148892999
0.160404712 0.208475992 0.145097703
0.164199650 0.209614351 0.145730287
0.169133350 0.210752994 0.148513362
0.177482635 0.212270990 0.152308643
0.183554634 0.213029996 0.155724481
0.193674877 0.217077762 0.158760414
0.202783242 0.216698259 0.160657898
0.210752994 0.220872998 0.162555650
0.217330992 0.223908663 0.165844291
0.229474992 0.226945043 0.171916276
0.241745800 0.236053273 0.176849946
0.256546646 0.243643180 0.182922333
0.267425627 0.247311980 0.187729344
0.278557688 0.250853688 0.187729359
0.295762002 0.257811278 0.193927929
0.309424400 0.267299116 0.199999630
0.319544613 0.274383515 0.206071898
0.334724963 0.280708492 0.209614262
0.350917280 0.291840643 0.219734550
0.368374646 0.306261629 0.228842646
0.390259594 0.323086292 0.241239637
0.406451344 0.338772774 0.255914122
0.432511330 0.352181911 0.272865266
0.460974425 0.371157050 0.289563447
0.492346525 0.393548071 0.309930205
0.522706807 0.417456865 0.331688464
0.558633626 0.442251623 0.356483281
0.150284961 0.217457026 0.153953001
0.153067619 0.220746383 0.157242432
0.159139737 0.221631989 0.159772262
0.165718004 0.221885026 0.161796063
0.165971041 0.221631989 0.161543056
0.165971041 0.221631989 0.155471057
0.170019031 0.224667743 0.156989321
0.178747728 0.226944745 0.161417037
0.186591029 0.230234027 0.166983038
0.192663044 0.236306027 0.173055023
0.203795001 0.242125064 0.175711825
0.213915259 0.241113082 0.177229956
0.222390994 0.239342034 0.177735955
0.228716031 0.245414034 0.177735955
0.240860030 0.248450413 0.183807954
0.250853777 0.255787820 0.187729254
0.262745142 0.262112826 0.192030028
0.276534021 0.266034037 0.197596058
0.282606065 0.272106051 0.197596073
0.302087337 0.280708402 0.207969680
0.319544703 0.293358743 0.218469307
0.333966017 0.306261897 0.226565257
0.346363008 0.315622509 0.232764497
0.364579082 0.324983925 0.244782045
0.380518258 0.336622059 0.252624989
0.399114281 0.349904686 0.261480033
0.423403025 0.365085155 0.273624122
0.444655389 0.383301914 0.285768896
0.473624617 0.401771039 0.303225964
0.507779896 0.423276395 0.327008158
0.542441189 0.448829979 0.354712158
0.572802007 0.479190022 0.385072976
0.165464565 0.238709390 0.166096985
0.165464565 0.244781375 0.172169760
0.161795989 0.245919973 0.171157628
0.167741746 0.247185141 0.171916574
0.178241536 0.248829842 0.173940822
0.181151405 0.245919973 0.173687816
0.176091403 0.253510296 0.175205499
0.187350109 0.253130794 0.178241700
0.200759411 0.250474393 0.181151405
0.201771408 0.251486391 0.182163402
0.204933539 0.254649252 0.179506540
0.213915259 0.260341823 0.183807567
0.224161997 0.262745172 0.188614577
0.234788030 0.266666412 0.192915559
0.243896410 0.272738397 0.192915574
0.256040424 0.275774777 0.198988184
0.267551959 0.281593978 0.202909634
0.280328721 0.287665963 0.207842976
0.291714430 0.296394795 0.215812817
0.306135088 0.302466810 0.218595460
0.322580278 0.312966377 0.229222044
0.337760717 0.323718965 0.238709822
0.352434993 0.330802888 0.244908497
0.370651811 0.345983326 0.254016876
0.386590540 0.359898657 0.263757110
0.401770651 0.373054773 0.273624331
0.420872658 0.385831505 0.285768807
0.447690994 0.398482293 0.297912896
0.474257022 0.419355214 0.315369964
0.509298086 0.439974993 0.340670347
0.545477569 0.462745368 0.368627369
0.575838387 0.488298386 0.394180566
0.173434600 0.262365580 0.183048591
0.175837800 0.268437594 0.179506764
0.180138797 0.270208597 0.187729225
0.180138782 0.272738606 0.189500302
0.188867539 0.275774777 0.192536697
0.183807939 0.270714670 0.188488185
0.188867986 0.275395095 0.193422273
0.189373985 0.277925491 0.191524178
0.202277288 0.274889499 0.192283288
0.203922018 0.276533782 0.193927988
0.214041919 0.281846851 0.193421930
0.219101787 0.282858968 0.194434062
0.227830634 0.285894990 0.198987961
0.238456771 0.288171828 0.204047844
0.247564599 0.296394587 0.210499600
0.259076804 0.300062805 0.210499600
0.268184811 0.304617375 0.216571987
0.279822767 0.310689569 0.220493376
0.295509160 0.318026781 0.226059765
0.308032662 0.329158783 0.236812234
0.327007741 0.337128520 0.243643329
0.342188239 0.347754449 0.252245665
0.355850786 0.355470806 0.257178962
0.369513005 0.368374497 0.268564075
0.390006453 0.381277591 0.277672470
0.406830788 0.396331429 0.286780447
0.425047189 0.411005646 0.298924983
0.452372044 0.428842694 0.314863980
0.474889457 0.444149554 0.334724754
0.509298086 0.468943924 0.358253926
0.549652159 0.490575761 0.387096554
0.586084962 0.511827767 0.412902772
0.177988797 0.288172185 0.196711197
0.182542607 0.294244200 0.196711183
0.184692994 0.296015203 0.190765232
0.188235000 0.298545212 0.199873164
0.194560111 0.303858191 0.205060348
0.193422124 0.300063193 0.200126514
0.193928197 0.299557388 0.207210630
0.196964189 0.302213907 0.209740967
0.203795090 0.301455200 0.205186382
0.208349302 0.305249900 0.207463682
0.217077792 0.306641191 0.207590193
0.228210196 0.311701179 0.212650448
0.234282196 0.311701179 0.215686545
0.243263990 0.312207192 0.218469188
0.253636748 0.320050389 0.223782405
0.263630599 0.324351579 0.228715986
0.272738993 0.330423564 0.228715986
0.280708551 0.336496174 0.235420570
0.298039198 0.342568189 0.240227968
0.310689211 0.352688402 0.248576999
0.325489938 0.362934738 0.260341525
0.345730186 0.373055249 0.268438041
0.359013289 0.382669032 0.272106379
0.372548997 0.393421799 0.281467378
0.390006483 0.405566394 0.289816469
0.412650168 0.417710364 0.303099155
0.432131320 0.433270186 0.313599050
0.458444327 0.453510404 0.330803156
0.485009611 0.469449788 0.353194207
0.510815918 0.487159938 0.373434335
0.550284624 0.516255558 0.398987770
0.592157006 0.537634373 0.425047189
0.181656986 0.314863980 0.207716987
0.188361570 0.322833538 0.212523982
0.188867584 0.323339552 0.206957608
0.190765142 0.325237155 0.204300717
0.191524148 0.330170602 0.212270558
0.203162864 0.329917550 0.209487915
0.205186993 0.328020304 0.216571987
0.206451982 0.327261537 0.222770557
0.208096474 0.328779548 0.222770557
0.217204079 0.334851563 0.222770557
0.222770140 0.332194686 0.222770557
0.231625512 0.335230529 0.228210241
0.242757991 0.340290695 0.234408930
0.249083027 0.340543658 0.237697572
0.260847569 0.346236110 0.238456562
0.271220773 0.349272341 0.242631137
0.279443562 0.355344713 0.247564554
0.285515577 0.363187939 0.247564569
0.300696015 0.369259953 0.256672949
0.313725591 0.377482921 0.263630569
0.327134728 0.385958403 0.271600157
0.342694581 0.395445675 0.281087697
0.360784084 0.407463908 0.287413418
0.375964493 0.416571677 0.294497401
0.394054562 0.429222137 0.301834553
0.415686548 0.443264097 0.313472539
0.440480649 0.455408126 0.331688553
0.464895874 0.473371118 0.346995384
0.494496942 0.490195930 0.370145589
0.524351299 0.507779658 0.390891910
0.554585397 0.527893305 0.411258727
0.594054580 0.561290562 0.432511151
0.187729016 0.339152068 0.225933030
0.196837395 0.354332417 0.225933030
0.194939971 0.353700012 0.222138032
0.195699140 0.351929188 0.223149970
0.203668952 0.354459465 0.233522996
0.209740952 0.351423085 0.233522996
0.211259007 0.351170033 0.233270034
0.214547992 0.352561772 0.235926747
0.220113993 0.356104016 0.237950996
0.226312488 0.362176031 0.237950996
0.229601845 0.359519154 0.237950996
0.234914944 0.362555027 0.241999000
0.243770003 0.368627310 0.246047035
0.255155027 0.373940945 0.246806011
0.264263421 0.376976550 0.252878010
0.276027977 0.377861977 0.256040812
0.286401182 0.382669181 0.262365758
0.294623941 0.390512407 0.268817008
0.300696015 0.393548042 0.268817008
0.315876365 0.399620771 0.277925402
0.328905970 0.405946016 0.282985747
0.342315167 0.413282871 0.286780834
0.357748479 0.422643602 0.290449083
0.372928917 0.431751996 0.302593082
0.392663270 0.447691619 0.314231634
0.416445643 0.466793656 0.328652978
0.443517059 0.485768974 0.346868992
0.470841438 0.497912973 0.365085006
0.500568926 0.518532753 0.388361663
0.532700598 0.539279163 0.409107953
0.566477120 0.560278535 0.429980814
0.603163004 0.582543015 0.456800014
0.196584359 0.382922113 0.252498358
0.197343394 0.384187132 0.252498358
0.202150777 0.390765518 0.254649162
0.200506359 0.390385926 0.250474721
0.204681009 0.393042386 0.252372175
0.210753009 0.392409801 0.254775375
0.214294672 0.394434065 0.257305712
0.217836648 0.393042415 0.257558733
0.224667728 0.394560397 0.258697391
0.232764006 0.400632411 0.258697391
0.235926867 0.409108251 0.264263362
0.238962740 0.410120368 0.266287118
0.248829931 0.413156450 0.271600306
0.262998343 0.415939748 0.274889737
0.261986047 0.421505690 0.275901705
0.283112228 0.424541295 0.284376919
0.290702343 0.429474920 0.286653996
0.297912955 0.436053157 0.291334361
0.312587023 0.434787780 0.295635372
0.321442366 0.443390101 0.303984731
0.340417713 0.451360136 0.311195374
0.357242346 0.460341752 0.318152994
0.374193490 0.471220583 0.326628417
0.389373928 0.480328977 0.333460093
0.411385566 0.491714090 0.347880781
0.433144033 0.507527053 0.363314360
0.457179368 0.524478376 0.381024808
0.482226431 0.536622405 0.396964073
0.512207568 0.554080009 0.415180057
0.544338822 0.573434651 0.439215750
0.580392182 0.593675017 0.465654641
0.620620012 0.614927411 0.500569403
0.194307268 0.420872718 0.274130464
0.201897740 0.424667716 0.270334989
0.205945775 0.426818490 0.281973481
0.200126678 0.427324533 0.277419567
0.198608622 0.429474831 0.270588517
0.210753009 0.432511210 0.273624539
0.212397426 0.431246042 0.278558046
0.212144032 0.435926735 0.281594008
0.219734102 0.435167551 0.281846970
0.231119484 0.440101206 0.281846970
0.240101129 0.445287585 0.287665993
0.245034724 0.450348020 0.291714191
0.250347644 0.453384101 0.294749826
0.265781254 0.454395980 0.300063312
0.270967573 0.458823711 0.303352714
0.280075848 0.464389652 0.308665663
0.299810439 0.467425644 0.313219458
0.303605556 0.474509865 0.314484447
0.318026751 0.474003494 0.320556462
0.331688613 0.480202109 0.329411834
0.342694730 0.489310503 0.334724754
0.362934977 0.496394873 0.341808885
0.381403983 0.505882442 0.353193969
0.401897669 0.516761601 0.364579529
0.422011554 0.526249468 0.375585169
