Assets/Resources/EldamarStudio/100 Horror LUTs Pack/LUTs/cube/Felscylla LUT.cube
LUT_3D_SIZE 8
DOMAIN_MIN 0.000000 0.000000 0.000000
DOMAIN_MAX 0.903226 0.903226 0.903226
0.062744997 0.047059000 0.050980002
0.083491549 0.051359549 0.051739097
0.119924098 0.063504092 0.064262994
0.161416993 0.080708288 0.085768647
0.213029996 0.108032994 0.108917996
0.274257004 0.139025733 0.133206993
0.350916982 0.183301702 0.173181564
0.446173608 0.253889799 0.226438791
0.090195999 0.072865091 0.056419998
0.099556997 0.080708094 0.068184994
0.128146544 0.088551991 0.080708191
0.168121651 0.107020542 0.096015349
0.212650448 0.125743449 0.112080894
0.274636537 0.157874554 0.143706739
0.341808826 0.196204841 0.177862003
0.443390369 0.259456098 0.228716075
0.122327901 0.131562188 0.104237907
0.135230646 0.141809002 0.108538643
0.155976996 0.137887195 0.112081096
0.188108996 0.153953448 0.123466358
0.229475081 0.169133291 0.140164286
0.285515726 0.203668386 0.167994738
0.358760387 0.245920375 0.198988095
0.450980544 0.307906330 0.247691318
0.149020001 0.196204633 0.147375003
0.153574005 0.208475992 0.148892999
0.177482635 0.212270990 0.152308643
0.210752994 0.220872998 0.162555650
0.256546646 0.243643180 0.182922333
0.309424400 0.267299116 0.199999630
0.368374646 0.306261629 0.228842646
0.460974425 0.371157050 0.289563447
0.177988797 0.288172185 0.196711197
0.194560111 0.303858191 0.205060348
0.203795090 0.301455200 0.205186382
0.234282196 0.311701179 0.215686545
0.272738993 0.330423564 0.228715986
0.325489938 0.362934738 0.260341525
0.390006483 0.405566394 0.289816469
0.485009611 0.469449788 0.353194207
0.194307268 0.420872718 0.274130464
0.198608622 0.429474831 0.270588517
0.219734102 0.435167551 0.281846970
0.250347644 0.453384101 0.294749826
0.299810439 0.467425644 0.313219458
0.342694730 0.489310503 0.334724754
0.422011554 0.526249468 0.375585169
0.522453904 0.582163393 0.440986723
0.199367434 0.586084545 0.392410278
0.215053737 0.585578561 0.397722811
0.236432657 0.593421578 0.399746865
0.279822916 0.604427576 0.415559828
0.332700461 0.617710352 0.430487067
0.397596449 0.630487025 0.454269081
0.469449818 0.649209261 0.486780554
0.579127014 0.687033355 0.536116362
0.375837564 0.762555480 0.587602556
0.396710932 0.777608633 0.597975612
0.421884567 0.774446607 0.593548357
0.455028415 0.780518770 0.603288591
0.504996777 0.786211610 0.617583632
0.568121374 0.795951843 0.636432290
0.641365886 0.810626209 0.663630843
0.709424198 0.821505547 0.684250593
0.078051552 0.043895997 0.056040544
0.082732551 0.047438450 0.059962451
0.116381638 0.068184897 0.076407447
0.155091897 0.088931449 0.093991093
0.200506181 0.111195184 0.119038187
0.264769167 0.143327191 0.149272546
0.341429293 0.185958445 0.182163447
0.434029043 0.247311965 0.225806817
0.073244542 0.079949103 0.068564542
0.096394993 0.072865091 0.072865091
0.128526092 0.089310989 0.092472993
0.151549563 0.102213539 0.101454638
0.202529743 0.128905743 0.127387553
0.265528262 0.159772292 0.152055815
0.339025974 0.198102579 0.188361838
0.429475069 0.255028367 0.232257828
0.129791453 0.119797185 0.105756000
0.134092093 0.122960091 0.109677091
0.141429543 0.137887105 0.117140643
0.177862093 0.150411204 0.126502454
0.225553378 0.171537012 0.146489277
0.280455261 0.197722822 0.175458282
0.350790352 0.243769616 0.202782989
0.447058946 0.303984791 0.257685095
0.144085988 0.196078539 0.146742642
0.157115638 0.200885639 0.153194338
0.171537086 0.199620277 0.149145722
0.204427183 0.214548096 0.167994738
0.244781718 0.232890621 0.181657180
0.296394736 0.261480153 0.200758919
0.363693714 0.303984791 0.235041007
0.461733103 0.373308152 0.295762330
0.171663180 0.292346805 0.199367747
0.190259457 0.296521515 0.207590088
0.204933539 0.299178004 0.213409543
0.235167801 0.306135386 0.218469277
0.270462006 0.319418192 0.229474992
0.319671184 0.351043731 0.251233190
0.386843741 0.396964192 0.296394557
0.481847078 0.467299372 0.354585856
0.194433808 0.414041638 0.269955665
0.205566198 0.416824996 0.275142521
0.224667639 0.421505004 0.277040005
0.248829633 0.437697589 0.294370383
0.291081727 0.452877820 0.308412284
0.337760985 0.475901276 0.328273207
0.410879463 0.515876055 0.373308182
0.517773807 0.577356279 0.441492647
0.197090551 0.579506397 0.388867557
0.209867001 0.581657529 0.398482263
0.231245905 0.588614881 0.402782649
0.278558195 0.599240839 0.412776738
0.330676734 0.610879242 0.429095387
0.398102462 0.630613446 0.458444029
0.474889517 0.651739061 0.491714090
0.582669199 0.692219973 0.549146056
0.361543089 0.753320336 0.573055148
0.372295916 0.759266138 0.576217473
0.398861229 0.762934804 0.581024230
0.439089268 0.766476870 0.593674958
0.491714090 0.773181319 0.604427159
0.556230128 0.787223279 0.630234003
0.624288440 0.800632238 0.650727153
0.706514597 0.821252286 0.689436972
0.089437097 0.052498192 0.083871007
0.094497450 0.055281546 0.087413453
0.122327901 0.071347103 0.100316092
0.162681654 0.098039001 0.112460546
0.206072196 0.124604806 0.135483995
0.264389724 0.156736001 0.170398742
0.336749166 0.195825383 0.198988095
0.434534758 0.254396051 0.250347972
0.097280003 0.079569548 0.094497450
0.106641091 0.087413445 0.108285904
0.130170897 0.096015446 0.107400090
0.165844455 0.118785545 0.132194549
0.211132452 0.142694294 0.152941108
0.269955516 0.172042921 0.175458282
0.337128699 0.209487543 0.206198826
0.430486917 0.266160369 0.256293803
0.124605000 0.130930007 0.126249090
0.140417099 0.143453106 0.143073648
0.153700098 0.152055994 0.143453091
0.184566543 0.163820192 0.152435452
0.228715986 0.180265903 0.172422275
0.286021471 0.207969636 0.199493736
0.356483281 0.247438192 0.230993077
0.448576599 0.313852042 0.282226741
0.155597553 0.210752904 0.179127440
0.163820088 0.215939447 0.179886341
0.182163432 0.222137734 0.185705185
0.213156104 0.226059645 0.195193097
0.249968395 0.242758095 0.204806745
0.300062984 0.267678440 0.228209719
0.370145619 0.310309738 0.265022099
0.459456235 0.376597255 0.315496564
0.180265889 0.299304187 0.219354987
0.195319101 0.303858191 0.232764095
0.211638093 0.309424281 0.235041186
0.237444907 0.317646831 0.240860537
0.274257183 0.330550283 0.256166995
0.320809543 0.360278159 0.274889350
0.388488054 0.405566365 0.314864099
0.484250695 0.471094131 0.372295916
0.202024266 0.429601729 0.306641638
0.204680905 0.433776170 0.306641638
0.220746443 0.438583374 0.312460363
0.255154729 0.447944373 0.319923818
0.296268165 0.464010000 0.335610658
0.340038091 0.483112067 0.358127713
0.420240521 0.524984062 0.397217005
0.523339689 0.583934367 0.463377744
0.198355094 0.587096870 0.409361094
0.208348989 0.591271579 0.417963475
0.238076985 0.595951557 0.425047278
0.281088263 0.604427576 0.437824190
0.330297291 0.614041567 0.449335754
0.396710634 0.628336132 0.472232908
0.470208526 0.649082541 0.500822484
0.582416177 0.695002913 0.558633685
0.380265445 0.761922717 0.593927562
0.391524315 0.769892275 0.595192730
0.412903279 0.776090741 0.603668272
0.451233327 0.779379904 0.615180314
0.500442743 0.787602782 0.628209770
0.561922431 0.793674707 0.640733778
0.633396804 0.805945396 0.662492096
0.713345528 0.818975449 0.694243670
0.101454645 0.056040641 0.123339638
0.106514998 0.061100997 0.120176733
0.125743449 0.076407447 0.126881897
0.158633634 0.093611643 0.137381643
0.206831187 0.120303541 0.159772292
0.262365460 0.150790736 0.182415992
0.338013917 0.196204931 0.224794284
0.435546964 0.256293625 0.283365160
0.111195281 0.088172346 0.121694639
0.124604993 0.088424996 0.127134725
0.135610089 0.097912900 0.132700741
0.160151750 0.115496539 0.147627652
0.206704289 0.137002096 0.168374285
0.265907645 0.162808180 0.193927646
0.336369336 0.209867001 0.233396277
0.425300151 0.267805159 0.283997655
0.134471640 0.121694833 0.149145827
0.148513541 0.132700741 0.161669746
0.155471534 0.148007289 0.168374300
0.187602639 0.163314462 0.180518731
0.227071285 0.184440449 0.192536190
0.279949546 0.213788897 0.221125722
0.353320360 0.258444190 0.261859745
0.446173459 0.313598633 0.310689270
0.151296988 0.203542292 0.187855974
0.157874539 0.203921735 0.197722748
0.188868091 0.220366642 0.209867179
0.217457637 0.233270273 0.219228283
0.248576820 0.247312099 0.227704078
0.296141982 0.273118377 0.254142731
0.368880272 0.321315616 0.294370592
0.458191067 0.385831654 0.350664467
0.185072988 0.300316453 0.252245188
0.190512091 0.306135267 0.257685095
0.210499540 0.310436547 0.259582639
0.238962993 0.322074622 0.270841271
0.271853358 0.336242735 0.281847179
0.319544375 0.365718186 0.305502862
0.386464179 0.408981889 0.344085902
0.484376818 0.474130422 0.403668642
0.191397905 0.422643840 0.327893466
0.201391369 0.431499213 0.328905463
0.221505448 0.435167462 0.334597945
0.252751648 0.446553081 0.343959719
0.289563656 0.463883728 0.358886808
0.340038091 0.484124005 0.384313464
0.415306807 0.523339808 0.418595642
0.522074521 0.586337626 0.483617544
0.194939643 0.583175242 0.432890266
0.204933271 0.588741302 0.439468801
0.233270168 0.591777325 0.446299881
0.270334899 0.599999905 0.453763545
0.327008396 0.611385584 0.469449729
0.397090197 0.628969133 0.495382637
0.476786911 0.652118564 0.524984539
0.587476075 0.696521103 0.576090991
0.360910386 0.757115602 0.601644576
0.370777577 0.763946652 0.603921652
0.401897013 0.766476810 0.609867036
0.437571198 0.772801578 0.614041567
0.488930941 0.780012369 0.629601538
0.552941203 0.787982345 0.646679342
0.628462791 0.804174304 0.671853185
0.708665013 0.824161768 0.705249548
0.123086803 0.060341805 0.165338188
0.128525987 0.065780997 0.170018986
0.142568097 0.079190098 0.172422290
0.166097283 0.106261648 0.177103192
0.209994003 0.124604993 0.195825189
0.264010191 0.157748252 0.219228193
0.339911491 0.200506285 0.258444071
0.433016956 0.262997985 0.321315795
0.129664645 0.090954997 0.164073646
0.140417203 0.094497353 0.174826190
0.150031537 0.110183448 0.180265889
0.171663284 0.123086803 0.182922453
0.216824636 0.139784843 0.198988184
0.269449979 0.171916634 0.224414736
0.339531809 0.215812832 0.266666621
0.434155494 0.273497701 0.320556521
0.148893088 0.133965984 0.193422183
0.159519345 0.147122264 0.200758994
0.173307896 0.152055800 0.199873284
0.194813550 0.165717632 0.209993988
0.231119379 0.182542995 0.224035278
0.283111721 0.216951191 0.256926149
0.351676106 0.258444101 0.293611348
0.449842006 0.317393869 0.347880900
0.154585645 0.198734835 0.229095429
0.172042638 0.201770827 0.235420644
0.191271186 0.213409632 0.248703629
0.222896829 0.239215642 0.257685095
0.252245188 0.256040484 0.266160339
0.305882514 0.284629643 0.295129389
0.372675449 0.326375544 0.334977448
0.459076583 0.384187132 0.389753163
0.181024805 0.296268016 0.283617973
0.185705200 0.311828196 0.291081548
0.213283002 0.320430011 0.302466869
0.241493002 0.339531839 0.316508174
0.280581981 0.354838580 0.332827359
0.320429981 0.376723379 0.347374707
0.388488442 0.418975264 0.388361782
0.488171816 0.479063660 0.442757815
0.192536458 0.436559200 0.369513184
0.200759098 0.440607041 0.373561174
0.216065541 0.448703289 0.382163256
0.249462098 0.459709197 0.389753640
0.287286699 0.473877460 0.402276903
0.339152277 0.500063241 0.422517508
0.420113802 0.536495745 0.460341632
0.527134776 0.591144741 0.519038320
0.189753011 0.591144562 0.468184441
0.204048008 0.594686866 0.480835259
0.226312369 0.599114478 0.479822755
0.270335197 0.606451809 0.491461188
0.327893645 0.621758521 0.504237711
0.398102462 0.634914577 0.522833526
0.480961263 0.656799614 0.549272537
0.591144860 0.701960862 0.605945468
0.356230199 0.756862521 0.622517407
0.368880540 0.763820231 0.622896969
0.390132427 0.770651400 0.631372333
0.434788227 0.776597023 0.639468908
0.487033576 0.784819603 0.650600612
0.551802576 0.793801248 0.667299032
0.628336370 0.806704283 0.691207588
0.712713540 0.825426579 0.725996137
0.150663733 0.076407261 0.226818472
0.160530984 0.076407261 0.229980990
0.175078824 0.090828896 0.231625363
0.188361734 0.110056736 0.234914467
0.219607741 0.136242986 0.248197272
0.270082474 0.162428722 0.266160488
0.341429293 0.203921735 0.307274014
0.439594805 0.265021920 0.367868543
0.161796242 0.099430993 0.224920735
0.163314342 0.102972537 0.230360523
0.171157539 0.113598898 0.230486721
0.194307283 0.131182626 0.241113275
0.220493630 0.150284290 0.249335736
0.270588517 0.176470533 0.270335019
0.340923548 0.216951281 0.304111540
0.435673594 0.280581832 0.368121266
0.173434734 0.147754461 0.255155176
0.177355722 0.155850992 0.256040484
0.188615084 0.156103820 0.255028367
0.211385190 0.172295898 0.262998283
0.237444997 0.196204722 0.272359371
0.286274612 0.218469203 0.296394646
0.352434993 0.261859506 0.333966017
0.448197395 0.321315736 0.391271442
0.192789093 0.195572361 0.282858819
0.196584284 0.205819175 0.283617824
0.210626081 0.221125826 0.289057702
0.231119379 0.238709465 0.296394467
0.258570284 0.262618721 0.319797814
0.305123627 0.287286490 0.338140249
0.368880570 0.326755017 0.367868394
0.466793239 0.394433528 0.435167551
0.184566543 0.291208178 0.335610420
0.192915916 0.298671633 0.334977448
0.214421347 0.307653278 0.345603824
0.241366088 0.328399807 0.358127922
0.282100171 0.363314360 0.382795662
0.322327703 0.388488382 0.396837473
0.387349725 0.427071631 0.431499183
0.492725790 0.483744264 0.491081923
0.174573258 0.440227717 0.405060172
0.184313998 0.444275707 0.411005467
0.205440000 0.454016447 0.419101834
0.241872251 0.466160715 0.436812460
0.291460991 0.492852926 0.461480021
0.346615732 0.516761422 0.479569703
0.425806552 0.543832660 0.508791745
0.532194614 0.587223530 0.559013426
0.182036534 0.592662573 0.512966096
0.193168834 0.592283130 0.508538783
0.219481334 0.599746704 0.522960186
0.267678559 0.612650335 0.539405346
0.327134669 0.631499231 0.548513710
0.400505841 0.643137097 0.565338314
0.489943296 0.665907800 0.588994086
0.610499620 0.710942209 0.643769741
0.347754300 0.760784388 0.645540833
0.363567054 0.764832318 0.653889775
0.389120370 0.769133449 0.659709156
0.420873016 0.776343882 0.662871599
0.467298925 0.783301413 0.671600461
0.545351207 0.791271448 0.687286556
0.626691997 0.806324780 0.710183501
0.718532324 0.827703714 0.741302669
0.199620277 0.080708288 0.330297261
0.205186576 0.086274996 0.329664290
0.217836991 0.097280294 0.335863560
0.234914571 0.118279278 0.333206832
0.259202987 0.144844994 0.346742541
0.296647280 0.180138990 0.359519005
0.357115299 0.211385280 0.384187549
0.433775932 0.268184811 0.427703768
0.196711004 0.105376251 0.322580278
0.203668296 0.116255708 0.323845506
0.217330545 0.121189259 0.323339373
0.234155372 0.138266742 0.335736632
0.264262915 0.158507243 0.347501367
0.296268106 0.198988184 0.364705652
0.354205787 0.227198020 0.386337578
0.437191784 0.287918985 0.438836515
0.200758919 0.158127800 0.338140279
0.210752904 0.162302390 0.344465554
0.226312563 0.172422096 0.347501278
0.247185335 0.182036743 0.356609613
0.270967990 0.210752890 0.364832371
0.301454782 0.239595085 0.381530821
0.367236167 0.270082355 0.409234554
0.450094789 0.325490177 0.454269111
0.216950998 0.216951281 0.368500561
0.225932911 0.226438999 0.367362201
0.239215627 0.232637286 0.374446720
0.257811576 0.250600994 0.386969924
0.283997625 0.273877293 0.399873555
0.316002667 0.304870307 0.420999289
0.379000545 0.340923339 0.447438180
0.473245054 0.396584421 0.488171905
0.203035802 0.295256108 0.413535655
0.213156268 0.297280371 0.421125740
0.237571090 0.311701357 0.427324533
0.264263302 0.337634265 0.437697470
0.292220086 0.364199996 0.449462444
0.330803186 0.396204889 0.467046022
0.396964103 0.432131350 0.493738174
0.501454651 0.487539530 0.540417254
0.165591091 0.438962728 0.486021727
0.172422469 0.442884207 0.487539530
0.195825547 0.449841797 0.493738055
0.232637644 0.462239206 0.506008983
0.287539482 0.482479274 0.522580922
0.344971418 0.523086727 0.543959737
0.433269978 0.559013188 0.570398033
0.542694449 0.599746764 0.602403343
0.148640275 0.606704831 0.575964808
0.161543250 0.601518095 0.564958870
0.197849467 0.611385345 0.576976538
0.258064568 0.622390509 0.582036853
0.322960377 0.638962626 0.599873543
0.414801002 0.664516330 0.629474819
0.508285582 0.683491588 0.646552801
0.625427008 0.712840080 0.686653972
0.348260671 0.768880308 0.686780453
0.358001381 0.766097307 0.688298345
0.385072738 0.767488837 0.691334486
0.424794048 0.774952471 0.698418617
0.482099771 0.788994253 0.711321831
0.544718504 0.800000012 0.729412079
0.632004976 0.815559804 0.746109605
0.739784837 0.832890213 0.779633164
0.266919643 0.067931846 0.500063419
0.267172694 0.078178562 0.498165607
0.281467825 0.094244018 0.505502760
0.299051166 0.119797476 0.511701226
0.325110614 0.158886790 0.516002417
0.357748032 0.201138467 0.526755333
0.410879284 0.253384262 0.546109974
0.493484586 0.307653457 0.565464556
0.266540110 0.106514700 0.499303907
0.267931491 0.112333529 0.492219716
0.275901496 0.122960277 0.501708031
0.295382798 0.145983547 0.505882382
0.322454154 0.181151211 0.518658936
0.362175494 0.223909169 0.535230875
0.410373181 0.276154578 0.551549315
0.498038858 0.323213160 0.572296023
0.258949816 0.162176102 0.500822306
0.272612005 0.169006661 0.517014503
0.276660681 0.178621188 0.507526696
0.303098977 0.199620172 0.518532574
0.326881707 0.226945072 0.528526187
0.361037165 0.269070029 0.541808963
0.412903190 0.316129267 0.564073503
0.501454592 0.362554908 0.588614464
0.255154967 0.241998792 0.527387619
0.261226833 0.244275793 0.530929744
0.275268734 0.254016608 0.530170858
0.298924625 0.274383634 0.540417373
0.322580636 0.302214056 0.551043391
0.365970790 0.334851265 0.566982627
0.422643661 0.385072649 0.587982297
0.521062374 0.431119621 0.607336819
0.235167801 0.318532377 0.566603422
0.250980377 0.325237095 0.564958811
0.261353850 0.338519901 0.563693941
0.286906987 0.360784173 0.570145547
0.323339462 0.387476355 0.580391765
0.369892538 0.423655987 0.598355174
0.427071601 0.466413468 0.613282800
0.538266599 0.505122960 0.637950599
0.152055442 0.439089209 0.621884704
0.164073065 0.437950730 0.615053773
0.205945447 0.446805656 0.622896671
0.264136910 0.464136541 0.623149693
0.322959810 0.493484885 0.624414861
0.384693384 0.532700598 0.636685431
0.458697259 0.570398092 0.655660808
0.572928429 0.604174674 0.678557813
0.168500558 0.627324343 0.676533997
0.180392385 0.623782277 0.672991872
0.213915363 0.625047088 0.681846797
0.277039945 0.630993009 0.681846678
0.336242765 0.644402385 0.695635676
0.428969204 0.656293213 0.703099191
0.535989702 0.696521342 0.723719358
0.648070455 0.730170727 0.746995151
0.350158036 0.781151295 0.748260438
0.349525362 0.781403959 0.751802683
0.375838071 0.782542408 0.748386621
0.421379030 0.791524589 0.757621586
0.483997405 0.795825422 0.766729772
0.558380425 0.811638355 0.776976407
0.656799197 0.829980552 0.806451619
0.760531306 0.855534434 0.829348564
