Assets/Resources/EldamarStudio/100 Horror LUTs Pack/LUTs/cube/Felscylla LUT.cube
LUT_3D_SIZE 5
DOMAIN_MIN 0.000000 0.000000 0.000000
DOMAIN_MAX 0.903226 0.903226 0.903226
0.062744997 0.047059000 0.050980002
0.110815704 0.060468286 0.065022290
0.185704991 0.092852995 0.094117999
0.289437145 0.149145991 0.140291125
0.446173608 0.253889799 0.226438791
0.114737704 0.123213284 0.097406998
0.141555697 0.126502275 0.100695990
0.204301119 0.148766696 0.124224991
0.305756122 0.197849274 0.170019001
0.450727642 0.296015084 0.240100801
0.165464565 0.238709390 0.166096985
0.187350109 0.253130794 0.178241700
0.243896410 0.272738397 0.192915574
0.337760717 0.323718965 0.238709822
0.474257022 0.419355214 0.315369964
0.187223136 0.458317369 0.298418999
0.212144285 0.471347123 0.304870397
0.276913136 0.493864655 0.329411954
0.367995113 0.529791296 0.367109269
0.534850955 0.606704950 0.463251203
0.375837564 0.762555480 0.587602556
0.412270665 0.773434460 0.595066488
0.481214166 0.782922149 0.611132443
0.586084604 0.800505579 0.645793736
0.709424198 0.821505547 0.684250593
0.090195999 0.053257290 0.077799000
0.110183701 0.063757285 0.084376991
0.181783825 0.103984989 0.121315695
0.278557986 0.159266129 0.175205573
0.436052889 0.252877921 0.241745502
0.112460412 0.115749404 0.114104696
0.139278993 0.128526106 0.122959986
0.200126395 0.153699979 0.147501275
0.295635998 0.199873686 0.190638691
0.444528520 0.302213818 0.267552406
0.166982710 0.244908109 0.190638691
0.192915976 0.249841809 0.196204975
0.240606993 0.272738814 0.211258397
0.326628715 0.319544524 0.253130972
0.472232789 0.420999318 0.340164363
0.190132573 0.457938224 0.317267835
0.217709988 0.464895964 0.323592693
0.273624301 0.486148238 0.340544105
0.365338534 0.522327423 0.379126966
0.532194674 0.603415549 0.472738534
0.367868096 0.764958858 0.586337566
0.395951927 0.767994761 0.592536151
0.466286808 0.775838017 0.609234571
0.573813677 0.795698881 0.643263400
0.710815549 0.816951454 0.692219734
0.113092579 0.058823999 0.147122413
0.126502290 0.073876999 0.142188296
0.179126993 0.108538993 0.163441002
0.286148131 0.166477129 0.211258829
0.432384342 0.256419808 0.297659397
0.136621997 0.124857992 0.167995006
0.150664300 0.132068425 0.172928274
0.200379282 0.158886567 0.190259412
0.295635551 0.208981529 0.239342406
0.444149256 0.305123270 0.326375365
0.166729569 0.244528994 0.235420823
0.189247280 0.259582400 0.244528577
0.247817546 0.289690375 0.273370981
0.328020096 0.335863531 0.308791816
0.468310952 0.427830607 0.391904205
0.189879715 0.467678815 0.370145410
0.212144300 0.468943447 0.370145261
0.268691003 0.490828514 0.391777396
0.359772444 0.528146565 0.427071393
0.541429341 0.613914907 0.520430386
0.350410998 0.756736159 0.604427576
0.382415980 0.768501043 0.617204309
0.461606801 0.773687303 0.629348457
0.574699402 0.794686973 0.667299211
0.717393994 0.824161589 0.716508150
0.165844128 0.076407000 0.251107007
0.178115278 0.088551864 0.253383696
0.213915408 0.127514407 0.264010549
0.292347014 0.176596999 0.291461140
0.437064767 0.265274942 0.380518913
0.174193710 0.136369541 0.267805129
0.190891981 0.147754416 0.269449979
0.227577403 0.173940405 0.285515547
0.302466720 0.220746547 0.318912119
0.448450327 0.311701238 0.402656674
0.192283422 0.237317979 0.320809543
0.218595862 0.259329677 0.338772982
0.257938266 0.301201522 0.354838550
0.333207130 0.343706489 0.390765131
0.477546185 0.433396518 0.470082372
0.168501005 0.480708271 0.443516970
0.189753294 0.493738413 0.456546694
0.266413540 0.517014563 0.485641688
0.373940408 0.558254123 0.521062434
0.550663948 0.617836773 0.584819615
0.349525541 0.763314605 0.658697248
0.384819686 0.766856432 0.667805135
0.449082553 0.779253483 0.678305030
0.564579546 0.797343373 0.699683726
0.720556378 0.827703893 0.750410974
0.266919643 0.067931846 0.500063419
0.276407659 0.089184135 0.502466500
0.313978791 0.138646156 0.509171546
0.364073068 0.214295119 0.530803561
0.493484586 0.307653457 0.565464556
0.258697093 0.146489576 0.505882561
0.277419806 0.161163703 0.509803534
0.313978642 0.197849527 0.519670606
0.367868245 0.267046064 0.541302741
0.498418689 0.350411087 0.581530631
0.253763646 0.279317230 0.539911151
0.265781134 0.293737978 0.542441189
0.308032542 0.327767193 0.561416566
0.376597077 0.390638620 0.583301723
0.526122570 0.461985737 0.625679553
0.133839011 0.486148238 0.636559069
0.175079003 0.482226253 0.637065053
0.283238202 0.507653356 0.637571335
0.413029909 0.569133401 0.655913889
0.588361561 0.632257879 0.694497049
0.350158036 0.781151295 0.748260438
0.371283919 0.783301651 0.753446877
0.453257382 0.786844015 0.763440967
0.585957825 0.815939307 0.785578728
0.760531306 0.855534434 0.829348564
