Assets/Resources/EldamarStudio/100 Horror LUTs Pack/LUTs/cube/Freezemaw LUT.cube
DOMAIN_MIN 0 0 0
DOMAIN_MAX 1 1 1
LUT_3D_SIZE 32
0.019608000 0.129411995 0.180391997
0.019608000 0.129411995 0.180391997
0.030360773 0.129411995 0.184692994
0.044275999 0.129411995 0.186970159
0.056040544 0.130171001 0.185073003
0.065148935 0.136243001 0.191145003
0.081846997 0.142315000 0.194686681
0.098418698 0.146742716 0.196078002
0.112839997 0.149020001 0.197596192
0.124984011 0.149020001 0.203668967
0.145856872 0.157748133 0.206831127
0.163061246 0.162808269 0.211890996
0.180518627 0.168121651 0.215685993
0.201771036 0.176723957 0.216445029
0.223023400 0.179759577 0.225553408
0.241871983 0.185198992 0.229854807
0.261606187 0.192789197 0.232890800
0.284123540 0.201264992 0.236558989
0.311447978 0.207337022 0.242631018
0.333206385 0.216192365 0.248703003
0.362049222 0.221505255 0.252877742
0.393422127 0.226565123 0.257938147
0.421125978 0.235799983 0.266920000
0.457558811 0.247943997 0.272992015
0.493990958 0.255534559 0.283618003
0.533206284 0.261606991 0.292979002
0.576723278 0.268184930 0.300569057
0.625300765 0.277292550 0.315749437
0.673877597 0.291713804 0.330929816
0.724225044 0.306894183 0.349652171
0.774952114 0.322959989 0.369133592
0.823529005 0.341176003 0.384314001
0.022643613 0.129411995 0.174319997
0.019608000 0.126375601 0.189500391
0.030360773 0.128526375 0.187349617
0.043010838 0.131941989 0.185705006
0.054142710 0.136243001 0.182416156
0.071220934 0.142315000 0.191145003
0.077799000 0.143326998 0.199747324
0.100569397 0.151675999 0.203795061
0.119671285 0.157368720 0.203668401
0.124984011 0.155092001 0.200632572
0.148766741 0.160911009 0.209614486
0.166097641 0.169892654 0.212903127
0.180139393 0.174952745 0.215685993
0.195951998 0.179759651 0.216445029
0.219987005 0.182795972 0.225553408
0.236432403 0.188235387 0.227450997
0.260088384 0.195825592 0.232890800
0.285894960 0.203668818 0.238962814
0.308412373 0.207337022 0.242631018
0.338520139 0.216192365 0.251486361
0.364326507 0.223402992 0.257811397
0.392409980 0.229601517 0.261986136
0.418089598 0.238962889 0.267046481
0.454522431 0.254016787 0.276027620
0.495509177 0.259329498 0.286654174
0.536242664 0.267425567 0.297406703
0.578747511 0.276786745 0.305123001
0.622264385 0.283365339 0.312713027
0.668185055 0.289816767 0.327893406
0.716382325 0.303858101 0.337760568
0.765844524 0.320809186 0.357115388
0.814421415 0.341176003 0.387349606
0.021378774 0.140164778 0.174699768
0.026945163 0.139279157 0.185578614
0.036812000 0.134092003 0.196457997
0.046932388 0.138393551 0.193421602
0.054648776 0.144465774 0.189373553
0.069323093 0.150537774 0.194939926
0.081720769 0.151549771 0.195445776
0.097659767 0.151549771 0.199620456
0.122454226 0.160151780 0.203668326
0.129664525 0.161290482 0.204554006
0.150916964 0.169133767 0.213029876
0.169133469 0.173181519 0.216066003
0.182036862 0.180898219 0.217836767
0.194180995 0.184946030 0.218848765
0.218468964 0.187982410 0.229854405
0.239847794 0.193421990 0.231751993
0.256546378 0.199493989 0.236306190
0.284376949 0.207337216 0.242252007
0.310183227 0.211891055 0.240733832
0.337634742 0.220493361 0.249335572
0.364199966 0.227703989 0.258443981
0.391271353 0.234788120 0.265781134
0.417203993 0.243896499 0.271094471
0.453636825 0.255028903 0.276154101
0.496774346 0.263251483 0.289689809
0.537887394 0.269070059 0.299051225
0.579633117 0.280455112 0.308412075
0.622137845 0.289816886 0.319417775
0.669449687 0.300189972 0.329158574
0.722074747 0.311575174 0.347880930
0.770904541 0.325869530 0.361163497
0.818216264 0.343326777 0.392535985
0.019608000 0.154080003 0.180265829
0.026186068 0.151549995 0.189373776
0.037065227 0.154838771 0.193421602
0.052245162 0.150031149 0.200000003
0.056799546 0.155344844 0.198102176
0.069829158 0.159645841 0.202023938
0.085768640 0.161923006 0.202529997
0.096900985 0.163188159 0.199873164
0.119670995 0.164706156 0.201391160
0.132827014 0.170778155 0.209993482
0.151169881 0.177229702 0.215306699
0.169639409 0.182289898 0.222137988
0.185958147 0.187602803 0.220999345
0.196204990 0.193295330 0.221125871
0.218468964 0.195319578 0.230233997
0.239088938 0.199493989 0.236559168
0.261353225 0.206831157 0.237318203
0.282099962 0.213535741 0.246426418
0.312460184 0.220240325 0.243516847
0.340037912 0.227830514 0.250094980
0.364199966 0.233775988 0.255407900
0.389500111 0.241872251 0.264516026
0.417330503 0.251107156 0.273750842
0.454901993 0.259076893 0.280202419
0.494370520 0.265908003 0.291081429
0.538393438 0.272106469 0.304617137
0.577862024 0.281214237 0.311701149
0.619607866 0.292599887 0.326122433
0.668690741 0.306008816 0.333459824
0.718785465 0.318659186 0.345857024
0.775585115 0.334724993 0.367995054
0.822264135 0.347627997 0.392283142
0.020367000 0.166983008 0.189753100
0.024161708 0.161290556 0.198861390
0.031119322 0.166224003 0.199746773
0.042757705 0.173181370 0.198102176
0.056799546 0.169765547 0.200759009
0.071979932 0.169765547 0.206831008
0.091840774 0.173434317 0.210752770
0.105629444 0.175711706 0.211258844
0.114357993 0.178747997 0.209740549
0.132574007 0.184819996 0.215812549
0.148260415 0.188361675 0.216444999
0.165085509 0.191397816 0.221758246
0.183681533 0.195952103 0.226691902
0.201644510 0.204807460 0.224414542
0.219733983 0.205060452 0.227577418
0.238330036 0.207843199 0.235800251
0.259202987 0.213156193 0.240733996
0.284376562 0.222264573 0.241492957
0.314737409 0.231372982 0.250600576
0.342314929 0.238077462 0.257305712
0.366223723 0.242251813 0.259582996
0.390259117 0.247944266 0.262618870
0.417836517 0.259835988 0.271600038
0.456799716 0.265908003 0.283238798
0.494370520 0.272359520 0.295383006
0.532826841 0.278431535 0.306388438
0.575205207 0.285389096 0.318532556
0.614674270 0.294497430 0.330676526
0.664010286 0.307779670 0.335989833
0.714231730 0.321188867 0.344338953
0.762682021 0.335104525 0.359645635
0.817330897 0.353320539 0.383934438
0.026438998 0.185198992 0.201897874
0.035547387 0.182163373 0.211005479
0.041492868 0.178621158 0.213661999
0.051866092 0.181909993 0.210625932
0.065907933 0.184945926 0.206831008
0.071979932 0.178873926 0.206831008
0.089690000 0.188993931 0.212902993
0.105123058 0.191397712 0.216824770
0.117014155 0.190133005 0.218089923
0.132574007 0.190891996 0.218848944
0.150790751 0.196964011 0.222011060
0.166477188 0.200506195 0.224541262
0.184440643 0.203542292 0.227450997
0.204680905 0.207843065 0.227450937
0.219860509 0.213915050 0.233522937
0.240353778 0.218975052 0.243895993
0.261100233 0.223023191 0.250980258
0.284123540 0.228336573 0.252878010
0.311701030 0.237444982 0.253636956
0.339279145 0.246552646 0.262745291
0.364705890 0.251359820 0.265655011
0.391524106 0.256420076 0.268690884
0.423908502 0.265908003 0.277672023
0.457305729 0.271980017 0.283744812
0.496268272 0.280329287 0.295383006
0.533839285 0.287539899 0.303352326
0.572296083 0.294623911 0.309424192
0.614674270 0.306641430 0.321568906
0.659455717 0.313093007 0.333712906
0.709550679 0.324224889 0.344338953
0.757115602 0.338140249 0.359139591
0.799114168 0.356356919 0.380898058
0.035041321 0.203415647 0.216571674
0.036559388 0.202909708 0.218089610
0.047817998 0.199873552 0.222896770
0.057178997 0.198102325 0.222011149
0.071094222 0.201264873 0.217962995
0.083617993 0.201644644 0.217962995
0.094749995 0.203162313 0.220493317
0.111321695 0.210373029 0.223276317
0.125110418 0.210626215 0.224667996
0.140290827 0.212396994 0.224667996
0.155850753 0.210626304 0.222517118
0.174066991 0.216698319 0.229601249
0.190891966 0.220240638 0.234788001
0.210753039 0.223529637 0.237824038
0.230487213 0.229601637 0.241619319
0.248070627 0.233269840 0.250095099
0.269196510 0.237697512 0.257558435
0.292346448 0.241366312 0.261226982
0.321568638 0.248576969 0.265022010
0.341302752 0.257685304 0.270841032
0.374320149 0.264895648 0.278052151
0.404174447 0.268564194 0.281341314
0.437697291 0.274762690 0.288931102
0.473497719 0.285642326 0.297406495
0.509171546 0.291714311 0.301201969
0.549778640 0.299177974 0.309803993
0.588994384 0.305756062 0.314990401
0.629474819 0.315876305 0.325110912
0.679696381 0.327767313 0.342314988
0.721694708 0.340923250 0.356230170
0.770271719 0.357241899 0.372675508
0.816318631 0.377103001 0.395572633
0.040860288 0.215054005 0.226818413
0.044149287 0.216698289 0.221884713
0.052751701 0.219481632 0.225679770
0.064895704 0.217710406 0.228716165
0.075901255 0.218089864 0.227197871
0.086021639 0.221125931 0.228462696
0.100315996 0.224162087 0.229348317
0.117393695 0.222264409 0.224161997
0.132574096 0.226059690 0.226439089
0.147754505 0.229980931 0.229095712
0.162934870 0.230486870 0.232763827
0.178494707 0.231878698 0.234534949
0.195572361 0.236812040 0.240227699
0.213283002 0.239595279 0.245287716
0.233143687 0.242884278 0.249715418
0.253636986 0.246552899 0.254269809
0.274889380 0.254142702 0.263377786
0.297533244 0.257558554 0.266666591
0.326881975 0.262618691 0.271726698
0.352688015 0.271474063 0.277798712
0.380645186 0.278684705 0.285515457
0.415053725 0.284756690 0.290575862
0.447817504 0.288677871 0.296268255
0.482732505 0.299304068 0.306894094
0.520809531 0.305249989 0.309803575
0.558633566 0.312713653 0.317014605
0.600885391 0.320050687 0.324604720
0.641492367 0.330297410 0.334851444
0.686653674 0.342061967 0.350284696
0.732827067 0.351169944 0.360151470
0.774952114 0.371157199 0.377988487
0.825806260 0.393168718 0.402277291
0.046173193 0.224921092 0.234408990
0.053004097 0.227956697 0.226059705
0.062618546 0.232384548 0.228462979
0.071727000 0.238204092 0.229475066
0.085009545 0.236685991 0.233649895
0.090322927 0.237824053 0.237824053
0.100442678 0.240860313 0.236053094
0.116634794 0.240481004 0.234788001
0.136369199 0.237444982 0.226439089
0.151549593 0.243516982 0.235547483
0.167488873 0.247438222 0.243137315
0.183428153 0.249715269 0.248197258
0.198608547 0.252751529 0.250095010
0.214294940 0.255787134 0.249842033
0.233016983 0.256293088 0.254396081
0.255913883 0.259456009 0.258823812
0.277166277 0.265528172 0.264136881
0.301455021 0.275774598 0.273877084
0.328652978 0.278810978 0.277292967
0.358760208 0.286654264 0.283111989
0.389500201 0.293864906 0.288804650
0.422644109 0.300695986 0.296647877
0.453383565 0.306641519 0.299683511
0.488045633 0.314484298 0.309930086
0.525237262 0.319797367 0.314484090
0.564705789 0.325616747 0.318532228
0.604680300 0.335231096 0.331182986
0.647185028 0.347375065 0.343579978
0.691207826 0.358760178 0.359139740
0.733712494 0.368880153 0.368753850
0.777988315 0.381024301 0.377988309
0.826565206 0.405313104 0.402277112
0.058317978 0.246173486 0.246553004
0.067425594 0.249209091 0.240481019
0.076407269 0.252245277 0.245034695
0.081847012 0.257938176 0.245160997
0.085009560 0.264010400 0.236685529
0.106261924 0.251865596 0.248829514
0.111574680 0.253004313 0.242884338
0.120050415 0.254395992 0.244022787
0.133333579 0.255661011 0.250727087
0.148513973 0.261732996 0.253763497
0.166603476 0.267805010 0.257052869
0.184692994 0.269702494 0.260341704
0.201644167 0.270967662 0.262238979
0.217330560 0.274003923 0.261986017
0.238582939 0.277039528 0.258950412
0.266919613 0.282353103 0.263504475
0.290828466 0.288298965 0.269450009
0.310562670 0.293991357 0.276913464
0.334851503 0.297026992 0.289057493
0.364832759 0.302845985 0.295255989
0.393295705 0.309044510 0.297532976
0.422897130 0.316128641 0.299936503
0.456419945 0.324857503 0.305755526
0.495888412 0.327893913 0.308791906
0.532827079 0.333459944 0.314484477
0.570777953 0.340797126 0.320303500
0.610753119 0.350411475 0.328146577
0.653257847 0.362555474 0.343326926
0.701075554 0.372043312 0.361036956
0.745857298 0.383048922 0.373813719
0.790133119 0.399367541 0.387096673
0.838709950 0.426565498 0.411385506
0.073371127 0.255787849 0.255787849
0.079570353 0.261733353 0.255534858
0.086527742 0.264768988 0.253763855
0.094876707 0.266539991 0.258064568
0.099430546 0.270335138 0.254522324
0.100442931 0.273371011 0.248955995
0.119164988 0.271346867 0.261100650
0.129031867 0.274003685 0.259582877
0.141935229 0.275268883 0.261859655
0.157115623 0.277039886 0.260594487
0.172295988 0.280202746 0.263630897
0.192536235 0.284250468 0.266666740
0.212776512 0.286274493 0.269702643
0.231751919 0.289310813 0.270967841
0.250348151 0.292346418 0.265275449
0.274003744 0.300189644 0.276660800
0.297279984 0.303731978 0.282732666
0.318026125 0.307020962 0.287413001
0.346868992 0.312333912 0.295002997
0.376723707 0.318152875 0.296014994
0.405186743 0.322327614 0.303731740
0.435547233 0.327387750 0.307779729
0.470841348 0.334598362 0.311827511
0.504743814 0.343200773 0.314863920
0.544212103 0.348513871 0.320177019
0.582668960 0.354585856 0.329031974
0.620620131 0.363188088 0.337634087
0.653510869 0.377735853 0.343200415
0.693358779 0.392536670 0.358380824
0.739405215 0.400379837 0.381657034
0.783934057 0.412017852 0.397596478
0.830487132 0.433270007 0.411765009
0.082479514 0.275015980 0.264895737
0.090575509 0.281087995 0.260847718
0.096647732 0.282985479 0.266919971
0.103984892 0.286021411 0.268184841
0.113092795 0.286400944 0.270081997
0.116635174 0.287539244 0.262618333
0.127261251 0.292599261 0.265148640
0.137254968 0.292599261 0.269070297
0.150537610 0.294497013 0.268690735
0.168248013 0.294497013 0.266919523
0.183427870 0.299430609 0.269702852
0.198608235 0.302466989 0.270714998
0.219860643 0.305502892 0.273750633
0.240860075 0.308792263 0.277039796
0.259076834 0.313599080 0.278052241
0.288172215 0.317393780 0.278684795
0.307906449 0.323466182 0.289310992
0.327514052 0.324604660 0.292220265
0.356483221 0.329284966 0.295509249
0.382795453 0.333333254 0.304111242
0.415053934 0.337507993 0.307906240
0.441619247 0.341556251 0.315876007
0.473877221 0.347754717 0.319923759
0.507273674 0.356862634 0.322960168
0.545224547 0.365717947 0.334345520
0.584692895 0.370398641 0.339025825
0.624667883 0.376850247 0.349778324
0.661100626 0.390512407 0.358886689
0.699431062 0.405692816 0.370524824
0.737128139 0.420873165 0.385705173
0.781024158 0.430360824 0.409361184
0.825426757 0.447438508 0.421885252
0.094244346 0.297026992 0.272864997
0.101075254 0.301960647 0.270208657
0.108032636 0.304870278 0.272612423
0.115369797 0.304996789 0.276913494
0.124098636 0.308033079 0.279569656
0.132447928 0.306514710 0.275015652
0.142947644 0.309930295 0.274256676
0.152435064 0.313851625 0.275142282
0.158507451 0.314610720 0.274383187
0.179000840 0.314990282 0.275142282
0.196710765 0.319670647 0.280328870
0.213029534 0.324857533 0.282479644
0.229348272 0.326755285 0.281340986
0.250600666 0.329791605 0.284376651
0.269702822 0.334977984 0.289563835
0.298798442 0.339784831 0.290829003
0.325363815 0.342820823 0.293864995
0.343074173 0.345857054 0.298039407
0.370398641 0.348892689 0.297533363
0.396078289 0.354205996 0.307527006
0.423782170 0.358380735 0.315875977
0.457179099 0.361417115 0.322960138
0.482352614 0.367489129 0.329411626
0.516761184 0.376597047 0.335483909
0.553573489 0.384566545 0.343074262
0.593042254 0.394307315 0.354965329
0.632004738 0.398355722 0.359519124
0.673244476 0.409867257 0.374067068
0.710815787 0.423529446 0.385451972
0.750790536 0.438709795 0.400505811
0.790765047 0.453890204 0.420999199
0.833775938 0.469070643 0.440481007
0.115243062 0.316002101 0.279443055
0.117520414 0.318785459 0.282479405
0.123466060 0.321821779 0.285515785
0.130803153 0.323846012 0.286780864
0.139532000 0.323972493 0.283112049
0.145603999 0.327008128 0.283112049
0.154712319 0.329538345 0.281593710
0.163820356 0.333333343 0.279949069
0.174193129 0.335863113 0.281720161
0.189373523 0.338899523 0.287792951
0.209866896 0.341935158 0.296015114
0.229095533 0.346489489 0.300569236
0.247312024 0.350791037 0.301834345
0.266034037 0.351043999 0.299304008
0.287286401 0.354079604 0.302340418
0.314990580 0.359266073 0.302973002
0.341303200 0.364326179 0.305503011
0.363567531 0.367109448 0.310183465
0.390891999 0.370145082 0.307147086
0.417963415 0.378747374 0.314990401
0.446046799 0.385705054 0.322707027
0.475142151 0.391018152 0.329032123
0.508791566 0.394307524 0.338266969
0.545350909 0.403415918 0.350410998
0.581277609 0.409994006 0.356230289
0.618848622 0.419102013 0.362049371
0.657558084 0.430740118 0.371410102
0.693990827 0.439848453 0.383554876
0.727766812 0.451359987 0.393548161
0.766223371 0.465022206 0.408222407
0.809234321 0.480455607 0.429348558
0.857811928 0.495636016 0.462745011
0.133459821 0.343327224 0.291587830
0.127387822 0.343327224 0.294623435
0.138267174 0.346110046 0.297659755
0.149019659 0.349146158 0.301961005
0.157747984 0.351170391 0.303858370
0.163819984 0.351296872 0.292220414
0.177482307 0.349272490 0.299810112
0.188108683 0.355723977 0.299810112
0.197975814 0.362175494 0.300442725
0.210625887 0.360151887 0.309044540
0.225806266 0.363187522 0.309297562
0.244275913 0.364199400 0.309171259
0.262492388 0.367741853 0.309677362
0.281214416 0.372296363 0.311448008
0.305502355 0.375331938 0.314484417
0.326754749 0.378368199 0.315117002
0.352941155 0.385072619 0.315117002
0.378368378 0.391017973 0.317014575
0.403035998 0.391397417 0.319291830
0.427577704 0.399999738 0.324604809
0.460088879 0.405313134 0.335104376
0.492599785 0.409993827 0.341935396
0.523971915 0.415559888 0.344338953
0.563441157 0.424668282 0.356482983
0.595445812 0.429222107 0.366350293
0.629854321 0.438456625 0.374193639
0.666413486 0.451992452 0.383301735
0.700062871 0.461100817 0.392662466
0.733839452 0.470208526 0.407463402
0.770777941 0.481720388 0.424920559
0.809108019 0.496268392 0.443769544
0.845667183 0.513852000 0.462745011
0.151675984 0.370651782 0.308538973
0.155217975 0.375458777 0.309171408
0.155597746 0.373308003 0.303605020
0.169766143 0.375837952 0.310689360
0.180392057 0.378115237 0.317520440
0.184439793 0.376090974 0.303352177
0.198102102 0.375964463 0.311322272
0.208348781 0.376217484 0.313851893
0.216698080 0.384566605 0.312334090
0.227197811 0.386464268 0.318153143
0.247058645 0.386843711 0.318532616
0.262239039 0.385831326 0.316508353
0.280075967 0.387729079 0.315749615
0.298545033 0.393548757 0.319038630
0.320682764 0.396584362 0.324225217
0.347374558 0.402023792 0.329664797
0.365590960 0.405060172 0.329664797
0.390638918 0.411764592 0.330297202
0.420240641 0.415306598 0.333333164
0.446932495 0.421252131 0.341555983
0.475015759 0.426565498 0.347627997
0.509424567 0.431625664 0.355724126
0.541303039 0.438962489 0.357495308
0.576217711 0.443516880 0.367362618
0.611132264 0.452625275 0.379506588
0.640227437 0.460088551 0.388741434
0.673624098 0.473244846 0.398355782
0.708918214 0.482353210 0.409361154
0.744718432 0.491460949 0.411764622
0.776344299 0.509424150 0.437570930
0.813915372 0.522327781 0.462238997
0.850347817 0.534471810 0.481973588
0.171410188 0.396458000 0.322201192
0.177482173 0.402529985 0.322201192
0.185958147 0.403668404 0.317267597
0.190259367 0.401897192 0.317014366
0.202783182 0.404300988 0.329664618
0.204680443 0.402403265 0.319038242
0.214800701 0.401897192 0.322074622
0.228083372 0.402023703 0.325996280
0.236432463 0.405819178 0.324478090
0.247058868 0.411891401 0.327514470
0.261732846 0.410626203 0.324604988
0.281973243 0.414674312 0.328652710
0.297153622 0.411637932 0.325616628
0.315243214 0.416319013 0.327893943
0.336495578 0.419354945 0.332700789
0.359518975 0.426312178 0.341809183
0.386843383 0.430866390 0.341809183
0.404553741 0.433902770 0.344339162
0.436179757 0.439089388 0.350031435
0.462492347 0.445161402 0.352561355
0.491714358 0.450853914 0.361290187
0.523086548 0.453890026 0.368374318
0.556230485 0.461985677 0.372675657
0.586843967 0.467805088 0.381783694
0.620240271 0.475395471 0.391650975
0.652245283 0.481720507 0.401011974
0.682226360 0.493485123 0.411511898
0.720683038 0.503605604 0.425680161
0.754079819 0.511195540 0.434788376
0.786970139 0.526122391 0.445161104
0.817330956 0.548640132 0.476786554
0.854902029 0.557242393 0.501707792
0.195825115 0.420746148 0.333206981
0.201897115 0.426818132 0.334471971
0.209740520 0.429854125 0.329538554
0.219354972 0.429221720 0.327261388
0.224667966 0.428842187 0.339405537
0.224667966 0.428589135 0.337634206
0.232890874 0.429854125 0.339025885
0.243010968 0.429221720 0.339405447
0.255281657 0.430107176 0.337254643
0.270462036 0.436179966 0.340291053
0.282985240 0.434788257 0.337128550
0.298291802 0.438583255 0.339278877
0.319164753 0.444402486 0.345097601
0.334345132 0.441872090 0.343073994
0.354838520 0.444908351 0.346868694
0.376723319 0.451486319 0.352688015
0.398481727 0.456925750 0.358254552
0.424541116 0.460594535 0.352814972
0.451865554 0.463630944 0.364959002
0.477039725 0.468184978 0.364452809
0.503858447 0.472991973 0.369006723
0.533966124 0.479949415 0.377482533
0.567236006 0.483111531 0.386464417
0.595066488 0.491713852 0.395066261
0.627577424 0.500822246 0.404806852
0.661479831 0.508412480 0.413156152
0.691840708 0.512966156 0.420240164
0.733839393 0.525110841 0.438203871
0.765718043 0.533206940 0.454396248
0.796711087 0.545730472 0.470841289
0.826438725 0.563314140 0.487665713
0.856799603 0.581530929 0.514990151
0.232257977 0.445035011 0.351423025
0.238329977 0.451106995 0.357495010
0.240100980 0.457178980 0.352308810
0.243643045 0.458950132 0.344718665
0.248956054 0.456167400 0.342441171
0.248956054 0.453131020 0.354585946
0.259076715 0.457937986 0.355344951
0.269323319 0.458570689 0.355598003
0.279443234 0.457305878 0.355344951
0.291714489 0.460468054 0.355471492
0.315622985 0.463630944 0.361417025
0.330549955 0.466160715 0.362429023
0.348007262 0.469702691 0.364326328
0.370777994 0.472232938 0.367362082
0.385958374 0.475268543 0.376470447
0.408854932 0.478304833 0.370651156
0.428336173 0.480329007 0.370904446
0.445793539 0.481847018 0.374067426
0.467045993 0.487919033 0.371031016
0.494370431 0.488172054 0.374826372
0.519544542 0.488678038 0.381151229
0.545351148 0.493232071 0.389247030
0.573308051 0.504364014 0.395572066
0.603668928 0.510435998 0.401644856
0.638330579 0.519038320 0.412523955
0.675901592 0.528146684 0.423023641
0.713093102 0.537254989 0.432384968
0.743453801 0.549399018 0.444528967
0.774825931 0.561543047 0.462491989
0.806957603 0.574952245 0.482226223
0.838330448 0.590385616 0.502087176
0.865907967 0.605819046 0.521062970
0.268690735 0.483238399 0.366856366
0.271980077 0.486527741 0.370145738
0.275901318 0.486147970 0.371916741
0.280328900 0.489057541 0.369766235
0.287919104 0.489437371 0.369386286
0.292726099 0.488804817 0.374320269
0.297786117 0.488298744 0.371284395
0.307780117 0.492220044 0.374067366
0.318406194 0.492979139 0.377862394
0.332574695 0.496015280 0.381910354
0.348007381 0.499050915 0.376597375
0.364199907 0.502087295 0.378621370
0.379759729 0.503984749 0.379759729
0.401897758 0.505123377 0.383048385
0.419607788 0.505629361 0.389626443
0.439595163 0.513472497 0.396331608
0.460468113 0.515749693 0.393675089
0.478811026 0.515749693 0.396584779
0.502213717 0.517520726 0.397849381
0.523466110 0.526375413 0.405945718
0.550790489 0.528273106 0.405186653
0.577988684 0.532194912 0.410752535
0.607210696 0.542188585 0.418722242
0.637571573 0.545603693 0.427451164
0.665655017 0.553952992 0.440354645
0.699177980 0.563061357 0.451613039
0.733333349 0.571157634 0.461227119
0.759139478 0.576470375 0.473371714
0.784187257 0.588615060 0.482858866
0.816065490 0.600759029 0.497153342
0.847691238 0.614927351 0.512713194
0.875015676 0.630107760 0.527135015
0.310815722 0.517014444 0.382036716
0.302467108 0.520050406 0.385072649
0.313092947 0.520682931 0.397343725
0.314863712 0.517646909 0.385958552
0.322833538 0.519038737 0.384566724
0.333459705 0.519038737 0.395192921
0.337634474 0.524731457 0.394433975
0.342061758 0.523086727 0.394939989
0.352941185 0.525616527 0.397217095
0.369260192 0.528652906 0.397596747
0.386337608 0.529791355 0.399620742
0.399493992 0.530929744 0.395698994
0.413915455 0.535104513 0.396837652
0.434155732 0.536622465 0.400126487
0.452371687 0.536622465 0.406198472
0.472991526 0.540037811 0.410372853
0.492726117 0.547627985 0.416445613
0.510942698 0.548386991 0.417204738
0.532700777 0.548386991 0.418975502
0.552308857 0.554838836 0.427577347
0.577356219 0.558254242 0.432890743
0.601644456 0.560278475 0.430866480
0.628336489 0.566856682 0.437444717
0.656926095 0.575205564 0.448323905
0.686907291 0.579000235 0.460088521
