Assets/Resources/EldamarStudio/100 Horror LUTs Pack/LUTs/cube/Freezemaw LUT.cube
LUT_3D_SIZE 5
DOMAIN_MIN 0.000000 0.000000 0.000000
DOMAIN_MAX 0.903226 0.903226 0.903226
0.019608000 0.129411995 0.180391997
0.098418698 0.146742716 0.196078002
0.223023400 0.179759577 0.225553408
0.393422127 0.226565123 0.257938147
0.673877597 0.291713804 0.330929816
0.040860288 0.215054005 0.226818413
0.117393695 0.222264409 0.224161997
0.233143687 0.242884278 0.249715418
0.415053725 0.284756690 0.290575862
0.686653674 0.342061967 0.350284696
0.133459821 0.343327224 0.291587830
0.188108683 0.355723977 0.299810112
0.305502355 0.375331938 0.314484417
0.492599785 0.409993827 0.341935396
0.733839452 0.470208526 0.407463402
0.352308393 0.546363115 0.399241120
0.381530672 0.558507383 0.415180266
0.484756231 0.566982985 0.426438987
0.626945138 0.586590946 0.455154985
0.805059910 0.637950778 0.516002417
0.680328608 0.776976585 0.634534776
0.706641376 0.788361728 0.635546863
0.740290821 0.797849476 0.645541072
0.817709923 0.809613764 0.668184757
0.898544908 0.824035585 0.697279692
0.013409289 0.141176000 0.214420989
0.086021699 0.153953284 0.223908693
0.200506106 0.191903695 0.252371997
0.379759401 0.245160997 0.297153860
0.654269576 0.300821990 0.359012991
0.055913705 0.205945402 0.243516698
0.112839691 0.220999420 0.260847420
0.224035099 0.247817978 0.276913702
0.402656674 0.288677692 0.316128701
0.677166581 0.346615970 0.371789694
0.146236688 0.344591975 0.318405986
0.192663103 0.353447109 0.323339701
0.301581383 0.372422516 0.331815094
0.481467247 0.407716721 0.366477132
0.732321262 0.471600205 0.436306208
0.355471075 0.545350850 0.422770530
0.385831952 0.546489537 0.427703828
0.481594056 0.558507264 0.444781810
0.616571486 0.584313691 0.464389831
0.802403808 0.637950957 0.536369264
0.675015509 0.782542646 0.633396387
0.697786093 0.783807456 0.639468491
0.740164220 0.791018367 0.649841905
0.812523663 0.802529573 0.669576466
0.897153556 0.829980552 0.708791673
0.000000000 0.160784006 0.278430998
0.077798992 0.167995006 0.289563984
0.196204975 0.198734999 0.306641400
0.374193251 0.245160997 0.350790530
0.660720587 0.301454574 0.423782796
0.066034414 0.226818413 0.301960588
0.108538993 0.231751710 0.308538556
0.221379101 0.251359701 0.333080262
0.401644647 0.294244409 0.372042835
0.680328608 0.351423115 0.441113263
0.160910830 0.349145979 0.351675987
0.207336977 0.356988966 0.374952674
0.322454363 0.383807421 0.396204978
0.496141523 0.415939242 0.423782229
0.735863149 0.473497808 0.485262811
0.373181403 0.544085860 0.478684396
0.403921515 0.549272478 0.483491540
0.487286240 0.560784519 0.497912854
0.623276234 0.584566832 0.517899811
0.806072354 0.644528508 0.579759538
0.683617949 0.773561180 0.653889954
0.691081464 0.779633224 0.661985755
0.737760603 0.791271627 0.678937495
0.809234619 0.803415477 0.686400890
0.899809957 0.833902180 0.733965576
0.000000000 0.196078002 0.397217125
0.091840707 0.202023998 0.403162122
0.228969395 0.223908707 0.421505123
0.400379270 0.258823991 0.451233238
0.668943703 0.307020694 0.518658996
0.076407157 0.255028576 0.413915247
0.130170837 0.262492120 0.415180415
0.255787551 0.273624539 0.439848125
0.426185966 0.301075280 0.467173129
0.689436615 0.357368529 0.535610259
0.213156402 0.379253387 0.460088700
0.244908109 0.387728959 0.466919988
0.351928800 0.400506258 0.492093533
0.515117109 0.420746118 0.517267287
0.737760961 0.470841229 0.576470494
0.408222228 0.547375202 0.543580234
0.442504704 0.554838717 0.556483269
0.525869846 0.571157575 0.576723397
0.649462223 0.600379288 0.599367440
0.818216085 0.641619086 0.643896043
0.687412918 0.774319768 0.713093102
0.701707304 0.781530380 0.711701453
0.737381339 0.792283297 0.722327530
0.802023888 0.805439413 0.739025593
0.905376494 0.833902597 0.775458455
0.044908445 0.247311965 0.624161720
0.163061365 0.251106828 0.631878614
0.333839625 0.264895409 0.640480995
0.536622167 0.283870816 0.664263070
0.755091548 0.328399807 0.686906755
0.121568501 0.303731680 0.635167599
0.204680324 0.307400405 0.635167778
0.362555146 0.317899823 0.648829758
0.553320765 0.335230768 0.670840979
0.758633673 0.380771637 0.697912574
0.261859626 0.440227509 0.652751625
0.306514651 0.435547382 0.660088658
0.425300598 0.448071212 0.664515734
0.600000024 0.461479932 0.694623768
0.794813156 0.493231773 0.716255128
0.505755782 0.612903237 0.705123186
0.519544363 0.613915086 0.698924482
0.576723516 0.615812778 0.709297955
0.683870912 0.620746255 0.728905916
0.837697804 0.652751386 0.760657609
0.707779586 0.780897975 0.784946442
0.723086596 0.784566820 0.784946382
0.753446817 0.798608184 0.791397631
0.821758509 0.817204535 0.819481432
0.916887701 0.859455705 0.859455764
