Assets/Resources/EldamarStudio/100 Horror LUTs Pack/LUTs/cube/Freezemaw LUT.cube
LUT_3D_SIZE 8
DOMAIN_MIN 0.000000 0.000000 0.000000
DOMAIN_MAX 0.903226 0.903226 0.903226
0.019608000 0.129411995 0.180391997
0.056040544 0.130171001 0.185073003
0.112839997 0.149020001 0.197596192
0.180518627 0.168121651 0.215685993
0.261606187 0.192789197 0.232890800
0.362049222 0.221505255 0.252877742
0.493990958 0.255534559 0.283618003
0.673877597 0.291713804 0.330929816
0.020367000 0.166983008 0.189753100
0.056799546 0.169765547 0.200759009
0.114357993 0.178747997 0.209740549
0.183681533 0.195952103 0.226691902
0.259202987 0.213156193 0.240733996
0.366223723 0.242251813 0.259582996
0.494370520 0.272359520 0.295383006
0.664010286 0.307779670 0.335989833
0.046173193 0.224921092 0.234408990
0.085009545 0.236685991 0.233649895
0.136369199 0.237444982 0.226439089
0.198608547 0.252751529 0.250095010
0.277166277 0.265528172 0.264136881
0.389500201 0.293864906 0.288804650
0.525237262 0.319797367 0.314484090
0.691207826 0.358760178 0.359139740
0.094244346 0.297026992 0.272864997
0.124098636 0.308033079 0.279569656
0.158507451 0.314610720 0.274383187
0.229348272 0.326755285 0.281340986
0.325363815 0.342820823 0.293864995
0.423782170 0.358380735 0.315875977
0.553573489 0.384566545 0.343074262
0.710815787 0.423529446 0.385451972
0.171410188 0.396458000 0.322201192
0.202783182 0.404300988 0.329664618
0.236432463 0.405819178 0.324478090
0.297153622 0.411637932 0.325616628
0.386843383 0.430866390 0.341809183
0.491714358 0.450853914 0.361290187
0.620240271 0.475395471 0.391650975
0.754079819 0.511195540 0.434788376
0.310815722 0.517014444 0.382036716
0.322833538 0.519038737 0.384566724
0.352941185 0.525616527 0.397217095
0.413915455 0.535104513 0.396837652
0.492726117 0.547627985 0.416445613
0.577356219 0.558254242 0.432890743
0.686907291 0.579000235 0.460088521
0.797469616 0.612144411 0.501834154
0.477925271 0.641745567 0.476027846
0.489943296 0.648197293 0.477672547
0.518026650 0.648576856 0.486400992
0.560784161 0.655913889 0.499557287
0.615306735 0.661227047 0.512080967
0.680328965 0.669450045 0.522327304
0.761290550 0.686147988 0.542694271
0.840987086 0.711195529 0.585578561
0.680328608 0.776976585 0.634534776
0.701581299 0.786337554 0.634788096
0.707400322 0.788108706 0.634028673
0.730803192 0.792410016 0.639468551
0.760784149 0.800632417 0.647817612
0.806072056 0.807590008 0.663124621
0.846299946 0.820999324 0.683491588
0.898544908 0.824035585 0.697279692
0.022770001 0.137254998 0.200759009
0.048197545 0.137634456 0.200759009
0.105756000 0.158001453 0.210879102
0.165212095 0.175964639 0.223782644
0.244022742 0.200252831 0.241872355
0.342947274 0.228083476 0.271221012
0.477419287 0.258570284 0.292347014
0.655534446 0.295508981 0.340037972
0.035294000 0.151676551 0.206578553
0.067805447 0.159899011 0.217204094
0.102972642 0.179506987 0.221884996
0.165591538 0.192409545 0.234788448
0.241492823 0.219101742 0.254016161
0.347628266 0.244529009 0.274762571
0.479063570 0.272738993 0.298165739
0.653636575 0.310183078 0.339911342
0.051992547 0.220999196 0.248956546
0.074762642 0.228083193 0.238329992
0.124478191 0.232005090 0.247691095
0.188741192 0.245288000 0.254775196
0.268184751 0.266793519 0.275648326
0.373814017 0.287539274 0.295003444
0.510562837 0.320809722 0.323972017
0.677925467 0.355977207 0.364579320
0.096141987 0.292093277 0.272232711
0.118912183 0.299683720 0.282605618
0.159646094 0.302340299 0.282100081
0.223782271 0.317267269 0.290322632
0.308286279 0.336116165 0.302846521
0.411132097 0.354459018 0.317267388
0.552561641 0.382542640 0.351296544
0.712333620 0.426438630 0.391650975
0.182795539 0.397722840 0.316508412
0.194813386 0.397596568 0.332194537
0.230107367 0.401897401 0.329917908
0.290322393 0.413662195 0.333459705
0.374952376 0.425047517 0.346362978
0.477545649 0.441745579 0.364705741
0.607210696 0.472359389 0.393168896
0.744844794 0.511828005 0.442884207
0.298292011 0.506388545 0.381783515
0.312207460 0.507906735 0.386590749
0.344591916 0.515370071 0.394433916
0.406578094 0.520809352 0.401897371
0.480708480 0.535863340 0.412650526
0.565211535 0.550664246 0.427577496
0.676027834 0.574699759 0.460215032
0.795825362 0.614674568 0.507020712
0.475648522 0.640986800 0.486400962
0.488551080 0.642631114 0.490702093
0.516508400 0.647311985 0.491334528
0.556356847 0.653636932 0.503478825
0.607716322 0.657305300 0.512333989
0.681467056 0.670082092 0.528905869
0.760910988 0.690322518 0.545351028
0.845920384 0.716129005 0.591650605
0.670714557 0.776343942 0.620872617
0.688172042 0.779000759 0.623150110
0.692979097 0.782542348 0.629728079
0.720050752 0.783554733 0.635546923
0.753952742 0.791903794 0.646173477
0.801897407 0.801391423 0.653383911
0.843137205 0.812776625 0.682985187
0.891966760 0.827703834 0.699177563
0.014168002 0.141935095 0.222770095
0.039974906 0.145477548 0.221884981
0.104237907 0.160784006 0.239089087
0.173181191 0.181910098 0.256799549
0.252245188 0.210120097 0.276028007
0.346362740 0.236306354 0.292346895
0.476786762 0.269576281 0.323719025
0.655534446 0.302846223 0.364579201
0.032511450 0.176470906 0.219481081
0.053257097 0.177609444 0.229727998
0.110942453 0.186590999 0.248197451
0.174319655 0.206198916 0.264642566
0.250221640 0.226944834 0.282226384
0.352055520 0.257052302 0.301454544
0.487412840 0.283744484 0.327134728
0.659961879 0.318912268 0.369512618
0.065780997 0.222644001 0.258697122
0.089690447 0.239974916 0.262239426
0.136369199 0.243770003 0.278305113
0.193421990 0.255913734 0.286907107
0.278052121 0.275901288 0.297027081
0.385705203 0.299810320 0.323719084
0.513472259 0.325110465 0.348007470
0.684756279 0.360784233 0.385452092
0.116634987 0.308792084 0.298545182
0.138266742 0.317520291 0.306515008
0.177862003 0.320176721 0.315243185
0.235293821 0.328020453 0.316255540
0.318152905 0.342441171 0.328020334
0.415939093 0.363187820 0.344338626
0.558507204 0.390133023 0.377988845
0.709171355 0.429981083 0.413535655
0.188614994 0.402909279 0.351170182
0.213282630 0.405565739 0.355091900
0.247438371 0.412144184 0.354965091
0.304870605 0.418848842 0.358128011
0.385199279 0.430233985 0.369133264
0.488171935 0.448956281 0.385072827
0.613156140 0.475521982 0.419987351
0.749525547 0.517520189 0.463756979
0.325363696 0.521821439 0.413914979
0.338013470 0.520556629 0.419228345
0.367109358 0.528526127 0.423402697
0.421631902 0.533586323 0.426691800
0.493991256 0.544212639 0.439595103
0.576091051 0.554712236 0.448450714
0.684503317 0.577482343 0.481467634
0.798355520 0.618469179 0.525236905
0.489057660 0.641492724 0.500568986
0.503352284 0.646046996 0.515370011
0.525110722 0.650980413 0.513093054
0.564073205 0.655281603 0.521821558
0.614421606 0.660341442 0.530170381
0.680834830 0.672485888 0.541049719
0.753447354 0.683871090 0.556736231
0.840101123 0.716255426 0.604048133
0.681087673 0.785578787 0.639974773
0.696015179 0.784313321 0.645540774
0.703858614 0.788614810 0.644781768
0.729664505 0.791651130 0.650474191
0.765211701 0.798355579 0.658823550
0.803162396 0.802277029 0.666287363
0.842757821 0.815433502 0.688677788
0.894370735 0.832004964 0.707526684
0.000000000 0.155218005 0.258949637
0.032891002 0.158760458 0.260974079
0.097912900 0.163820088 0.269576281
0.154206276 0.189373642 0.279064000
0.241872370 0.210499540 0.308033079
0.344338983 0.235040992 0.327261239
0.480581850 0.266793340 0.356483281
0.659202754 0.300948769 0.399620473
0.027703740 0.178241551 0.257305741
0.052372091 0.186211541 0.264516562
0.097027093 0.193168744 0.279823095
0.162808299 0.208096355 0.286400646
0.245414630 0.228462741 0.312333763
0.345603824 0.255154818 0.331941724
0.490322739 0.280961633 0.366223663
0.655534148 0.321695119 0.400126636
0.063251086 0.231878370 0.295762450
0.090322636 0.241745740 0.295762539
0.131056547 0.246806085 0.297660112
0.188615069 0.255028635 0.311068982
0.273497850 0.278178185 0.324730843
0.377988487 0.298924744 0.348134011
0.521189094 0.329538524 0.381530583
0.687033236 0.359646082 0.424667776
0.121694639 0.301581293 0.320050627
0.142820746 0.303099185 0.326375633
0.181150824 0.316887736 0.339658648
0.241745561 0.327387273 0.345856905
0.321948022 0.341049910 0.367489070
0.420999259 0.363820523 0.380518645
0.564199805 0.391903639 0.404807270
0.713598788 0.433017462 0.454016447
0.203415468 0.401138186 0.381909817
0.219734266 0.405819207 0.385958463
0.254269272 0.412396938 0.385072708
0.304743916 0.415432930 0.389373988
0.389374018 0.426818460 0.399114609
0.489689916 0.450094938 0.418722510
0.614168108 0.479063809 0.447691441
0.750411153 0.517267525 0.497280389
0.329664707 0.511448443 0.442251652
0.343833089 0.514104843 0.438329935
0.376723707 0.519291461 0.447691649
0.421252102 0.529158771 0.456673384
0.493105650 0.540544212 0.465654820
0.574952304 0.557748377 0.475901604
0.681214333 0.577356219 0.504491091
0.797343433 0.616571665 0.551549494
0.490322560 0.641872227 0.533712924
0.506894290 0.642251670 0.534218848
0.527261376 0.646932542 0.535736799
0.564705908 0.653636932 0.538772821
0.615306616 0.663504183 0.551296532
0.685894907 0.671727002 0.563440979
0.756862879 0.688425004 0.585325897
0.844908237 0.719165087 0.619987369
0.675015926 0.779759526 0.644908488
0.683238387 0.778874040 0.647691429
0.698924601 0.780518770 0.652118862
0.728273213 0.787096620 0.660214901
0.760910571 0.790132582 0.663630784
0.802782834 0.800379395 0.681214571
0.844528735 0.811891019 0.700063229
0.895002782 0.833269596 0.730297387
0.000000000 0.167741999 0.315243185
0.030487191 0.169006541 0.313219517
0.091587894 0.177229896 0.315876186
0.160151824 0.194813445 0.333586365
0.241999179 0.214800999 0.344845176
0.348007530 0.244149253 0.372043163
0.486780554 0.270335197 0.401897371
0.665022135 0.306008816 0.448450536
0.031498734 0.194433898 0.321442008
0.065907992 0.201517999 0.313472182
0.109297641 0.207337454 0.328526080
0.167994842 0.216824651 0.329158902
0.246046990 0.230486989 0.343579739
0.348007739 0.258570462 0.375711560
0.487159997 0.286400914 0.407336980
0.663251102 0.320809633 0.455281615
0.079949200 0.249335900 0.326881886
0.103858449 0.249968097 0.336622447
0.137128085 0.257937998 0.341809005
0.197470099 0.266540080 0.354712456
0.275648296 0.277419090 0.369892359
0.387982219 0.298924744 0.393927813
0.522074580 0.330550283 0.425300270
0.688424826 0.366603196 0.466666818
0.135736629 0.316255420 0.358507633
0.157368988 0.319797277 0.369133264
0.191397727 0.328779519 0.376596749
0.251360208 0.340543628 0.391018152
0.326754808 0.348640293 0.401517838
0.433143675 0.371284097 0.420240641
0.570651591 0.395066440 0.450727642
0.718279421 0.435926914 0.494623631
0.220872983 0.404300988 0.407337368
0.236559182 0.408349216 0.411511779
0.276407182 0.410626203 0.423276186
0.336242855 0.428968757 0.440101445
0.415812552 0.443516999 0.460088402
0.502719462 0.459962010 0.459962010
0.625553727 0.481847167 0.489057183
0.757368743 0.522201359 0.528020382
0.349272460 0.517520547 0.479570180
0.363946557 0.518658996 0.485009342
0.398228914 0.525743067 0.491208106
0.441239715 0.536749005 0.499177992
0.506009161 0.546995223 0.504743993
0.591397464 0.558254242 0.518279731
0.692725956 0.586843431 0.545730710
0.804933548 0.616824806 0.583681047
0.506135345 0.642378211 0.564579368
0.525743186 0.645034850 0.566856563
0.543326616 0.650221348 0.572043180
0.571536839 0.654902279 0.571536899
0.627198040 0.668184459 0.586717248
0.688551426 0.673244953 0.593042135
0.762049317 0.688298345 0.617836654
0.848450482 0.722074568 0.648197353
0.679316759 0.774319768 0.672865152
0.686907172 0.778494298 0.673245072
0.696900487 0.785072565 0.673244894
0.722074389 0.789373875 0.679063797
0.752561569 0.795572460 0.688424945
0.798228681 0.803035915 0.702086985
0.845793605 0.815813005 0.719164789
0.895002782 0.832004726 0.737128198
0.000000000 0.187981993 0.371916473
0.037191547 0.191524446 0.377482265
0.103478827 0.199493736 0.386211097
0.172802180 0.212776631 0.390385807
0.257811725 0.221378729 0.403415471
0.361922741 0.246679470 0.426944971
0.494370520 0.273497701 0.457684726
0.666413307 0.306008816 0.505249858
0.024541350 0.212776542 0.372043282
0.061480545 0.216698557 0.379127264
0.114610635 0.220999092 0.386843473
0.183428004 0.232384548 0.396710813
0.260088831 0.242125079 0.408096164
0.357368648 0.263251007 0.422517538
0.494243890 0.285136074 0.455534726
0.672106385 0.321947992 0.510309815
0.093611740 0.264895976 0.404301167
0.112713277 0.270209074 0.407210588
0.141808823 0.273877352 0.408855170
0.212523639 0.281340986 0.412523836
0.291840494 0.290322542 0.422897071
0.390512466 0.304111093 0.444402218
0.524984419 0.333459616 0.476281196
0.692725718 0.369260013 0.522201002
0.163820535 0.331182361 0.420366824
0.173561275 0.335230887 0.427197725
0.206072018 0.339911312 0.427830726
0.260341465 0.347374916 0.439721733
0.339531779 0.353194267 0.454143375
0.442505091 0.371663511 0.473497808
0.570651650 0.396331280 0.505502760
0.726628602 0.438583434 0.553447306
0.240101367 0.408728451 0.462871552
0.258191109 0.417204618 0.457938284
0.292978793 0.426945120 0.471347421
0.347880989 0.434029162 0.482226729
0.423150092 0.445794195 0.498292178
0.513093114 0.458570778 0.517900169
0.627197802 0.481720299 0.543706477
0.763947010 0.523213267 0.584693134
0.363693446 0.517014503 0.509171426
0.375838012 0.518785715 0.513472736
0.413156360 0.527514100 0.533459544
0.455787063 0.537760794 0.537001669
0.522201359 0.553826690 0.560784221
0.600885212 0.565970778 0.565970778
0.696268499 0.584440470 0.586464345
0.804047704 0.615306795 0.619354784
0.520935833 0.639469028 0.597849607
0.528399765 0.634787917 0.600379705
0.548639894 0.645920217 0.602656543
0.587729216 0.653637052 0.612903059
0.637950718 0.665401936 0.627957046
0.695382774 0.679569781 0.631372213
0.766856253 0.696268260 0.651739299
0.858191073 0.725996256 0.689184248
0.679569662 0.772295713 0.698924661
0.690575600 0.777735472 0.700442791
0.706261575 0.775711417 0.706135273
0.724857688 0.785199106 0.709930241
0.747754574 0.791903734 0.713472307
0.787855506 0.803668499 0.723086774
0.842505097 0.819608033 0.742694378
0.900822401 0.833396554 0.769639492
0.000000000 0.212396994 0.486148000
0.047438256 0.208602011 0.477419555
0.130044192 0.221125990 0.485009491
0.215306997 0.230866641 0.497912526
0.310563177 0.243010893 0.505882442
0.415559739 0.252877742 0.518152833
0.534471512 0.277419299 0.537128568
0.673498034 0.309930146 0.566856503
0.029601576 0.236938536 0.476786852
0.066540085 0.240354449 0.480961561
0.134977832 0.244149461 0.483617812
0.219861194 0.254142821 0.488045335
0.308412224 0.261859804 0.508285999
0.425174028 0.275901109 0.525869548
0.543706536 0.296141982 0.544085860
0.676660478 0.330170631 0.572801828
0.091587707 0.284377098 0.489310473
0.123213023 0.288298398 0.490449101
0.177609295 0.294750005 0.500316381
0.251233280 0.296900779 0.510689259
0.338772684 0.306388080 0.522327542
0.447691351 0.315876096 0.536369264
0.556230068 0.333839059 0.550411224
0.696647823 0.371663451 0.581657290
0.178368285 0.353699923 0.515749633
0.195066184 0.358760267 0.509298027
0.232384279 0.362681985 0.518026590
0.297280282 0.365464628 0.526501954
0.382163197 0.374066710 0.541808546
0.479823083 0.383807570 0.560657620
0.601138532 0.405312896 0.577482641
0.735737026 0.438709646 0.609108031
0.279443175 0.440860391 0.538646221
0.300695896 0.445161402 0.546362996
0.327261269 0.450474381 0.549019456
0.376976728 0.457937837 0.557368875
0.441492379 0.458317369 0.567868352
0.537381232 0.471979737 0.590891719
0.647185624 0.483997345 0.604427755
0.772422194 0.518785715 0.641113043
0.405060202 0.540670455 0.587855697
0.416571677 0.546489656 0.593801498
0.439215660 0.550790548 0.595951796
0.483617932 0.556735992 0.599873543
0.540670276 0.565591276 0.611385226
0.615179956 0.572043002 0.629095554
0.714863956 0.588235497 0.648956060
0.809867442 0.620746136 0.675521731
0.532827199 0.651486516 0.645287812
0.545983791 0.645034850 0.638330221
0.568247676 0.646805704 0.649968505
0.601138592 0.657052577 0.658190846
0.647311687 0.668058336 0.668311357
0.711068809 0.691587269 0.689563513
0.782542884 0.708665252 0.705755532
0.860341668 0.727514505 0.732321203
0.692725599 0.769386351 0.725616455
0.702213883 0.774826050 0.735610306
0.712713361 0.776217341 0.736242890
0.734345078 0.780897915 0.746489406
0.762934804 0.793042481 0.759013176
0.801517904 0.806830943 0.769259930
0.845287681 0.818469286 0.776849687
0.906261623 0.841998935 0.802403569
0.044908445 0.247311965 0.624161720
0.102340177 0.244908437 0.624794602
0.183301911 0.251865923 0.630107522
0.279949248 0.258697182 0.638203382
0.391777128 0.269576192 0.648070574
0.508032799 0.281593740 0.658696771
0.627071321 0.294876814 0.675142467
0.755091548 0.328399807 0.686906755
0.075774796 0.268058181 0.627198040
0.122707173 0.267046094 0.630233884
0.196837351 0.270588517 0.628969073
0.295382440 0.280834913 0.640733778
0.397849500 0.291713983 0.647817969
0.518279433 0.303858250 0.667172492
0.637318194 0.316002727 0.680328727
0.759519577 0.353446901 0.691081464
0.133712888 0.318405837 0.635420680
0.169007093 0.321315616 0.635167658
0.230487034 0.323592663 0.633396626
0.317773670 0.328652650 0.645541012
0.411764801 0.334851235 0.650600791
0.532827497 0.348892897 0.672612429
0.651106894 0.360657632 0.687539637
0.766982794 0.394939899 0.703731775
0.214927241 0.389247268 0.646805704
0.234029189 0.394054264 0.647564590
0.284630150 0.393168896 0.646299958
0.357874602 0.404427826 0.658949733
0.454522550 0.410879105 0.667425931
0.559772193 0.417457461 0.679190457
0.674762607 0.430107564 0.696900606
0.789120793 0.459708929 0.711954594
0.328778982 0.488171786 0.656040370
0.346869200 0.482099712 0.663504183
0.366097361 0.484250516 0.665781260
0.423402846 0.483617723 0.670588255
0.500695825 0.491966963 0.684376776
0.595825255 0.500442505 0.696015239
0.703984916 0.510309756 0.713851810
0.805945396 0.532574356 0.728905797
0.468817264 0.586590648 0.692978919
0.478431284 0.585072875 0.690448880
0.492978930 0.589879751 0.691587567
0.532700717 0.590891898 0.698165536
0.575331926 0.585072398 0.707906425
0.643137217 0.594180822 0.717014670
0.739405155 0.604933858 0.735230744
0.829095423 0.625679612 0.748766482
0.594686866 0.689943254 0.725236952
0.607084036 0.688425004 0.732574105
0.620872796 0.687286556 0.735989809
0.646299899 0.696268022 0.740923643
0.685642123 0.699051082 0.749145806
0.729791462 0.707779765 0.761922836
0.790765405 0.719797313 0.776976228
0.872232735 0.741555929 0.796078026
0.707779586 0.780897975 0.784946442
0.705123425 0.781783402 0.778747141
0.725616634 0.785578668 0.793295324
0.742947340 0.792536378 0.792536378
0.773813605 0.800758898 0.799620569
0.810626447 0.816192627 0.814168334
0.857811570 0.832510591 0.837444723
0.916887701 0.859455705 0.859455764
