Assets/Resources/EldamarStudio/100 Horror LUTs Pack/LUTs/cube/Gek LUT.cube
LUT_3D_SIZE 5
DOMAIN_MIN 0.000000 0.000000 0.000000
DOMAIN_MAX 0.903226 0.903226 0.903226
0.027450999 0.054901998 0.125489995
0.102340281 0.061733294 0.133965999
0.253763795 0.050980002 0.136622414
0.423782259 0.077546127 0.142188132
0.660720587 0.141302824 0.151676163
0.045793995 0.126502290 0.134977713
0.121947698 0.122580700 0.142188698
0.237065107 0.135989994 0.144465417
0.408475965 0.164199829 0.149652421
0.652245462 0.229601562 0.148640126
0.073244996 0.242631406 0.141808584
0.130423695 0.246552810 0.145730585
0.224920988 0.245287389 0.143073589
0.381657124 0.283870995 0.153194293
0.629980981 0.382036775 0.139910996
0.000000000 0.457305253 0.143832877
0.088678159 0.471347570 0.136496007
0.257938266 0.474383682 0.136495590
0.396458268 0.488678247 0.127388000
0.621505618 0.560657799 0.104870126
0.000000000 0.809740543 0.097153611
0.002530012 0.818975568 0.107273906
0.174826205 0.820873022 0.110816203
0.448070824 0.824161768 0.121821627
0.684376717 0.821505606 0.133965746
0.034914300 0.071221001 0.169639707
0.116128691 0.063377999 0.171283990
0.208349109 0.078810707 0.173307985
0.361416727 0.104617000 0.191903710
0.607842863 0.121315703 0.210246697
0.067046285 0.114104696 0.169006705
0.111827984 0.122959986 0.170651406
0.194560274 0.137002110 0.174572989
0.350284517 0.155344695 0.187349692
0.613029718 0.205439642 0.211890996
0.097406574 0.218089685 0.182416409
0.142188713 0.225300267 0.180392414
0.219101816 0.226312399 0.183048993
0.355471551 0.259329677 0.190891579
0.602909327 0.362428784 0.197849691
0.013662002 0.438329816 0.185705408
0.110183574 0.438456684 0.190638691
0.244528577 0.442378074 0.180771694
0.384313703 0.453130960 0.190006122
0.603541851 0.546616137 0.180645272
0.004933705 0.797722816 0.214168355
0.007843161 0.800758600 0.203921661
0.180012807 0.804300904 0.210879356
0.446300060 0.809867382 0.216445327
0.679316401 0.814674437 0.227071464
0.089563578 0.066666998 0.299430996
0.171663702 0.068311289 0.283744425
0.262239397 0.085009828 0.267425418
0.370525122 0.105881996 0.262618512
0.600632429 0.120936416 0.323086828
0.114104703 0.148387000 0.254269421
0.158886567 0.146109700 0.248450413
0.232764408 0.146742702 0.241239578
0.345983237 0.161543250 0.254395992
0.590133011 0.199114531 0.321062565
0.120936416 0.229475409 0.243263826
0.161163703 0.233143702 0.239974827
0.251107007 0.252371967 0.251739413
0.362682104 0.275648117 0.272359282
0.581657052 0.343453228 0.314737380
0.059835628 0.416065842 0.278305113
0.136369154 0.416065872 0.276913166
0.253257692 0.429474950 0.281847000
0.378367990 0.441239715 0.293611377
0.597343147 0.534851313 0.321821541
0.000632584 0.772548974 0.359898597
0.006198711 0.780012488 0.385705084
0.209613919 0.781657040 0.374826223
0.443010628 0.792789459 0.383554459
0.677418947 0.805945396 0.402023554
0.145098001 0.089310862 0.565085292
0.231751695 0.087286867 0.552055299
0.352814555 0.090195999 0.523971856
0.470841289 0.105881996 0.492599249
0.612017870 0.113472283 0.495002925
0.129032135 0.183048561 0.518405974
0.204933703 0.190891847 0.511448443
0.327007979 0.185072824 0.489689976
0.446047008 0.186717540 0.466793150
0.598608375 0.197469980 0.485135943
0.091587462 0.319797397 0.464769125
0.175837994 0.318153113 0.466793567
0.298798412 0.315243214 0.451739401
0.415433407 0.315622687 0.443263948
0.592789173 0.337634355 0.486274600
0.005819002 0.463251263 0.439721495
0.095762037 0.468058109 0.446426541
0.251233250 0.468690693 0.444149435
0.417963237 0.506388247 0.471094251
0.616698444 0.563061416 0.527766883
0.006198715 0.773560882 0.546615899
0.001265167 0.776217401 0.556988955
0.163567469 0.778114855 0.559898734
0.465401649 0.782669127 0.573181152
0.673118234 0.793168843 0.581909895
0.048071206 0.171536788 0.868564606
0.187223285 0.176470667 0.865907729
0.354965270 0.191904038 0.858696997
0.527767301 0.198481783 0.846046746
0.710309565 0.225426599 0.832004726
0.016951345 0.272612512 0.846679449
0.174572989 0.272232622 0.856419683
0.348513395 0.277798921 0.843769968
0.522959948 0.291334629 0.834914327
0.704870462 0.302846283 0.823276460
0.031878602 0.453510165 0.841872096
0.158760086 0.449842036 0.827450991
0.333585978 0.453510165 0.822896779
0.512839794 0.458443850 0.820998967
0.698671579 0.462744981 0.812523603
0.005819002 0.628083408 0.805439472
0.072738782 0.629474819 0.814674258
0.318658859 0.631372452 0.806957662
0.509044826 0.641872048 0.802023709
0.686147749 0.645034611 0.792915583
0.000000000 0.805945396 0.804553747
0.001012124 0.805945396 0.803668439
0.255027980 0.805945396 0.800758719
0.502846181 0.815433085 0.799367547
0.752561510 0.842504561 0.815053523
