Assets/Resources/EldamarStudio/100 Horror LUTs Pack/LUTs/cube/Gek LUT.cube
DOMAIN_MIN 0 0 0
DOMAIN_MAX 1 1 1
LUT_3D_SIZE 32
0.027450999 0.054901998 0.125489995
0.024414614 0.051865615 0.122454390
0.025679775 0.053130776 0.123719223
0.032511000 0.054901998 0.126755163
0.045414094 0.055660997 0.129791453
0.063630864 0.061732996 0.132827058
0.084377319 0.065275319 0.135863319
0.102340281 0.061733294 0.133965999
0.119038090 0.054901998 0.130929992
0.140290499 0.054901995 0.137001991
0.167362601 0.051992130 0.140164122
0.190639243 0.048956260 0.141176000
0.210752994 0.048197355 0.138898998
0.229475066 0.050980002 0.133586034
0.253763795 0.050980002 0.136622414
0.278051972 0.048576809 0.132448003
0.303858191 0.053130992 0.133965805
0.329917550 0.063377574 0.141808569
0.351170003 0.066413969 0.144844964
0.369639724 0.066666998 0.142314643
0.395446002 0.070461996 0.141176000
0.423782259 0.077546127 0.142188132
0.448197484 0.086654469 0.145224512
0.475521922 0.095762096 0.148260906
0.507400274 0.107146993 0.149020001
0.542188287 0.116508342 0.149020001
0.579127073 0.123086937 0.149020001
0.618595421 0.132194534 0.149020001
0.660720587 0.141302824 0.151676163
0.704996526 0.152181968 0.152941003
0.754079759 0.165211588 0.156482980
0.811765015 0.180391997 0.168626994
0.027450999 0.054901998 0.119417995
0.033523001 0.054901998 0.134598389
0.030487161 0.051865611 0.127261221
0.035547383 0.054395936 0.125489995
0.048070934 0.057938386 0.127893597
0.063630864 0.058697384 0.138899058
0.081846997 0.062239058 0.129284993
0.102593310 0.065275319 0.133080304
0.120556481 0.064010382 0.133965999
0.137254879 0.064010382 0.130929992
0.161416367 0.061100516 0.137002006
0.184566468 0.062112641 0.140164122
0.206957504 0.059962388 0.138898998
0.228968993 0.057052772 0.133332998
0.247691020 0.057052772 0.133586019
0.274383605 0.059455965 0.136622414
0.297786176 0.063757189 0.135483995
0.321441740 0.072485805 0.139405370
0.345097989 0.075521588 0.144844949
0.366350383 0.078557968 0.136748642
0.390512317 0.084503740 0.140796736
0.418722123 0.091714390 0.144212395
0.445414096 0.098671995 0.145224512
0.478558302 0.104870483 0.148260906
0.510436654 0.111701384 0.151296705
0.543833017 0.122327365 0.153447300
0.578621089 0.132194668 0.154080003
0.615559757 0.141302928 0.149020001
0.660341084 0.147754386 0.149020001
0.703225315 0.160025179 0.149905384
0.748386741 0.172548980 0.153447360
0.799620271 0.183428392 0.165591389
0.031751998 0.057052772 0.115496226
0.033523001 0.054901998 0.132827386
0.033143774 0.061353769 0.135104224
0.037697840 0.058317386 0.131056160
0.051106773 0.061353773 0.130423769
0.066287160 0.063124999 0.128399760
0.086148001 0.061353676 0.133206770
0.102719702 0.064389706 0.129285052
0.124478094 0.067425899 0.135863319
0.145224512 0.068817228 0.133965999
0.160530984 0.070208907 0.135230988
0.182795241 0.069196776 0.135230735
0.204047635 0.070968002 0.136875004
0.226818293 0.067425996 0.133332998
0.245034754 0.067425996 0.133332998
0.270461619 0.069829188 0.135736808
0.293232203 0.069829196 0.140290990
0.314484149 0.076407567 0.140923426
0.338772982 0.082479589 0.142441228
0.366730154 0.087666132 0.141049638
0.387982488 0.092599772 0.137633994
0.413788736 0.100442998 0.142947227
0.440353990 0.106641501 0.142947227
0.475774944 0.114737779 0.143959358
0.507021308 0.118658990 0.149146482
0.541808963 0.124730989 0.153573766
0.577482343 0.135863066 0.156863004
0.617204070 0.148260444 0.154080003
0.657305479 0.159012988 0.153320998
0.704617023 0.170398176 0.155091763
0.753193915 0.182921991 0.153700247
0.806830764 0.190765232 0.158254236
0.036559161 0.065148838 0.117520161
0.031498838 0.060847610 0.128146604
0.036938611 0.063883774 0.132574230
0.040228162 0.067931838 0.132068172
0.055407774 0.065654546 0.135484010
0.070587933 0.068690933 0.128653005
0.087033480 0.071727000 0.129158989
0.108791701 0.069449708 0.132321447
0.123213001 0.072486095 0.134598166
0.148007348 0.075521842 0.137128487
0.164579004 0.078557864 0.137254998
0.181530401 0.077040002 0.136495903
0.202782795 0.079316996 0.133459523
0.224541187 0.079569995 0.133586034
0.245793819 0.079569995 0.134598166
0.269955963 0.080708355 0.135736808
0.290196151 0.085768357 0.137760997
0.310309708 0.083365157 0.141935438
0.335230976 0.090575978 0.138899043
0.362555414 0.098165840 0.142441168
0.389753729 0.102972992 0.144971162
0.413030118 0.108033128 0.143959299
0.437824130 0.113852151 0.143832803
0.471979648 0.121821903 0.144971162
0.502593219 0.127640858 0.144465402
0.535736978 0.135863304 0.146742672
0.572675228 0.141935319 0.154332757
0.614421010 0.154838607 0.158127844
0.659329236 0.167362139 0.155597836
0.699051142 0.180012167 0.154838935
0.749399006 0.194307208 0.160531148
0.809360862 0.201138318 0.156736165
0.038077451 0.079949096 0.125489995
0.028589321 0.074636094 0.126628548
0.034661319 0.075015768 0.126249000
0.048956320 0.075521931 0.127134621
0.060721450 0.072865091 0.130171001
0.075901061 0.075901479 0.136243001
0.088172093 0.083618313 0.137254998
0.105376437 0.085768834 0.136495993
0.128526002 0.084630094 0.137254998
0.140670016 0.087666474 0.137254998
0.161922410 0.090702124 0.138014004
0.180771500 0.088045552 0.136875451
0.200126633 0.085388996 0.135736898
0.221379027 0.091714025 0.133459538
0.248450384 0.092093542 0.136622414
0.273371488 0.092093542 0.138014004
0.292726427 0.095888637 0.137254998
0.306894541 0.103099450 0.137001976
0.334218979 0.103099465 0.133965597
0.358380586 0.111448199 0.141302809
0.384566665 0.117140733 0.148513541
0.411132574 0.120177127 0.151549593
0.438709915 0.123466499 0.148640454
0.469322979 0.129791543 0.151423097
0.498165250 0.136243001 0.149146006
0.529664278 0.145730644 0.144465417
0.566603184 0.160152003 0.142188072
0.606072307 0.166224003 0.157368436
0.655028284 0.176849976 0.155091554
0.698165298 0.188994065 0.150790691
0.738772571 0.201138213 0.151043981
0.793421447 0.213283002 0.163188010
0.028969064 0.092093870 0.125489995
0.038077451 0.092093870 0.134598389
0.041492868 0.093232095 0.133586153
0.052878093 0.093738154 0.132321000
0.066793449 0.091081865 0.133206606
0.075901061 0.091081865 0.136243001
0.086021319 0.096647933 0.137254998
0.097280055 0.096648000 0.133965999
0.115243159 0.094117932 0.131941989
0.140670016 0.099810481 0.137254998
0.164452732 0.102846123 0.143074006
0.182163194 0.101834260 0.138013750
0.200126633 0.098292291 0.132700697
0.221379027 0.097786024 0.130423933
0.242631406 0.106894404 0.136495933
0.267298996 0.107273929 0.142061993
0.290069312 0.108791731 0.141050011
0.309171230 0.112207063 0.137254998
0.328146994 0.112207077 0.137001976
0.349905372 0.120556422 0.139531583
0.375458658 0.127766922 0.145477533
0.400759190 0.132321134 0.148513809
0.423529536 0.135610506 0.145604059
0.456925988 0.144718900 0.145604059
0.489816308 0.153320640 0.150664002
0.523592293 0.161922663 0.150537685
0.560531199 0.172548994 0.147501811
0.600000322 0.184439987 0.145224422
0.642125666 0.190511987 0.149778843
0.684377015 0.201138407 0.147754729
0.725110531 0.213282853 0.146489665
0.772169054 0.225427002 0.151044011
0.035041321 0.111828320 0.130549997
0.041619387 0.111828320 0.134598389
0.052877996 0.111828320 0.135104224
0.063504159 0.111954480 0.134598166
0.077925548 0.108918451 0.135104313
0.087033704 0.106767677 0.131688938
0.101201318 0.109297998 0.137254998
0.110309698 0.112080999 0.137254998
0.124604508 0.110057093 0.135230899
0.150158152 0.114358321 0.139531672
0.164452732 0.117520444 0.140543684
0.184692994 0.116508581 0.140543938
0.200379312 0.116888314 0.137001678
0.218848705 0.118279636 0.137254715
0.240101084 0.120556727 0.141049996
0.261353463 0.122454315 0.142315000
0.282479376 0.125490308 0.143579811
0.302719861 0.129538059 0.139784679
0.322833955 0.131435335 0.139784679
0.346363068 0.139784679 0.145098284
0.379000872 0.143200323 0.146236643
0.407843322 0.149019450 0.148007870
0.430992991 0.155218318 0.145224512
0.461986244 0.161922902 0.147628322
0.493105292 0.171031281 0.145351037
0.531814933 0.180138946 0.149272680
0.571157396 0.189753130 0.149525940
0.606577992 0.201897636 0.150537550
0.651233613 0.211258307 0.147754833
0.697280288 0.219101518 0.147248790
0.741682470 0.233143583 0.148639977
0.788867652 0.250221312 0.156609684
0.045793995 0.126502290 0.134977713
0.043643292 0.129791290 0.133080393
0.058949996 0.129791290 0.138393223
0.072359160 0.127261281 0.136621997
0.085641995 0.124604538 0.138519824
0.090955228 0.124098472 0.133712992
0.110057093 0.124478020 0.139405698
0.121947698 0.122580700 0.142188698
0.130296990 0.123339601 0.139911607
0.149272576 0.126375765 0.139405236
0.168500990 0.131056115 0.141176000
0.183048710 0.130044252 0.139152259
0.200126365 0.127008349 0.134977996
0.215812743 0.131815314 0.137254715
0.237065107 0.135989994 0.144465417
0.256672770 0.135989994 0.145098001
0.279443383 0.140544191 0.146616191
0.299810529 0.145477697 0.143832847
0.323087007 0.147501469 0.142820716
0.345477730 0.154459059 0.146742716
0.371030778 0.161163703 0.150664285
0.408475965 0.164199829 0.149652421
0.434914678 0.173434690 0.146742716
0.465275139 0.182542697 0.148260906
0.497279972 0.187602982 0.150031716
0.530423284 0.198102668 0.145604014
0.574193478 0.207969397 0.146869227
0.609867156 0.220113873 0.147627845
0.652245462 0.229601562 0.148640126
0.696268320 0.240353897 0.150537789
0.745730519 0.252118886 0.147501618
0.795066297 0.272612393 0.155850723
0.054901998 0.137128085 0.137254998
0.049588703 0.144718081 0.133459896
0.058190770 0.144212201 0.136622325
0.074636072 0.143959105 0.141176000
0.090195999 0.138646096 0.141935095
0.092473090 0.141302943 0.140038028
0.107400447 0.140291005 0.144086227
0.124225393 0.139279097 0.146742910
0.135610089 0.133965984 0.145983815
0.141682103 0.137001604 0.136875421
0.160657644 0.142188177 0.139405221
0.179633260 0.142947346 0.139911160
0.196331650 0.139152557 0.138013989
0.212018043 0.136875197 0.132194951
0.233270407 0.145477504 0.141808897
0.252878070 0.148134008 0.144338906
0.272612303 0.151929095 0.144339100
0.298798442 0.161037475 0.147375330
0.326375902 0.161417022 0.144591942
0.348893374 0.167742103 0.147122264
0.372042984 0.173814088 0.150917262
0.396331191 0.180139124 0.151170045
0.429854780 0.189120993 0.148260906
0.461480021 0.200000003 0.148260906
0.494876385 0.207590386 0.151296705
0.528146386 0.214801073 0.150158018
0.565085173 0.226945087 0.144591942
0.604554236 0.239089072 0.141555548
0.648197532 0.247817829 0.143073738
0.691461325 0.259456068 0.148639977
0.737381577 0.273371071 0.154332519
0.788994074 0.291587889 0.151296899
0.054901995 0.152308494 0.137254998
0.060973998 0.164452493 0.140290618
0.066413485 0.161290273 0.142947286
0.073118001 0.157621831 0.143706322
0.081087612 0.159898490 0.141935095
0.099304385 0.159898505 0.148007855
0.104111157 0.154965013 0.146110162
0.112966448 0.154079735 0.141935512
0.126502484 0.155218408 0.136875421
0.144718483 0.152182013 0.133839026
0.150790483 0.155218363 0.136369377
0.165718019 0.156356975 0.139405221
0.184946641 0.153953493 0.142188162
0.205946043 0.149019986 0.144338965
0.227198407 0.155091986 0.141302586
0.248450786 0.158886701 0.141302511
0.268058479 0.163314015 0.139784709
0.289690048 0.170145094 0.138266936
0.323086500 0.179253504 0.141302556
0.347881228 0.187982365 0.144085869
0.372042984 0.195066497 0.149019510
0.395319134 0.201138496 0.150917009
0.417710036 0.207337007 0.145224512
0.454142869 0.213409007 0.145224512
0.490322560 0.224288583 0.149778515
0.523845792 0.236053482 0.150158018
0.555977583 0.248197496 0.144591942
0.595445931 0.260341465 0.141555548
0.642884076 0.267172515 0.141176000
0.689437091 0.278684199 0.146615714
0.737508118 0.294623464 0.154711992
0.792030454 0.312839508 0.160404503
0.051992130 0.161669880 0.143074006
0.058064871 0.170904726 0.143200487
0.066287100 0.174446732 0.141935095
0.074383162 0.170145705 0.142188132
0.082479417 0.170271873 0.140416995
0.093105868 0.175331876 0.136369124
0.106261998 0.170271873 0.137381256
0.118658856 0.169133589 0.141302824
0.134092212 0.170651779 0.143833101
0.150157988 0.167615369 0.145098254
0.153826863 0.161669880 0.142061859
0.167994857 0.164705724 0.145098269
0.185072765 0.166729763 0.146995738
0.202530131 0.166476995 0.147501811
0.221125662 0.167236000 0.141808584
0.239974856 0.173307985 0.141176000
0.268311501 0.179886073 0.139658198
0.295509428 0.186717153 0.137254998
0.319797873 0.191270977 0.138013914
0.342062265 0.200379357 0.143832862
0.364326745 0.207589984 0.145098001
0.387602866 0.214674115 0.145098001
0.411384970 0.222770378 0.139911503
0.447817802 0.231625736 0.153826877
0.484250546 0.239974439 0.151549593
0.517899930 0.250094771 0.150158018
0.550790429 0.261733145 0.144591942
0.595066428 0.278684735 0.141555548
0.631878614 0.293484896 0.138519838
0.682985306 0.300315857 0.141808853
0.730170727 0.312966168 0.145351022
0.774699271 0.331182748 0.143326998
0.059076510 0.178874254 0.147122264
0.055028517 0.185958385 0.137002006
0.067299478 0.186590731 0.140923485
0.076407418 0.186590731 0.139152259
0.085515708 0.185452089 0.139911264
0.094623677 0.191524506 0.140417248
0.106261738 0.185452253 0.139405251
0.120050438 0.184313536 0.139405251
0.136369199 0.185072735 0.145098001
0.150284767 0.180771500 0.146869227
0.159898877 0.182921976 0.146110132
0.171031252 0.178874239 0.143073753
0.188108906 0.181909859 0.146110132
0.202783227 0.184440032 0.146995738
0.215685993 0.182669252 0.144465432
0.233902603 0.189500496 0.143200263
0.256673187 0.192536503 0.144718453
0.289057702 0.200126663 0.143959671
0.311701477 0.205945298 0.145350993
0.332953870 0.214547604 0.146869004
0.358001232 0.219860986 0.149145991
0.380518734 0.226818383 0.147121996
0.405059993 0.235926494 0.141303003
0.437697828 0.245034903 0.146995664
0.476154298 0.258191198 0.154585719
0.511195362 0.267299145 0.151549682
0.544212162 0.277419448 0.147122264
0.588235021 0.294117630 0.145604059
0.627830625 0.307653666 0.138519838
0.669576108 0.322833240 0.137254998
0.721694887 0.332320839 0.141935378
0.764578998 0.349398971 0.139278740
0.066666998 0.200126633 0.147881359
0.062112607 0.202782989 0.138393611
0.067931771 0.203541860 0.137128636
0.080582164 0.201770633 0.139532000
0.089690447 0.202150181 0.139911547
0.098798059 0.207463861 0.145224646
0.111574642 0.205439672 0.146236643
0.121947698 0.199493915 0.143959358
0.137128100 0.202529728 0.145477548
0.149652347 0.197596282 0.146236643
0.161796346 0.200885296 0.147375003
0.178241596 0.199746907 0.146489382
0.192283645 0.198987991 0.144591644
0.207464039 0.202023670 0.147375003
0.218342856 0.200759053 0.147375003
0.234661594 0.203921795 0.147375003
0.254016548 0.210752994 0.147754550
0.280075908 0.212017983 0.149525940
0.303858042 0.220619693 0.151549682
0.327640384 0.229727998 0.152941003
0.351549357 0.239595369 0.152941003
0.378873765 0.244655490 0.151929140
0.403541982 0.253763139 0.146236643
0.433902830 0.262871534 0.146236643
0.469955921 0.275395274 0.148513645
0.510056913 0.291208297 0.149272397
0.543959260 0.301328719 0.146742716
0.585198820 0.316508442 0.146742716
0.628463089 0.329032302 0.142188534
0.671473742 0.342947632 0.136116356
0.718785405 0.357241899 0.140543953
0.767615259 0.372169286 0.144591644
0.067172997 0.221379027 0.144844964
0.069955640 0.218089670 0.145098001
0.077039778 0.217963025 0.146995738
0.086401135 0.217710063 0.148007870
0.095762447 0.217836574 0.145730510
0.104870059 0.220872968 0.148766905
0.119038314 0.223402709 0.148766965
0.128526032 0.223023087 0.145983621
0.137128100 0.217963085 0.141682133
0.152308494 0.220999479 0.147754908
0.165591061 0.221125990 0.151929125
0.182036281 0.217837036 0.152435005
0.200885251 0.214927420 0.152688041
0.212777004 0.217963025 0.152181968
0.227957368 0.220999405 0.152181968
0.246047020 0.221125990 0.152435005
0.263251007 0.223655984 0.152181968
0.283111572 0.229981020 0.152561545
0.304364026 0.236053050 0.149525926
0.330423355 0.244908392 0.151549682
0.356356472 0.257558733 0.153194040
0.381657124 0.270967901 0.151676103
0.409234464 0.280202001 0.148893476
0.439721763 0.289436907 0.149020001
0.474383563 0.300822079 0.148513943
0.512840271 0.315749347 0.146236658
0.554839015 0.333460093 0.140670002
0.591270983 0.348640442 0.140670002
0.637824237 0.361417025 0.141176000
0.684883118 0.374573171 0.137887061
0.731941760 0.389627010 0.136748597
0.783554971 0.401771039 0.151929006
0.073244996 0.242631406 0.141808584
0.073244996 0.236559391 0.144844979
0.078178421 0.241872042 0.145098001
0.087412998 0.244022548 0.146995753
0.098924577 0.241998821 0.148766875
0.110942058 0.242125332 0.151802525
0.125110313 0.240101069 0.147248581
0.130423695 0.246552810 0.145730585
0.134598419 0.248830020 0.142188326
0.152308494 0.239215463 0.135610148
0.176217735 0.239341974 0.150411040
0.181783825 0.241366237 0.148892999
0.195319414 0.241366386 0.147501647
0.215812609 0.242251784 0.149146363
0.224920988 0.245287389 0.143073589
0.247312173 0.241112977 0.145477399
0.261227399 0.239341974 0.144844815
0.275521964 0.242504567 0.144971162
0.307400405 0.251233399 0.152561545
0.325869411 0.260088772 0.149525940
0.353573471 0.271094382 0.153447419
0.381657124 0.283870995 0.153194293
0.409234464 0.295382380 0.145857096
0.442630917 0.307526410 0.148893490
0.475395411 0.319038540 0.144465432
0.509424627 0.333965808 0.142441168
0.546236694 0.351676047 0.140164003
0.588235378 0.366856396 0.134598002
0.629980981 0.382036775 0.139910996
0.677292883 0.391271353 0.139405236
0.725237131 0.403668582 0.136622414
0.774446547 0.423023403 0.139785007
0.072106197 0.268690795 0.145983607
0.072106197 0.260214984 0.141808584
0.078557976 0.273497730 0.144844964
0.086148165 0.273497432 0.145098001
0.097533256 0.265907526 0.146236643
0.111700997 0.263883799 0.145224258
0.123972125 0.270968080 0.152687997
0.139152497 0.267931700 0.148260713
0.145224705 0.271726966 0.147501811
0.161796004 0.262871623 0.143327132
0.176217735 0.262365580 0.150284678
0.194434255 0.258317590 0.153320551
0.204301432 0.261353791 0.151043639
0.226312593 0.263883799 0.153067961
0.237571210 0.264769167 0.144844979
0.246679589 0.267804772 0.148386806
0.266413808 0.266286999 0.152940989
0.277039766 0.267172605 0.150663823
0.299810201 0.270967752 0.147374973
0.328905821 0.275269151 0.150158361
0.352814525 0.286274791 0.150917262
0.381657124 0.300442785 0.155471325
0.409107983 0.315243274 0.152055815
0.440227717 0.325110614 0.148260906
0.471347362 0.339531869 0.144465432
0.506008983 0.355977446 0.141176000
0.540923297 0.375205576 0.140670061
0.579633057 0.392283201 0.136495814
0.629348636 0.405059785 0.126628816
0.673624098 0.423782140 0.132700801
0.724224925 0.433902383 0.134218991
0.777355969 0.449082792 0.137254998
0.072106190 0.289943188 0.150537804
0.075142190 0.288424999 0.144465417
0.077039778 0.291713744 0.141808584
0.087412998 0.304110974 0.147374973
0.097153798 0.292093188 0.148133993
0.111195058 0.290195912 0.146236256
0.123845637 0.291208297 0.150284514
0.136116505 0.293738276 0.151296720
0.151296914 0.291460991 0.149020001
0.166476727 0.286906987 0.149020001
0.184819549 0.286653996 0.151803017
0.194434255 0.288677990 0.154838741
0.211891636 0.284882993 0.152941003
0.232131958 0.289437026 0.154838815
0.243010804 0.288172185 0.146995589
0.255787611 0.290575385 0.146869004
0.269450188 0.292093158 0.152941003
0.284629792 0.293864578 0.156483024
0.299809992 0.292979181 0.146109998
0.321315557 0.295762181 0.146363169
0.348260731 0.304491192 0.149399459
0.377609134 0.317647338 0.150411069
0.406071991 0.335104376 0.152308807
0.436432809 0.345604092 0.149019808
0.466793180 0.359266460 0.141429439
0.499936879 0.375838161 0.135357022
0.537381113 0.396964043 0.135610059
0.575837851 0.416192174 0.134598464
0.625553429 0.427577376 0.126629025
0.669070303 0.443516344 0.119038604
0.720809340 0.462997764 0.129538208
0.780391991 0.473371178 0.138772801
0.071980014 0.308285981 0.151676014
0.079317003 0.314358115 0.148133993
0.081088006 0.317646950 0.144844800
0.084883012 0.319417715 0.144338742
0.097406559 0.319038153 0.151929036
0.109803587 0.318785131 0.151676014
0.124478050 0.316887856 0.154838741
0.136622563 0.314484417 0.152941436
0.149525508 0.313472122 0.149020001
0.164705902 0.313472122 0.149020001
0.184819594 0.312839717 0.147754848
0.202656493 0.316255122 0.151043743
0.212524056 0.318785131 0.151676014
0.233523473 0.319291145 0.151929051
0.243769720 0.317393959 0.146995574
0.255787373 0.319164902 0.143833011
0.273750782 0.320050120 0.146869004
0.290702403 0.319417715 0.151043445
0.305882066 0.316382080 0.144971430
0.321062356 0.318279356 0.145730570
0.341302872 0.325110435 0.147628158
0.366730124 0.337634563 0.147375301
0.400000006 0.352814913 0.144338951
0.430360824 0.365464985 0.143833011
0.461353570 0.379886240 0.138899282
0.494496882 0.397090524 0.132447571
0.531941712 0.415306687 0.126375556
0.574446440 0.436432570 0.129032448
0.624288440 0.449588954 0.124099009
0.669576347 0.463377476 0.118659146
0.711701572 0.481340706 0.115496024
0.778494418 0.496521115 0.136748448
0.059835963 0.338646054 0.145603999
0.071979955 0.344718844 0.151675984
0.075015977 0.346489996 0.152435005
0.077545986 0.346742958 0.150917128
0.085262537 0.346363395 0.148893416
0.100442924 0.343327016 0.145857021
0.122959949 0.343073994 0.150663987
0.139658436 0.342821002 0.149905041
0.152561858 0.344085991 0.146110132
0.167741507 0.349905014 0.149019986
0.174193785 0.346995890 0.143200263
0.200000197 0.348260701 0.147754312
0.223149985 0.348133981 0.150663987
0.236559093 0.343580008 0.145857021
0.254775852 0.349651992 0.148893401
0.262618929 0.352561831 0.141556159
0.278557956 0.352561772 0.140796989
0.299809992 0.349778593 0.144971430
0.311954081 0.346742958 0.141935036
0.327134371 0.346489996 0.146995738
0.346109748 0.348640203 0.150664210
0.368627310 0.355471045 0.149651915
0.393927991 0.367994606 0.141302556
0.424288809 0.383175015 0.138266936
0.456926286 0.398102313 0.137760982
0.491461277 0.416065663 0.137001947
0.528906107 0.436559141 0.135483950
0.571410775 0.454775929 0.129411951
0.619228542 0.475901753 0.124099001
0.668058276 0.492599696 0.119797774
0.716508508 0.508918226 0.116508350
0.769385993 0.526881993 0.115496017
0.030993270 0.380138725 0.145098001
0.037571266 0.383428186 0.142820641
0.054016262 0.385199398 0.148893192
0.065401599 0.383934230 0.148893192
0.079063989 0.382416010 0.145857096
0.096647575 0.381783456 0.142820701
0.111827962 0.383807719 0.142314643
0.128778994 0.385705441 0.144591644
0.141682386 0.387603015 0.142314643
0.156862527 0.391650736 0.143326774
0.182795390 0.388994604 0.140417621
0.196964160 0.387982726 0.138393357
0.222011626 0.390259445 0.141808987
0.239089355 0.389879763 0.139532000
0.252245456 0.393422097 0.140038058
0.270461619 0.392283291 0.140670642
0.285641849 0.394560575 0.138772801
0.307400137 0.395319521 0.141049653
0.323845774 0.396584362 0.135863036
0.349905103 0.396331400 0.138393357
0.361290485 0.394434154 0.146363378
0.381024867 0.397722989 0.149146229
0.407084346 0.407969236 0.143579856
0.432131469 0.417836666 0.135230541
0.464769483 0.433017015 0.132194936
0.500948966 0.449588716 0.128906012
0.538773119 0.469449431 0.125616938
0.576723814 0.489942938 0.121821642
0.619228601 0.505502820 0.121062636
0.665781081 0.524731398 0.117014423
0.715116739 0.541809082 0.111321658
0.768626988 0.560025394 0.102592990
0.010120267 0.418848455 0.148892999
0.014295012 0.423782110 0.143959343
0.015686279 0.430360466 0.134092078
0.028842283 0.426565319 0.138899699
0.046426352 0.423022985 0.137508005
0.072232530 0.424541175 0.135989800
0.095509335 0.427071512 0.139278740
0.113978289 0.426818490 0.142567739
0.129158363 0.429348797 0.142314643
0.146615759 0.432384729 0.141176000
0.173434615 0.429601580 0.140164137
0.200379506 0.430487454 0.139152259
0.217457637 0.429348797 0.138013899
0.237698033 0.430866480 0.137507960
0.258064747 0.433902889 0.139152259
0.275015742 0.430233926 0.137254998
0.294749945 0.434788108 0.138772801
0.313472331 0.437697887 0.138646021
0.327893972 0.438203514 0.130043998
0.352561623 0.442251474 0.132321358
0.374193758 0.444149226 0.133460000
0.387350142 0.442125469 0.139532268
0.412776977 0.448323697 0.137508005
0.437065005 0.453889608 0.133712828
0.466287106 0.461859733 0.127261296
