Assets/Resources/EldamarStudio/100 Horror LUTs Pack/LUTs/cube/Gek LUT.cube
LUT_3D_SIZE 8
DOMAIN_MIN 0.000000 0.000000 0.000000
DOMAIN_MAX 0.903226 0.903226 0.903226
0.027450999 0.054901998 0.125489995
0.045414094 0.055660997 0.129791453
0.119038090 0.054901998 0.130929992
0.210752994 0.048197355 0.138898998
0.303858191 0.053130992 0.133965805
0.395446002 0.070461996 0.141176000
0.507400274 0.107146993 0.149020001
0.660720587 0.141302824 0.151676163
0.038077451 0.079949096 0.125489995
0.060721450 0.072865091 0.130171001
0.128526002 0.084630094 0.137254998
0.200126633 0.085388996 0.135736898
0.292726427 0.095888637 0.137254998
0.384566665 0.117140733 0.148513541
0.498165250 0.136243001 0.149146006
0.655028284 0.176849976 0.155091554
0.054901998 0.137128085 0.137254998
0.090195999 0.138646096 0.141935095
0.135610089 0.133965984 0.145983815
0.196331650 0.139152557 0.138013989
0.272612303 0.151929095 0.144339100
0.372042984 0.173814088 0.150917262
0.494876385 0.207590386 0.151296705
0.648197532 0.247817829 0.143073738
0.066666998 0.200126633 0.147881359
0.089690447 0.202150181 0.139911547
0.137128100 0.202529728 0.145477548
0.192283645 0.198987991 0.144591644
0.254016548 0.210752994 0.147754550
0.351549357 0.239595369 0.152941003
0.469955921 0.275395274 0.148513645
0.628463089 0.329032302 0.142188534
0.072106190 0.289943188 0.150537804
0.097153798 0.292093188 0.148133993
0.151296914 0.291460991 0.149020001
0.211891636 0.284882993 0.152941003
0.269450188 0.292093158 0.152941003
0.348260731 0.304491192 0.149399459
0.466793180 0.359266460 0.141429439
0.625553429 0.427577376 0.126629025
0.010120267 0.418848455 0.148892999
0.046426352 0.423022985 0.137508005
0.129158363 0.429348797 0.142314643
0.217457637 0.429348797 0.138013899
0.294749945 0.434788108 0.138772801
0.374193758 0.444149226 0.133460000
0.466287106 0.461859733 0.127261296
0.621505618 0.534345269 0.111954264
0.009487712 0.604047835 0.092853010
0.005692737 0.610752821 0.103226013
0.004680715 0.608222842 0.097533301
0.166730016 0.614041924 0.096774004
0.291461200 0.612144470 0.095129713
0.392283440 0.618848801 0.089942724
0.500189841 0.626944780 0.090575725
0.621505439 0.649715543 0.072612494
0.000000000 0.809740543 0.097153611
0.002277285 0.822137594 0.106135353
0.000000000 0.818216503 0.105502687
0.038456887 0.816192567 0.107400425
0.278558165 0.817204416 0.111322135
0.418216377 0.822896600 0.118532673
0.549398959 0.826312304 0.125363752
0.684376717 0.821505606 0.133965746
0.038836453 0.063124545 0.149779007
0.052877549 0.059203450 0.145857006
0.117140643 0.066666998 0.146236554
0.175078645 0.071347095 0.153700009
0.247058824 0.074383095 0.160278440
0.350031286 0.089310803 0.165970549
0.470967740 0.102972545 0.171663284
0.629980564 0.130423531 0.183807835
0.040354449 0.076786995 0.141555548
0.054395642 0.076407544 0.138773009
0.098671995 0.085009545 0.150158450
0.172042638 0.090069994 0.154079542
0.241999179 0.099936545 0.161163554
0.344212502 0.114737540 0.162302107
0.457937956 0.135484010 0.172422275
0.620746613 0.163820207 0.173308000
0.070967548 0.115496635 0.151297003
0.084629998 0.125743553 0.157622010
0.108792089 0.124604903 0.147754550
0.170398548 0.133206993 0.152055889
0.244022727 0.142567992 0.160784200
0.339025974 0.164073542 0.161543012
0.464642912 0.193801552 0.171663284
0.621378541 0.236685902 0.174319834
0.075901285 0.181277737 0.160404652
0.103099450 0.184440628 0.154079556
0.129285082 0.182036728 0.157621905
0.178494379 0.184820101 0.164706007
0.238836184 0.197343275 0.159392551
0.326755047 0.223149985 0.165464804
0.451612741 0.266413629 0.168500811
0.612903297 0.322833627 0.167235821
0.088678196 0.276027739 0.170651555
0.105123095 0.274130195 0.162681639
0.142061740 0.278810978 0.162681639
0.205313101 0.275268823 0.163060993
0.261733174 0.278304815 0.169006541
0.332447827 0.288804471 0.169765651
0.452625066 0.347501457 0.160910726
0.610373080 0.418848634 0.156230211
0.027324533 0.397217005 0.157368749
0.062998086 0.401012182 0.162049457
0.141302913 0.403415710 0.156483367
0.206324920 0.408096105 0.164705917
0.287792653 0.413662195 0.164832100
0.361669630 0.420746207 0.160658002
0.454396009 0.444149107 0.151802734
0.617836952 0.525237441 0.144338906
0.000000000 0.588361800 0.132321253
0.005439708 0.593674958 0.130803555
0.001138552 0.598229051 0.124731198
0.167235911 0.598102570 0.130297199
0.282479525 0.603288829 0.133586004
0.386337817 0.610752344 0.126502007
0.493990988 0.624920964 0.130044460
0.625173867 0.647185504 0.122074552
0.000000000 0.802403271 0.140164375
0.001265168 0.808349073 0.139531717
0.005060156 0.803162336 0.145224631
0.035294078 0.803668141 0.138266683
0.267172724 0.809108198 0.147880882
0.413408995 0.811005712 0.149904877
0.544591606 0.814421475 0.158254340
0.674636602 0.823150039 0.171536833
0.025047194 0.066666998 0.180265903
0.073244639 0.070208549 0.183428004
0.142694190 0.060341999 0.183427989
0.186970443 0.072865002 0.181909993
0.250727177 0.087792799 0.189752996
0.334851742 0.103605002 0.196457833
0.448576838 0.112080708 0.212397188
0.603035748 0.120303832 0.223403096
0.062744997 0.088551894 0.181910083
0.091713995 0.094117902 0.181530550
0.112333640 0.094497450 0.171283647
0.167742088 0.099936642 0.174067080
0.243010893 0.111321896 0.191777453
0.323592454 0.127008095 0.191271096
0.434155732 0.137507737 0.200632185
0.600758731 0.150411382 0.220619917
0.078431003 0.127007991 0.178114906
0.098039106 0.138393447 0.177229896
0.129285097 0.144212201 0.185831994
0.180265993 0.140290990 0.181530535
0.235040992 0.152814895 0.184313998
0.319671005 0.168501094 0.195698738
0.436812490 0.187982202 0.207716703
0.603162348 0.221884817 0.223529249
0.101201907 0.186843649 0.186970353
0.112460546 0.188109010 0.179506898
0.160784096 0.187602639 0.191397995
0.183301985 0.190765545 0.183807537
0.238962993 0.197090551 0.190891638
0.319418162 0.220872894 0.196710989
0.440860271 0.251612842 0.202150285
0.594939888 0.305882335 0.215053931
0.104237907 0.273498088 0.192030281
0.130550444 0.270588458 0.194813550
0.157495186 0.268690884 0.190385997
0.209614441 0.267425835 0.192789197
0.255408078 0.267931998 0.194434091
0.318405807 0.288551629 0.194434091
0.440733671 0.337381333 0.199873284
0.600379407 0.405819207 0.210120201
0.055660732 0.398608446 0.205945358
0.090701818 0.398861855 0.199493632
0.152182102 0.398482293 0.200759098
0.214041814 0.400126457 0.200758904
0.284250289 0.400379717 0.200759009
0.355218023 0.410626113 0.205186471
0.448450446 0.435547024 0.198987991
0.604553938 0.520556509 0.202403724
0.003035997 0.579885840 0.192283109
0.003036288 0.584313989 0.193295538
0.008222727 0.589373529 0.192915916
0.167995006 0.586970448 0.196457759
0.280708313 0.595572293 0.196078196
0.384566575 0.597975791 0.195192903
0.488425285 0.608728766 0.191144913
0.611891150 0.638962328 0.194307193
0.006957894 0.794433832 0.241998896
0.002277284 0.799493909 0.234535336
0.007589979 0.803035736 0.233776018
0.039342202 0.809361041 0.235167727
0.275648177 0.807463467 0.239721894
0.416698188 0.812144399 0.241998896
0.544718385 0.813535571 0.244655147
0.681846738 0.813662589 0.252624959
0.058444276 0.063883640 0.252878278
0.103605635 0.059962351 0.247817636
0.162049204 0.065021999 0.239215732
0.211385280 0.075648353 0.234281987
0.252877980 0.086527638 0.221758187
0.335863352 0.099051349 0.229474992
0.445161223 0.114357993 0.257305622
0.599114239 0.121569000 0.286400646
0.082099989 0.104996897 0.223909095
0.108412638 0.104870185 0.227577537
0.151422814 0.105376542 0.219228193
0.202783093 0.106514901 0.226439089
0.236053020 0.110815637 0.208728641
0.321695268 0.127008095 0.224414721
0.431246072 0.140290886 0.253763378
0.590259612 0.153700098 0.287159830
0.100189991 0.144844994 0.220493540
0.119038187 0.149145737 0.220114097
0.156230435 0.150410995 0.210246637
0.194560632 0.147627637 0.212270990
0.238836274 0.152308628 0.215559810
0.318659067 0.166729897 0.230360284
0.430866599 0.191904008 0.248197377
0.588488340 0.212523833 0.284629822
0.109297641 0.191777289 0.212397009
0.126502439 0.190259278 0.213156104
0.149145737 0.201770633 0.212017536
0.203542277 0.208601922 0.218595996
0.257685006 0.214168638 0.231625438
0.315370381 0.227830365 0.234155476
0.425679833 0.255154997 0.251739353
0.586084783 0.300442636 0.277672619
0.126376003 0.260847181 0.231245995
0.141935110 0.261480182 0.226059631
0.172801733 0.263883471 0.229980633
0.218089834 0.274004191 0.231498629
0.265907824 0.281467617 0.233396366
0.325869292 0.290828615 0.241366193
0.425047457 0.331056267 0.255028367
0.585578680 0.390765011 0.278431356
0.091460921 0.379127115 0.247185647
0.115749523 0.378621489 0.246299833
0.167615548 0.381404191 0.248703644
0.224920988 0.385452092 0.249968290
0.284377098 0.393295109 0.250347823
0.350790471 0.397976011 0.249841988
0.439468831 0.428336412 0.259203076
0.593421817 0.507400155 0.278684288
0.002276998 0.562049150 0.263503909
0.006325001 0.566350460 0.267046183
0.021378746 0.563946664 0.263883650
0.167994708 0.570398510 0.267425925
0.280455381 0.575458467 0.267805368
0.379253834 0.581277668 0.267299086
0.477798909 0.594560504 0.270841300
0.607463419 0.630487084 0.278178424
0.002656833 0.783554792 0.322707415
0.000759096 0.784313798 0.324604899
0.003795086 0.782289684 0.325616360
0.065275215 0.791650414 0.323971868
0.277292550 0.790132582 0.330803066
0.412270427 0.798734784 0.331435531
0.541555822 0.800126374 0.336875528
0.673118412 0.811385214 0.347375274
0.116761386 0.072991811 0.365085393
0.151676357 0.070588000 0.357748449
0.205313087 0.076027803 0.347122103
0.268691063 0.080834813 0.327007920
0.311701149 0.097153999 0.307780176
0.349905401 0.101833992 0.295129567
0.450980455 0.117647000 0.318659186
0.609993637 0.117647000 0.372169524
0.120682992 0.118026353 0.327261418
0.157242462 0.120683186 0.331182599
0.195951983 0.121948354 0.324478060
0.250347733 0.119544543 0.309550971
0.296900988 0.121441990 0.299430996
0.341935724 0.129664540 0.285136193
0.437191844 0.142188445 0.306514949
0.596078157 0.153067634 0.363061339
0.119164996 0.173940271 0.308792084
0.142568007 0.175964624 0.297280461
0.180139184 0.174699381 0.300949097
0.230360284 0.175205454 0.290701985
0.280329168 0.175585002 0.284377098
0.326754987 0.173940286 0.275648355
0.432890445 0.193548292 0.309298009
0.593295455 0.212271005 0.363946736
0.123086803 0.231498629 0.292979181
0.148640364 0.230739832 0.292726427
0.181404337 0.231119186 0.285262257
0.229980737 0.227071181 0.278810978
0.277166367 0.225173831 0.278304726
0.324098557 0.231752187 0.281467557
0.430487245 0.258443981 0.308791697
0.583681285 0.293485463 0.356356651
0.132700816 0.282732368 0.282985181
0.144718364 0.287539363 0.283111900
0.185705274 0.289184123 0.280455291
0.232764095 0.294623971 0.283238530
0.289943188 0.315623194 0.298418999
0.352308631 0.327387571 0.308665156
0.447944462 0.348387092 0.326628268
0.585705161 0.398228824 0.361669660
0.110436261 0.378115267 0.299557447
0.128146812 0.379379839 0.304744095
0.170398727 0.381277561 0.301960737
0.223403081 0.391144931 0.304870099
0.300822198 0.410625994 0.320303172
0.365844280 0.425932944 0.319671124
0.458443820 0.446932465 0.335357189
0.598228931 0.508791685 0.371030867
0.000000000 0.560151756 0.344465286
0.000379548 0.559898973 0.344971657
0.014674438 0.567488849 0.348513365
0.160151884 0.567741930 0.347628176
0.282859087 0.575205505 0.351423085
0.375837982 0.579506338 0.355850726
0.472485811 0.591524363 0.359013468
0.609867036 0.631119668 0.382542461
0.002530012 0.777862191 0.408096164
0.003415631 0.782036543 0.418595612
0.002530012 0.778115034 0.426818252
0.143579796 0.782542706 0.437824160
0.294623822 0.784440041 0.447058976
0.419101804 0.787223399 0.436559260
0.543453157 0.793927789 0.439595222
0.669196427 0.802023768 0.447185516
0.145098001 0.082226478 0.518532693
0.183807731 0.082226478 0.511321902
0.240101457 0.086274996 0.494117796
0.302972972 0.088172257 0.488804728
0.372928262 0.094497457 0.463377446
0.440480709 0.101833992 0.452118725
0.493611723 0.111574732 0.426565468
0.608981490 0.113724999 0.465148777
0.143453285 0.126122802 0.482226163
0.174067184 0.132700726 0.487159908
0.226312473 0.129664734 0.474889338
0.293738067 0.127261356 0.466033995
0.354965121 0.134851083 0.441366285
0.416065693 0.136242807 0.426185906
0.475901455 0.141049802 0.416445255
0.599367499 0.149146020 0.460720807
0.137381092 0.196457997 0.465528458
0.154712260 0.199114531 0.454775214
0.207463562 0.202782989 0.447185099
0.274383426 0.196078643 0.435041338
0.342314988 0.190638736 0.428589642
0.408855349 0.197343096 0.415180176
0.463251442 0.195825085 0.404427737
0.594054401 0.214421093 0.459835619
0.111575007 0.271473467 0.425806195
0.148007557 0.266793281 0.417583823
0.196584180 0.264516175 0.415180534
0.256799400 0.265654743 0.403162181
0.313725382 0.264136821 0.402530015
0.380518556 0.263757288 0.396457821
0.451612622 0.267425746 0.394307464
0.594560444 0.299936891 0.457684785
0.102719538 0.342314899 0.408981651
0.126501992 0.347880900 0.409993440
0.188741460 0.342821091 0.406957537
0.244022638 0.340544194 0.402403265
0.314610749 0.343200624 0.397090197
0.372295916 0.341302991 0.393801272
0.450221479 0.346362919 0.400379419
0.601138532 0.391651005 0.458064139
0.048324067 0.420746207 0.401264727
0.080076106 0.424035639 0.407716632
0.153194115 0.421758354 0.396331102
0.220619738 0.423656106 0.402909458
0.295762420 0.429980993 0.408602268
0.389626712 0.459835708 0.428589702
0.483112246 0.486148000 0.452118725
0.610120296 0.525616705 0.488551378
0.000379548 0.556609392 0.431119740
0.001897547 0.550790608 0.432637542
0.014674434 0.555218279 0.437444627
0.139785081 0.562176049 0.438709557
0.271853209 0.576470494 0.441872209
0.391651005 0.598734856 0.464136541
0.490069568 0.614041746 0.481340736
0.619355083 0.645793617 0.498798043
0.001897740 0.774572730 0.511701524
0.001265167 0.775964379 0.521442056
0.000000000 0.773940504 0.526122570
0.033016987 0.774952471 0.520809591
0.283744156 0.777102768 0.526628792
0.430993140 0.778368175 0.539784610
0.545983493 0.783681273 0.547248542
0.671094179 0.794939756 0.553826451
0.128778994 0.107146993 0.690701962
0.172802001 0.108538732 0.697912574
0.241492897 0.112713285 0.684503257
0.321189284 0.111574635 0.679569781
0.409740567 0.111701570 0.664516151
0.480329186 0.116887823 0.645541072
0.570145249 0.120556280 0.637065113
0.651992440 0.127387837 0.622011423
0.123592451 0.148007572 0.668437839
0.156230301 0.155977294 0.674130082
0.229980916 0.146363184 0.668058276
0.313092858 0.152688190 0.657684863
0.398481846 0.151802480 0.649968266
0.480202317 0.159266442 0.639468551
0.562555254 0.162302241 0.630234122
0.644149363 0.170777991 0.615812540
0.084376819 0.230993286 0.661606431
0.135357454 0.231119379 0.654396057
0.218089804 0.227830380 0.653130651
0.300442934 0.229854643 0.647817850
0.385452241 0.227071285 0.634787798
0.466413617 0.228589475 0.622643948
0.548134089 0.230740070 0.611131907
0.637191951 0.232384369 0.608349323
0.033649806 0.317393929 0.632510781
0.102846280 0.315496475 0.626691818
0.186970353 0.312081069 0.623276234
0.275774986 0.315116912 0.619101584
0.363567501 0.314484447 0.613156319
0.448197007 0.319670916 0.607083797
0.532194793 0.317520559 0.601265192
0.626439214 0.318659067 0.598734736
0.001518192 0.414168447 0.615812838
0.026439089 0.413029909 0.614674330
0.149019614 0.410246670 0.610373020
0.249462292 0.404933810 0.601771116
0.336875290 0.407716751 0.598608673
0.429095477 0.407716751 0.589879513
0.516761243 0.411638170 0.586084485
0.615053713 0.411638170 0.593927622
0.004553996 0.512713253 0.611891091
0.001644712 0.516002297 0.607210994
0.057052907 0.512460709 0.599999845
0.208602205 0.505123258 0.601391435
0.318532437 0.510562956 0.592662632
0.414674282 0.517014682 0.592156768
0.507400274 0.520556748 0.585072994
0.614674151 0.529664755 0.598608494
0.003922000 0.609614074 0.599493861
0.004174544 0.606072128 0.589626849
0.004048100 0.606451809 0.592283249
0.127640635 0.608475447 0.590132475
0.285135984 0.609614134 0.587729216
0.401897758 0.622643769 0.592789114
0.530550539 0.650474250 0.623655796
0.651486456 0.677419066 0.638836265
0.000758992 0.770651400 0.647058904
0.000379544 0.767742038 0.644022644
0.003795286 0.767235518 0.644402266
0.003668656 0.771663249 0.641366124
0.250094652 0.775078714 0.638077259
0.412144125 0.779380083 0.641492605
0.571030974 0.793421745 0.665907800
0.692220151 0.801264763 0.678304911
0.048071206 0.171536788 0.868564606
0.120050587 0.175838247 0.868437767
0.215813115 0.176217690 0.865401626
0.304490834 0.181530595 0.859202802
0.405819178 0.186210975 0.856799603
0.503478765 0.196964055 0.845793664
0.606831074 0.211511612 0.843769729
0.710309565 0.225426599 0.832004726
0.042125359 0.214041322 0.864642620
0.114611007 0.209487334 0.849968135
0.205819264 0.212903067 0.850221217
0.309677184 0.219734147 0.858823180
0.398735195 0.226944968 0.850474417
0.503605545 0.237064883 0.843011022
0.606198251 0.247691527 0.834787726
0.707147598 0.255407989 0.832131565
0.006325193 0.293611765 0.846932530
0.099810310 0.296521157 0.852751434
0.196837202 0.295255989 0.851359606
0.292599648 0.296268225 0.846299767
0.395825297 0.300568998 0.838330269
0.495382726 0.309550613 0.833902478
0.600379646 0.316508621 0.827324390
0.705882370 0.323339880 0.826059520
0.009234805 0.394307256 0.831878603
0.082353339 0.396584332 0.836305916
0.189753234 0.396205068 0.838203728
0.289816290 0.403036058 0.836432815
0.388108730 0.407590151 0.833523035
0.489436865 0.409487784 0.824541330
0.590512574 0.413662434 0.820872903
0.697279751 0.417963237 0.816571772
0.013409417 0.499051124 0.826438725
0.075395569 0.502466559 0.827071369
0.185831875 0.507020593 0.817710221
0.279696435 0.506388128 0.818975568
0.384692997 0.509424150 0.814674437
0.481720358 0.512840092 0.814294815
0.582542658 0.513092875 0.811005712
0.692852557 0.514737487 0.803668380
0.004554089 0.601770997 0.807716370
0.005566095 0.603795290 0.818848908
0.131941587 0.603162348 0.816951334
0.263630688 0.607210517 0.814041913
0.378621221 0.616318882 0.806831002
0.483997375 0.615559757 0.804047644
0.584819674 0.613156021 0.801138043
0.688424706 0.615433276 0.796963573
0.000758992 0.702719808 0.809234381
0.000000000 0.700948775 0.810499549
0.040986568 0.704364181 0.803921342
0.229728237 0.705503047 0.807716370
0.361163795 0.711574793 0.801011920
0.481087804 0.712713361 0.795319259
0.595951915 0.723719299 0.799367547
0.702972710 0.725743473 0.800379097
0.000000000 0.805945396 0.804553747
0.005819156 0.809487820 0.808095813
0.004301172 0.807210565 0.804427385
0.166350245 0.809867382 0.803921342
0.332194954 0.806324959 0.796963751
0.470967382 0.813156188 0.796837568
0.609614134 0.818975568 0.800379097
0.752561510 0.842504561 0.815053523
