Assets/Resources/EldamarStudio/100 Horror LUTs Pack/LUTs/cube/Ghastblast LUT.cube
LUT_3D_SIZE 8
DOMAIN_MIN 0.000000 0.000000 0.000000
DOMAIN_MAX 0.903226 0.903226 0.903226
0.003922000 0.000000000 0.090195999
0.000379548 0.009360999 0.098797999
0.011638097 0.037571095 0.108918190
0.125110283 0.075142287 0.137887284
0.233902365 0.111954376 0.155976996
0.340670466 0.154585734 0.186211258
0.440101266 0.211385280 0.216318995
0.558633745 0.269575775 0.259076655
0.007463549 0.064642541 0.113345549
0.001897547 0.072865091 0.118026547
0.049842089 0.089310989 0.134471551
0.163567275 0.110815637 0.146995649
0.254396200 0.146109834 0.168121353
0.350158095 0.185705096 0.193674996
0.452625275 0.227957278 0.226818740
0.564705729 0.288551807 0.272106111
0.049715277 0.150411099 0.159139901
0.099304184 0.154333100 0.163061097
0.155724198 0.167615101 0.166983098
0.231752083 0.180898190 0.177103087
0.306135297 0.204427481 0.195066079
0.387349814 0.235673457 0.218595982
0.483238459 0.276407182 0.252245575
0.589753032 0.331561983 0.295888662
0.207463279 0.249968290 0.199493647
0.226565629 0.245540634 0.197343275
0.259582639 0.256926090 0.209108084
0.315623283 0.272991627 0.221378639
0.381909817 0.287792623 0.236559197
0.449588984 0.310942262 0.258570373
0.529158950 0.345350981 0.284250587
0.631119609 0.402909636 0.330044299
0.333712995 0.341555983 0.249842182
0.342188358 0.346236378 0.260088384
0.366477102 0.354079485 0.260088384
0.398229003 0.362682194 0.270208985
0.453510374 0.379886389 0.289057165
0.513725340 0.404174387 0.304996729
0.589753270 0.437824398 0.335863382
0.677165926 0.492473364 0.384819806
0.446552992 0.456166714 0.328779459
0.449715286 0.461606920 0.325110465
0.469576210 0.471853197 0.331309110
0.498924345 0.476913363 0.343073994
0.542441547 0.494876653 0.354332715
0.591524482 0.516888022 0.377735734
0.654269278 0.545856953 0.410626322
0.728905678 0.592409730 0.460467875
0.564959228 0.598228812 0.432890266
0.570145309 0.598355293 0.426185787
0.581151187 0.605313182 0.439215481
0.605439544 0.617204309 0.454269201
0.637571394 0.626565456 0.462492466
0.677166104 0.642251551 0.486021549
0.719165266 0.656420231 0.515243292
0.773940682 0.688930809 0.555344939
0.693358779 0.741682589 0.579759598
0.694750190 0.751422763 0.592156529
0.699430704 0.752688050 0.588867724
0.725995958 0.757368565 0.601897597
0.742188215 0.765464962 0.616571784
0.774699509 0.775458634 0.637065053
0.808475316 0.792916059 0.664262891
0.843516827 0.803035975 0.693358779
0.000000000 0.007463549 0.106640995
0.000000000 0.016065547 0.102340452
0.017078001 0.047691092 0.129285082
0.135357171 0.097153902 0.154459104
0.241492718 0.130803198 0.172801733
0.346110165 0.174699277 0.201897740
0.448323816 0.221632004 0.234408706
0.561163783 0.273750544 0.266540289
0.000000000 0.065401547 0.116761088
0.010499546 0.077166542 0.141176000
0.065148637 0.098292448 0.143832639
0.168627530 0.122960187 0.156356648
0.258696735 0.158760548 0.179506809
0.361416906 0.197469994 0.212523997
0.457431972 0.237697542 0.235041291
0.562302351 0.296394825 0.274762958
0.078811087 0.148007199 0.159898996
0.107147187 0.158633664 0.161037534
0.166350648 0.167615101 0.178368449
0.231752187 0.187223181 0.187729537
0.312080950 0.211891547 0.201770738
0.386843473 0.241998985 0.223655730
0.484250546 0.281847179 0.252624840
0.593928099 0.334977478 0.298544914
0.216825098 0.245161295 0.198608637
0.226565734 0.250347733 0.205312997
0.271347523 0.256926179 0.218216538
0.324604630 0.270208985 0.230360284
0.379127204 0.290954918 0.241745740
0.449968517 0.316128820 0.262998343
0.531941533 0.348892927 0.290702105
0.625174046 0.397596449 0.328146666
0.337508172 0.345097721 0.265275419
0.347501665 0.345856845 0.256546557
0.364579529 0.352055758 0.268058181
0.408601910 0.367362291 0.279823184
0.457811803 0.383427918 0.292979181
0.513852179 0.402150631 0.313219160
0.591018200 0.440860391 0.344971657
0.677545786 0.492220014 0.393927962
0.446552992 0.456925809 0.325110257
0.454269469 0.459329545 0.329664469
0.467552274 0.468690813 0.330803007
0.500948608 0.478937626 0.345856726
0.543200552 0.493358463 0.362175733
0.590512455 0.514484286 0.384060919
0.653004527 0.544212282 0.417457491
0.729285419 0.594307423 0.471726805
0.562049270 0.592915535 0.431752086
0.569892704 0.596331120 0.435547084
0.575331867 0.598734856 0.438076913
0.599620700 0.606578112 0.447817743
0.630360842 0.623149931 0.462365508
0.670082271 0.633269906 0.482352972
0.709550977 0.651359975 0.508665740
0.767615676 0.682226241 0.549778223
0.685388923 0.744592071 0.580771506
0.693231940 0.743073821 0.582795501
0.698039114 0.744718492 0.584060788
0.719924152 0.750031531 0.596837223
0.737381279 0.760910928 0.614927232
0.773181379 0.773940444 0.638077259
0.806198597 0.790638804 0.664516151
0.838709474 0.800505579 0.681720436
0.000000001 0.013282999 0.127767086
0.003162904 0.029348547 0.131309450
0.017837001 0.058697093 0.137887180
0.145983532 0.096647538 0.171663180
0.251359999 0.141808987 0.190512091
0.353573620 0.183175087 0.214421347
0.451739579 0.231878281 0.247564882
0.566603482 0.289690048 0.283870816
0.000758999 0.074383095 0.141429543
0.012776641 0.081087641 0.158001453
0.073750637 0.102972537 0.166983008
0.180771381 0.133586451 0.176723540
0.277292997 0.165212095 0.204680815
0.369006991 0.209993795 0.228083476
0.461606830 0.248197272 0.253004491
0.572043061 0.303984702 0.296647519
0.086654186 0.155092001 0.180265903
0.126375645 0.166097209 0.181024984
0.176091105 0.176217183 0.189627081
0.246679291 0.195066199 0.201770738
0.323466152 0.222517282 0.228083178
0.405439824 0.253383756 0.247565091
0.491840541 0.290575564 0.271853387
0.599240959 0.343833059 0.319291830
0.234534815 0.251865745 0.222137734
0.249462545 0.258570194 0.227324188
0.283111840 0.267932057 0.236685991
0.331688643 0.277293086 0.243263632
0.389753550 0.297280639 0.259835660
0.452751279 0.321189076 0.276407272
0.535736561 0.358633578 0.310183257
0.633270085 0.407969654 0.350158185
0.351043284 0.350158095 0.277292967
0.360657722 0.351802289 0.278178394
0.377609074 0.355597466 0.285262287
0.412017554 0.366982728 0.290195763
0.464642346 0.384566486 0.306261957
0.517773390 0.408855289 0.329411805
0.592156649 0.446426302 0.358633697
0.677925050 0.496521264 0.405566186
0.450474471 0.465654731 0.339531839
0.461353451 0.464010090 0.347374737
0.475774735 0.471853197 0.357495129
0.504870594 0.480076015 0.359898746
0.548007607 0.496141851 0.376343846
0.590259075 0.515749574 0.394307643
0.655407906 0.548513770 0.429348528
0.729411542 0.597596407 0.485515445
0.564200163 0.596710801 0.439089388
0.571031094 0.600000203 0.441872299
0.582795441 0.605439425 0.447058856
0.607969344 0.611764669 0.460088640
0.637065291 0.622643650 0.477672547
0.674256921 0.640353978 0.499177903
0.715496480 0.655787289 0.523213029
0.767615378 0.690195918 0.564832211
0.691713929 0.741049707 0.584946096
0.690575719 0.746109724 0.585452318
0.701707482 0.748766482 0.603794992
0.720809340 0.757495284 0.612144291
0.742694497 0.763314366 0.625426650
0.774319887 0.774699569 0.642757475
0.806451499 0.792662919 0.666792989
0.840859950 0.806072056 0.700822413
0.002783356 0.032004993 0.154079646
0.000000000 0.045793545 0.159772292
0.039215636 0.071221098 0.168121651
0.156483278 0.102592997 0.194434002
0.260341644 0.145730197 0.211638182
0.355976939 0.187096894 0.231119469
0.456420273 0.232637569 0.267298996
0.577988446 0.291461170 0.311068803
0.001897547 0.090828992 0.178620979
0.019607730 0.097912893 0.177988991
0.098419078 0.111195192 0.192409739
0.189753532 0.133080184 0.198608547
0.284250200 0.169133201 0.222137839
0.367995083 0.211511895 0.245540723
0.471473545 0.256546646 0.274636537
0.577988446 0.310056746 0.314484537
0.113346092 0.162935093 0.200885639
0.143579736 0.169133306 0.206831083
0.188615099 0.182542995 0.215053633
0.252119064 0.202909291 0.224921092
0.328905493 0.226312384 0.241999090
0.413662285 0.254901826 0.262998283
0.503984690 0.298798472 0.301201731
0.603162289 0.348386973 0.340670377
0.237191275 0.248323992 0.243263632
0.260341644 0.258949637 0.239722088
0.291334301 0.268311650 0.256546646
0.348133892 0.284756631 0.269576281
0.400632620 0.305123627 0.280834824
0.463757396 0.330170751 0.301201642
0.541555882 0.358253926 0.328526229
0.635926604 0.406704813 0.370145619
0.348133802 0.352055848 0.310815841
0.363061547 0.352435380 0.290195823
0.388108760 0.361543536 0.304364622
0.425426990 0.372802198 0.316128820
0.469196379 0.391651005 0.331436068
0.528020263 0.415559918 0.355344832
0.597343624 0.449209630 0.382289559
0.686148226 0.496521264 0.429981172
0.462618738 0.467172831 0.367741734
0.466919363 0.468437463 0.364579618
0.482479364 0.476154447 0.373181820
0.507906735 0.483997494 0.379759371
0.553194284 0.500442564 0.403035700
0.598482072 0.520050406 0.422517627
0.656040609 0.550031900 0.450980365
0.734851360 0.602656722 0.498924464
0.559519172 0.598734915 0.460341275
0.568374336 0.601517975 0.464263141
0.581530809 0.601770997 0.464516103
0.599241018 0.609993577 0.476660550
0.635294259 0.624161601 0.490702271
0.673877478 0.638077080 0.510563135
0.715749621 0.656925857 0.537634194
0.773054838 0.683364809 0.570145369
0.689310610 0.744212627 0.606957614
0.690575719 0.745224476 0.603035986
0.698924303 0.749525309 0.610373259
0.717646897 0.754332602 0.615686238
0.743326843 0.758633733 0.630866408
0.774320006 0.775458395 0.649335921
0.808602154 0.790385723 0.675142229
0.847311974 0.806831181 0.701960504
0.003922000 0.056420192 0.196711197
0.004553996 0.068564348 0.197090656
0.089057378 0.086906999 0.212270901
0.175711632 0.119544454 0.221252635
0.270082384 0.151169986 0.240481004
0.366476983 0.195445925 0.264895976
0.466540545 0.238836274 0.297533184
0.583175004 0.295762330 0.343073964
0.035167634 0.102593191 0.208222374
0.079569742 0.109677181 0.217583641
0.130929828 0.128146544 0.222517282
0.211005822 0.152435452 0.233522981
0.296015203 0.179506794 0.254016370
0.383428007 0.216951281 0.279316843
0.477039993 0.258570284 0.307526708
0.581403971 0.313092709 0.349778622
0.151676089 0.177102998 0.237444982
0.175458193 0.181783900 0.239468634
0.205060095 0.192663088 0.246805996
0.267805189 0.206831187 0.255913705
0.343074203 0.228716180 0.275016069
0.415559828 0.264389843 0.292978972
0.507527173 0.299937010 0.324098557
0.612523675 0.352687865 0.369133621
0.258444279 0.253383636 0.271094173
0.271726966 0.262871623 0.279064089
0.300316542 0.274509698 0.280834734
0.352435082 0.290195823 0.298545182
0.403415471 0.305123627 0.304743975
0.470461845 0.332574427 0.330170751
0.549905062 0.365718096 0.361923069
0.642251432 0.409108281 0.399114430
0.358760148 0.358760178 0.327387571
0.373687357 0.358001381 0.319671005
0.397976011 0.369766086 0.336875290
0.431246042 0.379127294 0.341556013
0.481846988 0.403415382 0.368121356
0.537760913 0.423402935 0.381404161
0.603162587 0.455155075 0.405818969
0.685388923 0.498165667 0.449462354
0.458696902 0.466793478 0.389374197
0.469323367 0.470714480 0.398608357
0.486021638 0.474636376 0.398608357
0.517773271 0.491840482 0.410373360
0.559266150 0.506009161 0.427324712
0.598102689 0.526375711 0.443516701
0.662365735 0.556356907 0.475901306
0.736875236 0.600379705 0.523466051
0.568627298 0.600885510 0.486401170
0.574320018 0.602023840 0.488804549
0.583681226 0.607843220 0.487919182
0.601771295 0.615812540 0.500948846
0.637191594 0.629854262 0.513093054
0.674763203 0.644781768 0.532195032
0.719291389 0.659582317 0.556103528
0.774572968 0.693358481 0.593168914
0.682479441 0.741555810 0.615559399
0.686021388 0.744465411 0.615306735
0.693864584 0.747375131 0.617963374
0.715623081 0.757495165 0.629474878
0.736874998 0.764073253 0.643769860
0.770525038 0.778620958 0.662744999
0.808095813 0.792283177 0.686527610
0.846299827 0.807969749 0.710056961
0.023023471 0.080328740 0.242883980
0.068184540 0.088551804 0.244908243
0.134851336 0.104490638 0.254648983
0.209614366 0.130423635 0.267172873
0.295508921 0.167615384 0.281593919
0.383681476 0.207589984 0.301707983
0.473371089 0.248577014 0.335736722
0.592030525 0.301454872 0.384313643
0.097280540 0.115875989 0.245540723
0.119164824 0.124098532 0.257305741
0.169386446 0.142188445 0.264010102
0.241492718 0.160531282 0.275395632
0.313852161 0.186717346 0.289057285
0.396331459 0.225932732 0.313345999
0.481973529 0.263251215 0.334218562
0.585452080 0.314358085 0.381404161
0.188235447 0.193548098 0.277545810
0.210246652 0.192662999 0.284882933
0.236432463 0.201265097 0.287412971
0.294876635 0.216951102 0.296900988
0.359139711 0.240860447 0.312966526
0.432004929 0.268184811 0.334598184
0.514231563 0.309297770 0.364326209
0.614421129 0.360657722 0.407210559
0.279822826 0.269829512 0.306894392
0.297280520 0.273371279 0.314863980
0.323466212 0.281973362 0.323971838
0.364199996 0.293358713 0.332953900
0.419102073 0.311701179 0.347754270
0.481340826 0.338013738 0.366476983
0.549019635 0.367236078 0.389879644
0.642884314 0.410626262 0.439974546
0.382542729 0.366477191 0.357368708
0.389500350 0.366477191 0.355850726
0.409361035 0.372043043 0.368880272
0.443390280 0.386211276 0.384187013
0.486147940 0.406451374 0.395066649
0.544465303 0.425300181 0.418595701
0.610752881 0.455913961 0.445287913
0.688551605 0.493105531 0.485389054
0.473750472 0.471979707 0.418975472
0.470335215 0.472232670 0.428589523
0.491713732 0.483617753 0.440860450
0.523845732 0.493737996 0.452751487
0.562048912 0.508665502 0.465907425
0.611005485 0.536495447 0.481593996
0.672232509 0.564705610 0.512207270
0.739278674 0.599620640 0.551802635
0.565970957 0.602656543 0.513472736
0.573940575 0.600126147 0.515496552
0.580771744 0.607590437 0.517520249
0.606325269 0.618342996 0.537887335
0.637950599 0.630107522 0.543200731
0.681340694 0.645793974 0.563946724
0.724604607 0.662112951 0.584440291
0.779126823 0.693990946 0.619607925
0.681593716 0.740796864 0.642631352
0.687412977 0.744971633 0.638330340
0.694244146 0.747880816 0.639342248
0.709803939 0.756989241 0.650347888
0.732068241 0.769259691 0.666034341
0.764199674 0.778621078 0.678051710
0.802403331 0.792789340 0.701581419
0.842757702 0.814800799 0.727008224
0.120176986 0.108791701 0.313978255
0.148134023 0.114357993 0.313978255
0.194813266 0.130929992 0.321189106
0.263630569 0.154206291 0.331435919
0.342061877 0.184946194 0.346109986
0.422264278 0.223149985 0.370019019
0.507400274 0.260088563 0.394686997
0.601011813 0.308664978 0.428336620
0.162302241 0.144971281 0.318532258
0.179759547 0.148893297 0.323086530
0.221125647 0.161543295 0.327893555
0.286527485 0.179380089 0.339911580
0.354585439 0.207969636 0.353573740
0.428716034 0.240101442 0.371157587
0.513219535 0.274889290 0.404553831
0.602656484 0.316761822 0.428968966
0.228589475 0.207716912 0.339152366
0.246552885 0.212271094 0.343580008
0.274636179 0.219354808 0.349146008
0.328272909 0.235041276 0.360151470
0.395572394 0.256166995 0.372675359
0.461733103 0.285009384 0.392156571
0.542694449 0.319544405 0.422770381
0.623402655 0.363440901 0.454522729
0.305502981 0.287033647 0.376723558
0.317520648 0.283111632 0.373813838
0.343453646 0.294117630 0.380518585
0.383427918 0.304364622 0.389626920
0.443769932 0.324731022 0.408475816
0.503352344 0.346742362 0.422897071
0.574067295 0.377861887 0.450853854
0.648070812 0.416951299 0.479190260
0.394813478 0.377482384 0.413282454
0.403288722 0.381404400 0.432004988
0.420114100 0.383681267 0.432258070
0.449968398 0.393674731 0.438330024
0.492852241 0.408222377 0.451107204
0.551549494 0.428589404 0.472738713
0.615812540 0.459076256 0.493358374
0.683870912 0.493864626 0.529790998
0.482605994 0.493864417 0.491587549
0.488551736 0.495762199 0.494623512
0.502213776 0.502087355 0.493991256
0.528399646 0.508032858 0.503099322
0.568500817 0.518911839 0.517646968
0.615053475 0.534977734 0.535989642
0.675774992 0.561164021 0.557115734
0.739026129 0.596457779 0.588108540
0.568880320 0.604807258 0.559645772
0.574446559 0.608981729 0.561796248
0.583681107 0.611764610 0.562428713
0.608728528 0.617710173 0.574572921
0.637191355 0.627577305 0.582036376
0.679443419 0.645540595 0.603668690
0.728020012 0.668184817 0.626691997
0.787096858 0.696773767 0.656293511
0.678178787 0.740164280 0.665021956
0.679696798 0.745351017 0.661479831
0.690955102 0.748386860 0.674003959
0.708665609 0.754585564 0.684250414
0.730550170 0.768500865 0.698924661
0.762808383 0.779886067 0.708791554
0.800252795 0.792662621 0.726502478
0.845794082 0.815813005 0.746489346
0.206957608 0.134724990 0.426565617
0.229221955 0.140670255 0.423402607
0.277166367 0.158507138 0.430613428
0.330297261 0.177356005 0.439468563
0.406704813 0.211258456 0.456925780
0.487286597 0.241871968 0.477419615
0.572675347 0.288930982 0.505250096
0.652877569 0.338899642 0.532574415
0.236432791 0.169006974 0.427577436
0.253131092 0.169259697 0.425806344
0.287160069 0.182795823 0.437950581
0.346742451 0.200379461 0.446932137
0.416824788 0.229095548 0.459329307
0.492599636 0.261480093 0.477799058
0.569007039 0.301454991 0.505249977
0.655028164 0.349398792 0.537760615
0.279190630 0.230739817 0.447185367
0.299304098 0.231498912 0.456166923
0.324604899 0.241366193 0.462238789
0.374952435 0.254142612 0.469449699
0.443516999 0.276913345 0.482099622
0.518911779 0.307526827 0.502213836
0.590892076 0.341429353 0.521821499
0.673118293 0.384946018 0.559519470
0.327387452 0.298292458 0.471853435
0.344844997 0.303225994 0.485768586
0.372801960 0.308159530 0.484250396
0.416445434 0.322960109 0.493991047
0.474383146 0.339026004 0.505249798
0.538266897 0.363314271 0.521315515
0.613409281 0.393421829 0.544718504
0.684882998 0.434282243 0.570651591
0.401264995 0.399241030 0.515496731
0.406451553 0.399367452 0.526502252
0.421884924 0.398355335 0.525237203
0.458823353 0.403794736 0.531941772
0.515496373 0.418595999 0.543326616
0.573687494 0.441999018 0.558507085
0.644781590 0.472612202 0.578621209
0.714611232 0.512713313 0.602656603
0.495129645 0.519797444 0.583175421
0.502846241 0.517647028 0.581403911
0.516255379 0.519165099 0.585452437
0.534598410 0.521568537 0.588741302
0.566476941 0.524098575 0.595192730
0.612650394 0.543200672 0.607969761
0.686147988 0.574193299 0.629221857
0.749778509 0.603541791 0.647311807
0.589627028 0.643011034 0.647059083
0.594054163 0.644908249 0.647944331
0.602656722 0.644022882 0.647311747
0.618975401 0.647185147 0.654143035
0.641998887 0.653004527 0.656419814
0.677799165 0.656672776 0.661986113
0.726375282 0.668564379 0.672486067
0.786590636 0.695888519 0.702340484
0.681340754 0.766603589 0.719417810
0.695129752 0.759645879 0.732574046
0.696014822 0.761416614 0.722200930
0.714863956 0.767868459 0.734598398
0.731435776 0.767994940 0.736622274
0.765464544 0.784060538 0.755850554
0.800885677 0.793927848 0.768880248
0.856799543 0.822770417 0.791524589
