Assets/Resources/EldamarStudio/100 Horror LUTs Pack/LUTs/cube/Ghastblast LUT.cube
LUT_3D_SIZE 5
DOMAIN_MIN 0.000000 0.000000 0.000000
DOMAIN_MAX 0.903226 0.903226 0.903226
0.003922000 0.000000000 0.090195999
0.005566289 0.033017289 0.108159289
0.175964400 0.092852995 0.145730585
0.362934977 0.169766128 0.190258995
0.558633745 0.269575775 0.259076655
0.014800696 0.129158705 0.140923694
0.113219395 0.144844696 0.151043400
0.251486540 0.176849693 0.176850110
0.403541833 0.228589267 0.220366836
0.581150889 0.317899823 0.290069699
0.271473378 0.292978972 0.211132422
0.306767792 0.302466691 0.227830276
0.388487935 0.330929816 0.258317381
0.497659832 0.362302393 0.289689988
0.657937825 0.441492379 0.353826553
0.470841259 0.488551259 0.354079872
0.496394992 0.499683976 0.358127534
0.541176140 0.521947801 0.374193668
0.621885002 0.553320289 0.412144274
0.740290761 0.618722260 0.487792522
0.693358779 0.741682589 0.579759598
0.698418796 0.752181768 0.590638638
0.731815219 0.761923075 0.606451154
0.785072744 0.779506624 0.642125487
0.843516827 0.803035975 0.693358779
0.002277292 0.009487708 0.120935991
0.004933705 0.048070703 0.131056279
0.198861808 0.117394120 0.173560694
0.377355844 0.196837410 0.219987273
0.566097319 0.288424969 0.282858938
0.035800103 0.135357410 0.165085703
0.132827401 0.150410980 0.175205410
0.264263362 0.188994408 0.198734999
0.415306956 0.244276106 0.238962695
0.590891600 0.328652680 0.304111570
0.288425386 0.298545092 0.242251694
0.317899793 0.303731680 0.247185409
0.395698786 0.329285055 0.270082414
0.496394813 0.369512826 0.299810261
0.657937765 0.450980514 0.370524943
0.473751128 0.496521235 0.353447139
0.497280538 0.500696123 0.362302393
0.544085860 0.520683289 0.386970371
0.626186013 0.551675975 0.425173849
0.740543902 0.620113671 0.498418808
0.688677907 0.742567897 0.585452199
0.697406471 0.746236444 0.591650605
0.729158640 0.757621527 0.612397134
0.783680916 0.778241515 0.648576915
0.837570786 0.805059731 0.695003271
0.000000000 0.046426415 0.176596984
0.031878680 0.073244579 0.185072824
0.217203960 0.126881823 0.213155985
0.386590660 0.204047993 0.252118677
0.573561192 0.295003235 0.319797397
0.107653692 0.150410980 0.211511701
0.162555099 0.164452702 0.216698289
0.281593680 0.200758979 0.242251694
0.423149824 0.253763378 0.281847000
0.599747181 0.338772982 0.348260492
0.296900809 0.300189406 0.279190391
0.331561983 0.311954409 0.292978942
0.413915396 0.339405358 0.312586963
0.518658996 0.381277800 0.340417117
0.665148318 0.455914199 0.410752803
0.488171697 0.497027397 0.399873555
0.508412540 0.502593517 0.404174387
0.550917149 0.526502311 0.421505123
0.632637441 0.557242274 0.460467815
0.743832946 0.622896910 0.527134657
0.682100236 0.742947638 0.597217023
0.687918782 0.744212210 0.607337058
0.721189260 0.757241786 0.622011244
0.778873801 0.780265749 0.659329355
0.847564638 0.803035975 0.705123425
0.047311991 0.086401001 0.258064121
0.133839548 0.106261864 0.264516264
0.264263391 0.149146408 0.283111989
0.413030118 0.219734251 0.319924235
0.590006471 0.306514949 0.397722811
0.176343963 0.176596984 0.282352984
0.219228402 0.186337993 0.293232262
0.315243393 0.219101980 0.305376410
0.445414394 0.266160846 0.345983416
0.612650096 0.348260671 0.414800793
0.331941515 0.317141384 0.350917280
0.361290276 0.320429981 0.351928830
0.429980934 0.348260522 0.374446541
0.532700956 0.387855649 0.408475965
0.671979785 0.454522401 0.474130392
0.504111290 0.501328111 0.452372104
0.516255558 0.513725579 0.466919839
0.560025573 0.533965707 0.489183992
0.645414293 0.571916401 0.519038379
0.746109784 0.622896910 0.573813915
0.685642123 0.741302788 0.650474310
0.690954864 0.751675904 0.647438467
0.717647076 0.760910928 0.664895475
0.772042930 0.783174932 0.688425064
0.843769550 0.814547420 0.734851480
0.206957608 0.134724990 0.426565617
0.261227190 0.152434826 0.428336442
0.366350651 0.193674967 0.449462175
0.511574805 0.252498239 0.484250456
0.652877569 0.338899642 0.532574415
0.268564492 0.211258650 0.440354198
0.303858519 0.220113844 0.453889877
0.401011795 0.249841973 0.466919869
0.530803382 0.303478837 0.504743934
0.669829428 0.375837922 0.551929235
0.368248224 0.343327224 0.498544753
0.384693265 0.349272370 0.500442505
0.466919810 0.370145649 0.519417763
0.578494549 0.411764532 0.550917208
0.705629349 0.474257022 0.594687104
0.521442175 0.551423073 0.597596288
0.530929804 0.550790429 0.599873185
0.569259703 0.554964960 0.606072366
0.642505109 0.574826300 0.623402596
0.761669755 0.624288261 0.659709096
0.681340754 0.766603589 0.719417810
0.694244027 0.759645879 0.720429838
0.721947908 0.769133389 0.739152431
0.773560762 0.786084831 0.757368624
0.856799543 0.822770417 0.791524589
