Assets/Resources/EldamarStudio/100 Horror LUTs Pack/LUTs/cube/Ghastblast LUT.cube
DOMAIN_MIN 0 0 0
DOMAIN_MAX 1 1 1
LUT_3D_SIZE 32
0.003922000 0.000000000 0.090195999
0.000885613 0.000000000 0.093232386
0.000000000 0.002150774 0.094117999
0.000000000 0.005186839 0.095382839
0.000379548 0.009360999 0.098797999
0.003415935 0.021504998 0.104869999
0.003922000 0.028589645 0.108412318
0.005566289 0.033017289 0.108159289
0.011638097 0.037571095 0.108918190
0.026818506 0.046679489 0.121062964
0.065274864 0.058696996 0.121569000
0.096647240 0.066792995 0.127640739
0.125110283 0.075142287 0.137887284
0.154712036 0.086780995 0.148766965
0.175964400 0.092852995 0.145730585
0.202023774 0.101328187 0.149904996
0.233902365 0.111954376 0.155976996
0.268437535 0.123466410 0.162681580
0.295762002 0.132574052 0.171789974
0.317520380 0.141682357 0.180898353
0.340670466 0.154585734 0.186211258
0.362934977 0.169766128 0.190258995
0.381656975 0.184819981 0.196584016
0.412017822 0.196964011 0.208728820
0.440101266 0.211385280 0.216318995
0.467425615 0.223782659 0.223782659
0.495256126 0.233902931 0.232890934
0.525616825 0.249082521 0.241998538
0.558633745 0.269575775 0.259076655
0.592030108 0.290828168 0.277292937
0.624541163 0.311195195 0.293737978
0.654901981 0.329412013 0.305882007
0.000885613 0.003036387 0.084123999
0.000885613 0.000000000 0.090195999
0.002150774 0.006451774 0.097533390
0.001771226 0.012524000 0.097659998
0.000379548 0.018848933 0.096141838
0.003415935 0.033649772 0.104869999
0.001391678 0.035673775 0.103352323
0.002530321 0.040733997 0.111954704
0.012397383 0.046679482 0.114990577
0.038962502 0.055787876 0.108918190
0.065780871 0.064895511 0.121062964
0.100695759 0.072864994 0.127640739
0.131182760 0.080075644 0.134471640
0.161290035 0.090322606 0.140417606
0.188108400 0.101960607 0.145730585
0.214168400 0.108032607 0.149904996
0.238456950 0.118026376 0.154459193
0.264769346 0.130170986 0.160278365
0.289690018 0.141682446 0.171789959
0.317014366 0.153573409 0.175332353
0.338772744 0.161036998 0.185831994
0.362934738 0.171789870 0.193295389
0.387602478 0.184946492 0.199620381
0.415053427 0.200000405 0.211764425
0.443137467 0.214421093 0.219354615
0.470462024 0.226818278 0.226818278
0.498292387 0.237950683 0.236432612
0.528652489 0.258190900 0.248070523
0.556356430 0.273371220 0.259835660
0.592536151 0.292093337 0.271979749
0.628462970 0.312966198 0.290828407
0.660973966 0.335483998 0.318026781
0.002150774 0.014674226 0.095256001
0.002150774 0.018090161 0.099177770
0.000000000 0.019354774 0.096647777
0.003036387 0.025933161 0.100695841
0.001771226 0.031878773 0.096268229
0.001265161 0.045287933 0.100063063
0.001391678 0.047817998 0.105502546
0.006577994 0.051106993 0.109044932
0.017204318 0.057938095 0.121695317
0.046173017 0.067046493 0.119291574
0.075774640 0.074003905 0.123971969
0.109171264 0.081087776 0.130044475
0.139278978 0.088298418 0.136622131
0.167362094 0.097406745 0.140164256
0.194686949 0.107652985 0.148133993
0.222011402 0.114990540 0.149904996
0.246300176 0.124098539 0.157495201
0.267552555 0.136242971 0.161796421
0.290322810 0.148387015 0.169386238
0.315243363 0.160531014 0.177482575
0.342567712 0.170777738 0.184313953
0.365338236 0.179126754 0.196204990
0.391524255 0.191144735 0.204427510
0.418848693 0.202277139 0.210499778
0.446173102 0.217457473 0.222390771
0.473497868 0.231245756 0.228462756
0.501328349 0.242631122 0.237824067
0.531688750 0.262239188 0.251612753
0.559392571 0.278178602 0.259455889
0.593800902 0.296900511 0.278684616
0.628842413 0.315496176 0.293232113
0.658443987 0.337255001 0.321568996
0.005186839 0.036179319 0.108411998
0.002656839 0.038456932 0.108918384
0.003036387 0.044908386 0.108033001
0.000000000 0.046679158 0.107021004
0.002656839 0.049715545 0.103605166
0.000506065 0.059203155 0.101834163
0.003795161 0.062491998 0.106894158
0.014168315 0.065781318 0.115875699
0.030866317 0.071853317 0.123466089
0.058696657 0.080455646 0.131562471
0.086400896 0.085388996 0.132321119
0.119544491 0.091460995 0.137887254
0.151423275 0.098671637 0.140923634
0.175458342 0.107780024 0.144212320
0.200759217 0.116887890 0.152308583
0.225553781 0.124857441 0.156736165
0.252372175 0.131436154 0.158760041
0.273624569 0.143580139 0.167868420
0.294876993 0.155724183 0.172169209
0.320177168 0.167868167 0.180771515
0.342567712 0.176849723 0.186084732
0.369892120 0.185958117 0.195193127
0.394560337 0.197975665 0.207084149
0.421885073 0.209361076 0.213535905
0.449209452 0.220493451 0.222138166
0.475268632 0.234282151 0.232763976
0.502087116 0.247944236 0.239848122
0.530929863 0.266919911 0.254269600
0.563693762 0.282479823 0.265274972
0.596837282 0.301202059 0.273118228
0.634534776 0.321568310 0.297406793
0.659961998 0.339785010 0.319038659
0.007463549 0.064642541 0.113345549
0.001771000 0.062365931 0.112586930
0.001771226 0.067172766 0.110942543
0.003036387 0.072485544 0.113851994
0.001897547 0.072865091 0.118026547
0.001897547 0.075901479 0.111954547
0.011385318 0.080075778 0.116761543
0.027071696 0.083617866 0.124604538
0.049842089 0.089310989 0.134471551
0.080202118 0.095382996 0.137507945
0.104364291 0.098924674 0.135483682
0.133586228 0.103984535 0.139784798
0.163567275 0.110815637 0.146995649
0.187349990 0.120177060 0.150285006
0.208475858 0.129411951 0.156357005
0.231246337 0.137760743 0.162049443
0.254396200 0.146109834 0.168121353
0.280455559 0.152688533 0.170904115
0.301708013 0.164832577 0.180012524
0.328146905 0.176976562 0.189120814
0.350158095 0.185705096 0.193674996
0.371030658 0.192409679 0.195572585
0.398228526 0.201644540 0.204680964
0.425300717 0.216571912 0.216572002
0.452625275 0.227957278 0.226818740
0.478937507 0.238077536 0.236306310
0.503984690 0.251360059 0.246299580
0.528273404 0.272612423 0.258444339
0.564705729 0.288551807 0.272106111
0.602403343 0.306894600 0.281720221
0.636812150 0.327640980 0.289816529
0.670208573 0.345856994 0.314104557
0.004427936 0.079822935 0.110309936
0.001391549 0.082859315 0.125490323
0.000000000 0.084883153 0.122580931
0.001771226 0.087665930 0.123845771
0.004933934 0.088045478 0.130170554
0.017077934 0.091081865 0.121062942
0.037317932 0.101707928 0.130170926
0.057431698 0.104111157 0.134724930
0.079443187 0.104111150 0.137507841
0.104490884 0.107527003 0.140543550
0.126122743 0.113598995 0.143579930
0.149904907 0.119164921 0.145604193
0.175711289 0.125236928 0.150790945
0.199494004 0.132321060 0.156357005
0.217709988 0.144465819 0.162429005
0.248450458 0.148893133 0.166097194
0.272232920 0.157494918 0.175711244
0.292599559 0.167362213 0.185072511
0.313852012 0.173940942 0.183048919
0.337887734 0.186084941 0.192156598
0.360784680 0.196331665 0.201264799
0.382542849 0.203921869 0.205819011
0.407336920 0.210752919 0.207716569
0.431625724 0.222896934 0.216824964
0.458697289 0.237824276 0.228715986
0.486021638 0.249209672 0.240354031
0.513346076 0.260341942 0.252498060
0.543453753 0.278684437 0.267551959
0.573054850 0.294623822 0.274383038
0.608475327 0.311574936 0.287286162
0.641366184 0.331182659 0.300442576
0.667172909 0.351929009 0.317140937
0.001391678 0.105123319 0.122454315
0.000885613 0.108159706 0.127514064
0.004300999 0.109045319 0.134092450
0.011385158 0.109171480 0.131688997
0.021758541 0.108665317 0.136242777
0.040354311 0.113851927 0.135736614
0.065148637 0.119417995 0.134218678
0.089437045 0.124983996 0.144718379
0.110056862 0.124351412 0.148134097
0.129031971 0.127387807 0.151170164
0.150410861 0.133333310 0.144085869
0.169639498 0.139405310 0.151170254
0.192915633 0.147754312 0.157495350
0.216698065 0.156103313 0.164705709
0.234914631 0.159139499 0.168500990
0.255534410 0.168880478 0.174572989
0.282353193 0.175205514 0.179253310
0.302213877 0.184440061 0.188867584
0.323466331 0.188614637 0.189626977
0.347501397 0.200253338 0.202783301
0.373687387 0.206704572 0.208095893
0.395192921 0.215559930 0.214926988
0.416445285 0.224794790 0.217962995
0.440733492 0.234535009 0.219860584
0.467299521 0.248956278 0.233522952
0.493232280 0.262744993 0.245920330
0.519418061 0.274003744 0.258064628
0.547754526 0.290195972 0.271220744
0.578115284 0.305755824 0.283491313
0.606704473 0.322706938 0.296647251
0.642631173 0.341808587 0.314357579
0.676787019 0.363061011 0.332827002
0.014800696 0.129158705 0.140923694
0.023023397 0.133839369 0.135736614
0.032258101 0.131435990 0.145350769
0.040860102 0.132701159 0.147121996
0.054142941 0.130803406 0.146362990
0.067805335 0.134345412 0.145603761
0.090828724 0.145350695 0.152687699
0.113219395 0.144844696 0.151043400
0.136749089 0.145603791 0.158633605
0.153699934 0.148640186 0.161669776
0.173054561 0.154585704 0.159645826
0.192283198 0.157368690 0.157748237
0.210499689 0.163440704 0.165717989
0.233269766 0.174066693 0.173813730
0.251486540 0.176849693 0.176850110
0.270461798 0.182415798 0.180644989
0.293232381 0.190006375 0.186716989
0.314611256 0.198988110 0.194054142
0.335863709 0.204047754 0.200126678
0.356609732 0.212144002 0.206072375
0.376217425 0.223529667 0.215306967
0.403541833 0.228589267 0.220366836
0.424035490 0.239974782 0.227197886
0.449841738 0.249082804 0.231751695
0.474762857 0.261100262 0.241492689
0.500695944 0.274889320 0.251106739
0.525996149 0.287539333 0.262492269
0.554459155 0.302719414 0.274636269
0.581150889 0.317899823 0.290069699
0.614674091 0.333206654 0.299177647
0.643769741 0.354079276 0.318279296
0.683997750 0.376849711 0.339531720
0.049715277 0.150411099 0.159139901
0.059582576 0.155724198 0.146995321
0.073244765 0.154712200 0.154205874
0.088678181 0.151676267 0.163061097
0.099304184 0.154333100 0.163061097
0.101961032 0.154333100 0.157748088
0.121695407 0.163946763 0.163060993
0.139026180 0.170651108 0.167741612
0.155724198 0.167615101 0.166983098
0.176976591 0.170651495 0.170018703
0.196078196 0.175079003 0.173813954
0.213535607 0.178621188 0.175584987
0.231752083 0.180898190 0.177103087
0.249715135 0.186717153 0.182669088
0.267425835 0.192283094 0.185199410
0.287160188 0.198355094 0.189753383
0.306135297 0.204427481 0.195066079
0.330424041 0.209867522 0.200505674
0.351803005 0.218722150 0.212270945
0.370272011 0.226565078 0.214800999
0.387349814 0.235673457 0.218595982
0.405060202 0.246046960 0.224921018
0.432131588 0.255281091 0.233776405
0.458191037 0.265022069 0.241619200
0.483238459 0.276407182 0.252245575
0.507527053 0.288551331 0.261733323
0.531815052 0.300695986 0.266793072
0.561669767 0.315622628 0.279190093
0.589753032 0.331561983 0.295888662
0.618089437 0.348260373 0.307780087
0.657431722 0.365464747 0.320556581
0.690828979 0.392789185 0.341809005
0.107400462 0.171663493 0.168247506
0.101328477 0.174699888 0.156103522
0.106894217 0.175711975 0.163314253
0.120050341 0.175458983 0.172169477
0.135736987 0.175585493 0.172169492
0.135737002 0.175585493 0.172169477
0.158633828 0.178115174 0.169386178
0.175838202 0.183301494 0.168627009
0.186084986 0.188867494 0.170018718
0.198229000 0.194939509 0.176091477
0.219481364 0.195066020 0.182036951
0.236559242 0.199367523 0.185958222
0.253004491 0.205186993 0.188867643
0.270967543 0.211005956 0.191777498
0.286147892 0.214041561 0.191777498
0.308665574 0.219607487 0.199114799
0.328146785 0.225679874 0.207969770
0.345603645 0.231119916 0.215686068
0.369892478 0.234155551 0.218722463
0.388487995 0.245793492 0.224920988
0.406704456 0.255787224 0.230739996
0.425806612 0.264010012 0.236811996
0.447311968 0.270461500 0.242884025
0.468564391 0.282606274 0.245920420
0.492346495 0.294623971 0.253763765
0.516634881 0.306767941 0.262998313
0.540923476 0.318911999 0.272865087
0.565211475 0.331055999 0.288045436
0.600379109 0.348640114 0.303099304
0.629221857 0.368501127 0.314864188
0.661100626 0.389500558 0.330044448
0.709044993 0.411005974 0.360024989
0.135989875 0.198734865 0.168626994
0.144465744 0.193042397 0.168120980
0.146995753 0.198229000 0.168880552
0.152814448 0.198482156 0.183048859
0.162049085 0.197596878 0.191397876
0.172169745 0.202656865 0.181277871
0.182289749 0.202656865 0.181277871
0.197849572 0.205313027 0.180265740
0.209234878 0.210119858 0.181024641
0.225679889 0.216191858 0.184946090
0.240733743 0.219354734 0.191018119
0.257938117 0.223402739 0.195066392
0.273118496 0.227198005 0.199240878
0.289310694 0.229475036 0.204048038
0.304490387 0.232511312 0.206704870
0.317267597 0.240353912 0.209108055
0.342568010 0.245414063 0.215686113
0.364073038 0.250727564 0.223402560
0.379253834 0.258317798 0.230992958
0.403541893 0.261353403 0.234029353
0.422011346 0.271220624 0.238077134
0.440227866 0.281340867 0.243137002
0.459582508 0.291334361 0.249209017
0.480834901 0.300695777 0.255028754
0.504364550 0.308285981 0.260341883
0.525869668 0.320556641 0.270208985
0.548640072 0.335736930 0.282352865
0.580138862 0.355091721 0.299936414
0.607083678 0.364579558 0.309803843
0.639215350 0.382036805 0.322706968
0.664895594 0.401264966 0.333839327
0.695256114 0.420493126 0.352055877
0.171410233 0.226059243 0.182795241
0.170398384 0.219987243 0.178747252
0.179380238 0.222517237 0.179000273
0.186717406 0.223529249 0.182542726
0.192030206 0.220113993 0.195066303
0.202529848 0.222896993 0.194434002
0.212650239 0.227956980 0.192409992
0.223149940 0.229601711 0.192409992
0.233776331 0.232637405 0.193169087
0.250727504 0.237444237 0.196205035
0.264010131 0.242631361 0.202150524
0.279190511 0.245667234 0.206198245
0.294370890 0.250600874 0.208095998
0.309551209 0.251739472 0.212396994
0.324730814 0.254775405 0.217204154
0.343579590 0.258570701 0.220240444
0.357242167 0.266160488 0.226312444
0.381277412 0.269702852 0.231625512
0.393422216 0.276028216 0.236559227
0.414674550 0.283617884 0.244149089
0.435167521 0.288551241 0.247185484
0.454396129 0.297533154 0.251233250
0.473750740 0.308538765 0.257305235
0.495003164 0.317647159 0.263377547
0.512460530 0.326501966 0.273498237
0.539531946 0.336748660 0.280961543
0.561290085 0.352435112 0.292472988
0.590132713 0.372169673 0.307652980
0.620240331 0.384819806 0.319924086
0.644022703 0.397470176 0.332574427
0.673624218 0.415433228 0.345856875
0.698292017 0.433649242 0.359139740
0.207463279 0.249968290 0.199493647
0.203668281 0.243896291 0.194560289
0.209487393 0.246426284 0.195066288
0.218595788 0.250853658 0.197343275
0.226565629 0.245540634 0.197343275
0.233396336 0.245540634 0.204174563
0.241365954 0.249462277 0.205692634
0.248197332 0.253889710 0.206830993
0.259582639 0.256926090 0.209108084
0.275142461 0.259961784 0.212903485
0.287412971 0.265907735 0.216571987
0.299304247 0.268817365 0.218343019
0.315623283 0.272991627 0.221378639
0.330803603 0.276028007 0.221378639
0.345983207 0.279063851 0.225679636
0.364832073 0.282099813 0.231625453
0.381909817 0.287792623 0.236559197
0.397090197 0.293232232 0.243770003
0.409740955 0.296268612 0.243770003
0.429095745 0.302593291 0.252118945
0.449588984 0.310942262 0.258570373
0.465781242 0.318026423 0.261606514
0.486780614 0.327008277 0.267678499
0.509044886 0.335104525 0.274762630
0.529158950 0.345350981 0.284250587
0.549019575 0.356103301 0.295003295
0.578873694 0.371283710 0.304617137
0.603794873 0.388867885 0.316761285
0.631119609 0.402909636 0.330044299
0.658444166 0.417963177 0.343959540
0.683238566 0.435800195 0.358254582
0.713851631 0.454522282 0.373181283
0.238077030 0.268691003 0.208096042
0.238330066 0.262872010 0.206325382
0.245414063 0.265402019 0.209488034
0.256546170 0.269955903 0.214295000
0.265528023 0.272359043 0.221379027
0.265528023 0.272359043 0.221379027
0.269576043 0.275142312 0.219860956
0.275774777 0.278178334 0.222011313
0.281088054 0.280961126 0.225806087
0.299304038 0.283997536 0.234914482
0.311448038 0.289690018 0.235799998
0.322327316 0.292220056 0.234282255
0.334092319 0.294244021 0.233523354
0.352055997 0.300569028 0.237065032
0.367235601 0.303605437 0.237065032
0.384313613 0.306641221 0.243516803
0.400000006 0.312460244 0.250854045
0.412776589 0.320050627 0.256167024
0.427957058 0.323087007 0.256167024
0.445414037 0.326628655 0.264010340
0.465274781 0.332953781 0.271474004
0.483997256 0.341809154 0.276786894
0.496521503 0.350917518 0.279949009
0.520683050 0.357116044 0.288930893
0.544971585 0.367742032 0.298039287
0.569260001 0.380139023 0.307400316
0.593801141 0.392536104 0.317014158
0.621125519 0.407716453 0.329158932
0.645793617 0.422643840 0.343453795
0.671347082 0.440354049 0.358886808
0.699430585 0.459582210 0.374193221
0.732827008 0.483871013 0.386337996
0.271473378 0.292978972 0.211132422
0.274509788 0.289943367 0.223276421
0.270461798 0.292726398 0.225806758
0.275774807 0.296268404 0.224415243
0.287286401 0.296521246 0.222264543
0.298924387 0.293611377 0.242631406
0.293864369 0.298671395 0.227450758
0.306767792 0.302466691 0.227830276
0.320556819 0.304743797 0.233396411
0.323592812 0.305249870 0.234914482
0.333079934 0.308285505 0.241113007
0.348892897 0.313978493 0.243896261
0.361796468 0.317647159 0.245667338
0.373308361 0.321821421 0.249209017
0.388487935 0.330929816 0.258317381
0.401264995 0.333965600 0.258317381
0.417710394 0.338519782 0.261733174
0.434028953 0.343959808 0.266034395
0.449209392 0.344339371 0.271347404
0.461606383 0.352941036 0.274130046
0.478810877 0.356989145 0.282226324
0.497659832 0.362302393 0.289689988
0.514737487 0.369133472 0.295129389
0.535989940 0.378241867 0.301201403
0.560151935 0.388994396 0.310183287
0.584440351 0.402530044 0.320682973
0.608728528 0.416571796 0.332194537
0.633270264 0.428968817 0.344339311
0.657937825 0.441492379 0.353826553
0.680455148 0.463124573 0.369512975
0.702972591 0.485009581 0.388867795
0.726754963 0.502086997 0.410625994
0.304870397 0.317267597 0.228589788
0.295888394 0.321442187 0.235926792
0.307526767 0.311954796 0.233017027
0.305755764 0.317773640 0.238836199
0.312586784 0.320809543 0.238076985
0.320682794 0.317773670 0.241113126
0.327260792 0.322327584 0.248703137
0.327767223 0.326754868 0.240353778
0.343706697 0.329031974 0.245667085
0.348639995 0.329031974 0.247311801
0.359772533 0.331941694 0.253130794
0.364832133 0.334977835 0.253131062
0.378874004 0.339532137 0.256546795
0.390006244 0.342820764 0.260847569
0.407337159 0.349778384 0.265654385
0.420113593 0.354079813 0.272358984
0.435294390 0.358633608 0.276913166
0.452877998 0.365338564 0.281087995
0.468057960 0.370651782 0.283617973
0.478051782 0.374193430 0.284503430
0.493990779 0.381403774 0.291334540
0.513219357 0.386970133 0.299430788
0.532827020 0.394560277 0.305502772
0.551802695 0.403668672 0.311574787
0.573055029 0.415053785 0.322200775
0.597216904 0.427197754 0.334218621
0.620999038 0.440860093 0.346868873
0.643390059 0.453004569 0.357115895
0.665274978 0.465148568 0.366603762
0.696647346 0.480834544 0.384566516
0.718405783 0.506261766 0.401391596
0.735103965 0.527513802 0.418089807
0.333712995 0.341555983 0.249842182
0.327640593 0.347627997 0.251359999
0.330296963 0.343832999 0.252751619
0.342947334 0.338014156 0.249968380
0.342188358 0.346236378 0.260088384
0.341429383 0.346616119 0.256293386
0.352055579 0.346616000 0.255787194
0.359645426 0.351043671 0.260088384
0.366477102 0.354079485 0.260088384
0.375584900 0.354838580 0.262365669
0.383048922 0.356230259 0.265275180
0.390639126 0.360784441 0.269829273
0.398229003 0.362682194 0.270208985
0.410752565 0.365591407 0.275774986
0.426439017 0.371663392 0.277545750
0.439848185 0.373813987 0.282985181
0.453510374 0.379886389 0.289057165
0.470461965 0.386590779 0.296900570
0.484756231 0.395698965 0.297786176
0.497406542 0.399241030 0.297786176
0.513725340 0.404174387 0.304996729
0.530929506 0.412270367 0.313092977
0.551043391 0.421631694 0.319291472
0.569259822 0.427957088 0.326755166
0.589753270 0.437824398 0.335863382
0.609614313 0.451359689 0.346615702
0.633649409 0.464642316 0.361037105
0.655913591 0.478811085 0.371157616
0.677165926 0.492473364 0.384819806
0.698165536 0.505123317 0.401265115
0.734598160 0.524224997 0.426438749
0.751802206 0.550284386 0.439342171
0.358001143 0.366476536 0.269196987
0.360531121 0.371283561 0.266160578
0.362302125 0.369386137 0.267425746
0.369006693 0.368374288 0.270462006
0.377356082 0.370651603 0.276533991
0.366477102 0.375964552 0.277039975
0.375838280 0.375078827 0.274509847
0.386464417 0.375331849 0.274762690
0.394939661 0.379000634 0.278304964
0.404048055 0.382037044 0.278304964
0.407337427 0.382163554 0.278304964
0.413029969 0.385578960 0.282352984
0.423150182 0.390638947 0.288424969
0.438077539 0.390891969 0.294497043
0.450221539 0.396584511 0.295256138
0.460468143 0.399114519 0.296900570
0.474130154 0.402403712 0.303605139
0.488678098 0.410879552 0.308412164
0.500822186 0.419987172 0.311448544
0.517014503 0.424794495 0.314231545
0.533459723 0.429095536 0.320556551
0.553953111 0.436559141 0.331309140
0.569260001 0.448323607 0.337507606
0.587476194 0.451359868 0.346615851
0.607336819 0.460215241 0.355724245
0.627830267 0.470841438 0.362934887
0.645541012 0.486021191 0.374066651
0.669449568 0.504111469 0.386590868
0.690448761 0.519038796 0.403415531
0.711195350 0.533080518 0.424035311
0.730929971 0.547248542 0.445161134
0.767361999 0.568500996 0.472485572
0.382290006 0.393800974 0.281341046
0.394433975 0.393800974 0.278304636
0.392662972 0.392156780 0.279569805
0.392662972 0.393928140 0.281341046
0.398608536 0.401012421 0.282606035
0.401644915 0.397976041 0.288678020
0.408475667 0.398229033 0.286654353
0.414800733 0.399620712 0.286907256
0.419101983 0.403416008 0.290702015
0.425300509 0.409361482 0.296521008
0.428589880 0.409488022 0.296521008
0.435673714 0.411511719 0.300569028
0.447944313 0.415939033 0.306641012
0.465402007 0.421252042 0.312713087
0.477545977 0.424288452 0.318785816
0.482479811 0.429980993 0.312334150
0.492346764 0.434029192 0.313599169
0.506894171 0.438203990 0.320556968
0.519038975 0.444276005 0.320556998
0.539532304 0.453384340 0.331941992
0.552688241 0.458191216 0.339278996
0.566856146 0.463504136 0.346869141
0.587476015 0.472612470 0.355724424
0.605692804 0.475648075 0.364832073
0.623908937 0.487792313 0.373940289
0.643769622 0.499683708 0.378874004
0.663757026 0.510310054 0.383175045
0.678937435 0.525490403 0.404427409
0.697532952 0.538267016 0.419607848
0.719544411 0.552435219 0.440354407
0.741555929 0.568248034 0.462618947
0.761289954 0.586717069 0.481593996
0.417710751 0.423908740 0.301834375
0.418722719 0.423908740 0.301581323
0.424414963 0.426059514 0.302845955
0.422770381 0.425553739 0.304617018
0.425047368 0.428969353 0.303858012
0.425679952 0.428336799 0.300316036
0.431246012 0.432890743 0.306388021
0.438456386 0.435041040 0.307400346
0.444908231 0.436559111 0.310436487
0.455028743 0.436559379 0.314484715
0.455408245 0.442378372 0.317520380
0.462492079 0.442378372 0.319544643
0.472738653 0.444655389 0.322580725
0.487413347 0.448830038 0.324857742
0.502086997 0.451865792 0.325869828
0.509424627 0.457305372 0.331941992
0.515876174 0.463377357 0.330803186
0.529158533 0.467678577 0.337381244
0.545604289 0.471600354 0.343833029
0.557748377 0.480455726 0.346616358
0.575205743 0.487666368 0.360658109
0.587096751 0.493611604 0.368374586
0.603035867 0.502593040 0.373813987
0.623908818 0.508286178 0.380265474
0.639848292 0.518153071 0.391650945
0.657558322 0.530044377 0.402656674
0.676913142 0.539658725 0.410752803
0.694370806 0.552561820 0.427451134
0.717520356 0.565085351 0.438076884
0.737760544 0.580771744 0.454775423
0.759266198 0.596964121 0.478810966
0.777482688 0.613282382 0.504616976
0.446552992 0.456166714 0.328779459
0.438962996 0.459962189 0.324983984
0.446805984 0.458317518 0.317646980
0.448576748 0.461353898 0.323212892
0.449715286 0.461606920 0.325110465
0.454269469 0.460088730 0.322074473
0.461227179 0.463251472 0.329917461
0.464010179 0.469323486 0.327766746
0.469576210 0.471853197 0.331309110
0.479443699 0.469955951 0.336622477
0.485641986 0.471853465 0.339658588
0.489816427 0.475774735 0.338899255
0.498924345 0.476913363 0.343073994
0.509804010 0.480455697 0.344844997
0.520050287 0.486780286 0.346489727
0.531815350 0.490322471 0.351296723
0.542441547 0.494876653 0.354332715
0.552940905 0.499304205 0.357621461
0.568627656 0.501075447 0.365464717
0.577482760 0.507780075 0.374699354
0.591524482 0.516888022 0.377735734
0.607716739 0.521948159 0.390892148
0.621758282 0.529411435 0.395825446
0.639468610 0.539025784 0.401897460
0.654269278 0.545856953 0.410626322
