Assets/Resources/EldamarStudio/100 Horror LUTs Pack/LUTs/cube/Ghost LUT.cube
DOMAIN_MIN 0 0 0
DOMAIN_MAX 1 1 1
LUT_3D_SIZE 32
0.027450999 0.019608000 0.023529001
0.027450999 0.019608000 0.023529001
0.033902772 0.021758227 0.025679775
0.046805996 0.024794161 0.031246159
0.066540092 0.027450999 0.040354453
0.096900865 0.027450999 0.049462065
0.127260998 0.024920678 0.053510323
0.155977115 0.018595714 0.053257290
0.184060991 0.011005904 0.051739097
0.214421019 0.007969514 0.054775480
0.250600725 0.004933871 0.051992130
0.280961245 0.001897744 0.050980002
0.311701268 0.000000000 0.052118644
0.348134041 0.000000000 0.054648966
0.384566784 0.000000000 0.051612586
0.423402756 0.000000000 0.053383805
0.462871552 0.000000000 0.054901998
0.504238129 0.000000001 0.056799568
0.552815020 0.000000003 0.065907970
0.593042374 0.002783357 0.072233006
0.636306167 0.005819256 0.076407261
0.680835247 0.006831130 0.079443134
0.723592997 0.003922000 0.082985498
0.772169828 0.003922000 0.098165907
0.818469286 0.003922000 0.108791701
0.864009976 0.003922000 0.117899656
0.908033133 0.003415936 0.125996053
0.944465876 0.000379552 0.129032448
0.983554780 0.000000000 0.145350963
1.000000000 0.001771217 0.163567394
1.000000000 0.010120581 0.176470995
1.000000000 0.031373002 0.176470995
0.027450999 0.019608000 0.023529001
0.027450999 0.019608000 0.029601775
0.040353999 0.023908999 0.036052998
0.054648772 0.025300225 0.038330160
0.074130088 0.024794161 0.040354453
0.115116857 0.027450999 0.049462065
0.127767324 0.032511000 0.048450325
0.157874778 0.029348388 0.055407993
0.189374089 0.020873003 0.057811290
0.217457399 0.011005901 0.051739097
0.244908258 0.007969516 0.051865615
0.278937250 0.002909617 0.048956260
0.309424281 0.000000000 0.046805743
0.342568070 0.000000000 0.046299610
0.384566784 0.000000000 0.051612586
0.420999587 0.000000000 0.053383805
0.461353749 0.000000000 0.054901998
0.502340555 0.000632576 0.056166992
0.543706656 0.003036388 0.062871590
0.592283368 0.003036388 0.071979977
0.634408474 0.003922000 0.074510001
0.679822862 0.003795259 0.079443388
0.726502120 0.001012125 0.088804498
0.772169828 0.003922000 0.098165907
0.820746541 0.001644712 0.113346279
0.865654707 0.000885613 0.119797774
0.908539057 0.000885613 0.124984324
0.947501481 0.000379552 0.138140067
0.981277406 0.002656833 0.143833280
0.996963620 0.001265170 0.160531327
0.997849226 0.015053764 0.176976576
1.000000000 0.055661000 0.185578614
0.031751998 0.028209999 0.034281772
0.031751998 0.028209999 0.031752001
0.042504773 0.030360773 0.033523224
0.060720775 0.036432773 0.040101159
0.077925101 0.036432549 0.040354453
0.109803863 0.037697710 0.049462065
0.139532089 0.038962774 0.054902099
0.161796466 0.038456779 0.050221357
0.193928093 0.033902772 0.056293227
0.218469501 0.027324770 0.051359516
0.250094861 0.021758679 0.048829775
0.279443502 0.016698036 0.048829775
0.313852042 0.010626001 0.047059000
0.346489817 0.008349031 0.045540739
0.383301795 0.006451774 0.049714994
0.420999587 0.000000000 0.053383805
0.460468352 0.000000000 0.057937995
0.502340555 0.000000000 0.059203003
0.541809022 0.001518194 0.062239014
0.585325778 0.001771226 0.073244594
0.633902490 0.001771226 0.078557968
0.677925348 0.002783354 0.081847131
0.725363731 0.002024262 0.092852756
0.772928715 0.001012130 0.103984907
0.816445529 0.001644712 0.106894501
0.863630593 0.000000000 0.119291879
0.906388462 0.000506064 0.123086937
0.945857167 0.002150774 0.134977534
0.984313548 0.000506059 0.148639888
0.998228788 0.028336765 0.160025403
0.998228788 0.043769874 0.175205588
1.000000000 0.088551544 0.186084777
0.036559161 0.044149160 0.044402160
0.041619159 0.044149160 0.039594997
0.053636771 0.046299934 0.039089162
0.066287160 0.045541160 0.039089158
0.084882714 0.051233612 0.042125449
0.108285867 0.052118998 0.049462065
0.140164644 0.055914160 0.053510323
0.167109698 0.053890001 0.055534583
0.198988095 0.048577096 0.050980002
0.221252486 0.048071157 0.050979998
0.250348002 0.044782162 0.046805710
0.284250349 0.037444808 0.047059000
0.315749764 0.033649322 0.045920357
0.352055997 0.028083287 0.046046872
0.386464208 0.025047421 0.049082737
0.419734418 0.020999359 0.050853807
0.460468352 0.013915158 0.057937995
0.502340555 0.013282742 0.063377574
0.541809022 0.012650318 0.064010173
0.585325956 0.010120321 0.072612166
0.631625652 0.007589999 0.081593901
0.679190278 0.006578129 0.085642166
0.724857807 0.008855486 0.094370991
0.773434699 0.005819095 0.104237996
0.816192508 0.006325160 0.108538836
0.858823776 0.008855159 0.115243502
0.903352201 0.012397220 0.123845838
0.942821145 0.019987606 0.132194534
0.983554780 0.027830647 0.150410965
1.000000000 0.043010697 0.165591344
1.000000000 0.084124342 0.178115144
1.000000000 0.122454315 0.186843991
0.040354453 0.065401547 0.047817998
0.052498545 0.065401547 0.043263614
0.068564095 0.067552321 0.045667224
0.083744161 0.067172997 0.047059000
0.093611546 0.061480545 0.046300001
0.114863932 0.064516157 0.049335614
0.148007646 0.072232865 0.050600551
0.176217705 0.074762836 0.049462002
0.198608547 0.072106093 0.050221004
0.225932941 0.069070473 0.050221000
0.252245754 0.069323547 0.045161001
0.283491522 0.064010292 0.044402257
0.318785369 0.057938091 0.045161359
0.351929516 0.058444090 0.042884000
0.388108522 0.055787228 0.046046868
0.420493126 0.054395642 0.047817998
0.457305551 0.052877642 0.053130992
0.501960993 0.047438126 0.063757025
0.541429460 0.044402506 0.066793427
0.586464524 0.039722085 0.072233006
0.633902907 0.034408707 0.080582187
0.681847095 0.029348221 0.089057989
0.727387488 0.026565604 0.095003478
0.775711358 0.024035282 0.100822456
0.817836821 0.025932927 0.106135249
0.859456301 0.030360628 0.112839647
0.901075602 0.037824150 0.126881540
0.940543950 0.059076518 0.132953539
0.981530547 0.079190336 0.153447077
1.000000000 0.099683709 0.172043085
1.000000000 0.121315718 0.184946433
1.000000000 0.151676551 0.191018447
0.049462065 0.086653933 0.053889997
0.061606836 0.086653933 0.038709611
0.075901702 0.088804707 0.044908002
0.091587700 0.089310773 0.049209226
0.105755538 0.085768543 0.046300001
0.120935932 0.082732931 0.040228002
0.149778634 0.088298865 0.045793936
0.176217705 0.089943223 0.042631231
0.198229000 0.087665930 0.038836002
0.222896561 0.087286472 0.044149000
0.261859685 0.090069860 0.044149000
0.290702254 0.088551678 0.041113261
0.321821570 0.084503576 0.039089359
0.354965150 0.082732864 0.036812000
0.385325879 0.088804856 0.042883992
0.421505511 0.083744809 0.050853863
0.456926286 0.084756799 0.056925993
0.496141940 0.086907223 0.064009987
0.538393080 0.083870903 0.069829039
0.583428144 0.086401284 0.072865419
0.630866528 0.086021863 0.082099989
0.679443300 0.083997607 0.092726186
0.727387488 0.081214376 0.101075485
0.772928715 0.084250763 0.104111090
0.816698432 0.088551730 0.116761342
0.861480296 0.094117790 0.122959927
0.907021105 0.101201788 0.127008066
0.943580389 0.113725282 0.135989934
0.977735698 0.127007827 0.147374913
0.996710956 0.142441124 0.161543027
1.000000000 0.157748133 0.173307717
1.000000000 0.172928929 0.181910068
0.076280639 0.112966314 0.052371677
0.080835097 0.110436641 0.049841613
0.090828545 0.112586863 0.043263771
0.106514998 0.114357993 0.048450325
0.122580633 0.112207316 0.046300001
0.135610253 0.107020929 0.040228002
0.158380955 0.106514998 0.041745678
0.183808014 0.110942706 0.046173386
0.207337320 0.110436641 0.043643221
0.235167339 0.110436641 0.047944002
0.261353612 0.113345861 0.048197001
0.290701985 0.112334259 0.048197001
0.319797605 0.111574993 0.046805676
0.353194356 0.111828022 0.046173029
0.385831803 0.115623310 0.054522313
0.420999587 0.116888314 0.060594313
0.460468352 0.115623116 0.066540189
0.500822544 0.120050572 0.071600311
0.545224369 0.120809674 0.077672333
0.585452437 0.125869676 0.080961674
0.636685789 0.127008319 0.089690313
0.683491409 0.127008319 0.096774191
0.727640450 0.125743151 0.099683672
0.777988732 0.128779545 0.105123095
0.821252525 0.136369348 0.112713285
0.862365603 0.144085974 0.125995979
0.907020867 0.151296631 0.131056055
0.949525833 0.159392625 0.136116445
0.980771422 0.166476607 0.150411293
0.996457875 0.180391818 0.160784066
0.999114394 0.197343230 0.174825579
0.997469664 0.214421317 0.190512002
0.091840707 0.135357410 0.054269418
0.101454668 0.132321388 0.049335711
0.105502933 0.133586630 0.050474066
0.117140867 0.134092242 0.048703291
0.133080453 0.134471700 0.048323840
0.141429290 0.133459687 0.043516997
0.168627635 0.129158705 0.043390386
0.187982693 0.127513990 0.046425998
0.210753098 0.130550385 0.048703291
0.240227729 0.131435990 0.050853517
0.264769047 0.132700831 0.052624710
0.293990970 0.134977967 0.052624710
0.320556283 0.135357708 0.053763352
0.353194356 0.138646409 0.054522384
0.385199368 0.140291110 0.060847409
0.420999587 0.144212693 0.065907702
0.458950162 0.145730495 0.071979709
0.501960933 0.149398848 0.077039987
0.547501743 0.153447375 0.085136004
0.592410088 0.155977413 0.090069644
0.638077438 0.163187698 0.092220284
0.688678265 0.165211692 0.101328425
0.728905678 0.166856200 0.099936701
0.775964737 0.172928602 0.106008708
0.822390795 0.177229822 0.109424286
0.864895523 0.184946105 0.118532665
0.906135082 0.194307387 0.129917651
0.952814579 0.202656388 0.135230735
0.985072672 0.210373104 0.150537804
0.997849226 0.218469277 0.163820460
0.999114394 0.232764080 0.177355900
0.996078014 0.251739413 0.199367419
0.098671995 0.155092001 0.055028908
0.113092706 0.152055800 0.050474513
0.121947959 0.151802778 0.051486321
0.126249254 0.153827026 0.051739100
0.142568082 0.151170194 0.052877646
0.148260251 0.156483203 0.051360026
0.169006959 0.152435005 0.048576999
0.193295598 0.149525478 0.050221484
0.210753098 0.147248194 0.053257097
0.238077492 0.150284588 0.053257100
0.263251096 0.151170194 0.054648969
0.292093337 0.153194264 0.055661097
0.325110286 0.156610101 0.057558641
0.355471075 0.162682101 0.060594968
0.385831803 0.163694099 0.063630573
0.421758503 0.167741999 0.066666804
0.458950162 0.173055097 0.070461899
0.500948668 0.177988261 0.078431457
0.546742976 0.184314027 0.090702005
0.593548775 0.185578987 0.095003106
0.642125487 0.190512538 0.098039001
0.688678265 0.199367180 0.099051133
0.731436014 0.205439180 0.102213994
0.775205791 0.213915005 0.108286001
0.819228351 0.219987378 0.110562898
0.863377392 0.224415094 0.113978662
0.905376136 0.230993167 0.124605000
0.953193843 0.242884189 0.134471625
0.986590564 0.253130913 0.150790632
0.998481989 0.262239307 0.164706051
0.999873459 0.272233069 0.178874090
0.996837080 0.284377098 0.203162909
0.116888009 0.179380015 0.039848529
0.129032001 0.176344395 0.048956133
0.141303033 0.173308209 0.057305288
0.148007974 0.173055172 0.059835486
0.151676491 0.175458983 0.055914041
0.175964475 0.175458983 0.065022416
0.181657299 0.170651332 0.058444165
0.194181010 0.169512719 0.056293715
0.213788733 0.171536982 0.059329875
0.238077492 0.171536982 0.062365487
0.265401870 0.174573362 0.059456363
0.292599738 0.177482724 0.058697496
0.322454125 0.180518657 0.060974486
0.355471075 0.183934495 0.066666968
0.385831803 0.190006495 0.069702581
0.423402756 0.193421692 0.072738811
0.461226881 0.198102400 0.075774811
0.500948668 0.205313444 0.081467085
0.552561998 0.217457458 0.096647494
0.595572770 0.220999137 0.095003359
0.642125487 0.225806490 0.096141741
0.688678265 0.233017340 0.099051133
0.731436014 0.241871983 0.102213994
0.780012846 0.247943997 0.108286001
0.823782504 0.256419778 0.112080708
0.866413772 0.263883501 0.116381869
0.908412516 0.270461589 0.124605000
0.947880864 0.279569983 0.142820984
0.982415795 0.291460961 0.158001289
0.994433761 0.301707715 0.169766188
0.994180977 0.311701477 0.181657463
0.999873459 0.323845506 0.200126514
0.123466000 0.197849751 0.059582867
0.138519868 0.197723255 0.048323616
0.148513645 0.196837872 0.057431772
0.161164165 0.195825741 0.066540159
0.170525312 0.197596878 0.069070324
0.182163000 0.202656865 0.068058066
0.193801314 0.197596863 0.069576129
0.207463697 0.194813609 0.066539995
0.226944864 0.195066646 0.066793226
0.246932089 0.192915872 0.065528385
0.268310994 0.192915872 0.068563998
0.297659636 0.195952266 0.071600132
0.328146636 0.200126737 0.071094133
0.361290067 0.205186874 0.070082128
0.391650826 0.211258858 0.075774573
0.426818609 0.219734669 0.078810804
0.468817025 0.225300595 0.081847191
0.510056734 0.232005283 0.085515730
0.552561998 0.241872013 0.093864843
0.598608375 0.254016697 0.100695878
0.641239643 0.259329617 0.099936999
0.686780512 0.265401870 0.101960741
0.731436014 0.272738725 0.104996637
0.780012846 0.284376740 0.108286001
0.821758270 0.292726010 0.116635285
0.860847473 0.300442725 0.120936058
0.901328266 0.307020813 0.126502126
0.948007405 0.316129178 0.139911115
0.984819591 0.325236887 0.158127770
0.997216642 0.335357070 0.168247983
0.994180739 0.344465494 0.177988723
0.994180977 0.354585737 0.194180995
0.145730495 0.220113993 0.072738737
0.152814373 0.222138241 0.070714727
0.161670014 0.220113993 0.063504025
0.170778081 0.220113993 0.070082091
0.183681279 0.220872998 0.077292837
0.192789316 0.226944983 0.079190575
0.207969308 0.226944983 0.078684509
0.220366687 0.220872983 0.077039801
0.240860090 0.220873088 0.077419348
0.260341257 0.220367014 0.076913722
0.281467110 0.220240504 0.073624127
0.300695777 0.218216240 0.072612256
0.329917908 0.222390980 0.077545613
0.361543298 0.228716016 0.075395025
0.393674821 0.236559242 0.083238252
0.430866331 0.245035052 0.086907059
0.468817294 0.254143029 0.091461256
0.512713373 0.261353552 0.095003404
0.553573966 0.270461529 0.099683732
0.598608375 0.280328989 0.099684007
0.642251492 0.290575504 0.100063264
0.684756279 0.297786117 0.099936746
0.729411721 0.305123240 0.101833999
0.777988613 0.317267239 0.102972649
0.823782504 0.329158783 0.112586774
0.863250852 0.336875498 0.123086825
0.900822222 0.342441440 0.129032195
0.944845140 0.348513424 0.139657989
0.984819591 0.357621640 0.153067648
1.000000000 0.364958465 0.171283960
0.998102248 0.375584841 0.181024581
0.996204972 0.386970252 0.196204990
0.166983008 0.246679276 0.080708288
0.171157256 0.248577029 0.082606032
0.176343888 0.250727504 0.083744638
0.182542831 0.248956278 0.079190485
0.192409545 0.248576730 0.082226194
0.203035921 0.252371639 0.087539867
0.218595639 0.254522294 0.088551998
0.235167339 0.252371639 0.086907282
0.254142821 0.247817636 0.085389093
0.276533782 0.250474483 0.088425472
0.295508862 0.251739651 0.086147897
0.317014486 0.249715373 0.083238252
0.337508261 0.248956278 0.080202639
0.364579618 0.255028278 0.082479291
0.395319372 0.263251036 0.087160058
0.434661418 0.273497790 0.093738154
0.471852928 0.284883082 0.094876997
0.512587070 0.293990850 0.100316420
0.555598021 0.303099245 0.103352025
0.598608375 0.312207639 0.103099354
0.644528449 0.323592544 0.102340259
0.687033236 0.332700372 0.100315996
0.729790986 0.341682255 0.100442506
0.778367817 0.351802289 0.101454645
0.825806499 0.361669570 0.108285636
0.866287231 0.373308271 0.119291335
0.906767666 0.379380286 0.131435990
0.947501659 0.383048475 0.141176179
0.983554780 0.391397744 0.155218005
1.000000000 0.402150244 0.169765949
0.998229027 0.409107894 0.188867584
0.997722983 0.423782289 0.204553992
0.173814029 0.278052062 0.086780995
0.180139065 0.277799040 0.086780995
0.186464027 0.281594038 0.090576001
0.192283049 0.285895079 0.093611874
0.199746579 0.284503520 0.090828516
0.214926958 0.281467140 0.093864903
0.229854375 0.283744365 0.095129997
0.245793730 0.283744365 0.093232326
0.262745142 0.281720102 0.090955094
0.293105930 0.281720102 0.093991481
0.309677184 0.284123898 0.097280160
0.331182510 0.283617854 0.098545000
0.354965240 0.282605708 0.097153619
0.379760027 0.285389096 0.094623998
0.404047996 0.291461080 0.088551998
0.441745609 0.302087009 0.093738213
0.480202228 0.315496236 0.096774168
0.515622675 0.329664618 0.095003448
0.561163962 0.338773012 0.098039068
0.601391375 0.348387390 0.100822359
0.646552503 0.360784352 0.103858255
0.693105221 0.373940170 0.105629027
0.735609949 0.383301526 0.105882019
0.783933818 0.389753044 0.109044902
0.831752121 0.396078110 0.114357993
0.874383628 0.404427350 0.121821657
0.909045100 0.415813059 0.131435990
0.954585433 0.421885043 0.143579990
0.987096608 0.430360854 0.160783991
0.999746978 0.442757815 0.177735209
0.998735011 0.455913633 0.194939584
0.992662966 0.465022027 0.216191992
0.188994408 0.320556819 0.092852995
0.198102802 0.317520380 0.092852995
0.206578046 0.317267388 0.092852995
0.212523565 0.322327524 0.096648000
0.218089819 0.326502264 0.099683866
0.236179322 0.311827898 0.096900515
0.248830020 0.316381812 0.104996897
0.268184811 0.318532377 0.103984997
0.286021411 0.318658888 0.098545417
0.296141565 0.321189225 0.093991488
0.320683300 0.318279356 0.099936999
0.345098078 0.320556641 0.103352152
0.368374407 0.321189225 0.102339998
0.388867646 0.321821809 0.097659610
0.419228405 0.321821839 0.100695990
0.448323995 0.330297023 0.099430986
0.485768586 0.341555774 0.099810228
0.523971975 0.354332775 0.098039158
0.564199567 0.366097391 0.101075448
0.606957376 0.380771756 0.101328418
0.652624965 0.390892118 0.103858255
0.699177802 0.401265085 0.104870126
0.741681993 0.410625905 0.102846414
0.784186840 0.425806314 0.108918421
0.825679839 0.434535086 0.114357993
0.869829178 0.441619217 0.121821657
0.911321700 0.449462444 0.131435990
0.948513389 0.458317786 0.143579990
0.983427763 0.464389801 0.158380806
0.996710598 0.474636346 0.177735582
0.997596204 0.485641807 0.198608384
0.998735011 0.492346406 0.222263992
0.208981782 0.360657781 0.101328187
0.208475575 0.360025167 0.096521191
0.213282958 0.359139562 0.100822188
0.226944968 0.361669570 0.101328187
0.237191796 0.368121326 0.104364187
0.247311801 0.361037463 0.103352062
0.272485614 0.358760387 0.093611524
0.282985687 0.359898686 0.099430911
0.302719891 0.359139562 0.098672003
0.317014605 0.360531271 0.099178001
0.335736722 0.360151708 0.102340184
0.358001232 0.363187581 0.102340452
0.383428276 0.364326417 0.103478812
0.404427648 0.363567591 0.100442804
0.428336620 0.367868572 0.101328418
0.458696783 0.367868602 0.097154006
0.489057571 0.372422397 0.098671809
0.525869548 0.382922322 0.098671578
0.565338016 0.400379628 0.101707973
0.607589781 0.412903160 0.101961002
0.653889954 0.428083509 0.100063264
0.701455116 0.438203901 0.103098996
0.745224297 0.447438389 0.104490697
0.785451829 0.460341513 0.108286001
0.825679839 0.470967889 0.114357993
0.869323254 0.480075926 0.123212978
0.914863884 0.487665862 0.134851322
0.953193843 0.496774226 0.150790796
0.984566569 0.500822604 0.158380806
0.996710598 0.513978541 0.178873926
0.996963620 0.524731159 0.203415379
1.000000000 0.529285371 0.230739802
0.224162191 0.401644349 0.105881996
0.225679979 0.404680341 0.105881996
0.223908767 0.403162539 0.102339998
0.232005149 0.404427379 0.105881996
0.251992553 0.409487367 0.104743548
0.261480182 0.407590091 0.101328194
0.279190511 0.407084167 0.103352189
0.299683511 0.405439854 0.094876707
0.311827898 0.403921455 0.095636003
0.333080292 0.404680341 0.098672003
0.352940977 0.406198561 0.101834133
0.373181224 0.407210559 0.100822262
0.395572245 0.411005557 0.098925002
0.420114011 0.408602357 0.099177971
0.443896383 0.412144333 0.100442812
0.470841169 0.416445345 0.101707809
0.501201510 0.416445345 0.092599802
0.531562328 0.417077929 0.095003001
0.568374395 0.433017373 0.097153783
0.610626161 0.445920378 0.097406812
0.656925976 0.462998092 0.101581454
0.703479290 0.478178501 0.099557191
0.748387158 0.488045841 0.104617186
0.789247334 0.496015191 0.109044902
0.830234051 0.507400274 0.115876183
0.869702816 0.515117347 0.121948175
0.916382074 0.523592591 0.134851187
0.955850422 0.531688809 0.153067693
0.985831439 0.538519800 0.166730180
0.999746978 0.545857131 0.181910306
0.997596204 0.560531139 0.209740326
1.000000000 0.564199984 0.241365984
0.232005417 0.446046680 0.104617007
0.239342406 0.450853676 0.111953996
0.241492778 0.451739281 0.108791575
0.243516728 0.451865911 0.105249584
0.259076566 0.453763068 0.104870036
0.274509907 0.453257084 0.096268348
0.290322721 0.453257084 0.101708017
0.306135416 0.452245235 0.105250016
0.322833240 0.450727582 0.101075418
0.344085634 0.453763187 0.095003411
0.365970433 0.456166953 0.096394718
0.386590391 0.457179099 0.096015260
0.408981234 0.457811505 0.094117999
0.433776051 0.458064526 0.094623998
0.461479962 0.458444089 0.098039158
0.488804340 0.461353511 0.100948587
0.517014325 0.465022087 0.100442581
0.546742499 0.464389503 0.089563578
0.577103376 0.467425942 0.089563578
0.617331147 0.478178561 0.089563578
0.662365854 0.494117707 0.094623744
0.708918691 0.513346076 0.101328425
0.751296878 0.528273463 0.101454936
0.793295801 0.532321215 0.107021011
0.834535360 0.540923119 0.114105143
0.876281023 0.551549315 0.124351986
0.915749609 0.557622075 0.132954061
0.955218017 0.563694119 0.151296556
0.984060407 0.572422266 0.170145631
0.997849226 0.580897748 0.192030564
1.000000000 0.589120686 0.215180531
1.000000000 0.595192730 0.251612574
0.235041052 0.497659951 0.098544993
0.247185022 0.497659951 0.110688977
0.256672800 0.500316203 0.107273757
0.262239158 0.504111052 0.102213956
0.268184990 0.508412004 0.101834416
0.286401004 0.502340019 0.098798029
0.304364026 0.501834035 0.095256351
0.322327465 0.501834035 0.095129997
0.341050059 0.502340138 0.095382892
0.362302482 0.505376518 0.098039031
0.386463940 0.505502999 0.094876900
0.406451494 0.505756021 0.094370976
0.427197963 0.506894350 0.094117999
0.451992095 0.509677052 0.094623990
0.482352823 0.512713492 0.100695983
0.510056794 0.510689199 0.096900962
0.537381113 0.511448205 0.094876960
0.564958513 0.512966454 0.092599973
0.592283010 0.509930015 0.086527959
0.628209710 0.518532395 0.086527959
0.668943524 0.529790998 0.090322956
0.711954296 0.543706238 0.095635861
0.754332542 0.558633566 0.098418534
0.793801785 0.567741990 0.101454936
0.831245959 0.574066997 0.104743719
0.870967329 0.583427966 0.115243405
0.912713230 0.594054163 0.132954076
0.952182293 0.600126922 0.154206440
0.981024742 0.608855128 0.175205767
0.995951951 0.616191983 0.201517925
1.000000000 0.622517228 0.229348242
1.000000000 0.628589928 0.254649013
0.251992702 0.557621717 0.095256351
0.255787373 0.554839075 0.096268341
0.267931342 0.554839075 0.097659566
0.278937340 0.554712296 0.094876796
0.288045824 0.555471063 0.096015446
0.303858012 0.554206073 0.092979059
0.319544315 0.553194106 0.095003314
0.337507755 0.554838836 0.090829000
0.356483459 0.556736350 0.090828896
0.377735883 0.559772193 0.097912520
0.404680699 0.562682092 0.095129870
0.430992961 0.560657859 0.096141741
0.452625006 0.558760345 0.094623648
0.475015759 0.558760405 0.091334641
0.497786194 0.564326525 0.092346631
0.528146982 0.569766104 0.093611635
0.557368696 0.569386482 0.091334641
0.585957885 0.569892526 0.088804662
0.613282382 0.566856146 0.078431644
0.646173418 0.572169065 0.080708288
0.678810716 0.577482462 0.084503762
0.717773259 0.584946096 0.090575993
0.760277987 0.594813228 0.095762335
0.802403390 0.609234691 0.106767900
0.844149172 0.618343055 0.118912280
0.877418995 0.627704024 0.126755029
0.912966132 0.637824059 0.140290722
0.954711914 0.639342248 0.156989068
0.986211240 0.642758250 0.188868091
0.997722983 0.651612878 0.215939283
1.000000000 0.658696711 0.247185156
1.000000000 0.664768994 0.277166724
0.264516264 0.608855188 0.092220262
0.273245066 0.609614074 0.092220262
0.280834705 0.610626459 0.091967225
0.287918717 0.608096480 0.090195999
0.299810320 0.605566204 0.092599809
0.322580516 0.608602166 0.092599802
0.332068056 0.608602166 0.090828583
0.347248435 0.606957436 0.090575971
0.368248165 0.610246718 0.088551894
0.392916232 0.614420950 0.097659521
0.418089867 0.615559578 0.093232132
0.441619247 0.616445184 0.090449482
0.468943626 0.614547431 0.093485102
0.491967052 0.612776697 0.089943029
0.514864087 0.617204428 0.088298738
0.543326855 0.619481444 0.088298738
0.573687613 0.622517467 0.086780548
0.604047835 0.622517467 0.086401008
0.632637560 0.620746195 0.079317003
0.663630843 0.622264206 0.081088126
0.697027504 0.626438916 0.082226478
0.727387488 0.628463209 0.087286867
0.766097009 0.632890642 0.092852756
0.805059791 0.644528627 0.106767997
0.845667303 0.655155003 0.123086534
