Assets/Resources/EldamarStudio/100 Horror LUTs Pack/LUTs/cube/Ghost LUT.cube
LUT_3D_SIZE 8
DOMAIN_MIN 0.000000 0.000000 0.000000
DOMAIN_MAX 0.903226 0.903226 0.903226
0.027450999 0.019608000 0.023529001
0.066540092 0.027450999 0.040354453
0.184060991 0.011005904 0.051739097
0.311701268 0.000000000 0.052118644
0.462871552 0.000000000 0.054901998
0.636306167 0.005819256 0.076407261
0.818469286 0.003922000 0.108791701
0.983554780 0.000000000 0.145350963
0.040354453 0.065401547 0.047817998
0.093611546 0.061480545 0.046300001
0.198608547 0.072106093 0.050221004
0.318785369 0.057938091 0.045161359
0.457305551 0.052877642 0.053130992
0.633902907 0.034408707 0.080582187
0.817836821 0.025932927 0.106135249
0.981530547 0.079190336 0.153447077
0.098671995 0.155092001 0.055028908
0.142568082 0.151170194 0.052877646
0.210753098 0.147248194 0.053257097
0.325110286 0.156610101 0.057558641
0.458950162 0.173055097 0.070461899
0.642125487 0.190512538 0.098039001
0.819228351 0.219987378 0.110562898
0.986590564 0.253130913 0.150790632
0.166983008 0.246679276 0.080708288
0.192409545 0.248576730 0.082226194
0.254142821 0.247817636 0.085389093
0.337508261 0.248956278 0.080202639
0.471852928 0.284883082 0.094876997
0.644528449 0.323592544 0.102340259
0.825806499 0.361669570 0.108285636
0.983554780 0.391397744 0.155218005
0.224162191 0.401644349 0.105881996
0.251992553 0.409487367 0.104743548
0.311827898 0.403921455 0.095636003
0.395572245 0.411005557 0.098925002
0.501201510 0.416445345 0.092599802
0.656925976 0.462998092 0.101581454
0.830234051 0.507400274 0.115876183
0.985831439 0.538519800 0.166730180
0.264516264 0.608855188 0.092220262
0.299810320 0.605566204 0.092599809
0.368248165 0.610246718 0.088551894
0.468943626 0.614547431 0.093485102
0.573687613 0.622517467 0.086780548
0.697027504 0.626438916 0.082226478
0.845667303 0.655155003 0.123086534
0.987349629 0.680328846 0.191903710
0.350537270 0.794939816 0.147248253
0.374446362 0.795319259 0.143326819
0.436306357 0.797343433 0.150664181
0.531435907 0.801644206 0.157242209
0.638330281 0.799873531 0.158254355
0.749399006 0.800252974 0.172042996
0.865528286 0.802782774 0.185452551
0.985957980 0.815180123 0.259329230
0.494749725 0.949525595 0.327514410
0.529159009 0.945857227 0.346109867
0.564326584 0.950790763 0.344591737
0.628083587 0.948007405 0.349778563
0.710942328 0.950537443 0.363440573
0.802277207 0.948133945 0.376470476
0.901454806 0.949398816 0.392283380
0.991144776 0.949398816 0.405945420
0.042378001 0.039595451 0.072865091
0.074383087 0.023908550 0.066540092
0.180645451 0.033396453 0.092852540
0.278431624 0.028589644 0.101834089
0.414674014 0.010626453 0.116635181
0.594180882 0.000000000 0.148766473
0.792915940 0.003922000 0.172675729
0.973687589 0.002277285 0.200253353
0.064642549 0.056799546 0.076407544
0.086148091 0.068564542 0.074003540
0.167615101 0.076786995 0.096015453
0.277672529 0.077166446 0.102213636
0.418216169 0.075648546 0.126122892
0.595066488 0.067805544 0.147248477
0.794307292 0.050221540 0.165970787
0.971410334 0.093485348 0.199367538
0.106894545 0.133966088 0.101075090
0.133966088 0.131182641 0.107020542
0.184820086 0.131182641 0.104617447
0.287792623 0.147248194 0.111574635
0.429854542 0.163567200 0.134345442
0.603541732 0.187856093 0.148640275
0.802656770 0.215559930 0.172675729
0.978621066 0.252371937 0.201897651
0.165971085 0.232511267 0.119671181
0.189500168 0.231752172 0.124098539
0.243896544 0.234914273 0.130044177
0.321441829 0.233649626 0.130423635
0.449841827 0.267678380 0.141808897
0.622011185 0.312713623 0.153573990
0.811005890 0.353826553 0.169133186
0.974193454 0.391650766 0.204301059
0.231625542 0.385958374 0.150790542
0.253890216 0.386590570 0.144591734
0.306894392 0.389373928 0.148893192
0.389626741 0.392915756 0.149399355
0.486653924 0.400000364 0.146995544
0.644022942 0.447312027 0.152814806
0.819228470 0.500442743 0.167109430
0.982163072 0.540923595 0.212396905
0.265654802 0.592283010 0.142441556
0.302087337 0.598482013 0.154712543
0.363187820 0.596837163 0.145477444
0.457811713 0.600885212 0.150537804
0.570145369 0.608349204 0.150917351
0.690702260 0.612650216 0.151423022
0.836306155 0.647185087 0.175964370
0.985705197 0.680328846 0.243769720
0.352688104 0.787223279 0.197090566
0.382163256 0.787223279 0.195825830
0.431372553 0.787476301 0.196457818
0.527134597 0.789500594 0.203036055
0.626818299 0.792283177 0.213156015
0.739911199 0.791524291 0.215939283
0.865654826 0.797975838 0.229728073
0.981151164 0.803668320 0.292093605
0.508286059 0.946868777 0.370777845
0.530170977 0.946489334 0.364199758
0.560024917 0.944212556 0.369006813
0.628715992 0.941682577 0.373054951
0.709424317 0.943073988 0.385199159
0.807210863 0.943706334 0.399114549
0.897532880 0.946616232 0.419354647
0.991144776 0.944592059 0.440227389
0.027450999 0.043136999 0.157369092
0.097533546 0.033776000 0.162176102
0.184946194 0.028210094 0.154333100
0.285262167 0.028589644 0.168501094
0.397849470 0.035294000 0.192662895
0.556989312 0.011132101 0.213915199
0.764199793 0.001518192 0.247438371
0.956609488 0.022770248 0.282099813
0.091334544 0.083112001 0.142568097
0.124225445 0.080708094 0.138646200
0.169639558 0.079949096 0.142947540
0.267932087 0.085768543 0.170019016
0.395951718 0.098798193 0.196711004
0.564579368 0.093738548 0.219734550
0.765844285 0.079316922 0.243896544
0.955597818 0.127893731 0.289816380
0.123845905 0.127640992 0.163820192
0.150790542 0.146616116 0.156736091
0.202909291 0.142568097 0.164453000
0.278810978 0.151929185 0.176596835
0.407210469 0.171536908 0.199746981
0.571536958 0.191903993 0.222011521
0.777608752 0.218342885 0.256799579
0.965844512 0.264389664 0.289183915
0.183681533 0.225932628 0.186843738
0.208855450 0.222391084 0.195952013
0.251486182 0.225932628 0.184820101
0.309803635 0.230234176 0.196331561
0.431119740 0.260721207 0.209487647
0.598228753 0.302087247 0.231878370
0.790891647 0.351423174 0.258823752
0.961543322 0.399367273 0.291208059
0.238962799 0.369513065 0.207590193
0.259329379 0.372295916 0.220240295
0.307021081 0.371790379 0.215433195
0.384186834 0.375711352 0.217330739
0.471473455 0.386717260 0.217078090
0.625933170 0.435041279 0.234534815
0.810626507 0.494750261 0.256799579
0.976090670 0.542568028 0.311827898
0.291840732 0.584440112 0.242504835
0.310942352 0.583681107 0.238962904
0.374825895 0.585199177 0.238836080
0.458950162 0.587476194 0.238709375
0.560404897 0.592536390 0.236559197
0.679822445 0.602150559 0.243516997
0.826818168 0.644149184 0.273370922
0.979126811 0.683744490 0.339658558
0.373940557 0.781024635 0.287033379
0.400885582 0.784566700 0.294370651
0.450980663 0.784187198 0.298165381
0.536115885 0.784819782 0.301201373
0.631372452 0.789500237 0.306641191
0.744592011 0.787982523 0.307653278
0.860974431 0.794433475 0.322454304
0.980012774 0.809487224 0.376344085
0.545730472 0.943579853 0.438582689
0.559392571 0.943200290 0.437318146
0.593801379 0.940290630 0.439089239
0.653004646 0.941429436 0.449588686
0.723845780 0.943453550 0.457431763
0.811511636 0.942694604 0.467172503
0.904237926 0.944971502 0.481973320
0.989879608 0.947375059 0.492852420
0.043896634 0.027450999 0.270841271
0.121694736 0.023782546 0.262239277
0.207842737 0.028589644 0.250601172
0.279190630 0.033650000 0.240480989
0.405566156 0.033776194 0.266287178
0.569513202 0.004048004 0.298924357
0.758001268 0.001644712 0.331309289
0.944338739 0.094750039 0.379506439
0.109930538 0.092726536 0.232004911
0.144086093 0.088424996 0.230234176
0.203162640 0.090449445 0.227071270
0.274889290 0.088424996 0.233775914
0.395319343 0.099936642 0.262744933
0.559013307 0.091714285 0.298039526
0.753193855 0.093738280 0.335104287
0.932827532 0.179759771 0.385705084
0.154332995 0.151170090 0.223782390
0.167362273 0.155091986 0.226565748
0.225932732 0.155092090 0.230234176
0.282606095 0.160910651 0.235673383
0.399620712 0.176217288 0.266666740
0.559392810 0.194560543 0.295888543
0.756229818 0.225300282 0.341049701
0.937634528 0.297533095 0.396458000
0.189500287 0.219228297 0.241619632
0.219355002 0.221505284 0.243137538
0.273371190 0.239595175 0.258823633
0.326881647 0.248956293 0.269070625
0.432637632 0.267678380 0.285894990
0.583175361 0.298545092 0.312080622
0.770904481 0.352814555 0.352182269
0.949651718 0.417204052 0.399367273
0.258570373 0.355597824 0.290322632
0.273244977 0.362808019 0.289310634
0.322707176 0.367868364 0.291334361
0.385325462 0.369765997 0.294876844
0.468564004 0.379633158 0.287792534
0.618975103 0.428462893 0.323086530
0.795825422 0.491587549 0.362555355
0.952941179 0.554711998 0.420619577
0.307020873 0.562681854 0.325869441
0.331688732 0.561922789 0.331562221
0.383301735 0.566350281 0.329664379
0.460088730 0.572928548 0.333839118
0.554838896 0.579253435 0.331941545
0.666793108 0.589879870 0.342062265
0.817330956 0.637065232 0.383175105
0.965591431 0.689057291 0.446679235
0.411764920 0.765844285 0.398102641
0.426818281 0.771410286 0.400126278
0.473497540 0.766982913 0.395951569
0.549525619 0.770904183 0.398228824
0.637065172 0.774067104 0.403668642
0.743579924 0.781404197 0.413915575
0.849209547 0.788235188 0.423908919
0.968374431 0.808475494 0.477039605
0.575964570 0.932700992 0.524478197
0.588361681 0.934598505 0.527640700
0.622643948 0.935230911 0.528652608
0.670588076 0.935104489 0.529538155
0.740037501 0.935863316 0.539531946
0.817710340 0.937760592 0.545477271
0.907147467 0.941176355 0.563187838
0.988361418 0.947375119 0.576470375
0.120430179 0.040733807 0.393169194
0.171916738 0.042631447 0.385072827
0.256167173 0.043769803 0.377482563
0.343074083 0.043136999 0.367362201
0.414927185 0.044908006 0.349146187
0.582289696 0.003542452 0.394054383
0.765844524 0.000000000 0.435420781
0.948513389 0.121568389 0.479063660
0.155471355 0.113219343 0.370904535
0.183554530 0.114863738 0.361796379
0.254522473 0.112839900 0.360657722
0.331688732 0.108159088 0.348133892
0.413409173 0.101454735 0.342315018
0.572802067 0.093359001 0.386843473
0.765464902 0.095256090 0.429601431
0.945983231 0.198734984 0.476533741
0.191903993 0.184819907 0.338267177
0.223782435 0.187223181 0.338772833
0.266287297 0.182542995 0.339152187
0.337634265 0.177355841 0.331182569
0.414168268 0.184946194 0.341555983
0.571157217 0.196837544 0.380392373
0.761796474 0.237824172 0.433017164
0.941935360 0.329664707 0.487666070
0.225173727 0.256419927 0.338267177
0.249083087 0.257937908 0.343453556
0.300695956 0.264642447 0.346615821
0.372802079 0.274383605 0.357495040
0.450980484 0.282099813 0.359013021
0.595825374 0.323213071 0.398608387
0.763946891 0.376723528 0.447058558
0.925743163 0.462997794 0.506514668
0.263377786 0.364832163 0.352435380
0.280708522 0.369133711 0.366982728
0.340670347 0.380518556 0.368754178
0.426059365 0.409867018 0.387729377
0.512966514 0.422770590 0.401644349
0.629474640 0.446932554 0.426438928
0.786337793 0.505755544 0.461227059
0.942694426 0.572296023 0.524478376
0.337381274 0.561669707 0.418089658
0.359139740 0.562049270 0.422264278
0.416571647 0.567488968 0.426565588
0.485515565 0.577482879 0.430234104
0.568753958 0.582416415 0.437697381
0.662492514 0.588741243 0.446426362
0.816318750 0.641998768 0.493105739
0.953446925 0.698545337 0.549145997
0.464136750 0.759772360 0.502593279
0.487286717 0.757748187 0.510942638
0.517520547 0.762934566 0.507526994
0.569639444 0.764832258 0.505376041
0.652245641 0.770018578 0.506514430
0.745730460 0.775458395 0.512713373
0.849968374 0.780139267 0.523086607
0.964579582 0.816318750 0.576090872
0.607463598 0.935104489 0.612649977
0.618975580 0.928652763 0.613156378
0.649968565 0.928905666 0.617963076
0.697279930 0.932700753 0.625806153
0.753320575 0.932321429 0.624035418
0.830486894 0.933333278 0.632637739
0.909677327 0.939784825 0.646426201
0.983680964 0.945350945 0.652624786
0.189753726 0.062618993 0.544085920
0.239215732 0.060721256 0.542188168
0.319797754 0.056799740 0.534345210
0.415686369 0.042125363 0.524351418
0.519797623 0.016698008 0.515876293
0.618342936 0.001897740 0.503099203
0.786970258 0.001897740 0.543832719
0.952055454 0.154206127 0.579886258
0.206198737 0.135104537 0.517394423
0.243643194 0.128146544 0.519291937
0.318152994 0.126502350 0.518532932
0.409740627 0.117899738 0.508791566
0.507147551 0.106894352 0.500948668
0.611005902 0.090196103 0.495129704
0.777229607 0.106388524 0.532321274
0.942061722 0.221378982 0.576976538
0.237697721 0.219607741 0.500695825
0.271600485 0.219607830 0.499683917
0.326122820 0.216825083 0.494750470
0.411005378 0.215306997 0.497912556
0.506134927 0.207716733 0.491587460
0.602656484 0.205819190 0.483238220
0.780265510 0.247058749 0.539658248
0.943706512 0.348513693 0.588108778
0.268184751 0.315623105 0.490322828
0.292346627 0.315749615 0.485515296
0.348766655 0.319671094 0.484250605
0.424668014 0.318026602 0.484883100
0.512966156 0.321189016 0.482858658
0.612903416 0.326249361 0.483744472
0.772422254 0.382036686 0.539025724
0.934471667 0.479064047 0.601391435
0.300316423 0.431878656 0.488171816
0.324984282 0.432764292 0.484376848
0.380518556 0.434408665 0.495635539
0.460721016 0.448070824 0.501834273
0.557495177 0.464515895 0.513978720
0.657179356 0.481720090 0.520683467
0.793042302 0.537634432 0.570018768
0.927640319 0.613535821 0.625679731
0.352434993 0.569386184 0.510942698
0.379000247 0.569386184 0.511574924
0.431878746 0.579253435 0.517140985
0.510942638 0.589500487 0.529664814
0.611638367 0.617836475 0.559139490
0.704870462 0.630360484 0.569765747
0.820999324 0.664769173 0.596964002
0.946995735 0.716381967 0.657179236
0.483997315 0.758760333 0.580898225
0.506894290 0.758886814 0.590132713
0.543073952 0.757621765 0.592536330
0.607843101 0.764452577 0.611385465
0.678051889 0.773813844 0.620240510
0.754079461 0.771030784 0.617583513
0.841745794 0.778747320 0.621505439
0.959393024 0.825174034 0.681593835
0.661480129 0.924477935 0.705376327
0.670082271 0.925995946 0.707526684
0.697406590 0.922580659 0.718026340
0.732953548 0.924730778 0.717393994
0.769512773 0.927261114 0.713345647
0.833902776 0.933080494 0.718279362
0.905629218 0.935483992 0.733206570
0.986590505 0.943453550 0.748134196
0.264642566 0.101581275 0.723719239
0.299936801 0.103225991 0.721441984
0.387602657 0.092220090 0.717394233
0.488930911 0.081467628 0.716002166
0.603795171 0.058823463 0.707147479
0.720683217 0.040101096 0.695256531
0.834787786 0.042631254 0.685768247
0.967488885 0.191903844 0.702087343
0.282985717 0.163061246 0.709298015
0.313725531 0.167741999 0.702214003
0.386084378 0.159645796 0.708412051
0.489943206 0.155217916 0.705376089
0.604174674 0.146110088 0.700442791
0.714610875 0.143580079 0.685009241
0.828463018 0.144085661 0.683111966
0.956103742 0.247058973 0.689563513
0.303732067 0.271473676 0.696900427
0.340544283 0.270588279 0.700569034
0.406451344 0.274509430 0.693738341
0.495888799 0.270461380 0.687666178
0.606198549 0.273624271 0.686653614
0.713725269 0.273118198 0.680581570
0.822137654 0.283491373 0.673118234
0.953193903 0.369639307 0.696015298
0.352182269 0.399367183 0.678937554
0.376090914 0.400885403 0.678937554
0.432511210 0.401644200 0.677672327
0.516381919 0.400505573 0.671726525
0.614421070 0.404807001 0.671726525
0.706767797 0.410246909 0.667805374
0.820113838 0.415686220 0.666160882
0.945224166 0.495888710 0.701834142
0.382795453 0.521948457 0.673371494
0.406198531 0.523466170 0.676660538
0.466413647 0.530676663 0.669323385
0.540164590 0.537760735 0.667425990
0.624288440 0.539152443 0.664642870
0.717267632 0.541176200 0.667931557
0.815306723 0.553447187 0.671853542
0.935357630 0.622770190 0.716255605
0.431119561 0.652119040 0.677419245
0.454016566 0.651865959 0.676913261
0.501960337 0.651739359 0.677545786
0.570904672 0.654522717 0.675395072
0.657431960 0.664010465 0.682732522
0.744591713 0.679190040 0.689942956
0.831245959 0.689310312 0.703605294
0.944085658 0.743200183 0.755977273
0.503099561 0.765844584 0.687412500
0.514104962 0.769006550 0.682858586
0.560657740 0.766729712 0.689184189
0.619481266 0.767994881 0.697406948
0.699557245 0.778621256 0.704111278
0.783428311 0.797469795 0.730803311
0.856420279 0.807716548 0.741682589
0.953952968 0.838583410 0.780265570
0.668184996 0.919797301 0.788488507
0.681593895 0.924604654 0.788108945
0.705502629 0.919797301 0.784566760
0.747121632 0.923719227 0.793927670
0.798987627 0.930423796 0.802403152
0.854775548 0.931182802 0.818595827
0.909677207 0.936369658 0.822517395
0.973054767 0.941935360 0.830992579
0.346742630 0.203162432 0.899936557
0.380012482 0.196964055 0.893358767
0.450474173 0.207083762 0.890701950
0.545098066 0.209614068 0.889436781
0.660974085 0.223149925 0.880581915
0.778621435 0.248829395 0.880455613
0.899051070 0.283111393 0.881720603
0.992283165 0.322580516 0.873877585
0.364705622 0.258823156 0.890448868
0.402656794 0.260088325 0.893231928
0.457811415 0.261859417 0.887033105
0.552182257 0.272106171 0.882858574
0.661606312 0.285894930 0.885388970
0.777735710 0.302592963 0.878810883
0.890322685 0.329158574 0.870208859
0.988867521 0.362555385 0.868437767
0.416824609 0.379000694 0.877166390
0.444275588 0.378241777 0.879316866
0.498671710 0.382921875 0.879063666
0.581277609 0.396584451 0.882605970
0.679696202 0.403921694 0.873877406
0.785452247 0.419987410 0.872359455
0.891840518 0.437191427 0.868184745
0.989120543 0.461732745 0.867931545
0.482985228 0.517900050 0.876913249
0.506894112 0.521441877 0.870841324
0.548386991 0.528273225 0.871094286
0.613282561 0.529411674 0.868817210
0.698924780 0.535736859 0.866413713
0.787729383 0.540796876 0.860088289
0.885262430 0.551422894 0.859835327
0.980897903 0.563820004 0.858190596
0.528652787 0.637823999 0.867931426
0.544212162 0.641239583 0.860594392
0.588361740 0.646046817 0.862112582
0.648197293 0.651612937 0.860720634
0.719417989 0.653131127 0.859329224
0.798481703 0.658191144 0.860088289
0.883238375 0.660468042 0.857431829
0.967362463 0.667046309 0.862997890
0.570145428 0.746869028 0.867805302
0.587476373 0.744971275 0.871853232
0.622896731 0.749019444 0.867552042
0.678810716 0.746236444 0.855787337
0.745477617 0.752941310 0.855913639
0.813409388 0.760784268 0.862618327
0.885768712 0.760404825 0.860720634
0.962049484 0.772928536 0.866666675
0.610499918 0.843011022 0.873371005
0.625553608 0.845793605 0.868058443
0.653130889 0.842884302 0.867552102
0.701075017 0.846300006 0.869449675
0.762302041 0.842378020 0.870714664
0.826691747 0.848576844 0.871473908
0.891334534 0.851865768 0.872485638
0.958633780 0.866793394 0.880708098
0.679063737 0.935104489 0.876407564
0.677798748 0.937887371 0.881973147
0.711195350 0.939658344 0.888045788
0.751802564 0.936495781 0.882985294
0.802529752 0.935104489 0.883997262
0.860847473 0.937128544 0.891587317
0.914864063 0.942567825 0.906135261
0.971536756 0.949398816 0.928652763
