Assets/Resources/EldamarStudio/100 Horror LUTs Pack/LUTs/cube/Ghost LUT.cube
LUT_3D_SIZE 5
DOMAIN_MIN 0.000000 0.000000 0.000000
DOMAIN_MAX 0.903226 0.903226 0.903226
0.027450999 0.019608000 0.023529001
0.155977115 0.018595714 0.053257290
0.384566784 0.000000000 0.051612586
0.680835247 0.006831130 0.079443134
0.983554780 0.000000000 0.145350963
0.091840707 0.135357410 0.054269418
0.187982693 0.127513990 0.046425998
0.385199368 0.140291110 0.060847409
0.688678265 0.165211692 0.101328425
0.985072672 0.210373104 0.150537804
0.188994408 0.320556819 0.092852995
0.268184811 0.318532377 0.103984997
0.419228405 0.321821839 0.100695990
0.699177802 0.401265085 0.104870126
0.983427763 0.464389801 0.158380806
0.277672142 0.655408263 0.092219993
0.361416668 0.661606550 0.092599705
0.529411912 0.668437660 0.091967285
0.743580222 0.675016284 0.093358859
0.986337483 0.715496242 0.204047918
0.494749725 0.949525595 0.327514410
0.549399257 0.948766768 0.346615970
0.661859572 0.949525595 0.356356531
0.831878603 0.947122097 0.377988398
0.991144776 0.949398816 0.405945420
0.032005005 0.045414291 0.133080706
0.155344680 0.027450999 0.130803406
0.335483402 0.034661997 0.163187698
0.608095944 0.004554419 0.198228985
0.960910738 0.010879115 0.265907675
0.107906409 0.110183701 0.135736704
0.173307985 0.119038403 0.143200412
0.331309080 0.139658689 0.170398265
0.628969014 0.163567409 0.206072241
0.967868447 0.225174204 0.263630569
0.205313414 0.283871233 0.186337993
0.267173111 0.290449232 0.190006524
0.389500082 0.298291951 0.192915991
0.667172670 0.382415920 0.221379116
0.973687589 0.471347064 0.277672529
0.300189853 0.641366422 0.226059526
0.370524943 0.641113102 0.224415258
0.524857938 0.647311926 0.221758410
0.735736609 0.654775620 0.230613694
0.977862120 0.714864016 0.324225247
0.535357594 0.943326890 0.413788408
0.573055029 0.936748743 0.413029671
0.680581868 0.942947209 0.429854542
0.829981029 0.944212615 0.448197514
0.991397858 0.950410903 0.471346974
0.087665990 0.034028992 0.326249421
0.204680398 0.035673700 0.309297562
0.339405358 0.045793995 0.292346358
0.621378839 0.002277288 0.353826791
0.947628021 0.107399970 0.424541205
0.171663269 0.152055696 0.284503788
0.223655984 0.154332399 0.281214803
0.337760657 0.147754416 0.281847388
0.611385405 0.173687533 0.349272817
0.935231030 0.289437026 0.437318087
0.228210405 0.286527783 0.289690375
0.293991089 0.295002967 0.301454365
0.417963207 0.325110346 0.333585948
0.639341950 0.381783932 0.373814106
0.953573465 0.499809772 0.463883191
0.346742243 0.612270832 0.388108820
0.390765131 0.616192043 0.394939810
0.532700539 0.626312435 0.394054532
0.718405962 0.639721513 0.412397087
0.959898651 0.726375937 0.502466798
0.595319510 0.924604833 0.561923027
0.623655915 0.930803061 0.567236006
0.711574733 0.933080137 0.577102721
0.839342356 0.938393474 0.591144681
0.988614738 0.940164626 0.617077887
0.208981872 0.069702864 0.590639234
0.317267388 0.065401994 0.587729573
0.487286806 0.027450847 0.570651531
0.677040279 0.002909872 0.547628224
0.957115889 0.164326400 0.611005664
0.244276121 0.204427525 0.557115376
0.326122701 0.204680562 0.553447247
0.486021608 0.193674982 0.545856953
0.659076512 0.188108534 0.532827377
0.948260188 0.322454154 0.610626042
0.297280282 0.391271234 0.537381530
0.363946676 0.398861498 0.527514100
0.508918405 0.406325042 0.535737276
0.679949522 0.419101924 0.547501266
0.935863435 0.549904883 0.640480578
0.381783396 0.625047386 0.552435100
0.442757845 0.628589630 0.562176108
0.585072935 0.647185445 0.578494430
0.750411093 0.677925348 0.611258388
0.945983350 0.750790775 0.690069795
0.663251221 0.922454059 0.717520595
0.693105280 0.922327638 0.733459949
0.763946533 0.927261174 0.743200481
0.855660975 0.932574451 0.743073881
0.982795596 0.941682577 0.766350508
0.346742630 0.203162432 0.899936557
0.428462803 0.203541875 0.889183700
0.599747241 0.215686157 0.885515451
0.809234917 0.256419986 0.877419472
0.992283165 0.322580516 0.873877585
0.402150452 0.345350862 0.883238494
0.471094340 0.348007292 0.880328774
0.624288499 0.365717679 0.877672613
0.814800799 0.392662674 0.875142157
0.992409945 0.436938196 0.872485578
0.507021010 0.589626849 0.869829416
0.561416805 0.592915833 0.860720754
0.671094596 0.598102391 0.867299438
0.813535810 0.608222663 0.865022123
0.983427942 0.620366514 0.862112403
0.584819794 0.775711775 0.863251090
0.624162018 0.772801876 0.868311107
0.712966144 0.775711656 0.862745047
0.835420907 0.783554733 0.863377452
0.964832485 0.796710968 0.868690431
0.679063737 0.935104489 0.876407564
0.707653344 0.937128603 0.885009408
0.770398617 0.933839619 0.881720424
0.876280606 0.937634468 0.895635545
0.971536756 0.949398816 0.928652763
