Assets/Resources/EldamarStudio/100 Horror LUTs Pack/LUTs/cube/Ghostbrood LUT.cube
DOMAIN_MIN 0 0 0
DOMAIN_MAX 1 1 1
LUT_3D_SIZE 32
0.082353003 0.043136999 0.039216001
0.082353003 0.043136999 0.039216001
0.084503770 0.045287773 0.041366227
0.088804998 0.047059000 0.044402160
0.095256448 0.047438450 0.047438450
0.104364060 0.050474066 0.050474066
0.113472320 0.053510323 0.056040645
0.122580700 0.056546707 0.058823999
0.130929992 0.058823999 0.059582900
0.137002006 0.058824006 0.062618516
0.148892999 0.067552127 0.065654866
0.163061246 0.070588000 0.070714995
0.178241640 0.074003644 0.075648353
0.192916036 0.082606032 0.078937069
0.202024415 0.085642412 0.085009828
0.218342990 0.091081992 0.088678189
0.238077179 0.098671801 0.094750188
0.259962142 0.107146986 0.103225991
0.284250975 0.113219000 0.109297998
0.302973002 0.113724999 0.109803997
0.324983984 0.119417734 0.109803997
0.350284398 0.128526121 0.113851994
0.377988964 0.137760982 0.125742987
0.414421022 0.149905011 0.131815001
0.450853556 0.157495007 0.137887001
0.488677979 0.162175685 0.142567679
0.529665112 0.166730002 0.146109998
0.578241825 0.178873986 0.152181998
0.634788394 0.193674803 0.160910830
0.692473054 0.210625947 0.180645153
0.751928747 0.227956593 0.203541979
0.815685987 0.243137002 0.215685993
0.088424996 0.043136999 0.048323616
0.076281004 0.049209002 0.054396387
0.087033778 0.051359776 0.047944613
0.092346996 0.050601002 0.048703384
0.094876997 0.048576999 0.053510547
0.101328447 0.059582449 0.056546837
0.112966388 0.055028386 0.054522451
0.125869706 0.059835702 0.060721315
0.135483995 0.064895995 0.063377999
0.137002006 0.064896002 0.059582911
0.148892999 0.070715003 0.068437517
0.163061246 0.075648129 0.069702610
0.177102998 0.078937285 0.074889258
0.190132663 0.085895382 0.081467390
0.202024415 0.091714412 0.081973448
0.213535994 0.094750188 0.085642420
0.236559376 0.101707801 0.091714188
0.260468364 0.110815957 0.099557191
0.275142580 0.119291790 0.103226006
0.307779998 0.128146425 0.106514640
0.327261001 0.128905386 0.110562608
0.350284398 0.134598121 0.114863865
0.377862483 0.143706501 0.122833863
0.411385417 0.152941406 0.131815001
0.452371955 0.160531402 0.140164286
0.491714001 0.167995065 0.146995381
0.532194793 0.175838381 0.152181998
0.578241825 0.187982380 0.158253998
0.632131577 0.200126365 0.169639647
0.687665880 0.211385190 0.182669118
0.745856762 0.226691961 0.201391190
0.809614003 0.246173397 0.215685993
0.088045768 0.049588773 0.053130776
0.082353003 0.055660773 0.052751224
0.085262775 0.057431776 0.054522451
0.095382839 0.060468160 0.051739547
0.097406775 0.058570769 0.056673225
0.105250001 0.067172773 0.056167159
0.109930225 0.066286996 0.056293678
0.122074634 0.065148704 0.058190994
0.135230914 0.072485998 0.064516224
0.139405236 0.075269006 0.061227232
0.153193995 0.078937769 0.067552127
0.161289990 0.080961771 0.072612256
0.176090866 0.085009553 0.076154418
0.189500034 0.090828970 0.084503770
0.203542054 0.095003225 0.084503770
0.219987765 0.102972962 0.091208033
0.233649567 0.106008574 0.095762216
0.258949995 0.113851793 0.101075009
0.275648266 0.122960202 0.099557206
0.300822377 0.129917651 0.104743645
0.326628745 0.135230735 0.111574732
0.348133892 0.138519898 0.118911900
0.375964701 0.147628248 0.126122996
0.413409144 0.156736135 0.133206874
0.451486558 0.165718004 0.138013512
0.493991286 0.173181668 0.145730570
0.534724891 0.182795987 0.152814776
0.578621268 0.194939986 0.162175775
0.627830625 0.209234744 0.167109102
0.693105280 0.219607979 0.182795852
0.752687752 0.230487123 0.200126365
0.816444993 0.249209225 0.217836767
0.087539837 0.059961997 0.054901998
0.083238617 0.066033997 0.054395936
0.092599608 0.066540159 0.054775160
0.096648000 0.069070160 0.053510323
0.100822158 0.071347453 0.059962451
0.110815935 0.074762836 0.060468063
0.114863999 0.077040002 0.058697160
0.121568248 0.077292703 0.061986156
0.133713037 0.079569995 0.065781064
0.143326849 0.084630005 0.065275006
0.156989038 0.087792866 0.071093999
0.167362317 0.091334999 0.076407418
0.174572662 0.092473350 0.078305162
0.189753070 0.098418832 0.086780995
0.205945581 0.102466576 0.088804998
0.223529443 0.109044962 0.096015185
0.240227968 0.115116961 0.098544993
0.257937700 0.119417734 0.106514551
0.280455142 0.128526136 0.104870163
0.301960558 0.134851173 0.106135003
0.325616747 0.140290737 0.114104733
0.349905252 0.144338995 0.120177001
0.377609104 0.153194338 0.128399819
0.413661897 0.162302271 0.134471834
0.451865673 0.170145273 0.138266861
0.492726117 0.180518493 0.146489337
0.536749005 0.189626902 0.152561992
0.581530809 0.201011986 0.163187996
0.626818597 0.214547649 0.168627322
0.683238447 0.228716031 0.181783393
0.752561331 0.240481034 0.202656567
0.815939009 0.256040305 0.224667996
0.089437000 0.072865091 0.054522451
0.086021543 0.078937091 0.059076838
0.094876550 0.078557767 0.062492225
0.104996607 0.078178547 0.061480161
0.103099450 0.084250547 0.060341999
0.115243450 0.081214160 0.069449611
0.121315770 0.085389093 0.068817317
0.126881838 0.089057833 0.069955997
0.135989651 0.091334544 0.074509904
0.148134440 0.091334544 0.071473524
0.160278454 0.094623864 0.077166095
0.171157718 0.099304445 0.082479514
0.180265889 0.104237899 0.086654447
0.190132543 0.107526541 0.087413482
0.208349273 0.113598540 0.093611993
0.226565540 0.119671054 0.100569189
0.243263736 0.124604799 0.103984550
0.259456009 0.128146574 0.100442559
0.286780447 0.137254983 0.115622960
0.306514561 0.144339010 0.115622737
0.328146458 0.150031552 0.119038284
0.353700131 0.156483099 0.125110537
0.384313881 0.162555099 0.125363529
0.415179998 0.171410456 0.131435543
0.450094551 0.178620994 0.136369288
0.488551259 0.187476084 0.144212648
0.531815112 0.199493617 0.158254445
0.583428204 0.208601996 0.164326444
0.628589630 0.219607532 0.170398533
0.679569960 0.233143181 0.184187159
0.736622572 0.249209195 0.206072032
0.797343433 0.267426014 0.233396456
0.083365001 0.091081865 0.051486067
0.098545387 0.097153865 0.066666447
0.099430934 0.096774094 0.073371068
0.103731774 0.093738154 0.070082158
0.106135063 0.093358934 0.060341999
0.112207063 0.099430934 0.072485998
0.126881376 0.101454541 0.074003935
0.133459777 0.101707771 0.073497996
0.138266936 0.100442939 0.075268902
0.145098045 0.100442946 0.077545524
0.157242060 0.106261939 0.083238736
0.171410307 0.109803736 0.085262865
0.183301702 0.113345705 0.087413348
0.193168938 0.116634935 0.090449095
0.211384922 0.122706927 0.099557474
0.229601651 0.128778920 0.098545194
0.246300131 0.134851068 0.103605188
0.261480331 0.139784575 0.108285934
0.277672052 0.143326983 0.109550975
0.302213788 0.155218020 0.119165353
0.323592663 0.160657734 0.120556869
0.346363008 0.166224062 0.122074932
0.372169137 0.174699858 0.122327924
0.408601940 0.180771872 0.128399923
0.444022566 0.189626634 0.139025927
0.480455309 0.199620336 0.148260668
0.519418061 0.211764872 0.158380941
0.565211415 0.223782375 0.167362049
0.619481385 0.230233923 0.173434719
0.672106326 0.240859881 0.183048904
0.725490212 0.255281180 0.198481962
0.776091039 0.273497999 0.218216062
0.092473000 0.116888314 0.073750958
0.095003068 0.117900312 0.076281026
0.103731677 0.119671315 0.082858868
0.108285837 0.118279636 0.084756479
0.113851868 0.116888314 0.076534316
0.117773637 0.118659317 0.080076315
0.128905639 0.119671315 0.079570003
0.142441317 0.119417928 0.081214711
0.148892999 0.117900088 0.082859218
0.154964998 0.119671315 0.085894845
0.164326310 0.128019989 0.091840416
0.178494573 0.128020257 0.095888928
0.193674967 0.131182641 0.097533353
0.205566287 0.135863319 0.100315996
0.216950983 0.141935319 0.102593087
0.235167593 0.143200323 0.104490675
0.251866192 0.147501513 0.103098996
0.268311560 0.153194055 0.109171242
0.287286699 0.160024971 0.114864007
0.313346058 0.166350648 0.120683037
0.341429323 0.176596895 0.125996411
0.365591258 0.181909993 0.129664868
0.390132636 0.189500183 0.134345189
0.421758443 0.197976008 0.138014004
0.458191186 0.208601996 0.146363288
0.498798221 0.217962980 0.156862631
0.540670395 0.228968993 0.165464804
0.588235021 0.241112977 0.172549173
0.641745210 0.253004640 0.179000661
0.696394742 0.264389813 0.192156941
0.751929164 0.279063940 0.211132184
0.805439293 0.297280312 0.235926643
0.101327993 0.132700995 0.086274996
0.101327993 0.137634695 0.084630288
0.107273705 0.137634695 0.091714226
0.112080865 0.136369526 0.093484998
0.120050706 0.135989994 0.090449288
0.124351926 0.135989994 0.087919287
0.133333281 0.140923694 0.091967382
0.140543997 0.135989979 0.088931002
0.153447106 0.134471789 0.092726283
0.162175715 0.137508184 0.096647516
0.172801867 0.144718543 0.100948699
0.182669252 0.145730257 0.101707540
0.196711004 0.146109998 0.105882287
0.211638346 0.152181998 0.109424025
0.224920988 0.158253983 0.110815704
0.237950593 0.159518987 0.114104696
0.256166995 0.164073184 0.112586893
0.272738844 0.167994976 0.114990391
0.293991268 0.176090747 0.125110656
0.320809662 0.180771708 0.124857709
0.348387003 0.190385953 0.132321015
0.377735376 0.199493825 0.136369541
0.403289169 0.206451386 0.144591898
0.438203812 0.217077613 0.147627905
0.471473843 0.225173697 0.151929289
0.510689557 0.235926360 0.158254325
0.555977166 0.246046767 0.167362124
0.603415549 0.259329379 0.175711885
0.655660510 0.269829363 0.186717272
0.707020342 0.282100171 0.194939941
0.760784328 0.300822556 0.215812579
0.816951036 0.321315706 0.245414287
0.107399993 0.143326998 0.089310996
0.105881996 0.150917396 0.086274616
0.113092870 0.154333100 0.094750099
0.119671062 0.153827026 0.100316100
0.122707449 0.150790647 0.100316100
0.128399998 0.150411099 0.095003091
0.137001678 0.156483412 0.099304318
0.144338712 0.156483307 0.103352293
0.148893103 0.150411099 0.101834096
0.164073497 0.153447494 0.107906096
0.177862003 0.159393013 0.111068964
0.186464250 0.160151839 0.109297745
0.197470099 0.159772202 0.108158998
0.209614098 0.166097164 0.113978028
0.226818725 0.172675088 0.117014416
0.243264079 0.174699187 0.122453995
0.257685006 0.178494290 0.125490189
0.277798533 0.186970085 0.124351993
0.299303979 0.193042099 0.136242986
0.325363457 0.197090358 0.134724975
0.351928920 0.205060095 0.136622444
0.378494292 0.215433136 0.143200263
0.406325400 0.224541500 0.149399474
0.445794016 0.236053094 0.153700098
0.481467277 0.245920196 0.155977190
0.518279374 0.253383845 0.160531417
0.561796188 0.262998194 0.165085092
0.607590318 0.277925521 0.177229777
0.658443928 0.288551807 0.193548217
0.709044397 0.300948948 0.205186293
0.758506835 0.315243661 0.215812579
0.810120106 0.342568099 0.243137002
0.113472000 0.167615011 0.101455003
0.107400008 0.170651406 0.098418616
0.114484549 0.173940778 0.108285777
0.122707315 0.175585493 0.114484482
0.125743061 0.175079435 0.109424487
0.128779441 0.172043040 0.109424487
0.137001678 0.174193814 0.109171487
0.146109700 0.172549084 0.111195296
0.154965088 0.168627098 0.113978103
0.164073497 0.171663493 0.117014483
0.182163000 0.177609012 0.120177351
0.190006256 0.179633006 0.117140971
0.197849646 0.180645138 0.113472007
0.212650493 0.184313938 0.113978036
0.224794477 0.193421558 0.117014423
0.246806100 0.197596312 0.122454002
0.266034275 0.202023983 0.127008200
0.283870548 0.208222494 0.130423993
0.311195016 0.214294508 0.136496007
0.335483700 0.220366493 0.142821014
0.359898955 0.228209749 0.146489739
0.384313971 0.236432493 0.148766965
0.409361005 0.242757514 0.149399489
0.448830247 0.251865923 0.158507109
0.486021489 0.265654773 0.160530999
0.523718953 0.277672619 0.164832190
0.564832568 0.287286967 0.174193487
0.613409281 0.299430966 0.186337471
0.664516389 0.311701477 0.206451297
0.716129065 0.327260941 0.220366687
0.767615259 0.345224202 0.230360463
0.819228470 0.363820493 0.243137002
0.110815868 0.180265740 0.104870126
0.113472000 0.183301389 0.101834483
0.111700997 0.190638766 0.109550871
0.119544417 0.191398010 0.117647000
0.126249000 0.189247549 0.115622997
0.131815061 0.196331799 0.115622997
0.137381122 0.193295419 0.120682992
0.144465417 0.193928003 0.119797707
0.153067887 0.191903740 0.120303646
0.164326504 0.192789361 0.123339474
0.179253876 0.195825726 0.123465993
0.191397607 0.199873477 0.124478124
0.200758755 0.201897517 0.122453868
0.215939164 0.204933837 0.122706898
0.230739981 0.208728448 0.125743285
0.245287806 0.215432867 0.133586049
0.269576311 0.222011194 0.134092003
0.291587412 0.228842452 0.133586109
0.314357847 0.232637763 0.139658138
0.338899583 0.238709748 0.145730838
0.363187820 0.248576730 0.149905130
0.389500350 0.258697003 0.155977115
0.417836845 0.266666740 0.163567126
0.448956728 0.272991776 0.164326102
0.488425285 0.282100141 0.168880284
0.528273165 0.294623822 0.176470518
0.570272088 0.305755973 0.188108861
0.616444945 0.317899972 0.195445865
0.659708679 0.330043972 0.204933703
0.714104772 0.343959153 0.221632048
0.767994761 0.359266073 0.233017236
0.819607973 0.373434871 0.243137002
0.109803997 0.206578240 0.120050244
0.112839609 0.207590118 0.110942379
0.115749255 0.208855018 0.116635256
0.115749255 0.215433419 0.121189252
0.123339549 0.211638406 0.120809704
0.134345263 0.212523669 0.125742987
0.142441511 0.215559930 0.124731250
0.148513511 0.214168251 0.129158542
0.156863093 0.214927346 0.127640739
0.170272261 0.216192499 0.129411519
0.179253876 0.219101846 0.127514258
0.194434240 0.220113993 0.131562248
0.205818862 0.223149896 0.132700607
0.220493019 0.226439252 0.133585989
0.232131407 0.231246084 0.134851143
0.255407810 0.236685500 0.136622190
0.273624182 0.241239697 0.145730197
0.297406554 0.248070925 0.142820835
0.315876007 0.251106948 0.144718528
0.339911729 0.258950233 0.150790721
0.364199966 0.265022248 0.154965252
0.388488233 0.275901377 0.156989008
0.417204469 0.285009712 0.164831996
0.453257531 0.292979002 0.168626994
0.490449011 0.303352535 0.181024536
0.534092307 0.312460542 0.181277573
0.577862382 0.323972106 0.192662805
0.621884942 0.336116493 0.203289002
0.666792870 0.350284249 0.209993556
0.712839603 0.365970641 0.224415138
0.766223788 0.381404072 0.240733951
0.815559983 0.394687265 0.253257245
0.110942349 0.232005000 0.132194638
0.112839609 0.232005000 0.124604642
0.117014416 0.234281987 0.126375765
0.118785642 0.234408513 0.129159003
0.119924091 0.237444893 0.124225445
0.133586287 0.233649418 0.131815061
0.144845322 0.234028965 0.130803317
0.153447360 0.236559272 0.131056279
0.161037549 0.238836169 0.135610089
0.175838485 0.242631480 0.136748642
0.187982634 0.243390411 0.137254864
0.197849602 0.244402289 0.136875629
0.213029996 0.245540634 0.140670642
0.228209674 0.249083027 0.143706247
0.239089057 0.256040633 0.144591644
0.261480063 0.262112647 0.148007289
0.284629822 0.267805189 0.148007199
0.305882186 0.271473974 0.155850589
0.322074622 0.275015682 0.153826982
0.345604092 0.282479346 0.160278648
0.373308241 0.290828615 0.162175909
0.400632381 0.298924625 0.167235777
0.425806612 0.308285981 0.167868286
0.464263201 0.318406016 0.173940286
0.503731549 0.328652561 0.185705215
0.546236217 0.339405566 0.198734954
0.593801737 0.349019259 0.197722703
0.636306465 0.361163884 0.211638063
0.681467354 0.375964403 0.222264275
0.729917586 0.391777039 0.235420391
0.775837839 0.409993827 0.256293565
0.820873022 0.425427288 0.275268644
0.113472030 0.245667070 0.129917994
0.113472030 0.246173069 0.129917994
0.117773518 0.249968067 0.134218991
0.122074999 0.253763080 0.135737002
0.122960478 0.253889620 0.130803511
0.132068098 0.256926000 0.133839116
0.143706605 0.257432073 0.131815314
0.154712319 0.258823723 0.132827312
0.164073154 0.262871921 0.135863125
0.176217943 0.271979570 0.144971520
0.196837872 0.270208895 0.150916994
0.210246772 0.269197017 0.151170224
0.221884638 0.270588398 0.149526000
0.237065032 0.273877114 0.150284961
0.252245426 0.282985479 0.153320581
0.274383545 0.289184064 0.160404772
0.296142012 0.295256048 0.164199874
0.314990580 0.301580995 0.162934586
0.336243033 0.307653010 0.165970981
0.360531092 0.313725114 0.173814327
0.390006185 0.321694762 0.175838292
0.423656166 0.331562042 0.176597118
0.457052499 0.343706042 0.185452506
0.493358821 0.355850786 0.191398039
0.532574296 0.365970820 0.199747249
0.574319959 0.375584692 0.208855346
0.619102120 0.384946048 0.217963099
0.661606789 0.397090048 0.227071479
0.706514716 0.411637843 0.241492838
0.755597532 0.426818192 0.258697003
0.802403510 0.442884207 0.278810591
0.841871977 0.461101025 0.306135029
0.110436417 0.276027828 0.135989994
0.110436417 0.282099813 0.135989994
0.114737421 0.282605797 0.140290990
0.122074738 0.285135984 0.143832996
0.128905982 0.287160218 0.142947540
0.135104477 0.287286729 0.145983890
0.146742418 0.287792802 0.143959507
0.160531282 0.287792802 0.149145991
0.172169402 0.289184302 0.154079497
0.179253563 0.293231905 0.148007900
0.197217330 0.299430400 0.151296541
0.212017983 0.299556971 0.152941003
0.225806400 0.301833957 0.153447226
0.243137032 0.307273448 0.156356961
0.258317411 0.313346207 0.165464565
0.278304756 0.315243810 0.166096985
0.301707953 0.319544792 0.171030954
0.324098945 0.326249212 0.175838232
0.345351398 0.334977388 0.184186950
0.372169763 0.341050118 0.184439987
0.398861527 0.349019468 0.188235313
0.430487216 0.358127534 0.191018403
0.466160864 0.367994785 0.197596505
0.499557316 0.380138814 0.200632900
0.542694271 0.392283559 0.208855107
0.584186912 0.405186504 0.217963234
0.624921083 0.418089449 0.227071479
0.664642453 0.427450806 0.236179858
0.707147181 0.439594805 0.250601202
0.755597532 0.454142570 0.269323558
0.799240947 0.470208585 0.289057791
0.826691628 0.488425404 0.309171408
0.107400194 0.311195612 0.151675984
0.109803997 0.314863771 0.149272799
0.111954227 0.318785548 0.151423022
0.122833513 0.319038600 0.157241985
0.134218991 0.320556790 0.158759981
0.136243001 0.320556790 0.155724138
0.144971803 0.322959960 0.158507481
0.160404786 0.319670945 0.155471087
0.175585002 0.319670975 0.161543101
0.184946001 0.324351311 0.159013480
0.205059931 0.327893585 0.161543116
0.219228700 0.329917580 0.160531268
0.231372803 0.331056237 0.162428811
0.247564808 0.335610360 0.166730031
0.269196391 0.339531809 0.171537176
0.291587561 0.345603973 0.180644795
0.309803993 0.347122163 0.180644795
0.332068533 0.352941364 0.185578763
0.356862992 0.362049460 0.194686845
0.383681357 0.373181492 0.197849602
0.414800704 0.381151527 0.201644599
0.445161372 0.391271383 0.205186665
0.480202734 0.401644588 0.209740505
0.515875936 0.409234613 0.212776899
0.546995521 0.421378583 0.218089998
0.590512097 0.434914619 0.228462785
0.631499112 0.449082673 0.239595056
0.672865212 0.458191037 0.252498418
0.722201169 0.467552364 0.264515996
0.761163473 0.486780316 0.283238351
0.807842970 0.502972603 0.307147354
0.842757642 0.518152952 0.331435770
0.105881996 0.343074203 0.166856378
0.108918384 0.352182180 0.169892371
0.110436425 0.349145949 0.160531417
0.119797193 0.352182359 0.166097358
0.136875361 0.352814823 0.171663374
0.140290990 0.353953183 0.167868376
0.147881314 0.354965061 0.166350320
0.160405174 0.356103361 0.170651481
0.177862093 0.352308452 0.168374196
0.190765008 0.357621580 0.170651481
0.210120052 0.360784054 0.172169328
0.226818502 0.363314360 0.174193457
0.242378622 0.364452720 0.173434556
0.256420225 0.367489010 0.178874031
0.279443353 0.370524943 0.181910411
0.300695568 0.375964373 0.186717182
0.324984372 0.382036358 0.194307387
0.342694730 0.385072768 0.195572376
0.370019197 0.392410159 0.203795165
0.395825356 0.401265204 0.205819353
0.428462923 0.413029730 0.212270796
0.460847437 0.421125978 0.219354928
0.493738443 0.432131499 0.223402694
0.528779209 0.439595193 0.226439089
0.566729724 0.450221181 0.234788179
0.599873483 0.462365508 0.240860164
0.642125309 0.476913393 0.253257245
0.684630036 0.487033635 0.268437624
0.724478006 0.497659802 0.283997178
0.771790087 0.509550929 0.302972555
0.808222413 0.533839226 0.325110346
0.851866007 0.548513353 0.354205996
0.105249584 0.373561114 0.178368405
0.108918384 0.386843920 0.185578614
0.111701563 0.386717319 0.179759562
0.117393993 0.381404132 0.171031162
0.134471551 0.384440541 0.177862436
0.143579930 0.387476176 0.177103415
0.153320745 0.387982100 0.176470667
0.165085703 0.387982100 0.177102983
0.182163477 0.389373600 0.182921976
0.197343111 0.392410010 0.182921976
0.216065720 0.394813240 0.184187129
0.232890815 0.397216797 0.185578823
0.250980616 0.401518047 0.189247504
0.271726996 0.404300690 0.192030147
0.292220354 0.406957537 0.194686979
0.311701536 0.411764532 0.198987752
0.332321376 0.417836696 0.202276781
0.357242525 0.422643721 0.207716972
0.384566963 0.425680101 0.213788986
0.409108192 0.432131529 0.214927569
0.439721465 0.440101147 0.219987392
0.474130243 0.450853705 0.227830127
0.504617453 0.457052201 0.236811996
0.538013875 0.466160446 0.240354314
0.577609122 0.476913124 0.250221550
0.617330730 0.490954846 0.260847569
0.654269636 0.503099561 0.268943548
0.696647823 0.515243530 0.284250408
0.731688499 0.527387500 0.303352118
0.769639134 0.540796638 0.325110346
0.812523782 0.554585338 0.349399090
0.848956585 0.578874111 0.373687148
0.102213979 0.416065991 0.187476039
0.108285971 0.422138005 0.187476069
0.116255783 0.424668044 0.190385789
0.124604806 0.422643840 0.190385982
0.134471551 0.420872629 0.190006480
0.143579945 0.423909009 0.180898100
0.155218020 0.424414992 0.185199052
0.167109475 0.424414992 0.187223032
0.182543010 0.425933003 0.189247027
0.206451520 0.431878507 0.195066020
0.227450848 0.432005018 0.200885758
0.246426523 0.432258010 0.202403963
0.266666979 0.435926676 0.204934001
0.289943039 0.443769962 0.210246965
0.305123419 0.443769962 0.210246965
0.325616807 0.446426213 0.217710167
0.346616209 0.451233417 0.221757978
0.369386584 0.456040978 0.222896621
0.396711051 0.456040978 0.225933030
0.421252787 0.464642644 0.229222387
0.449335963 0.469702780 0.233902991
0.480202287 0.475522131 0.239215836
0.510689557 0.484377414 0.242884040
0.544085979 0.493485063 0.248956054
0.582036912 0.502593338 0.259329647
0.620366991 0.517520607 0.271474004
0.657305300 0.536495984 0.284124017
0.696774364 0.548640013 0.302340001
0.741808712 0.560783982 0.325616658
0.782542527 0.576470375 0.349398911
0.821632206 0.593295574 0.373687238
0.858065009 0.609235048 0.397976011
0.104743645 0.466920078 0.202150375
0.110815644 0.467426091 0.204933733
0.119038418 0.471347332 0.204933733
0.128146812 0.471979737 0.207337216
0.137634352 0.470841080 0.208475560
0.149145931 0.471473664 0.204174802
0.165844649 0.469450057 0.207716718
0.180139005 0.470841378 0.210499719
0.194939852 0.473497748 0.212776810
0.215180382 0.479569763 0.220873058
0.242125243 0.482606083 0.210246384
0.263377607 0.484629840 0.218342900
0.284630001 0.488804400 0.222897023
0.308665037 0.497406781 0.228716046
0.328905433 0.499937117 0.231246367
0.351296604 0.497533321 0.233649567
0.374446750 0.501328111 0.240480363
0.398861676 0.507400393 0.244275510
0.428336352 0.511701405 0.249462679
0.455660760 0.514484763 0.255281746
0.479949474 0.523592830 0.260215372
0.510562956 0.530423999 0.269323498
0.544592202 0.539531887 0.279443562
0.577988684 0.548640192 0.282858729
0.615938962 0.557748377 0.291208029
0.652625024 0.566856384 0.305629343
0.686148167 0.580518425 0.321062446
0.716508687 0.590385735 0.337001741
0.753320932 0.605186582 0.357874542
0.794939816 0.613915086 0.378494769
0.835294187 0.628969014 0.406957626
0.875522017 0.647944391 0.444528759
0.109676994 0.510942698 0.219228476
0.117646731 0.516635418 0.229854375
0.123971768 0.513092935 0.221252739
0.131814986 0.518658876 0.221252739
0.141049802 0.519797444 0.223655924
0.154711992 0.516761482 0.223655924
0.175711632 0.521821797 0.226312727
0.192283690 0.518785775 0.227451012
0.209740475 0.522074461 0.231752172
0.230233967 0.528146446 0.244276196
0.249588847 0.531309307 0.240607455
0.276660264 0.534345210 0.235040978
0.297912657 0.537381113 0.243010715
0.321947813 0.544465482 0.249082729
0.348133862 0.547501862 0.253763407
0.369892299 0.547628403 0.251106918
0.397217095 0.549146235 0.255660743
0.420999706 0.555218160 0.261732727
0.446299762 0.561290205 0.267805159
0.479569823 0.564579070 0.275774986
0.510689199 0.567615449 0.281847000
0.533965886 0.574699879 0.286907136
0.565971017 0.581910253 0.298545480
0.601138651 0.589247406 0.308665544
0.631498992 0.598355293 0.320050269
