Assets/Resources/EldamarStudio/100 Horror LUTs Pack/LUTs/cube/Ghostbrood LUT.cube
LUT_3D_SIZE 5
DOMAIN_MIN 0.000000 0.000000 0.000000
DOMAIN_MAX 0.903226 0.903226 0.903226
0.082353003 0.043136999 0.039216001
0.122580700 0.056546707 0.058823999
0.202024415 0.085642412 0.085009828
0.350284398 0.128526121 0.113851994
0.634788394 0.193674803 0.160910830
0.101327993 0.132700995 0.086274996
0.140543997 0.135989979 0.088931002
0.224920988 0.158253983 0.110815704
0.377735376 0.199493825 0.136369541
0.655660510 0.269829363 0.186717272
0.110436417 0.276027828 0.135989994
0.160531282 0.287792802 0.149145991
0.258317411 0.313346207 0.165464565
0.430487216 0.358127534 0.191018403
0.707147181 0.439594805 0.250601202
0.116761126 0.555471241 0.236432865
0.209487826 0.571410537 0.248703405
0.364452809 0.590006649 0.276407123
0.560278416 0.614168286 0.310183257
0.777735412 0.669449806 0.410625935
0.492473394 0.864515781 0.573561192
0.537254691 0.872106433 0.583301365
0.623656034 0.879570067 0.598102570
0.744844735 0.889310658 0.640733421
0.880455434 0.895888746 0.691081405
0.078431003 0.049335711 0.088930994
0.118026696 0.062112994 0.100695990
0.197849706 0.094497286 0.125869706
0.346363127 0.129411995 0.165085137
0.626944721 0.176850289 0.211890981
0.104237713 0.122959986 0.129158705
0.135357410 0.137001693 0.140290707
0.215812817 0.149778411 0.146489412
0.358886957 0.194560692 0.177861989
0.644528389 0.259708971 0.233143687
0.108791709 0.275648534 0.180771708
0.154965401 0.287792385 0.186717525
0.256040692 0.306135386 0.202403277
0.427577376 0.351928979 0.230233982
0.706894279 0.437950492 0.298671931
0.103858121 0.555471122 0.283870965
0.195445523 0.556483328 0.289943218
0.357621938 0.579633296 0.309803963
0.542694569 0.604427695 0.348766834
0.773054898 0.669449925 0.441492885
0.487033069 0.862365365 0.573434174
0.531309247 0.865275145 0.594686925
0.616571784 0.869829178 0.611384988
0.735357344 0.880581856 0.644908249
0.873877585 0.893231928 0.703352571
0.081720419 0.055534583 0.183048993
0.119924292 0.072232708 0.191903695
0.193547994 0.097406581 0.207337409
0.345097959 0.133712709 0.256419986
0.632763982 0.152308583 0.342820793
0.097027294 0.132700577 0.211511701
0.135989979 0.134977698 0.217077568
0.209866986 0.155598000 0.230487108
0.366097510 0.187349960 0.272106379
0.656167030 0.230233982 0.354206085
0.084883012 0.268058002 0.268058002
0.131309018 0.289690405 0.277925402
0.266160399 0.311954379 0.304743797
0.438330412 0.352182269 0.335863084
0.720935762 0.419987619 0.403035790
0.011891270 0.550158262 0.397722811
0.152814686 0.562175751 0.390512258
0.338899225 0.576470554 0.408728838
0.542947233 0.605313003 0.449715108
0.779380143 0.672485650 0.536495626
0.479949147 0.856672764 0.629348576
0.519544661 0.864895523 0.638203740
0.607842982 0.865780890 0.657432020
0.739531875 0.877925336 0.688804567
0.884376764 0.896521151 0.749905467
0.062618747 0.064769000 0.368880242
0.123592570 0.080708295 0.367615402
0.231878698 0.103225581 0.379126966
0.371031225 0.132321134 0.413156122
0.642884076 0.152055696 0.512080789
0.026185879 0.143453702 0.381024569
0.111448281 0.146995559 0.394054115
0.237444818 0.161163703 0.405945390
0.393801242 0.188994259 0.434408665
0.664769411 0.232510686 0.525363803
0.000000000 0.305123270 0.443769932
0.049082868 0.310056806 0.461480349
0.251486689 0.324351370 0.471347123
0.451107115 0.352182269 0.500695944
0.718279600 0.415433228 0.569386125
0.002023998 0.563188195 0.542694390
0.130929843 0.571284115 0.553952873
0.333333522 0.590891719 0.578494430
0.561290264 0.620114267 0.606325269
0.793421745 0.669196784 0.658191264
0.478051394 0.862871528 0.730929792
0.515243530 0.865528166 0.736116052
0.602656126 0.870714903 0.744339168
0.730423868 0.880834818 0.764579237
0.877166450 0.900821924 0.793042123
0.001265167 0.052245170 0.711827695
0.030487116 0.053510334 0.712207317
0.296394527 0.056167167 0.722959995
0.507147074 0.079064019 0.740290880
0.731435716 0.167741612 0.760151625
0.000000000 0.148639873 0.724984407
0.001644708 0.151296705 0.726122618
0.279443383 0.157242283 0.730803132
0.508412242 0.185831651 0.748513401
0.744591713 0.256673187 0.776596963
0.003289416 0.332953393 0.752435386
0.001644708 0.324351817 0.751676023
0.244654968 0.343453377 0.763440967
0.521441817 0.382795781 0.779127002
0.772675157 0.446932197 0.799367368
0.010373289 0.628716230 0.797343612
0.067805253 0.626438916 0.797722876
0.335736752 0.623782516 0.803541720
0.574193537 0.644022763 0.812523723
0.814673901 0.685515225 0.838203907
0.508285522 0.873750806 0.858064413
0.537887216 0.872865498 0.868817329
0.613915384 0.875015795 0.876407504
0.744592011 0.892978907 0.881973445
0.890701950 0.908918619 0.903731763
