Assets/Resources/EldamarStudio/100 Horror LUTs Pack/LUTs/cube/Ghostbrood LUT.cube
LUT_3D_SIZE 8
DOMAIN_MIN 0.000000 0.000000 0.000000
DOMAIN_MAX 0.903226 0.903226 0.903226
0.082353003 0.043136999 0.039216001
0.095256448 0.047438450 0.047438450
0.130929992 0.058823999 0.059582900
0.178241640 0.074003644 0.075648353
0.238077179 0.098671801 0.094750188
0.324983984 0.119417734 0.109803997
0.450853556 0.157495007 0.137887001
0.634788394 0.193674803 0.160910830
0.089437000 0.072865091 0.054522451
0.103099450 0.084250547 0.060341999
0.135989651 0.091334544 0.074509904
0.180265889 0.104237899 0.086654447
0.243263736 0.124604799 0.103984550
0.328146458 0.150031552 0.119038284
0.450094551 0.178620994 0.136369288
0.628589630 0.219607532 0.170398533
0.107399993 0.143326998 0.089310996
0.122707449 0.150790647 0.100316100
0.148893103 0.150411099 0.101834096
0.197470099 0.159772202 0.108158998
0.257685006 0.178494290 0.125490189
0.351928920 0.205060095 0.136622444
0.481467277 0.245920196 0.155977190
0.658443928 0.288551807 0.193548217
0.110942349 0.232005000 0.132194638
0.119924091 0.237444893 0.124225445
0.161037549 0.238836169 0.135610089
0.213029996 0.245540634 0.140670642
0.284629822 0.267805189 0.148007199
0.373308241 0.290828615 0.162175909
0.503731549 0.328652561 0.185705215
0.681467354 0.375964403 0.222264275
0.105881996 0.343074203 0.166856378
0.136875361 0.352814823 0.171663374
0.177862093 0.352308452 0.168374196
0.242378622 0.364452720 0.173434556
0.324984372 0.382036358 0.194307387
0.428462923 0.413029730 0.212270796
0.566729724 0.450221181 0.234788179
0.724478006 0.497659802 0.283997178
0.109676994 0.510942698 0.219228476
0.141049802 0.519797444 0.223655924
0.209740475 0.522074461 0.231752172
0.297912657 0.537381113 0.243010715
0.397217095 0.549146235 0.255660743
0.510689199 0.567615449 0.281847000
0.631498992 0.598355293 0.320050269
0.768880606 0.636306286 0.384819537
0.210626259 0.698545575 0.320809543
0.245793656 0.697659552 0.337254554
0.306261837 0.704870343 0.348766476
0.393295527 0.710309803 0.366856545
0.483365029 0.717394114 0.379506469
0.583681285 0.729285538 0.408728719
0.691334546 0.741682589 0.446552843
0.804300666 0.765464783 0.502213418
0.492473394 0.864515781 0.573561192
0.522707105 0.873371303 0.570651412
0.543832719 0.873624623 0.581783652
0.593295217 0.874763012 0.591271222
0.657937765 0.880202472 0.610246599
0.727387547 0.887286663 0.636432290
0.799114466 0.893864632 0.665021837
0.880455434 0.895888746 0.691081405
0.086274996 0.043516546 0.060721450
0.090954997 0.047059000 0.064642541
0.128905639 0.063883543 0.077166446
0.171157643 0.081467196 0.093990996
0.225553378 0.101454541 0.108918183
0.314737260 0.129284993 0.130929992
0.435167551 0.153574005 0.154333010
0.622770250 0.185704991 0.189500377
0.079190098 0.080708101 0.074762546
0.103099450 0.081467092 0.087033994
0.128905639 0.089690439 0.092093542
0.169260114 0.104996897 0.103478901
0.229854539 0.122580536 0.116761185
0.312460303 0.148134187 0.136369288
0.433902800 0.173434734 0.158633560
0.613282561 0.212523520 0.187349796
0.099936545 0.143706545 0.105755992
0.115622640 0.145350650 0.113219544
0.144591644 0.146489203 0.113599092
0.186843649 0.153067738 0.121821634
0.247438177 0.176596925 0.135863438
0.329032153 0.200885549 0.146742731
0.468311071 0.235800281 0.176723734
0.645667255 0.280961394 0.209740356
0.109297641 0.217963532 0.137001991
0.125869632 0.219987288 0.139784649
0.157874644 0.225427195 0.143706545
0.203162640 0.236811936 0.149525285
0.276407272 0.256799489 0.163693994
0.361922801 0.282606065 0.178241551
0.495509088 0.323592633 0.201138377
0.681467235 0.378115177 0.239974722
0.102087192 0.344971538 0.169259995
0.128652796 0.345604002 0.178241536
0.176217288 0.348007739 0.181277633
0.240481079 0.358254045 0.191903993
0.310056984 0.370777726 0.201644734
0.412902892 0.399620801 0.218469381
0.555471122 0.445540667 0.245540828
0.717394054 0.493611813 0.297912836
0.096774258 0.500189662 0.235926524
0.131435990 0.508159161 0.231878534
0.197975993 0.508412004 0.237191468
0.286147833 0.520556629 0.248197377
0.382922113 0.536622047 0.267678440
0.493864447 0.556609452 0.288424760
0.614800811 0.587602735 0.322327375
0.764452636 0.634914637 0.391903937
0.213409111 0.689816356 0.336875260
0.240354344 0.693738282 0.349019408
0.298292369 0.698292375 0.355724454
0.383807540 0.705376267 0.371030986
0.475901186 0.713725209 0.392789125
0.584819317 0.723466516 0.417836994
0.697027266 0.744212270 0.466792822
0.807336867 0.769386351 0.525616467
0.481846929 0.861985743 0.552308619
0.500063360 0.868944049 0.560404956
0.530423939 0.859961867 0.569386244
0.581151187 0.863503933 0.581151426
0.643769741 0.871726811 0.601391554
0.714357853 0.879696310 0.625679672
0.795699000 0.883997142 0.658317208
0.872739017 0.892725766 0.699557364
0.078431003 0.048576999 0.100316100
0.091334544 0.051359549 0.098292448
0.132447988 0.068184994 0.115117088
0.173181191 0.083871096 0.131309450
0.232764095 0.111321799 0.152056009
0.312713623 0.127387732 0.166097194
0.438203752 0.149652198 0.194180906
0.629474699 0.170524731 0.224794090
0.093358904 0.082732454 0.110562995
0.109803900 0.090575546 0.119924098
0.135610089 0.095256448 0.127008095
0.175964549 0.114863642 0.137507647
0.238203898 0.134471551 0.153573915
0.325869381 0.148513556 0.173687458
0.445414454 0.170019001 0.192156836
0.623782575 0.202150568 0.230739921
0.104997002 0.142694205 0.148133993
0.119671360 0.156862929 0.155597553
0.151296914 0.155977011 0.161543101
0.195952103 0.165338203 0.157495096
0.259329289 0.179380089 0.173940286
0.347754329 0.203668386 0.190259099
0.478178442 0.230234176 0.216951370
0.651612759 0.278431267 0.247312054
0.111447997 0.234282181 0.166350633
0.125110552 0.237824440 0.177862078
0.162681639 0.241240084 0.190006539
0.214674279 0.249842092 0.188361734
0.283997625 0.263124347 0.202150196
0.371663481 0.286147833 0.218089655
0.505123138 0.324857563 0.234408721
0.680961490 0.370145261 0.280075848
0.096520998 0.343833089 0.211511999
0.122327901 0.359519273 0.224541441
0.172422290 0.361796141 0.224035293
0.238962889 0.368121386 0.231119275
0.318785280 0.379000545 0.238962993
0.423529267 0.405566394 0.258064628
0.563693762 0.449462473 0.284124106
0.727134705 0.501075208 0.341935247
0.083618261 0.517773449 0.281593829
0.128526002 0.524604559 0.280455500
0.204301089 0.523592770 0.287413001
0.292852372 0.534471869 0.302340269
0.393801272 0.546616316 0.306894273
0.501454711 0.561416566 0.331056386
0.628715813 0.596078455 0.370145470
0.766223788 0.638583124 0.430613369
0.219101638 0.694623590 0.383175433
0.251233220 0.702466786 0.393548548
0.311954468 0.708791494 0.403921485
0.394687116 0.709171176 0.415054023
0.485894948 0.717394233 0.429474741
0.586970329 0.725237429 0.455660999
0.691207886 0.742441475 0.486527383
0.806704462 0.771410406 0.553447187
0.498671561 0.868184626 0.588361681
0.512713313 0.871853232 0.599367261
0.545983374 0.871600330 0.604554057
0.592915833 0.870714962 0.617204249
0.656925857 0.877545655 0.631498635
0.722960055 0.883112013 0.648703575
0.797975719 0.886907101 0.678810894
0.877166510 0.893231928 0.707906544
0.081214361 0.053257290 0.156989634
0.096015349 0.057178997 0.157369092
0.128400087 0.071726643 0.160025537
0.172042638 0.085768640 0.170398638
0.234282196 0.106135346 0.192283630
0.311448455 0.126881987 0.215939268
0.440227926 0.141809002 0.260721266
0.635800183 0.153067827 0.298165649
0.091840997 0.088931344 0.152940914
0.102593191 0.087666094 0.161163986
0.132827446 0.100695640 0.168248087
0.170271754 0.110436186 0.174573094
0.230486929 0.126502350 0.195698977
0.311448365 0.146489382 0.221884742
0.443263918 0.164452896 0.258697033
0.626818299 0.181024700 0.295256466
0.098797999 0.143706456 0.187855974
0.118026450 0.142820835 0.187476531
0.143453196 0.158633649 0.198861271
0.189120635 0.159266546 0.204680726
0.253637165 0.179759741 0.222011447
0.341176599 0.195066184 0.237950459
0.482353002 0.222011343 0.267298996
0.665148675 0.251739264 0.303478748
0.106388360 0.224288642 0.221505284
0.118026547 0.225806728 0.223529533
0.158380911 0.234408632 0.227450818
0.209740281 0.246173635 0.236685619
0.281340837 0.259455800 0.248071268
0.369259745 0.283365160 0.266540021
0.515496612 0.318532556 0.295635551
0.695256233 0.366982728 0.349019438
0.075142361 0.340544164 0.268311441
0.107526898 0.354205906 0.275142610
0.163061202 0.357748270 0.275521994
0.231752262 0.367109358 0.277925253
0.319418252 0.377229571 0.291208178
0.421379000 0.406704724 0.314357787
0.563187778 0.443896264 0.348134100
0.725237131 0.492346644 0.399493814
0.029854616 0.504364073 0.325616360
0.097406633 0.509424508 0.332447559
0.187855989 0.517267406 0.341935456
0.275395393 0.528653085 0.351296365
0.388108760 0.544085741 0.365464538
0.489816427 0.559266090 0.387729108
0.625426888 0.591903627 0.420872658
0.767868459 0.638077319 0.484503180
0.199240744 0.689689815 0.429728180
0.235167831 0.694370806 0.443011075
0.296520829 0.699177504 0.446047157
0.382162839 0.704743862 0.461606562
0.477419406 0.710183322 0.475648463
0.585325778 0.727514565 0.503352106
0.694750190 0.743453205 0.536242902
0.815686345 0.776090741 0.594560444
0.481340677 0.861985743 0.605060220
0.499304175 0.858317375 0.611638367
0.535104215 0.866413772 0.625300348
0.584313571 0.868311226 0.633523047
0.640101194 0.872865438 0.648956180
0.713725388 0.875395358 0.669196427
0.794433773 0.884756505 0.694876671
0.883111537 0.893737912 0.733080029
0.083871193 0.062744997 0.225679994
0.097280197 0.066666998 0.224541649
0.134092093 0.075268902 0.233522996
0.178241640 0.094117999 0.238203809
0.237444997 0.107400186 0.260088384
0.315116704 0.128905535 0.283491403
0.443896562 0.144212380 0.324857444
0.640101016 0.150410995 0.389879853
0.088931449 0.100063451 0.226312175
0.105882190 0.107906453 0.233143538
0.132068440 0.104996897 0.235167801
0.179127261 0.119165093 0.246046886
0.238077179 0.131309345 0.257431835
0.319544286 0.149652004 0.284629911
0.449968278 0.165338188 0.332827479
0.630866647 0.179759815 0.388235360
0.087160006 0.150537819 0.251359969
0.111448191 0.158886567 0.259456217
0.142694205 0.160658091 0.263251096
0.190765634 0.168121472 0.267931998
0.256926090 0.182542995 0.287539184
0.348387212 0.201011732 0.309297979
0.481973350 0.220999286 0.356356561
0.663124561 0.248956174 0.407463908
0.081720807 0.233902648 0.287033528
0.100063451 0.240986720 0.293358564
0.146236554 0.242378533 0.301581174
0.210373536 0.252245188 0.306514621
0.278684378 0.261100739 0.319038630
0.381403923 0.283744544 0.337254763
0.520935774 0.313598812 0.375205845
0.698418438 0.349399000 0.423402846
0.063883819 0.345477372 0.346995175
0.092979357 0.350537658 0.339911371
0.151296720 0.359519273 0.344718277
0.233016819 0.374066740 0.358380735
0.328905374 0.393169194 0.376849979
0.440860361 0.408349097 0.392030448
0.577862382 0.440101475 0.420493305
0.736242950 0.487919003 0.473623931
0.002783259 0.516761482 0.411258638
0.069070101 0.518026531 0.416698366
0.168753758 0.520303726 0.419734269
0.265907645 0.535736680 0.426818281
0.384313464 0.550664246 0.442884117
0.505375981 0.567741454 0.463883907
0.631878555 0.600252986 0.496394455
0.773307920 0.642125547 0.546995401
0.189626813 0.697027326 0.505755723
0.233017117 0.699430645 0.517520487
0.292852372 0.705629408 0.520683467
0.379126757 0.709550619 0.524478376
0.481087923 0.719797492 0.542567968
0.586337626 0.727514386 0.558380902
0.694876611 0.744591832 0.588361859
0.815939367 0.776723623 0.640480518
0.480328530 0.861606598 0.661985755
0.501454413 0.865148783 0.656925976
0.531435609 0.869955599 0.667805552
0.581277728 0.869323075 0.674889386
0.644528747 0.876280785 0.685388744
0.720303595 0.880581617 0.704743445
0.800252736 0.887666225 0.732068360
0.874889433 0.898924768 0.757115364
0.070715003 0.066793002 0.326375693
0.088298552 0.074382998 0.325363457
0.135230839 0.084250741 0.331941724
0.194939986 0.095635906 0.339152098
0.258317292 0.107020736 0.355724007
0.336622477 0.129284993 0.371663481
0.448829800 0.141809002 0.407084256
0.643137157 0.154332995 0.489816457
0.071220651 0.102340356 0.321695000
0.088551559 0.102972537 0.329917908
0.137634546 0.107779637 0.330550194
0.189879835 0.115496539 0.340669990
0.255155176 0.127640799 0.350917220
0.335989922 0.148134187 0.371157408
0.450221300 0.164958745 0.411385298
0.646805942 0.180898175 0.492599785
0.037318014 0.162935004 0.354712218
0.076281175 0.158127993 0.357368767
0.127387643 0.164705828 0.352561653
0.196837634 0.169133186 0.370018721
0.271093905 0.183681548 0.380012840
0.362681806 0.199873090 0.404807150
0.478810728 0.223655641 0.437950999
0.666034102 0.248450220 0.504111528
0.016192531 0.241366103 0.386337548
0.038330190 0.243390366 0.396205008
0.115622915 0.246046722 0.392536432
0.197343275 0.254775524 0.399241120
0.293864846 0.266540021 0.419481367
0.391903758 0.284124255 0.433396459
0.528273165 0.310309798 0.472991794
0.704743922 0.358507335 0.532194734
0.000379548 0.359898448 0.433523446
0.012776813 0.364199996 0.446932435
0.106135011 0.368248016 0.441239655
0.207590282 0.375331938 0.449209452
0.319038630 0.391777098 0.467678905
0.434661716 0.408602178 0.486653745
0.576849818 0.436812073 0.519291818
0.742567718 0.483365089 0.567235708
0.002024260 0.512586951 0.499177724
0.014674360 0.520809889 0.497279972
0.146363184 0.527514398 0.508665442
0.254143268 0.536495984 0.523592532
0.381151170 0.555344880 0.537760675
0.508665502 0.575585485 0.561796188
0.642884552 0.598608255 0.586717248
0.780265450 0.632764399 0.618975282
0.177102655 0.693864346 0.590259492
0.212017670 0.698166013 0.585072994
0.281720519 0.702846110 0.599873245
0.375205547 0.707020521 0.607590377
0.479063988 0.721315444 0.618595779
0.589247286 0.731815338 0.633776009
0.699431002 0.750158072 0.657052279
0.823655844 0.782416463 0.703478932
0.470208555 0.860088468 0.709171355
0.492093533 0.864010096 0.718405902
0.516255260 0.864262998 0.717899799
0.568753660 0.867931724 0.721695065
0.628589511 0.874510050 0.731941462
0.709424376 0.876280785 0.743832588
0.797722578 0.887286842 0.766603231
0.876660407 0.900568843 0.783934116
0.001644712 0.072232716 0.488425285
0.034914821 0.073877007 0.495888710
0.126882091 0.077798814 0.500189841
0.209108278 0.083491646 0.500948906
0.304364473 0.094244294 0.520303726
0.393548459 0.105122991 0.528146803
0.514863551 0.123213284 0.548513830
0.653636694 0.148513824 0.588994384
0.003794996 0.101201713 0.486527532
0.018596014 0.105249807 0.497785807
0.118406005 0.112333804 0.497153342
0.206198528 0.109803900 0.501581252
0.305755913 0.118279383 0.515622795
0.403289169 0.135736808 0.531182528
0.511068821 0.153194249 0.555597603
0.656672835 0.184440434 0.593674600
0.001644713 0.162176102 0.500063360
0.003289004 0.164073557 0.517899811
0.090449005 0.167615294 0.523719072
0.204047829 0.172675550 0.526249290
0.303478658 0.184187293 0.537507534
0.412397265 0.198608458 0.552941084
0.535104334 0.221632093 0.573560834
0.675015867 0.250727415 0.606198370
0.001644712 0.252878278 0.546742439
0.002403711 0.250221461 0.546868861
0.011511734 0.256040275 0.539405227
0.189500272 0.259582639 0.556356847
0.316129267 0.273877293 0.570019245
0.431751937 0.292346716 0.580139041
0.563693941 0.320176989 0.600126565
0.713851810 0.358886808 0.635041237
0.000000000 0.391524076 0.581657469
0.002403808 0.393042266 0.587349594
0.000759100 0.389120668 0.589500308
0.154712245 0.386464030 0.595698714
0.324857444 0.396964073 0.606704712
0.457811475 0.414800465 0.621885002
0.597849786 0.444528759 0.638836503
0.741176307 0.488171905 0.668690562
0.004174544 0.546236694 0.635673702
0.002024260 0.550664246 0.637950838
0.058317475 0.552941322 0.640101016
0.229727909 0.554459453 0.646173418
0.375079095 0.567488730 0.654395819
0.508791506 0.575964928 0.667172730
0.644149244 0.600126505 0.683744311
0.780139327 0.640100956 0.714231491
0.176091075 0.707653522 0.690322876
0.212523386 0.702466786 0.688425124
0.289816618 0.708538532 0.692852795
0.380139112 0.716508567 0.702593207
0.489563555 0.726628542 0.717394114
0.597596765 0.741302967 0.727514267
0.712207556 0.764199853 0.750158131
0.826692045 0.784313679 0.775331855
0.474635929 0.861733317 0.767741621
0.497280359 0.860467792 0.781277418
0.530170798 0.860974193 0.781783402
0.569259882 0.870335519 0.785958290
0.637191534 0.872738838 0.794686794
0.712586761 0.880202413 0.802530050
0.800252616 0.890322506 0.823782563
0.885641575 0.900189340 0.840607047
0.001265167 0.052245170 0.711827695
0.001644715 0.054395728 0.713851571
0.083871208 0.053004265 0.718026459
0.234788090 0.053131178 0.723592401
0.353700161 0.058697179 0.729032218
0.474509716 0.072485738 0.737254620
0.600126505 0.108412161 0.744465590
0.731435716 0.167741612 0.760151625
0.000379548 0.098671697 0.711574793
0.001265167 0.092093542 0.715623140
0.053510230 0.095635898 0.711069047
0.221632183 0.097153701 0.723466039
0.362049013 0.100569345 0.729791164
0.478937268 0.125616729 0.743579865
0.607463479 0.155217916 0.757874668
0.746742249 0.202150598 0.774825990
0.000000001 0.168627113 0.725743294
0.001265167 0.170271635 0.729664385
0.004174837 0.170778006 0.731435716
0.202529833 0.176217377 0.730550408
0.344212443 0.186843827 0.736875415
0.479822576 0.204301089 0.752814531
0.613409221 0.234155625 0.765464664
0.751422763 0.280202359 0.780392170
0.001138644 0.264895618 0.737128437
0.004680705 0.265781015 0.739025712
0.000379548 0.269576013 0.746742308
0.169892490 0.277672440 0.757115602
0.340923667 0.298798352 0.756862581
0.486906946 0.316129088 0.767235696
0.626565397 0.344592094 0.776976526
0.767109513 0.393801063 0.790385962
0.003035997 0.415180176 0.753953159
0.005060354 0.408728570 0.766350567
0.002783166 0.405818999 0.765464664
0.070334941 0.405059993 0.769133449
0.327134669 0.425553530 0.770777941
0.497280002 0.447564930 0.786464274
0.645793736 0.477419257 0.791650772
0.780139148 0.517899990 0.807716608
0.000000000 0.587982357 0.787729561
0.000000000 0.588235080 0.793042481
0.048070841 0.583175421 0.791144669
0.221631899 0.583554626 0.794560373
0.364579111 0.583554804 0.794433713
0.522580504 0.597217023 0.801644444
0.669070244 0.621505380 0.819481015
0.801770568 0.649082601 0.825806320
0.269576371 0.747754514 0.827956915
0.298418611 0.747121632 0.825680017
0.348134041 0.744465530 0.827577472
0.420113713 0.746615887 0.827197909
0.509044766 0.753067911 0.835546792
0.609234393 0.758633673 0.838203669
0.722707570 0.768247843 0.850347996
0.844908476 0.796078384 0.858950019
0.508285522 0.873750806 0.858064413
0.512586713 0.874636173 0.869955838
0.541176200 0.877672493 0.866540372
0.589879811 0.875015616 0.869955599
0.641112983 0.881720245 0.873371542
0.720556557 0.889943063 0.878431380
0.804047883 0.896900296 0.888171554
0.890701950 0.908918619 0.903731763
