Assets/Resources/EldamarStudio/100 Horror LUTs Pack/LUTs/cube/Ghoulcinder LUT.cube
DOMAIN_MIN 0 0 0
DOMAIN_MAX 1 1 1
LUT_3D_SIZE 32
0.047059000 0.043136999 0.023529001
0.047059000 0.043136999 0.023529001
0.047059000 0.043136999 0.023529001
0.052118998 0.045667000 0.023529001
0.065401547 0.052118547 0.025047095
0.086653933 0.061226934 0.037191868
0.110436641 0.067805000 0.044275999
0.133080706 0.068943709 0.047059000
0.154333100 0.066666998 0.048576999
0.175585493 0.066666998 0.054648999
0.208475858 0.066666998 0.054901998
0.233776242 0.062619001 0.052877743
0.256166995 0.059962351 0.048703004
0.280708015 0.062998027 0.042884033
0.308032393 0.066034414 0.039848424
0.340164393 0.069070190 0.044022996
0.370525181 0.075142190 0.050094996
0.399114519 0.084250569 0.055534579
0.432511002 0.093358979 0.058570981
0.463124752 0.102466650 0.069956012
0.501075447 0.107779734 0.076407261
0.542568088 0.112840123 0.080455258
0.582415998 0.121948473 0.086780980
0.630992770 0.131056100 0.098925002
0.677292824 0.137887001 0.106514998
0.724225283 0.145350665 0.112586990
0.773308218 0.154459074 0.119165063
0.824921250 0.163567454 0.128273442
0.871220767 0.177988812 0.142694801
0.920303524 0.193169177 0.156103969
0.966603577 0.209234968 0.171789974
1.000000000 0.227450997 0.196078002
0.053130999 0.043136999 0.017457001
0.037950613 0.043136999 0.023529001
0.048703384 0.043136999 0.019228000
0.058190998 0.045667000 0.021252159
0.071473546 0.052118547 0.028083384
0.092725933 0.061226934 0.040227480
0.111448638 0.067805000 0.044781934
0.133080706 0.072232708 0.047059000
0.155092001 0.071979903 0.048576996
0.178621113 0.069702610 0.054648995
0.202783361 0.072612479 0.051992130
0.229727983 0.072738998 0.047817618
0.255407900 0.070968002 0.044907998
0.283997476 0.071853384 0.042884033
0.314105183 0.072106414 0.039848424
0.336622566 0.077545993 0.044022996
0.369006991 0.084250577 0.050094996
0.400885314 0.092726380 0.056166992
0.429475397 0.099430978 0.061606593
0.468437761 0.108538650 0.070208974
0.503352463 0.115749478 0.076407261
0.543580234 0.119924255 0.081467129
0.585452378 0.125237107 0.089943103
0.634029210 0.140164495 0.104996994
0.682605922 0.144718677 0.112586990
0.728905559 0.152814761 0.118658982
0.775331795 0.164073393 0.125237063
0.821884871 0.175711453 0.134345442
0.870841205 0.184819818 0.146109968
0.916761577 0.199241176 0.159139574
0.960531533 0.216192588 0.172169209
0.993928015 0.236559391 0.190006003
0.054901998 0.049588773 0.019987000
0.048323613 0.053889770 0.023908775
0.048197545 0.051739547 0.025679775
0.062112771 0.053004384 0.027197771
0.074636318 0.058949772 0.035293996
0.092346705 0.069828935 0.036811996
0.115369864 0.072106004 0.037065323
0.135230929 0.076533712 0.043390285
0.158001319 0.078811005 0.045667324
0.183681011 0.077166297 0.050347999
0.205818966 0.079949640 0.051992130
0.228083476 0.080961771 0.048956260
0.255660921 0.082100123 0.045287773
0.286274761 0.083365031 0.045034740
0.310942262 0.085262775 0.041998651
0.338393778 0.090069771 0.041872222
0.365718186 0.096141770 0.049462415
0.400252879 0.104617566 0.056166992
0.429095954 0.112207785 0.062239014
0.465401620 0.118912198 0.071094364
0.501075447 0.124224804 0.074510001
0.539279282 0.132068470 0.080328770
0.582163453 0.138773024 0.090575501
0.632764041 0.149904922 0.101707906
0.681340754 0.158127502 0.112207219
0.731309175 0.162555560 0.119670883
0.778367937 0.173181772 0.127513990
0.823909044 0.185325757 0.138266668
0.867805362 0.192662820 0.145730749
0.916382134 0.210626379 0.164958701
0.958760560 0.229601741 0.175964370
0.992156982 0.252119005 0.186084777
0.058697160 0.062491998 0.029854160
0.054395936 0.067299157 0.029095385
0.059076387 0.066919610 0.029980998
0.063883997 0.066413999 0.028716162
0.077166550 0.069829158 0.039342161
0.094117932 0.080202162 0.035041165
0.115623154 0.084756166 0.037824322
0.139531687 0.085135706 0.037571445
0.160784096 0.088172093 0.045161061
0.187096506 0.088678166 0.048197325
0.207337022 0.090322867 0.048703291
0.231119409 0.092599832 0.047691099
0.253510147 0.093738474 0.045793839
0.286021680 0.096774131 0.045540873
0.309297562 0.099810250 0.042504746
0.335357398 0.103984989 0.044402160
0.363188177 0.111322150 0.048956349
0.395951957 0.117394149 0.058064569
0.426312655 0.125869974 0.064769015
0.462238997 0.132195011 0.073624365
0.500569046 0.136369586 0.078305162
0.537002087 0.141429186 0.081341028
0.579633355 0.153320849 0.092978992
0.628969073 0.163567424 0.100948751
0.677039564 0.170398325 0.106261700
0.727007985 0.179000333 0.117899656
0.778115094 0.185072988 0.126501992
0.824415088 0.195698991 0.137127995
0.871094584 0.205059990 0.147754505
0.913346171 0.219228387 0.159392759
0.958381057 0.241745979 0.183681026
0.992156982 0.265275002 0.189374000
0.067046449 0.081087545 0.042757548
0.062112998 0.083364934 0.037444547
0.065654770 0.082479320 0.034914549
0.073750705 0.081973158 0.034788162
0.077166550 0.084629998 0.031752452
0.098418936 0.090701997 0.031752452
0.119291767 0.096773997 0.040734001
0.142188534 0.099556997 0.046300001
0.165717646 0.100316092 0.046679452
0.186970040 0.103352480 0.049715064
0.206072181 0.104617544 0.048070870
0.229981244 0.105882280 0.045034744
0.255787551 0.108538635 0.042378001
0.279822588 0.112081029 0.042884000
0.306893945 0.115369670 0.040227875
0.334598303 0.118785352 0.044781994
0.361923188 0.124478191 0.051233642
0.389879972 0.132574528 0.060721409
0.420240045 0.138646558 0.069829047
0.456546307 0.144718558 0.079316914
0.496774018 0.149652287 0.084630191
0.539278805 0.153953418 0.089690410
0.581910014 0.163187534 0.098671541
0.627451181 0.175332263 0.104743548
0.673371255 0.183681548 0.107400090
0.722074389 0.191777527 0.113219194
0.773181677 0.203289092 0.127260998
0.821758389 0.209361091 0.133332998
0.871853411 0.220746070 0.146236345
0.917141080 0.236052945 0.160404503
0.956483185 0.253890067 0.175711185
0.992915988 0.272106111 0.200000003
0.070082061 0.102339931 0.039721936
0.073118448 0.099304318 0.039721936
0.072485998 0.099430934 0.034408938
0.080329098 0.100189708 0.034408934
0.092346929 0.102845997 0.037824452
0.098418936 0.102845997 0.034788065
0.117140993 0.108917996 0.037318386
0.139152467 0.111700997 0.040228002
0.162682042 0.112460092 0.040228002
0.183934435 0.115496486 0.040607456
0.208095923 0.124351867 0.046552937
0.231372565 0.123845674 0.045034744
0.255028635 0.122959927 0.040860001
0.276786953 0.124225028 0.036812000
0.298039317 0.133333415 0.042883992
0.327513903 0.139025867 0.049841862
0.355850697 0.144591928 0.053889997
0.383807987 0.150537580 0.057938050
0.414168060 0.153826952 0.069829047
0.452878088 0.159898952 0.081720717
0.493738383 0.167868674 0.087666191
0.536243200 0.173940793 0.092726186
0.578874350 0.178367913 0.101707928
0.624414861 0.190511942 0.107779935
0.672232568 0.202656642 0.116129220
0.723086238 0.211005926 0.122327857
0.776217341 0.218595996 0.130423874
0.824794769 0.227577865 0.139404997
0.868058562 0.238962844 0.145477667
0.913852096 0.252878040 0.160151884
0.957495153 0.268564522 0.178241521
0.998987973 0.284250855 0.200000003
0.075648002 0.118532315 0.039216001
0.078684390 0.120556697 0.041745678
0.086021774 0.121821545 0.039595451
0.092220314 0.120936155 0.037697837
0.104996994 0.121062636 0.042125225
0.111069001 0.121062636 0.043390386
0.122200996 0.121062636 0.040353999
0.140417412 0.125489935 0.043390386
0.161417007 0.127134413 0.045034900
0.180898175 0.130170807 0.046805672
0.202529997 0.139026195 0.037444677
0.226818502 0.140038058 0.039468680
0.251107007 0.140417323 0.040353999
0.273750722 0.143706322 0.040859997
0.295003057 0.150537416 0.046931997
0.323466271 0.154838815 0.053004608
0.353826702 0.162302509 0.061986122
0.382795960 0.169386625 0.065021999
0.413156033 0.174320295 0.069576018
0.444275767 0.180139318 0.081720717
0.487539381 0.186211318 0.090069994
0.530676603 0.194687128 0.095762186
0.573434353 0.201012120 0.104870178
0.621379256 0.210752323 0.113346003
0.666919589 0.218342885 0.117141284
0.719417930 0.228589624 0.127134979
0.774193406 0.236812130 0.135483995
0.822770417 0.247944757 0.142567858
0.868564606 0.259709299 0.151549667
0.912840068 0.273624510 0.162935182
0.955724180 0.290575892 0.175964698
0.994939983 0.309045315 0.187349677
0.080075711 0.133712694 0.037571292
0.086401090 0.138393387 0.037318327
0.092093773 0.141429633 0.049209476
0.101201832 0.140670419 0.042378381
0.111448288 0.137634695 0.041618999
0.114990287 0.137634695 0.038330231
0.129411712 0.139278993 0.049462382
0.141555697 0.139278978 0.043136999
0.159772485 0.142314792 0.045414291
0.177988723 0.145351186 0.047564518
0.197469875 0.149272874 0.044275705
0.219101802 0.153573737 0.038582996
0.244528934 0.155091643 0.040859994
0.269576013 0.161416739 0.047185030
0.293611377 0.166097403 0.054648697
0.317140877 0.171410516 0.055787608
0.347501665 0.177482516 0.060341805
0.379127413 0.185958430 0.069828987
0.411511749 0.192030713 0.073877014
0.445161432 0.198102713 0.083365008
0.483364701 0.207463697 0.093358994
0.527893245 0.214547828 0.098418869
0.570777476 0.223656178 0.106134988
0.620872915 0.232763797 0.113725193
0.668817222 0.239595264 0.116634868
0.717140913 0.248450682 0.122454241
0.773308218 0.257811487 0.134345293
0.823023558 0.268817604 0.142694280
0.868943751 0.279316962 0.151423112
0.912840068 0.291587442 0.160784483
0.957495153 0.307653457 0.179506868
0.995445967 0.328146994 0.188614696
0.083871000 0.150411099 0.038330000
0.091461390 0.154205993 0.036053285
0.101454996 0.157368675 0.046426773
0.106514931 0.159646109 0.056040771
0.115622640 0.153194547 0.045034546
0.116761193 0.152056009 0.034028996
0.129664540 0.156103879 0.046679314
0.143074095 0.157495201 0.050727393
0.157495201 0.156736091 0.044654999
0.175711975 0.159772485 0.044655003
0.194687098 0.161417007 0.047564872
0.214927346 0.162681833 0.047311839
0.238456726 0.166476741 0.047691092
0.265528083 0.175585046 0.053510129
0.292346388 0.179633319 0.061606508
0.317140877 0.185831994 0.064136706
0.342188358 0.192662895 0.064895995
0.371284127 0.201138079 0.066666618
0.407211006 0.207210869 0.078178115
0.445161760 0.214801103 0.089057460
0.484630078 0.224668086 0.096647635
0.527893245 0.235041112 0.102972873
0.570777476 0.244275972 0.106134988
0.622390747 0.254016191 0.112207003
0.671726525 0.261606544 0.115243189
0.723212957 0.271221042 0.120176755
0.773308158 0.282353073 0.128779083
0.824162185 0.291208446 0.140417084
0.871979833 0.301075250 0.152181819
0.918026328 0.311954230 0.159013107
0.957495153 0.325869262 0.171157584
1.000000000 0.344086081 0.198482007
0.089943007 0.171663493 0.050474007
0.092979394 0.168627098 0.050473999
0.107020997 0.168121010 0.054649062
0.117141001 0.170777842 0.057558835
0.118659034 0.174446940 0.054142930
0.127767414 0.165338576 0.051106550
0.136495635 0.171790332 0.057811316
0.144338936 0.175711975 0.055914003
0.154459581 0.174952880 0.047691394
0.175711975 0.171916500 0.050727010
0.196837872 0.177862003 0.053636875
0.217963740 0.179633006 0.054648999
0.241493121 0.180898145 0.056799479
0.268564492 0.184693456 0.062618524
0.292852461 0.193801075 0.065654904
0.322074592 0.202656344 0.073750675
0.350537688 0.210120007 0.080834903
0.377356142 0.216318488 0.084883392
0.401645005 0.222390518 0.081847027
0.443137735 0.234029248 0.096141852
0.483491719 0.245920479 0.103478737
0.525110602 0.256040484 0.105755515
0.570777476 0.262491971 0.106134996
0.622390747 0.274636000 0.112207010
0.671726525 0.284376770 0.118279576
0.724477947 0.296141654 0.126881942
0.779380083 0.309677482 0.137887478
0.821884811 0.315749526 0.143959478
0.872738957 0.327261001 0.160910442
0.924098551 0.339278936 0.168120995
0.969133198 0.353194475 0.173813716
1.000000000 0.371410489 0.192410007
0.096014999 0.187096864 0.056799740
0.101960510 0.186970353 0.045161001
0.102846123 0.192536503 0.049462002
0.116508454 0.191018447 0.053004261
0.127134860 0.188868001 0.052751224
0.133712918 0.192409948 0.057305802
0.137760669 0.188361555 0.054269418
0.152687699 0.191018134 0.060214996
0.165844217 0.191018134 0.057938095
0.178494617 0.190132514 0.056673259
0.193928003 0.192915857 0.056799743
0.215180382 0.192915604 0.055787615
0.237571403 0.195445642 0.059455995
0.262619019 0.202277005 0.068817027
0.284250855 0.208728448 0.071853414
0.313345850 0.215432867 0.079696797
0.345224321 0.225553393 0.081214361
0.375964254 0.235673726 0.082985401
0.404807121 0.246299744 0.091334909
0.440227866 0.252371728 0.096647881
0.480581880 0.262365729 0.105755992
0.523086429 0.273497850 0.110815868
0.570524514 0.283617854 0.114737377
0.616571724 0.295761883 0.118026748
0.672738791 0.305629164 0.121821448
0.723213136 0.316128850 0.130044103
0.775332212 0.329285115 0.141176254
0.825047672 0.340164751 0.147248864
0.872865438 0.351549745 0.153320864
0.920683086 0.365464896 0.168754056
0.965591192 0.377862245 0.180645317
1.000000000 0.390005976 0.200885877
0.106134996 0.208348989 0.062871993
0.112207510 0.206325248 0.056799471
0.111954249 0.206704766 0.055534504
0.114484251 0.213282824 0.059076510
0.130044281 0.208348989 0.059076510
0.144338995 0.211131990 0.061859868
0.149904937 0.211637929 0.064389668
0.156229958 0.208601967 0.059708990
0.174446359 0.208981410 0.062744997
0.186084747 0.210246250 0.060974225
0.198987871 0.213156119 0.064895734
0.216192514 0.212143987 0.064895734
0.237444893 0.212523535 0.061859637
0.260595024 0.220493510 0.069576256
0.281847388 0.226565495 0.077925414
0.314357966 0.232637495 0.081720799
0.343200177 0.241745487 0.089310996
0.374952137 0.253257573 0.087159932
0.405312985 0.264010280 0.095129684
0.441239744 0.274636269 0.103732005
0.481467456 0.282606006 0.104111254
0.523086369 0.290702254 0.107779741
0.570650995 0.300948739 0.111954249
0.618089974 0.314990520 0.118785650
0.672738552 0.328905791 0.127893701
0.724857688 0.342188478 0.132320970
0.772296071 0.355091572 0.142188132
0.820872724 0.365718156 0.148260891
0.871853352 0.379886478 0.160404727
0.918659329 0.390259266 0.168247938
0.962428868 0.404933572 0.182922333
1.000000000 0.416318506 0.201897740
0.117140643 0.232637286 0.070082352
0.122074768 0.229601368 0.068184607
0.126249224 0.229854628 0.067172773
0.128146648 0.229981124 0.070082352
0.134218633 0.232257739 0.069323353
0.151675940 0.231498629 0.067805350
0.160277992 0.232637286 0.070335321
0.169133350 0.230992705 0.070714645
0.179759741 0.229475081 0.066160642
0.194940150 0.232510805 0.066160649
0.208348989 0.235547140 0.074256636
0.223402858 0.234535024 0.075142287
0.241619632 0.232637271 0.075142287
0.262366027 0.238457024 0.071853571
0.281847388 0.243643627 0.078684345
0.312839985 0.250853986 0.087033808
0.345856816 0.259962291 0.088172354
0.374446183 0.272106260 0.094876923
0.405312985 0.281720608 0.098924689
0.442378402 0.292473018 0.106388360
0.484883100 0.303858399 0.109044902
0.527387917 0.313978642 0.109044641
0.572928250 0.320683122 0.109424151
0.621505618 0.335863560 0.116508543
0.673497856 0.351043910 0.124477983
0.729031920 0.366477251 0.133838981
0.775585175 0.383681267 0.141429067
0.822390676 0.393422067 0.149399251
0.869829059 0.406704813 0.161163777
0.916761577 0.420620024 0.175078839
0.960531592 0.430613250 0.188614607
1.000000000 0.445540637 0.204553992
0.127261028 0.256926060 0.079190031
0.129285350 0.253889650 0.079443067
0.136875287 0.255407780 0.076786771
0.145224199 0.257179022 0.076786906
0.153953046 0.257305533 0.078684069
0.160025045 0.254269153 0.072612070
0.166603029 0.255787343 0.074636318
0.176217407 0.255534410 0.076281033
0.188868061 0.253763139 0.075521998
0.204048470 0.256799549 0.075522006
0.219734162 0.259835869 0.086401023
0.234661311 0.259076744 0.088931225
0.250727266 0.257432073 0.087033965
0.268944025 0.257432044 0.087286994
0.284124404 0.260468423 0.081214234
0.310309976 0.267805219 0.088045605
0.340417355 0.278178394 0.093358845
0.371916562 0.290069997 0.093105562
0.405313045 0.302214026 0.102213971
0.444023103 0.311827719 0.107779972
0.488678396 0.323086500 0.110309996
0.535231233 0.335484058 0.111827999
0.578115404 0.347881019 0.117899992
0.626818776 0.363187939 0.121062875
0.675901473 0.378115267 0.124098733
0.727514207 0.393801659 0.129285038
0.781151175 0.408476055 0.135863066
0.832764268 0.420620054 0.151043445
0.876154602 0.432511002 0.161416829
0.919165313 0.446679235 0.173561186
0.960278571 0.460721016 0.190891966
0.999746978 0.472865045 0.215179995
0.148513407 0.281214803 0.088298410
0.139405012 0.278178424 0.091334797
0.147881120 0.281593800 0.085136056
0.154332832 0.284503400 0.084883161
0.156989425 0.284882933 0.090828829
0.163061425 0.287666291 0.084756829
0.174193412 0.284629911 0.091334499
0.186717108 0.282859117 0.095888689
0.200505987 0.280582219 0.095256299
0.213156074 0.281088293 0.087665990
0.234155446 0.284123927 0.090575859
0.248070911 0.285135984 0.095509157
0.261986166 0.285642028 0.096141569
0.278051645 0.287792802 0.096394598
0.296268404 0.287792802 0.099430993
0.313851982 0.290828586 0.093358830
0.339152187 0.298165560 0.097153999
0.369639277 0.307906538 0.102593392
0.408349454 0.317394435 0.114357948
0.444529176 0.329538435 0.112333633
0.485388964 0.342947543 0.114990316
0.529158413 0.357495517 0.116381995
0.572042644 0.372169793 0.117899992
0.623655915 0.390385807 0.123971999
0.676913142 0.403415412 0.127134860
0.731688559 0.420366615 0.135737062
0.786717176 0.438836098 0.146995768
0.832764268 0.450980812 0.151043445
0.873750746 0.460467964 0.166223809
0.919164896 0.475521803 0.176597193
0.962049186 0.490449190 0.189626977
0.996710598 0.500189424 0.209108010
0.155344814 0.312713802 0.095002994
0.151043415 0.307274193 0.098039381
0.156988800 0.304237813 0.090322994
0.169133499 0.308285952 0.089816809
0.173308238 0.310183585 0.097786449
0.173308000 0.315243721 0.089690186
0.191650793 0.315623283 0.093864672
0.202150494 0.314231604 0.099683709
0.216571793 0.311954707 0.101961002
0.232004806 0.310309976 0.097786315
0.245667472 0.313219726 0.097912863
0.260847569 0.314231604 0.096900739
0.275268972 0.314231604 0.100315996
0.291713804 0.315749794 0.102845997
0.307779819 0.315749794 0.103731602
0.325995982 0.318152964 0.106767997
0.345730186 0.319670767 0.103731990
0.372548699 0.326755136 0.106135421
0.408475965 0.337634772 0.109424204
0.449968755 0.351929009 0.117267445
0.490196466 0.364073455 0.116128802
0.534724891 0.380771905 0.119670995
0.580392063 0.398735285 0.122580506
0.632004738 0.414674580 0.126375809
0.679063857 0.428336591 0.127893806
0.731941760 0.444655240 0.132194981
0.785072923 0.464389592 0.143327266
0.828716278 0.476533890 0.150158346
0.871347547 0.493231922 0.163819999
0.917899907 0.505881965 0.175458387
0.963567197 0.519923985 0.190765366
0.998481810 0.527513802 0.215053797
0.162934989 0.343074203 0.101074994
0.162934989 0.340038180 0.108665571
0.169133186 0.337634593 0.102466993
0.180012345 0.335863382 0.096647829
0.191145003 0.339026183 0.106514804
0.191524237 0.345098197 0.100822054
0.201138318 0.344592005 0.101327993
0.220366895 0.343074203 0.102719702
0.230234176 0.343833119 0.104996994
0.246932194 0.342314690 0.104996994
0.257811725 0.342062056 0.103478804
0.276027948 0.346110195 0.106008738
0.288171977 0.346110195 0.102972642
0.305629045 0.346110195 0.107400186
0.322074592 0.346110195 0.107400186
0.341176391 0.348513752 0.108285800
0.362428367 0.351549357 0.115875989
0.383680731 0.352181941 0.113978423
0.413535774 0.361670136 0.109171033
0.450727731 0.373560846 0.112713173
0.496268451 0.391397476 0.119165190
0.540797234 0.404554129 0.120177060
0.589247465 0.424667984 0.125363514
0.638076901 0.441240102 0.125616908
0.689690053 0.457179189 0.129411995
0.736622453 0.469323188 0.134977981
0.787097037 0.489690125 0.141809061
0.830613613 0.503858328 0.150917441
0.873118401 0.521315336 0.163820311
0.919418097 0.536242306 0.181530386
0.964832187 0.552308381 0.193295151
1.000000000 0.560910583 0.221125796
0.173181579 0.372928530 0.107146986
0.178747788 0.373561114 0.117394194
0.186084792 0.372296125 0.117014788
0.193927735 0.372928530 0.112966403
0.203415573 0.372928530 0.115622565
0.209993571 0.378494531 0.115622565
0.215433136 0.376976401 0.114357576
0.228083402 0.375205249 0.113345698
0.246046975 0.374320030 0.111701563
0.258190960 0.377355635 0.111701563
0.268690825 0.374572992 0.108791694
0.287286520 0.376344115 0.111195147
0.308285713 0.380139112 0.114484213
0.320935726 0.380645126 0.111954533
0.339152366 0.381404102 0.112333976
0.359139740 0.383175343 0.112333983
0.380645126 0.386211514 0.115243576
0.404933095 0.387982100 0.124857582
0.426185548 0.391018510 0.115749180
0.456673056 0.399620354 0.115622565
0.497659862 0.414420873 0.116887905
0.546236634 0.434914261 0.122580871
0.594686925 0.450221092 0.125363514
0.640227497 0.468437791 0.122327901
0.691967130 0.486654103 0.126122996
0.745098233 0.503352106 0.134977981
0.793169022 0.514990211 0.147121996
0.838709414 0.532827377 0.156356871
0.880961180 0.550411105 0.167488977
0.926375329 0.565085113 0.185578749
0.969639182 0.579000175 0.205312967
1.000000000 0.597216964 0.223528996
0.176217988 0.412397027 0.113219008
0.191397592 0.415433407 0.116255395
0.201264814 0.411765009 0.120050810
0.207843155 0.409993827 0.122074805
0.212523997 0.412397027 0.124730960
0.224667996 0.412397027 0.124730960
0.228716314 0.410373360 0.119670972
0.240227953 0.410626262 0.117393978
0.258444011 0.413915008 0.117900103
0.276407003 0.419860512 0.120809972
0.291460872 0.417077869 0.117900103
0.310183287 0.416065991 0.118912227
0.330550283 0.416571975 0.121062934
0.348260939 0.417078018 0.121062942
0.366476893 0.423150003 0.124098539
0.384692967 0.423909009 0.124478005
0.403162420 0.425680220 0.122960210
0.423149914 0.427451372 0.121821977
0.447438002 0.424415022 0.121821977
0.471473724 0.433017373 0.123845585
0.506008744 0.444022954 0.120935977
0.549272299 0.459962130 0.119924039
0.597722530 0.480581939 0.125363529
0.643263757 0.498798013 0.122327909
0.693358779 0.517014623 0.126122996
0.746616244 0.535230994 0.134977981
0.799241066 0.551423073 0.147121996
0.844781399 0.560531437 0.159265995
0.885009468 0.575711846 0.168500870
0.928273082 0.589373946 0.186717391
0.969639182 0.603289008 0.208096340
1.000000000 0.621505082 0.223529011
0.201518372 0.454648733 0.119291715
0.205565974 0.457685143 0.122327387
0.216445133 0.458570749 0.123213001
0.225553527 0.456293762 0.125616804
0.232384816 0.457052559 0.128273353
0.242125005 0.454648733 0.128273353
0.249209642 0.454648733 0.125743032
0.259076655 0.455155075 0.123213001
0.275395095 0.458191007 0.123213001
0.291587353 0.462238729 0.124225125
0.312460244 0.462365270 0.121442489
0.329664886 0.461353362 0.120430358
0.351296693 0.462492049 0.122707352
0.372296005 0.464389771 0.124604672
0.385451972 0.467932075 0.127640933
0.410879403 0.471600294 0.130676553
0.430234045 0.471979737 0.128020003
0.449715495 0.473118365 0.123719230
0.474004120 0.472232759 0.121569008
0.501075447 0.477545738 0.127135009
0.527261436 0.482859105 0.126375616
0.564199984 0.492346764 0.125236988
0.609108210 0.508159399 0.130929530
0.654648721 0.526375353 0.127893895
0.702466488 0.546868622 0.131689012
0.752181947 0.564199686 0.139152676
0.802529812 0.580518425 0.149905354
0.848070800 0.594180822 0.162049353
0.893611133 0.608602226 0.179506317
0.935103953 0.623782575 0.196078166
0.972548604 0.637824297 0.217583850
0.997216642 0.654143095 0.234661713
0.217457250 0.504743457 0.129158989
0.224288344 0.503984869 0.122707359
0.227830499 0.502972722 0.131182730
0.235673726 0.505502760 0.128652737
0.244528994 0.505629301 0.129032448
0.255154788 0.499557257 0.127514258
0.267425627 0.504743457 0.123086683
0.283364952 0.503099144 0.121695004
0.297785819 0.505629361 0.124730997
0.310689211 0.508664966 0.129284993
0.331688613 0.510689199 0.128273129
0.350917250 0.510689199 0.123466253
0.369133741 0.510689199 0.124604896
0.392156750 0.512966454 0.127640694
0.412523448 0.516002834 0.130676672
0.430993140 0.517141402 0.128020197
0.456799716 0.520177007 0.129538000
0.478304833 0.521821439 0.125489995
0.505123675 0.524351418 0.123719230
0.532195091 0.528020203 0.127135009
0.557621717 0.530297220 0.129411995
0.585958242 0.533333302 0.125363737
0.624668002 0.542820752 0.127640739
0.664895654 0.557495236 0.126375899
0.712713242 0.572295725 0.135863259
