Assets/Resources/EldamarStudio/100 Horror LUTs Pack/LUTs/cube/Ghoulcinder LUT.cube
LUT_3D_SIZE 8
DOMAIN_MIN 0.000000 0.000000 0.000000
DOMAIN_MAX 0.903226 0.903226 0.903226
0.047059000 0.043136999 0.023529001
0.065401547 0.052118547 0.025047095
0.154333100 0.066666998 0.048576999
0.256166995 0.059962351 0.048703004
0.370525181 0.075142190 0.050094996
0.501075447 0.107779734 0.076407261
0.677292824 0.137887001 0.106514998
0.871220767 0.177988812 0.142694801
0.067046449 0.081087545 0.042757548
0.077166550 0.084629998 0.031752452
0.165717646 0.100316092 0.046679452
0.255787551 0.108538635 0.042378001
0.361923188 0.124478191 0.051233642
0.496774018 0.149652287 0.084630191
0.673371255 0.183681548 0.107400090
0.871853411 0.220746070 0.146236345
0.083871000 0.150411099 0.038330000
0.115622640 0.153194547 0.045034546
0.157495201 0.156736091 0.044654999
0.238456726 0.166476741 0.047691092
0.342188358 0.192662895 0.064895995
0.484630078 0.224668086 0.096647635
0.671726525 0.261606544 0.115243189
0.871979833 0.301075250 0.152181819
0.117140643 0.232637286 0.070082352
0.134218633 0.232257739 0.069323353
0.179759741 0.229475081 0.066160642
0.241619632 0.232637271 0.075142287
0.345856816 0.259962291 0.088172354
0.484883100 0.303858399 0.109044902
0.673497856 0.351043910 0.124477983
0.869829059 0.406704813 0.161163777
0.162934989 0.343074203 0.101074994
0.191145003 0.339026183 0.106514804
0.230234176 0.343833119 0.104996994
0.288171977 0.346110195 0.102972642
0.362428367 0.351549357 0.115875989
0.496268451 0.391397476 0.119165190
0.689690053 0.457179189 0.129411995
0.873118401 0.521315336 0.163820311
0.217457250 0.504743457 0.129158989
0.244528994 0.505629301 0.129032448
0.297785819 0.505629361 0.124730997
0.369133741 0.510689199 0.124604896
0.456799716 0.520177007 0.129538000
0.557621717 0.530297220 0.129411995
0.712713242 0.572295725 0.135863259
0.896647513 0.640101254 0.182542697
0.329917550 0.714863539 0.140164286
0.346110106 0.715243101 0.143200576
0.400632471 0.717140794 0.149399176
0.481720209 0.720556498 0.155471280
0.569133580 0.725743532 0.157368898
0.672232985 0.723087013 0.159519091
0.782163084 0.739025533 0.163314551
0.913978279 0.764199615 0.215812653
0.540796518 0.896014929 0.263250917
0.554965079 0.899556994 0.281214118
0.582922339 0.896014929 0.283744454
0.635041237 0.900063097 0.288171917
0.706641078 0.906641245 0.300189942
0.786970437 0.907779574 0.307906419
0.873751044 0.912586868 0.340923280
0.962681532 0.914231598 0.356609374
0.059962451 0.067805447 0.049715545
0.084629998 0.063124545 0.052877549
0.153953537 0.072106004 0.070461996
0.211132541 0.095635898 0.085009545
0.310562730 0.113598995 0.106135540
0.447944373 0.137001798 0.134345353
0.632510781 0.162302107 0.162555560
0.844022810 0.193421692 0.187223092
0.076027997 0.079190098 0.050094996
0.084629998 0.091713995 0.049715549
0.133586556 0.103858449 0.079949096
0.204047725 0.118785448 0.084250547
0.305376202 0.139405206 0.102972537
0.447058678 0.167994753 0.134598091
0.629601240 0.196584284 0.158507258
0.847944260 0.231625348 0.191777274
0.104237996 0.131182641 0.080708191
0.122327901 0.133586556 0.079569548
0.135483995 0.140670553 0.084630094
0.204427183 0.154712439 0.090449445
0.305376172 0.185199440 0.111574635
0.447438121 0.218089744 0.143327087
0.640986800 0.259962261 0.162049294
0.853383660 0.307526976 0.192915618
0.131182551 0.209867179 0.094623983
0.149272650 0.214294747 0.107020542
0.178621083 0.216192186 0.105376445
0.226691738 0.220113993 0.106894448
0.317141086 0.247817725 0.122580543
0.454396009 0.290449142 0.149272636
0.646932185 0.348387182 0.166350454
0.853004217 0.401138425 0.191903993
0.182542995 0.323339373 0.133586347
0.191650748 0.324984193 0.135357350
0.225553393 0.322960049 0.131562188
0.281973302 0.331688821 0.141429439
0.348893046 0.335104376 0.140923381
0.471473902 0.379633367 0.152814806
0.669323444 0.448956102 0.167362362
0.869702935 0.517140985 0.200000018
0.229727715 0.483744264 0.156736284
0.247817829 0.489943177 0.160278365
0.295003235 0.491081804 0.153447092
0.361922801 0.498165697 0.159519464
0.445034713 0.506641269 0.162302107
0.543453395 0.515749454 0.161669537
0.697786272 0.567615271 0.169133276
0.888804495 0.641619086 0.217457160
0.335610539 0.703099549 0.178621113
0.358001083 0.701454818 0.183302000
0.399746954 0.700190008 0.182668909
0.473877072 0.704111099 0.186211273
0.559519410 0.712839901 0.189373881
0.661480069 0.716887832 0.191650987
0.773181379 0.728399813 0.201012075
0.901328444 0.758886516 0.236812249
0.548640192 0.896900296 0.297912449
0.567109406 0.891081512 0.306894422
0.592662811 0.889816284 0.307147294
0.640354156 0.898038805 0.313092887
0.710689306 0.900316119 0.324225098
0.791650593 0.905502617 0.333459675
0.870714962 0.911701560 0.357494950
0.964199901 0.912081003 0.383428395
0.072105996 0.078431003 0.137761086
0.112080991 0.078431003 0.134345546
0.165338203 0.083871000 0.129285097
0.211132541 0.100695640 0.128526002
0.295256078 0.125363901 0.150411084
0.409487545 0.158507243 0.182542890
0.579000652 0.186463997 0.219228283
0.808222353 0.224161804 0.251739323
0.102719903 0.111321993 0.108918093
0.116002090 0.101834089 0.098292448
0.142188534 0.109297641 0.102972642
0.198987991 0.125743449 0.119797282
0.280329078 0.153953448 0.148386747
0.396964192 0.187223181 0.180645257
0.574446440 0.215053543 0.213662192
0.804301202 0.253763378 0.250727385
0.120809905 0.131562173 0.097912900
0.135230541 0.144591659 0.103352100
0.176344097 0.166856200 0.137128100
0.206831083 0.167994648 0.132321194
0.277166277 0.191144899 0.156609997
0.401770979 0.225932732 0.190386102
0.583680868 0.263124377 0.222264290
0.817330599 0.318152934 0.252751261
0.145224631 0.208855450 0.138646185
0.167742014 0.206830993 0.139405191
0.194307089 0.211512089 0.150411099
0.220493540 0.216571733 0.142947555
0.291967273 0.238836184 0.170778006
0.417583704 0.282606184 0.193421990
0.605313301 0.342188388 0.218975455
0.830739796 0.406198442 0.256799459
0.189500183 0.305503070 0.181024998
0.213029996 0.300189853 0.180645540
0.238077179 0.306135297 0.183302075
0.278810978 0.310057074 0.182036623
0.331309378 0.318785280 0.189626902
0.444528580 0.360404819 0.207210630
0.640100896 0.435926676 0.228715986
0.851233482 0.513345778 0.265907824
0.256166995 0.463377565 0.212397188
0.270461828 0.463251472 0.215812534
0.301834404 0.469070077 0.216698438
0.361669451 0.470714808 0.215939447
0.435167521 0.482099533 0.216065854
0.523972154 0.492599815 0.220240191
0.681214273 0.553826928 0.234535009
0.877419472 0.635294199 0.279822826
0.370398551 0.688171804 0.244908273
0.378874123 0.686148047 0.248450533
0.421758443 0.692852557 0.249841794
0.487412840 0.694750130 0.248450547
0.567362547 0.700695693 0.248830095
0.664136589 0.708159089 0.256293654
0.763314426 0.717267513 0.265275389
0.896267951 0.757748067 0.305249780
0.587855518 0.887412667 0.358506858
0.592536330 0.888045549 0.362555593
0.617963254 0.885515451 0.363693833
0.665528238 0.890954912 0.371157676
0.726248920 0.893358588 0.375078768
0.800506175 0.899556994 0.392030239
0.873750865 0.904870152 0.415306926
0.958001554 0.912966430 0.436053306
0.099810347 0.077925645 0.239342630
0.139405191 0.082985289 0.228336632
0.193548203 0.094370544 0.218595996
0.238836274 0.106514998 0.198987991
0.309424400 0.130044192 0.200885624
0.416192085 0.162555248 0.232511267
0.581530511 0.192789003 0.270209014
0.796331227 0.242124781 0.310562819
0.125363901 0.132827550 0.195445642
0.147754639 0.122960187 0.193548203
0.182163432 0.135483995 0.185958624
0.222390980 0.138266638 0.178114831
0.288551629 0.159898907 0.195445836
0.406704724 0.190006539 0.228716075
0.576344132 0.223655730 0.270714819
0.787729383 0.276533812 0.313472539
0.146995544 0.170398563 0.188361645
0.161417082 0.169133291 0.177735180
0.182036638 0.182163551 0.168247998
0.217710182 0.176976383 0.169892177
0.282732397 0.202024087 0.195825294
0.391903907 0.233396560 0.228716180
0.561416924 0.282352835 0.271473825
0.783934116 0.339152098 0.320177078
0.168121636 0.210752994 0.174319640
0.182163343 0.213029996 0.178241640
0.215433210 0.228336543 0.190385997
0.283111632 0.274130255 0.223655641
0.311195612 0.268184602 0.224035189
0.401897728 0.296015352 0.244402379
0.576596797 0.344844937 0.278684288
0.796331227 0.422138065 0.322960109
0.225173727 0.297153741 0.215433285
0.231372520 0.302214086 0.219734639
0.265907645 0.314484656 0.229980722
0.302593619 0.322580397 0.236938834
0.344844788 0.324478030 0.236432374
0.438330263 0.363566905 0.256925881
0.615433097 0.433143884 0.288298577
0.825047195 0.520809770 0.339025974
0.287413061 0.448070705 0.261985809
0.299557537 0.450094461 0.262998343
0.333839029 0.449209541 0.267678469
0.376850009 0.457052559 0.264642388
0.432384700 0.464010268 0.268311620
0.510563195 0.478178352 0.279949635
0.664010048 0.543832898 0.299051166
0.860973954 0.637065172 0.350158215
0.407716572 0.661733150 0.313851655
0.416192293 0.665781081 0.313598633
0.451613009 0.667551875 0.311448187
0.505376577 0.671220899 0.314610958
0.573814213 0.680202544 0.320809573
0.657052398 0.691208005 0.326628804
0.753700078 0.700316250 0.334851265
0.886653900 0.749525428 0.373308152
0.613282740 0.878304958 0.426818401
0.625806570 0.874130309 0.438962400
0.649841905 0.878304839 0.438456386
0.692472816 0.880581975 0.446552902
0.742061734 0.884756565 0.453383774
0.809487641 0.888930738 0.468437493
0.878431082 0.899430871 0.485135764
0.957368612 0.906261802 0.504490614
0.165085375 0.116761386 0.338267177
0.197343186 0.120682992 0.331436098
0.246679291 0.128399894 0.314864069
0.308539093 0.140164196 0.303858191
0.361796170 0.155976996 0.290575385
0.439089268 0.170019180 0.286147714
0.602656722 0.196711004 0.332827210
0.815559626 0.255407989 0.378241390
0.182416081 0.165591642 0.302973002
0.198861375 0.166097090 0.302719653
0.243137524 0.173181370 0.295635760
0.294117749 0.175458372 0.289057285
0.345730633 0.180518642 0.276534170
0.417204440 0.195825383 0.285895169
0.595951915 0.229980916 0.332447827
0.808349192 0.286653966 0.380391836
0.196710989 0.213788897 0.274130285
0.218722180 0.216951087 0.271347523
0.234914273 0.220114082 0.260721177
0.277925372 0.220873192 0.261985719
0.326502353 0.219228074 0.256040275
0.405439556 0.243643194 0.275268823
0.583807588 0.283491492 0.326502174
0.801644564 0.354711890 0.379759640
0.212650448 0.269196630 0.261985838
0.229980841 0.267932057 0.263630539
0.260341644 0.268564254 0.260467827
0.299051166 0.279190451 0.265148640
0.340164602 0.285009176 0.261859804
0.425300211 0.313978374 0.292472810
0.588867903 0.363567024 0.333965898
0.791144729 0.444275707 0.389120847
0.240480989 0.321695179 0.259202987
0.251865745 0.320303261 0.268184841
0.282606065 0.332068294 0.265401483
0.345604002 0.356989354 0.284629822
0.458064556 0.416445374 0.329791397
0.499936730 0.416824788 0.329411834
0.621378958 0.459582359 0.351549566
0.811258376 0.542315006 0.412523836
0.310309708 0.451612651 0.303478926
0.322959810 0.448450357 0.305502892
0.361163795 0.458317786 0.315496266
0.417457312 0.473497659 0.321062267
0.482985586 0.489184171 0.339911163
0.543326855 0.495382488 0.337634176
0.675774753 0.557874560 0.369765937
0.850727320 0.645793796 0.431499094
0.442125350 0.657431841 0.377356052
0.455407858 0.657431901 0.372549087
0.496141553 0.659961939 0.385199279
0.543832719 0.663124800 0.386337727
0.599367797 0.674003839 0.390512377
0.668943703 0.680708110 0.396837533
0.748513639 0.690448940 0.406957626
0.884503126 0.753700376 0.469323248
0.658191085 0.864516079 0.514863908
0.664010227 0.863250911 0.514611185
0.680455327 0.868058205 0.519544601
0.713092625 0.871979952 0.527134418
0.756735981 0.876280785 0.533586383
0.818089724 0.885768533 0.547754526
0.877798736 0.894749761 0.566856503
0.949905217 0.901454747 0.580518603
0.258317471 0.160530984 0.459962189
0.283111930 0.159392729 0.450600922
0.335863471 0.167868733 0.442251474
0.401518345 0.172675744 0.430993021
0.478178471 0.182163253 0.415306896
0.547754467 0.191903993 0.401012182
0.635800004 0.204807028 0.399241179
0.839848220 0.268184632 0.459961802
0.256673187 0.207210734 0.427071691
0.286527485 0.205692545 0.422264010
0.328020275 0.209108084 0.423908800
0.393674672 0.211511791 0.414168239
0.460088462 0.214547887 0.398734987
0.537381172 0.221252531 0.392662734
0.623149931 0.236052930 0.394939810
0.827197909 0.297280133 0.450853646
0.265275359 0.277545840 0.394687086
0.287919164 0.270841300 0.386970013
0.321947932 0.272106320 0.387729228
0.377609104 0.271347433 0.385831445
0.444149196 0.274004072 0.385199368
0.509424567 0.277925372 0.378115267
0.612903118 0.296774089 0.390259087
0.825047493 0.372169644 0.459962100
0.288045466 0.333333462 0.378494829
0.303478658 0.337760717 0.372169614
0.335863292 0.337760746 0.370651603
0.381530613 0.337001622 0.367615730
0.435800374 0.342821062 0.363946468
0.501960874 0.345604032 0.359139442
0.607210517 0.372422367 0.384946346
0.813915133 0.461100280 0.458191067
0.306261718 0.409740716 0.362808198
0.321568549 0.407336980 0.371916354
0.361290216 0.410626113 0.366856605
0.410879374 0.417583734 0.368374527
0.479822665 0.432005167 0.375964701
0.535989583 0.439089388 0.375331908
0.653637052 0.485262662 0.412144005
0.827956915 0.568880618 0.480581641
0.358001202 0.481340468 0.369892716
0.365085006 0.483238220 0.372675270
0.395572335 0.486780435 0.375079066
0.455155015 0.500063360 0.379380107
0.540417373 0.532700717 0.400885284
0.665654421 0.608855247 0.459962219
0.726122737 0.619733989 0.468817174
0.855913699 0.679822624 0.528779387
0.468564272 0.658570349 0.442504704
0.475395352 0.660088599 0.433776200
0.514610946 0.660468161 0.443643361
0.572675467 0.664895475 0.450727254
0.645793855 0.683111846 0.472738743
0.706135273 0.699177742 0.491587460
0.767235756 0.702972531 0.496394992
0.887286484 0.769512892 0.566603363
0.662871659 0.869702756 0.585831523
0.681087852 0.867678881 0.595445812
0.699304342 0.865781188 0.595572114
0.739405215 0.867299438 0.614548028
0.785705149 0.869323313 0.630360365
0.832005382 0.873877585 0.636685610
0.882605612 0.886147797 0.655661106
0.945603609 0.896773994 0.673624337
0.340797275 0.229980990 0.634787798
0.366097748 0.224541277 0.627577841
0.419734359 0.232384369 0.623023272
0.498924553 0.236685634 0.613535523
0.588108540 0.243263751 0.604174733
0.676913023 0.255661249 0.597596049
0.768121302 0.272106260 0.577229857
0.861100852 0.292599738 0.573307812
0.353573740 0.270714551 0.610879242
0.379380018 0.267552078 0.610752344
0.422897100 0.272991866 0.606831253
0.496774167 0.277799070 0.599746943
0.580518723 0.284503520 0.592536271
0.675774574 0.290702015 0.583428264
0.761796534 0.301075280 0.567235649
0.850853801 0.320050746 0.562302113
0.374572724 0.344212472 0.593168855
0.397849202 0.349778652 0.594939709
0.432764173 0.352182388 0.588741541
0.500189543 0.353573650 0.580139160
0.584946394 0.359139562 0.572801948
0.667046368 0.363693953 0.565971136
0.753067672 0.373181641 0.561037540
0.846552432 0.389879763 0.558886647
0.407843202 0.444781929 0.556483209
0.425426841 0.440227628 0.557748020
0.464389741 0.440101087 0.555218220
0.519291580 0.443137199 0.549019456
0.586211145 0.446805745 0.548513532
0.661100388 0.450347900 0.545730472
0.739025831 0.454901904 0.538519919
0.837697625 0.481088012 0.557747900
0.444908321 0.522580445 0.549272537
0.457178980 0.525869489 0.536495924
0.497533262 0.530423462 0.542820990
0.548639834 0.533712506 0.538773000
0.605692565 0.537760794 0.536622584
0.667678475 0.540796936 0.537887275
0.735104561 0.542314947 0.531182528
0.842504621 0.581910253 0.574193716
0.491081536 0.614801049 0.551929235
0.501960814 0.617583573 0.546615958
0.533586264 0.614421248 0.547881246
0.581657171 0.617963135 0.539405107
0.646932483 0.628083289 0.543706656
0.706261754 0.639848292 0.546109974
0.767741859 0.645541012 0.556103826
0.870841384 0.698165834 0.612903118
0.539025545 0.693611860 0.563820124
0.539405048 0.699810565 0.544086099
0.571410656 0.698418617 0.553826571
0.617330849 0.696900845 0.554079533
0.679696441 0.706261635 0.561037540
0.749272704 0.732321501 0.590132833
0.835167527 0.782542825 0.652118504
0.905629456 0.808855057 0.691081524
0.678431451 0.866919875 0.677545667
0.685389042 0.868184984 0.682858586
0.708918452 0.863251209 0.684882820
0.747374952 0.869576156 0.695129812
0.795192897 0.873118520 0.709803700
0.847817659 0.881973326 0.733080149
0.888804495 0.890448809 0.752814472
0.944465160 0.901201785 0.773181438
0.435799927 0.357495427 0.849082708
0.454269469 0.362681568 0.843516648
0.510436594 0.370018840 0.843137145
0.574320316 0.380898207 0.842631400
0.663504124 0.400885373 0.834155202
0.757115722 0.421505392 0.828715801
0.851360023 0.448829681 0.827324271
0.942947447 0.475395381 0.821758211
0.461353779 0.400758952 0.833775997
0.481214613 0.405565679 0.834914446
0.517520607 0.410246670 0.837697864
0.589500427 0.419987381 0.833902538
0.668184698 0.433396399 0.831372559
0.756736577 0.450853944 0.825679660
0.851612628 0.472485691 0.817330658
0.947374940 0.496015131 0.812776625
0.513598800 0.485135943 0.827324510
0.523719132 0.493864238 0.822770238
0.560404718 0.495635569 0.830866396
0.620366752 0.501960576 0.823782384
0.693864703 0.511321783 0.819734275
0.771410465 0.525489748 0.816951156
0.856673062 0.539152443 0.814167976
0.936622500 0.555977166 0.815053344
0.576470554 0.590132713 0.811511755
0.590891659 0.589753151 0.808602154
0.616192102 0.591018319 0.810373127
0.660215020 0.595319629 0.809867024
0.717520535 0.599620402 0.806325197
0.781910181 0.603542209 0.800126314
0.854269266 0.611764431 0.804301023
0.927134514 0.617583752 0.799620211
0.618342638 0.673750639 0.806325197
0.635167360 0.675395310 0.808475375
0.664010108 0.679696321 0.801138103
0.701834023 0.683997393 0.801517904
0.738646388 0.682732224 0.797975779
0.794686496 0.688298643 0.797849298
0.858949900 0.691587567 0.792789042
0.926248908 0.696394563 0.794686735
0.658696771 0.749146104 0.815433383
0.669070065 0.749652147 0.812523544
0.690195858 0.753067553 0.808475614
0.732574165 0.758633494 0.806830943
0.771536946 0.766729772 0.797849178
0.822390676 0.768121481 0.800758839
0.876913130 0.767488778 0.801897466
0.927387595 0.773181379 0.796331108
0.698924899 0.824541509 0.812397063
0.700569332 0.828083158 0.819987059
0.718532681 0.825932562 0.812650025
0.756103575 0.831119478 0.817963362
0.793674767 0.832637668 0.810752511
0.841619074 0.834661841 0.811638117
0.888804495 0.841492772 0.815939188
0.932194889 0.846173346 0.815053761
0.730044365 0.902593434 0.833649337
0.739025891 0.906767845 0.837065101
0.759519517 0.903225839 0.833776176
0.785705209 0.901075244 0.838835835
0.822264552 0.898671746 0.838962376
0.866160691 0.903984725 0.834408462
0.911321938 0.910309613 0.849841595
0.959898651 0.929790735 0.880455434
