Assets/Resources/EldamarStudio/100 Horror LUTs Pack/LUTs/cube/Ghoulcinder LUT.cube
LUT_3D_SIZE 5
DOMAIN_MIN 0.000000 0.000000 0.000000
DOMAIN_MAX 0.903226 0.903226 0.903226
0.047059000 0.043136999 0.023529001
0.133080706 0.068943709 0.047059000
0.308032393 0.066034414 0.039848424
0.542568088 0.112840123 0.080455258
0.871220767 0.177988812 0.142694801
0.080075711 0.133712694 0.037571292
0.141555697 0.139278978 0.043136999
0.293611377 0.166097403 0.054648697
0.527893245 0.214547828 0.098418869
0.868943751 0.279316962 0.151423112
0.148513407 0.281214803 0.088298410
0.186717108 0.282859117 0.095888689
0.296268404 0.287792802 0.099430993
0.529158413 0.357495517 0.116381995
0.873750746 0.460467964 0.166223809
0.231625244 0.557368517 0.138266861
0.301581234 0.558760107 0.121694997
0.437697649 0.565591514 0.132700577
0.615306377 0.582922280 0.131435990
0.899936557 0.669449925 0.189373687
0.540796518 0.896014929 0.263250917
0.572042942 0.897027016 0.284756273
0.667299449 0.900569141 0.291587144
0.808728755 0.907779574 0.315496564
0.962681532 0.914231598 0.356609374
0.072865292 0.078431003 0.111195408
0.144844696 0.077799000 0.107273981
0.248829693 0.108538993 0.125237122
0.445414424 0.166350290 0.181783989
0.817077577 0.215559676 0.233775854
0.114737704 0.118658699 0.091840707
0.152055681 0.144844711 0.121947706
0.234788403 0.163187712 0.130170405
0.445540696 0.219101816 0.177229568
0.827197850 0.293105811 0.239341989
0.165717706 0.247564673 0.149145991
0.196837410 0.247185409 0.148133695
0.271094114 0.259962112 0.155344695
0.478557974 0.334598094 0.195572406
0.848703265 0.461859643 0.244655237
0.268817246 0.526122689 0.206325129
0.314737678 0.528020263 0.211891413
0.424667805 0.537507772 0.204680413
0.587222993 0.556103587 0.206324697
0.887539446 0.664895952 0.270208806
0.575711071 0.889436781 0.343073756
0.600252986 0.890069783 0.343453437
0.687286258 0.892726183 0.357748032
0.815939069 0.901834309 0.379127175
0.959013343 0.913978338 0.414547801
0.133459821 0.099430986 0.281847388
0.201770693 0.106894284 0.266792983
0.296268404 0.130802989 0.245287389
0.465528101 0.172675252 0.274003983
0.802023590 0.249336049 0.347375035
0.165464982 0.181151405 0.221378699
0.196204990 0.184440404 0.218469411
0.267172694 0.190639108 0.215812817
0.440986812 0.235167533 0.260341555
0.790006161 0.332068503 0.345350802
0.202782989 0.263630390 0.214547813
0.241998389 0.268437684 0.228589699
0.363061190 0.341429800 0.285895199
0.468437642 0.359772384 0.289437264
0.804680586 0.483618021 0.369133621
0.321568370 0.494623244 0.294370383
0.364958972 0.498924553 0.304111421
0.447185099 0.511954308 0.306388140
0.573814273 0.529032350 0.316887707
0.866666615 0.666287303 0.401138604
0.634788394 0.868564427 0.472612411
0.650980353 0.870208859 0.470967680
0.725490153 0.877039969 0.485641569
0.830992937 0.891840398 0.512586534
0.956736147 0.901834130 0.542061508
0.281594127 0.174699247 0.498418987
0.340164840 0.177229583 0.480455548
0.469070226 0.188362002 0.466413438
0.604427218 0.205060124 0.442505121
0.843896210 0.274003893 0.483491242
0.283491701 0.270208389 0.438456506
0.341176391 0.265527844 0.437318146
0.448197216 0.272106409 0.435040832
0.577482402 0.277672261 0.417078108
0.834408700 0.358254105 0.483491808
0.320936114 0.392536223 0.407590270
0.360784113 0.392536402 0.406451702
0.458697051 0.403036058 0.404300809
0.560151577 0.414168388 0.395825654
0.827197731 0.517267466 0.489057511
0.395446122 0.533965468 0.406325221
0.421378821 0.542694569 0.420619696
0.530297518 0.559013426 0.420619965
0.714231253 0.655408204 0.502467215
0.866540074 0.714990377 0.564705849
0.663124740 0.866666436 0.606324911
0.695762157 0.866287291 0.619101882
0.764326215 0.870588422 0.645034611
0.851233482 0.878431559 0.662744880
0.942314744 0.899051070 0.694623530
0.435799927 0.357495427 0.849082708
0.493991166 0.366729736 0.841619253
0.620746195 0.390259415 0.838709414
0.780139089 0.427324712 0.830233812
0.942947447 0.475395381 0.821758211
0.499936581 0.463124454 0.831878483
0.534851491 0.471600294 0.831878483
0.647944331 0.484376997 0.824667692
0.793927789 0.508285701 0.824035287
0.935863554 0.541050076 0.815306544
0.607337236 0.643896401 0.797469974
0.636306286 0.639595091 0.805439353
0.706514537 0.644528985 0.806830943
0.806451619 0.652372003 0.802277148
0.930550158 0.664137006 0.804933369
0.669070065 0.772169590 0.816192091
0.690195858 0.774319768 0.812017620
0.754838645 0.777482331 0.805819035
0.840101123 0.786337733 0.804807365
0.931182742 0.792915821 0.802656353
0.730044365 0.902593434 0.833649337
0.755218089 0.904743493 0.835040987
0.799873173 0.899936557 0.837571383
0.877545774 0.906767666 0.835926652
0.959898651 0.929790735 0.880455434
