Assets/Resources/EldamarStudio/100 Horror LUTs Pack/LUTs/cube/Goldflare LUT.cube
LUT_3D_SIZE 8
DOMAIN_MIN 0.000000 0.000000 0.000000
DOMAIN_MAX 0.903226 0.903226 0.903226
0.082353003 0.058823999 0.066666998
0.154712543 0.050600551 0.067805447
0.325996101 0.000000000 0.067425899
0.454522282 0.003922000 0.062744997
0.562682152 0.001518192 0.064263187
0.679696739 0.002024260 0.091840737
0.816192508 0.035547275 0.112713285
0.965211570 0.100821972 0.137381136
0.088931449 0.133586541 0.065908000
0.197090551 0.128905535 0.057685453
0.333459646 0.128146544 0.056167357
0.456926078 0.102213547 0.044655092
0.558380723 0.102213547 0.068564348
0.670461893 0.115116902 0.093232185
0.810879469 0.141302645 0.120683283
0.961290598 0.171789914 0.149272442
0.181024998 0.247565091 0.050094999
0.250854105 0.253131092 0.054016095
0.339279115 0.243769988 0.046173189
0.455787539 0.229221731 0.068058193
0.554838598 0.224794179 0.093991093
0.675268471 0.234155566 0.110436089
0.817963362 0.256925911 0.126249090
0.971789777 0.286148012 0.152561560
0.265654981 0.339658648 0.098671995
0.298165530 0.338519990 0.096268088
0.363187641 0.338899642 0.099430896
0.453383625 0.330677003 0.102592997
0.555217862 0.335357189 0.118279286
0.672106445 0.348893017 0.127387732
0.817836583 0.375079274 0.133459926
0.966223776 0.398988098 0.151422828
0.334851176 0.441113204 0.134851187
0.356483191 0.445794195 0.140417203
0.412144184 0.439468473 0.138646290
0.481467634 0.442251831 0.145098001
0.559392393 0.442631394 0.140291005
0.685894907 0.464389652 0.141555548
0.829601526 0.498165548 0.138899297
0.973434448 0.526881754 0.146742627
0.403415471 0.593295217 0.145098001
0.424794495 0.589247167 0.142061815
0.471979827 0.594433606 0.143200263
0.538772583 0.597975850 0.141429529
0.630740404 0.596710682 0.137128457
0.726628721 0.603036463 0.137381002
0.852751315 0.629728138 0.128905997
0.986590564 0.658823550 0.130423710
0.451613009 0.764579535 0.105629727
0.468185008 0.770398259 0.110563174
0.512460351 0.768247724 0.109171197
0.582289577 0.773054600 0.100569367
0.673118174 0.773054600 0.093738206
0.770651758 0.774319828 0.087286718
0.876027822 0.776976585 0.083364718
0.988235235 0.787223279 0.105123371
0.473370969 0.936495781 0.096900977
0.503478825 0.938393474 0.119923934
0.542061925 0.937760592 0.120682940
0.609487832 0.938140452 0.116508588
0.704996824 0.936622262 0.124731138
0.800759017 0.941682577 0.125237033
0.901581109 0.941176355 0.138393596
0.992409945 0.937634528 0.139152586
0.084756903 0.074510001 0.120303549
0.162176102 0.049082551 0.113219544
0.318153083 0.028589547 0.126502544
0.427071273 0.048070736 0.134345546
0.531309187 0.071220897 0.153573900
0.649462461 0.088804543 0.168880343
0.796584547 0.102213830 0.178873822
0.963187754 0.128652528 0.198734552
0.113978535 0.132447988 0.117899641
0.190765530 0.128526092 0.117140643
0.299304098 0.130423546 0.132827550
0.427957088 0.130044088 0.141429439
0.533333540 0.137887090 0.159392744
0.649209738 0.148387030 0.169639349
0.793548226 0.166097298 0.179000542
0.952814460 0.184819996 0.194686726
0.206072107 0.228336632 0.137507632
0.249968186 0.229980737 0.142694086
0.326375663 0.226818636 0.137128085
0.430993110 0.226438999 0.144465640
0.536749005 0.228716075 0.157368988
0.652498245 0.243516892 0.174699470
0.801770806 0.264389843 0.182922453
0.961922705 0.286654085 0.202530116
0.280455291 0.325110286 0.155344635
0.306767732 0.327514201 0.165338084
0.363187641 0.326375753 0.156230435
0.447058618 0.321568638 0.161796451
0.544212520 0.331436068 0.170019105
0.662618697 0.344212651 0.184187099
0.811132193 0.373181701 0.189626902
0.956736028 0.397090554 0.188488543
0.346742541 0.437571019 0.186084747
0.369639635 0.439468384 0.189879894
0.411385179 0.432764024 0.185452446
0.479190528 0.436052948 0.179886341
0.559012949 0.432764024 0.182163343
0.681594133 0.454522818 0.183428183
0.828462839 0.491840571 0.181657448
0.970777571 0.522833765 0.185705379
0.401770741 0.584187508 0.180771545
0.421252549 0.583807945 0.177862272
0.464010179 0.584566951 0.176470712
0.534724712 0.585705280 0.178874001
0.620493412 0.589247108 0.175458461
0.720683455 0.592662632 0.172042727
0.841239750 0.622264206 0.168247834
0.981403887 0.655154884 0.176344275
0.443895996 0.757748127 0.149145812
0.466287285 0.756483257 0.152182296
0.502846539 0.757242322 0.144465715
0.575584829 0.757748187 0.146489561
0.664642453 0.756862819 0.145983621
0.761669576 0.766856372 0.137634531
0.875142574 0.770524859 0.140670255
0.985072374 0.776596844 0.140290767
0.476913422 0.931941748 0.155344635
0.493738174 0.933333397 0.150917172
0.537760794 0.930549920 0.153699920
0.608222544 0.924857795 0.153826728
0.695762157 0.926881552 0.160910726
0.796584547 0.933839619 0.165717870
0.897406518 0.935104489 0.181404069
0.992030382 0.929285049 0.181657314
0.089310996 0.065907903 0.230360284
0.192789182 0.048323553 0.224541545
0.316635102 0.039974902 0.224921092
0.434661537 0.059835546 0.224921092
0.529791415 0.110436186 0.233523190
0.634661436 0.140923470 0.245034739
0.775331676 0.145224720 0.261733085
0.947754502 0.140417099 0.270082355
0.172422186 0.142694101 0.210373551
0.230487093 0.140291005 0.211638108
0.318658620 0.143453091 0.213156104
0.429221749 0.149272636 0.223023549
0.523592293 0.170398548 0.238709539
0.636685848 0.185705096 0.244908363
0.780898333 0.188488349 0.251486391
0.953067660 0.193295553 0.271220803
0.226565197 0.233523190 0.213156104
0.275142193 0.239089102 0.222137645
0.347248197 0.235927001 0.224921092
0.432257742 0.240227729 0.233143628
0.529032052 0.248450294 0.246932298
0.643263578 0.260215104 0.256799340
0.793421805 0.270209074 0.257685184
0.959266305 0.287159830 0.274762839
0.311195195 0.328779548 0.232004985
0.335483998 0.327261358 0.235927001
0.383302003 0.325616747 0.239848197
0.447944641 0.321694642 0.235547349
0.538772762 0.330677003 0.245667547
0.652878046 0.350917161 0.251865655
0.805945635 0.370398372 0.254142731
0.960784137 0.395952016 0.264896095
0.368501097 0.423023373 0.245288000
0.380138993 0.429727852 0.249336019
0.426439077 0.426186085 0.253257096
0.481973171 0.425427198 0.248070732
0.557115555 0.426945210 0.242125303
0.678051770 0.455787450 0.246932209
0.821758509 0.489563286 0.250980198
0.971789777 0.521315515 0.256040245
0.406071991 0.582795560 0.250348002
0.431246042 0.584187388 0.249335900
0.469449997 0.583428383 0.240101442
0.540038109 0.585452020 0.239089087
0.620999515 0.588108599 0.238457009
0.716382146 0.591650724 0.240734085
0.847059011 0.623402655 0.239089370
0.986210942 0.652877748 0.245667353
0.438962787 0.756609678 0.227198184
0.462239444 0.762555122 0.231372565
0.502466738 0.762175560 0.225173905
0.574572980 0.761669874 0.224414811
0.667678714 0.765211761 0.226692095
0.766350389 0.765211761 0.220746562
0.871473849 0.769259810 0.214042097
0.984439969 0.780645013 0.234914556
0.481593698 0.930550456 0.257179022
0.498418719 0.934218764 0.253636867
0.549272776 0.930929780 0.251739621
0.609740794 0.933586299 0.258443981
0.695635796 0.935610533 0.260721087
0.796331346 0.937381268 0.266286969
0.899177611 0.935610533 0.273244590
0.992409945 0.935610473 0.282099605
0.154206276 0.050474640 0.313851625
0.220873177 0.051992543 0.314231187
0.330297440 0.061353542 0.306262076
0.424794286 0.073497988 0.299810350
0.528525949 0.114358187 0.302467078
0.636179447 0.140923470 0.316508293
0.778115213 0.137254998 0.332953990
0.953573465 0.108538829 0.349778831
0.214674190 0.151549637 0.301834077
0.260467827 0.152688190 0.291840523
0.335736632 0.152308643 0.301708013
0.423909098 0.155091912 0.294623911
0.521062374 0.176217273 0.299683630
0.632258236 0.188867897 0.316887736
0.783301771 0.182036996 0.332953990
0.940923333 0.162808463 0.346868753
0.278305084 0.239721999 0.302087456
0.305123508 0.237318188 0.299683630
0.356862605 0.248450100 0.300569534
0.433775932 0.243263647 0.292599648
0.524351180 0.254269451 0.304490715
0.635673821 0.262112826 0.322074175
0.787223220 0.262618899 0.332321286
0.951423049 0.267299116 0.347754449
0.325616628 0.322833270 0.299810350
0.340038121 0.319671094 0.300949007
0.397722721 0.329538643 0.302087605
0.450094908 0.325110286 0.306514978
0.535483778 0.334218830 0.314357996
0.648071110 0.344718248 0.316255540
0.796711206 0.362681985 0.331815362
0.952688217 0.379759282 0.342441291
0.370651186 0.425047636 0.313472182
0.395572513 0.426059365 0.308792084
0.427071273 0.423023313 0.314737529
0.485768378 0.421758533 0.311827987
0.559013009 0.426818460 0.310310096
0.675268531 0.450347990 0.317773402
0.819734216 0.480835080 0.327514380
0.970145106 0.510815799 0.334851623
0.404680818 0.570777833 0.317267269
0.423782557 0.570398271 0.316255450
0.470714748 0.573181331 0.317140639
0.530929685 0.579000831 0.317899615
0.615812421 0.579127014 0.314610839
0.712966442 0.587602735 0.315116972
0.844022930 0.617836773 0.320809513
0.985325694 0.645414412 0.338140339
0.427451015 0.749652147 0.319923997
0.449715555 0.755597591 0.316002548
0.489690185 0.750537395 0.310942352
0.565464675 0.755724490 0.312207341
0.651486397 0.754585862 0.314990580
0.758507133 0.762428939 0.313599020
0.872232914 0.762428939 0.317900270
0.983807743 0.778241575 0.333333462
0.476533592 0.930170953 0.357874602
0.495129675 0.931815147 0.360531211
0.541049778 0.927008092 0.356483519
0.607969701 0.928146422 0.358507276
0.698924422 0.927514136 0.360784262
0.794560552 0.930676699 0.370651454
0.898292243 0.931941807 0.378494710
0.989753127 0.933839619 0.379253805
0.223276183 0.081467383 0.404554188
0.273118347 0.086907193 0.403668195
0.352688164 0.100316092 0.396458209
0.441239983 0.116381831 0.386337996
0.532195151 0.127640992 0.379253179
0.651233315 0.148513541 0.396710932
0.789500475 0.139025807 0.425173998
0.953699946 0.108538829 0.454269171
0.271473736 0.170398548 0.387602627
0.300189972 0.179886341 0.383934289
0.367994606 0.177103177 0.384060889
0.447185516 0.182289541 0.383301884
0.530170679 0.183807731 0.373813987
0.639342248 0.194433808 0.396458000
0.787982464 0.181657448 0.420366913
0.950031579 0.159139708 0.442378372
0.329918087 0.255408078 0.373813987
0.348893106 0.261353552 0.379380167
0.395825177 0.257811278 0.377735168
0.454142720 0.260594636 0.369766086
0.523466170 0.257811278 0.371410400
0.648703337 0.259076446 0.397722930
0.796584308 0.257178903 0.419102162
0.957368612 0.260721087 0.444402099
0.352435350 0.335357279 0.374952555
0.372296005 0.341809094 0.379253298
0.419355065 0.337002099 0.375332057
0.473244995 0.338899434 0.377988636
0.549272358 0.333333433 0.386338085
0.662238896 0.346742541 0.397596627
0.808349252 0.355724275 0.415433109
0.959266067 0.371410608 0.440860182
0.388235003 0.423909009 0.377103180
0.401770711 0.422643811 0.383934259
0.438962996 0.429348201 0.383048475
0.505503058 0.439468563 0.388994515
0.579000354 0.442631394 0.392536372
0.688171923 0.450853914 0.400885463
0.825806379 0.474004209 0.412903488
0.981150925 0.498545229 0.443769634
0.406198919 0.573181689 0.405565917
0.425300628 0.572802067 0.400632441
0.465781122 0.577988684 0.402656466
0.529538453 0.580265582 0.404680520
0.616825044 0.585072696 0.403921455
0.716508746 0.587349415 0.403668821
0.849209368 0.619101942 0.422138095
0.983048618 0.646932304 0.449083000
0.427071273 0.752055466 0.423782468
0.450221628 0.748766541 0.431878865
0.489184082 0.752688229 0.425300270
0.561543643 0.754332542 0.420999527
0.648956358 0.756609857 0.419860870
0.760910511 0.759519279 0.425300181
0.867425561 0.762175500 0.424541384
0.987602353 0.781530619 0.449209154
0.488171995 0.925869405 0.477672368
0.503478765 0.926628590 0.477925271
0.544844866 0.927767396 0.481720269
0.614294469 0.925616801 0.483491510
0.698039114 0.929917574 0.486780405
0.797722876 0.928146780 0.495129973
0.896521151 0.932321429 0.492852509
0.990006149 0.931941569 0.497279972
0.303478748 0.117393985 0.522580743
0.339152455 0.120176733 0.517140985
0.401012093 0.126122892 0.515496790
0.489943117 0.135609999 0.505123436
0.576976895 0.144718453 0.500822008
0.669829488 0.146995738 0.499304205
0.802403271 0.136242554 0.529664874
0.963187814 0.109171107 0.554838598
0.326375544 0.191144988 0.507400274
0.358507544 0.193168730 0.508665502
0.412017554 0.190385997 0.501960635
0.488678277 0.190385997 0.497533113
0.576723814 0.188488349 0.491208106
0.661859453 0.193295553 0.489816546
0.799746633 0.176217347 0.518911839
0.951929152 0.162555546 0.550917089
0.355850995 0.276660204 0.496774197
0.384440362 0.274130285 0.502213836
0.436685830 0.271094173 0.499430448
0.492599458 0.269703001 0.487286717
0.576597214 0.270461917 0.491967201
0.669323266 0.261480272 0.491714269
0.805439353 0.256799459 0.522707164
0.965970695 0.258697003 0.557115674
0.384186983 0.355091631 0.495256215
0.396963745 0.359139830 0.490449101
0.440101445 0.352814823 0.491207987
0.504237652 0.348134041 0.491334736
0.585958362 0.347374916 0.488045812
0.673877239 0.345477372 0.488804609
0.818848968 0.349651903 0.520303726
0.968247652 0.377229363 0.552182198
0.394813448 0.451486409 0.486021549
0.420240194 0.453004628 0.493611723
0.451106727 0.453004628 0.488425374
0.516002417 0.453130722 0.492093831
0.603668809 0.457811803 0.501201451
0.708159447 0.460088640 0.503225684
0.839089215 0.479190379 0.530423701
0.974699318 0.514231622 0.567615330
0.411765009 0.581277728 0.499051183
0.429601282 0.573940635 0.504490912
0.470335096 0.581277668 0.512207329
0.541049600 0.588488042 0.516129076
0.629475117 0.602277339 0.523845494
0.728526413 0.602909446 0.524604499
0.859582305 0.623402476 0.546995699
0.985325694 0.653510392 0.572801709
0.435799807 0.748766541 0.540037751
0.465401560 0.747880816 0.542694151
0.504111469 0.749399066 0.541428983
0.576470435 0.754585683 0.547501266
0.655914009 0.760531545 0.549399197
0.756356955 0.758886814 0.546362758
0.868943572 0.761163592 0.554585695
0.977356255 0.786970258 0.585958183
0.538646460 0.923719049 0.615433395
0.562049448 0.925363898 0.611258566
0.592789412 0.923212767 0.621252477
0.644022942 0.925110459 0.620114028
0.705629289 0.924730778 0.609487653
0.794433653 0.927260756 0.610879362
0.898292065 0.932321429 0.620493412
0.986084580 0.930423677 0.622011244
0.369892567 0.146362990 0.682858586
0.398861587 0.145730570 0.686147988
0.467046380 0.148134187 0.682985425
0.553826571 0.144086286 0.675648510
0.643896163 0.143453285 0.674889266
0.743832707 0.131435737 0.667931497
0.847564578 0.111828014 0.662238836
0.974952459 0.107906155 0.676533639
0.380139291 0.208728835 0.676533818
0.402909547 0.206451550 0.670841098
0.469829321 0.201011837 0.669196844
0.551676035 0.199493736 0.669196963
0.638456464 0.192915902 0.664010227
0.741556048 0.182289541 0.658949971
0.849082828 0.162049562 0.658570528
0.963693917 0.161543518 0.669955671
0.387096792 0.288424999 0.666160643
0.420493543 0.288424999 0.672232807
0.475016087 0.285136193 0.670208752
0.548766851 0.282605737 0.664263308
0.642504692 0.274256825 0.663251400
0.739911318 0.262871861 0.660341322
0.851359725 0.251612812 0.656040549
0.970777869 0.263124764 0.670335472
0.384946257 0.381150931 0.665401936
0.415559828 0.377482355 0.663251162
0.462871820 0.380391836 0.656925917
0.542567909 0.373307914 0.656040549
0.637318075 0.369260013 0.657305479
0.738899291 0.361923099 0.655661106
0.848703146 0.357115269 0.650474548
0.968627214 0.383428276 0.670461893
0.395951897 0.502087355 0.645793915
0.423655808 0.504111648 0.664516211
0.466287076 0.493991345 0.661606669
0.541429222 0.488678068 0.660847425
0.635294259 0.486274481 0.659203053
0.746995568 0.482732415 0.658570468
0.857052267 0.486400962 0.660847783
0.977862000 0.523719311 0.684123933
0.413535744 0.627324462 0.661227345
0.432511449 0.628083587 0.664010286
0.479696095 0.627703905 0.664895833
0.558760285 0.626565337 0.662618577
0.655028403 0.627577484 0.668943822
0.753320932 0.625806272 0.669449866
0.868184865 0.638962507 0.675269008
0.985325694 0.670714676 0.703352511
0.436558962 0.753447592 0.666540504
0.456673026 0.755344808 0.668058276
0.503984928 0.756736577 0.662492514
0.574952304 0.760151923 0.669323146
0.666034281 0.762934864 0.677545607
0.767741978 0.771663547 0.687666297
0.871473849 0.776976585 0.694623590
0.982162774 0.796710670 0.727008104
0.543579936 0.924730778 0.733207047
0.558380544 0.925110340 0.719418049
0.597090364 0.918279469 0.728273511
0.661733210 0.922454059 0.734345436
0.739911258 0.924857557 0.748133957
0.809108496 0.927767038 0.753067553
0.894876659 0.928525925 0.753067493
0.985072374 0.932827115 0.758001208
0.423655838 0.192409962 0.866034269
0.450980514 0.187096968 0.866413713
0.507147074 0.186590701 0.866034269
0.586970270 0.181909800 0.863757014
0.685262322 0.172549009 0.862112582
0.792283595 0.160404876 0.861479700
0.906388700 0.141429633 0.859076262
0.994939983 0.118026778 0.856925726
0.430360287 0.236685708 0.865907729
0.449082673 0.232511073 0.856925726
0.501707792 0.232131511 0.860467911
0.590133071 0.223149881 0.859202981
0.684630036 0.215306878 0.854142785
0.786464274 0.203542262 0.854269445
0.897532940 0.187729344 0.851486266
0.995192707 0.174699500 0.852877617
0.426059633 0.312713206 0.863883317
0.449968070 0.312839895 0.866540134
0.504744053 0.312080830 0.860214829
0.584693313 0.307653099 0.859456182
0.682985306 0.301707834 0.861353636
0.790006340 0.297406763 0.858823657
0.901454866 0.287665904 0.853510499
0.994939983 0.286274612 0.854269624
0.418595791 0.416698277 0.854648769
0.443769723 0.420493245 0.860215187
0.500189781 0.417963445 0.854142785
0.581530452 0.416698277 0.854269564
0.675395310 0.413915247 0.853130937
0.786970198 0.411638349 0.853636742
0.900189698 0.406071991 0.849841893
0.990006149 0.406704545 0.843643248
0.436305940 0.539658189 0.849968374
0.455407888 0.549399137 0.856546581
0.508032799 0.542947292 0.858443916
0.585958481 0.546868980 0.855534434
0.680076122 0.545983374 0.858190596
0.783428192 0.545603752 0.856672704
0.897153556 0.544718385 0.853890002
0.992663026 0.547501147 0.849462569
0.456419826 0.681340575 0.855787456
0.475648373 0.680455267 0.857178926
0.526502073 0.678431213 0.857558489
0.600505829 0.679316819 0.857558489
0.692093790 0.677672207 0.859708786
0.791018426 0.683870673 0.859455764
0.893737972 0.682352960 0.857431710
0.990385711 0.685894608 0.861859560
0.477292806 0.803415477 0.862745166
0.498039365 0.812776923 0.855407953
0.541302979 0.810879111 0.856166780
0.610120237 0.806198537 0.858317435
0.696647882 0.805186450 0.858570158
0.786337972 0.803795040 0.854649007
0.882100105 0.806957603 0.861733019
0.980138779 0.816824913 0.868310928
0.531182766 0.932447612 0.863377452
0.550790668 0.942314625 0.866540313
0.589879870 0.938899398 0.866666675
0.650221229 0.935230613 0.865654469
0.726754963 0.931056261 0.861859262
0.814041615 0.931182802 0.871220767
0.903605223 0.931815326 0.885262132
0.976596773 0.937760592 0.900063396
