Assets/Resources/EldamarStudio/100 Horror LUTs Pack/LUTs/cube/Goldflare LUT.cube
LUT_3D_SIZE 5
DOMAIN_MIN 0.000000 0.000000 0.000000
DOMAIN_MAX 0.903226 0.903226 0.903226
0.082353003 0.058823999 0.066666998
0.288045704 0.013662009 0.071221001
0.508664966 0.003922000 0.056167006
0.712080956 0.001012128 0.101961002
0.965211570 0.100821972 0.137381136
0.162808403 0.227830693 0.047059000
0.311195433 0.220999420 0.043136999
0.508032382 0.199114278 0.074256703
0.707906544 0.210626394 0.107906416
0.973054588 0.254522383 0.149778664
0.302086979 0.384439975 0.116381995
0.363820702 0.384819686 0.118026704
0.511321843 0.382542402 0.123592407
0.717393875 0.419228226 0.139278576
0.976344168 0.465022236 0.152308583
0.422644138 0.633776248 0.143074006
0.470714986 0.634155333 0.129285410
0.592156947 0.639974535 0.132574424
0.765085280 0.646553159 0.129284993
0.987349629 0.690955102 0.129411995
0.473370969 0.936495781 0.096900977
0.529917479 0.941302717 0.119417772
0.655787349 0.937128186 0.124477789
0.827830434 0.940670431 0.127260774
0.992409945 0.937634528 0.139152586
0.077166408 0.071221001 0.200758979
0.277925402 0.032384705 0.194560692
0.472738802 0.081467696 0.202403694
0.670588136 0.138899282 0.227577567
0.950537503 0.139911160 0.247817814
0.200758979 0.206957698 0.187349707
0.313851953 0.208602399 0.201391399
0.474383086 0.219734401 0.218722284
0.673624396 0.233396560 0.237317979
0.959013283 0.260594547 0.251992702
0.329538405 0.370398700 0.221631989
0.379885972 0.374699384 0.229221687
0.500189424 0.370778233 0.224920988
0.702340424 0.406451672 0.233396560
0.966856480 0.460720927 0.242251694
0.422517300 0.626059234 0.224794567
0.463883549 0.626944959 0.227450982
0.590512276 0.630613267 0.220620126
0.758886695 0.638709426 0.214674279
0.984187007 0.683744490 0.226944819
0.482605964 0.932827473 0.222770363
0.534092605 0.930929661 0.226439059
0.649209380 0.930550158 0.226438805
0.818342865 0.936116457 0.237697616
0.991650820 0.935104430 0.251486182
0.189626992 0.065401994 0.356356382
0.310183287 0.075521708 0.350410998
0.473370939 0.106641397 0.340037793
0.672359407 0.148007870 0.361037225
0.955471158 0.106388442 0.397596806
0.292599678 0.229474992 0.341935396
0.353699982 0.227830693 0.333459407
0.476913691 0.228209987 0.335736692
0.674256802 0.242252126 0.356356829
0.951549590 0.234028995 0.393042237
0.364831984 0.364831984 0.333459795
0.409614086 0.368121386 0.333080262
0.512587011 0.379253805 0.343959808
0.701707840 0.404174387 0.357747972
0.973054588 0.438203812 0.393801630
0.406198889 0.610246837 0.362555295
0.455281287 0.613156319 0.358886540
0.580265641 0.617710412 0.356356382
0.755977273 0.627830744 0.359645814
0.986970067 0.680834830 0.390132666
0.476660401 0.924098372 0.418090045
0.523719251 0.923971891 0.410120219
0.651233673 0.923972189 0.416065812
0.818216324 0.929538012 0.424288481
0.991144776 0.933080137 0.446932197
0.323718995 0.127513990 0.564073145
0.401517838 0.133712709 0.556230128
0.549652219 0.142188132 0.543580234
0.711322129 0.144971743 0.536749125
0.963946760 0.109424144 0.585704923
0.360657692 0.255660832 0.542567968
0.427577585 0.255914122 0.543200552
0.553193986 0.249715403 0.535989702
0.710562944 0.237950563 0.531435728
0.970777750 0.236432686 0.582416415
0.391524404 0.413282394 0.531435728
0.435041130 0.413662285 0.528779149
0.562681913 0.404806972 0.529537916
0.730550289 0.403162539 0.535357535
0.974066913 0.451359808 0.588361800
0.412776887 0.628842413 0.540544093
0.462492138 0.631119609 0.546109855
0.598229229 0.636053026 0.555597544
0.769007266 0.650474429 0.567109287
0.987602651 0.690702081 0.604680419
0.539658606 0.921188891 0.640733778
0.591524303 0.925995946 0.648576915
0.687286615 0.926628768 0.652245522
0.819987416 0.927008092 0.645035088
0.984566629 0.930929720 0.655661166
0.423655838 0.192409962 0.866034269
0.489690006 0.185831800 0.866034269
0.634914517 0.178621233 0.861353159
0.817330956 0.154079512 0.857937872
0.994939983 0.118026778 0.856925726
0.427830547 0.293991089 0.865401566
0.488045692 0.288804680 0.860214770
0.633270264 0.282858700 0.859455943
0.817077816 0.269576222 0.857305288
0.993674815 0.260468364 0.854269624
0.426312655 0.482732624 0.860088170
0.488804698 0.481467366 0.858570337
0.633649349 0.483491182 0.854901969
0.814168274 0.480835050 0.854269445
0.994939983 0.482226372 0.849715114
0.461732984 0.713219523 0.855787337
0.518405855 0.711322129 0.858823538
0.645414352 0.710942268 0.860088229
0.817331016 0.715243340 0.857178748
0.989879608 0.717267334 0.863124251
0.531182766 0.932447612 0.863377452
0.580771625 0.938140512 0.870714426
0.686021388 0.932574451 0.868564546
0.836306274 0.931182802 0.877039611
0.976596773 0.937760592 0.900063396
