Assets/Resources/EldamarStudio/100 Horror LUTs Pack/LUTs/cube/Goldflare LUT.cube
DOMAIN_MIN 0 0 0
DOMAIN_MAX 1 1 1
LUT_3D_SIZE 32
0.082353003 0.058823999 0.066666998
0.085389383 0.055787612 0.057558611
0.097027220 0.052751224 0.052751224
0.119797483 0.050980002 0.056040321
0.154712543 0.050600551 0.067805447
0.200252935 0.047564935 0.076913066
0.245793968 0.031878360 0.075901322
0.288045704 0.013662009 0.071221001
0.325996101 0.000000000 0.067425899
0.359392524 0.000000000 0.070461519
0.395698726 0.000000000 0.067678869
0.426059246 0.002024256 0.064642742
0.454522282 0.003922000 0.062744997
0.484376997 0.003922000 0.062238999
0.508664966 0.003922000 0.056167006
0.535357416 0.001518196 0.059708994
0.562682152 0.001518192 0.064263187
0.590006530 0.003922000 0.067299418
0.617331028 0.003922000 0.070335045
0.647438765 0.003922000 0.078937367
0.679696739 0.002024260 0.091840737
0.712080956 0.001012128 0.101961002
0.742567539 0.004427984 0.102087483
0.775964677 0.016572002 0.105123095
0.816192508 0.035547275 0.112713285
0.855914295 0.054016650 0.119038671
0.892346978 0.069702998 0.122580998
0.928778946 0.087918982 0.128652990
0.965211570 0.100821972 0.137381136
0.987475932 0.112966411 0.148260415
0.995192647 0.127767578 0.160404980
0.992156982 0.149020001 0.172548994
0.088424996 0.055787612 0.066666998
0.079316616 0.058823999 0.051486611
0.103858553 0.057938386 0.057431996
0.134471923 0.054522451 0.063883543
0.171031088 0.052118547 0.071600452
0.203289330 0.059708934 0.064769059
0.246300042 0.046552680 0.071346998
0.289690405 0.033776101 0.076407321
0.329791397 0.020493682 0.076533906
0.365464538 0.009108386 0.070461519
0.395951748 0.006198517 0.070588000
0.426059246 0.002024004 0.063630879
0.453383625 0.000885613 0.059709385
0.481593609 0.001138645 0.059456352
0.508664966 0.003922000 0.056167006
0.530549824 0.001518196 0.057305802
0.558127582 0.000000000 0.058191191
0.588235140 0.001518192 0.058823608
0.620366693 0.003922014 0.064263046
0.647691727 0.017836653 0.081214711
0.677798986 0.022897094 0.092979379
0.710056722 0.027324643 0.102972873
0.742820501 0.034914494 0.105249599
0.782036662 0.049968388 0.111195095
0.815433264 0.062112380 0.116508573
0.854269564 0.075521663 0.124857694
0.892346978 0.086906992 0.130676612
0.928778946 0.100062981 0.131688610
0.965211570 0.115622804 0.145730421
0.989247143 0.126375586 0.150284395
0.999114394 0.138140589 0.157368585
0.998228967 0.155092001 0.169512600
0.085895002 0.072106540 0.066666998
0.089690164 0.079443388 0.062239382
0.106388316 0.076027997 0.049209226
0.138519987 0.076027997 0.060088389
0.175711319 0.072865091 0.069196768
0.213156089 0.078431480 0.070714839
0.251486629 0.073751003 0.067805000
0.292346686 0.061859615 0.068943709
0.331309438 0.055028774 0.074509904
0.364958793 0.046806060 0.070967510
0.399873525 0.041113451 0.066286996
0.426185727 0.032004815 0.060214747
0.453383625 0.024541421 0.053384095
0.480708003 0.021758515 0.052625190
0.508032382 0.024794415 0.053383809
0.534851372 0.025173968 0.057305802
0.556103766 0.025173964 0.063377798
0.582036734 0.027704114 0.064768992
0.607843041 0.033776525 0.070841014
0.642125309 0.041492976 0.081593953
0.673244953 0.049082577 0.088425227
0.704870105 0.055914126 0.097533219
0.738519490 0.065022051 0.101833992
0.777988732 0.076154448 0.107905999
0.815054059 0.089057535 0.116128802
0.852625072 0.098418541 0.122201212
0.892346978 0.107273765 0.131055996
0.928778946 0.119417757 0.137633994
0.969512582 0.129917577 0.138013795
0.988234997 0.146868721 0.160278141
0.998734832 0.157115594 0.161922783
1.000000000 0.169765994 0.166476771
0.083618164 0.100190155 0.066666998
0.097786225 0.105502933 0.065401837
0.117267609 0.106388316 0.061859611
0.149652317 0.101581156 0.053510323
0.178873867 0.101960704 0.061480161
0.215180025 0.104997091 0.067931935
0.258949965 0.102973156 0.069449678
0.295888692 0.097786456 0.066413708
0.333080202 0.089437157 0.062618807
0.363440990 0.088425152 0.064136356
0.399620742 0.082606159 0.059709001
0.429222167 0.073750809 0.054142747
0.454648793 0.066160321 0.049588643
0.481720150 0.058191158 0.047564998
0.508032382 0.060214892 0.051612739
0.534092247 0.060847320 0.058317605
0.560911059 0.061100349 0.063377798
0.583428383 0.064769149 0.072485566
0.603542089 0.073244974 0.079190180
0.635926723 0.078305162 0.086780362
0.666666925 0.082479417 0.091461159
0.701075137 0.085515290 0.094497025
0.734977484 0.094244145 0.100948505
0.774446726 0.104490906 0.108159162
0.811638534 0.113345988 0.113978446
0.848323941 0.122707307 0.122959986
0.890322864 0.129285261 0.129538059
0.927514136 0.140670151 0.140923157
0.966729701 0.150157988 0.143579841
0.991777003 0.162049100 0.148134142
0.996963620 0.177608743 0.167488992
1.000000000 0.186717153 0.162176013
0.088931449 0.133586541 0.065908000
0.109803706 0.133586541 0.063251160
0.131814867 0.133206993 0.061606452
0.158000931 0.132321373 0.061100613
0.197090551 0.128905535 0.057685453
0.218342930 0.131941929 0.057685453
0.260847658 0.133206993 0.060594678
0.300442696 0.131562367 0.059962165
0.333459646 0.128146544 0.056167357
0.363820434 0.122074537 0.050094582
0.399241179 0.116002545 0.047691323
0.429601699 0.108665384 0.045034744
0.456926078 0.102213547 0.044655092
0.483997494 0.101960577 0.047944512
0.508285522 0.101834096 0.054016538
0.532953620 0.102213547 0.062871799
0.558380723 0.102213547 0.068564348
0.585325539 0.102719538 0.072865114
0.612650037 0.108791552 0.081973523
0.643137157 0.112460449 0.088678002
0.670461893 0.115116902 0.093232185
0.698418975 0.118152678 0.097912863
0.734724522 0.121568531 0.106640995
0.773687720 0.133712545 0.114990354
0.810879469 0.141302645 0.120683283
0.847311914 0.147374883 0.124984302
0.885009229 0.153953478 0.134092063
0.924478292 0.163061082 0.143200442
0.961290598 0.171789914 0.149272442
0.985325754 0.182289511 0.154712215
0.996584058 0.193168595 0.157242462
0.999620438 0.202277005 0.157242462
0.110183060 0.166982919 0.059836000
0.128399834 0.166982919 0.059836000
0.153573632 0.164832145 0.055028386
0.176090866 0.163566992 0.053763226
0.200126156 0.162301928 0.054649066
0.236558929 0.156229943 0.048577067
0.270461649 0.161795989 0.053637065
0.303984702 0.161922708 0.052625004
0.333839089 0.158886775 0.047059070
0.366856068 0.155470937 0.040986974
0.397216827 0.149398938 0.043643065
0.426565319 0.145351186 0.043643065
0.453889698 0.140164524 0.045413997
0.480961114 0.135356963 0.050980128
0.505249918 0.132321358 0.057052895
0.531941712 0.134598061 0.067931928
0.557242393 0.135609925 0.073497996
0.582036853 0.135609925 0.075901501
0.606578052 0.136115938 0.085009910
0.639468431 0.142188638 0.094117589
0.670461476 0.143959865 0.100821987
0.700822175 0.145477682 0.106388055
0.734724522 0.148892924 0.112712994
0.768121719 0.161036924 0.112712994
0.804806948 0.168627501 0.123339631
0.841239452 0.174699783 0.127008319
0.879190207 0.181277871 0.128020063
0.924478292 0.190385476 0.137128443
0.961290598 0.196837604 0.140923157
0.985325754 0.205186605 0.149778485
0.996078014 0.213914916 0.157748386
0.996584058 0.220492989 0.160278067
0.139025643 0.202909634 0.051233679
0.152181759 0.202909634 0.051233679
0.172548771 0.202909634 0.051233679
0.197849318 0.200252786 0.048450325
0.219354734 0.198228627 0.049462453
0.247185498 0.192156643 0.045540679
0.278557628 0.191144645 0.044528678
0.313345701 0.192283362 0.048956387
0.343200177 0.190006644 0.046299905
0.374825835 0.188741475 0.041998681
0.407842755 0.182795331 0.052245773
0.430107504 0.176723316 0.055281378
0.454775304 0.173181638 0.055787317
0.480708003 0.169259921 0.059076317
0.507273495 0.170777738 0.065148510
0.536369324 0.167742118 0.073624477
0.560784221 0.167488769 0.082605995
0.585325778 0.166476637 0.085262574
0.613409340 0.166476652 0.090575971
0.643517077 0.172042713 0.097153977
0.673118412 0.176217735 0.100569323
0.704870284 0.178874314 0.107400320
0.739911020 0.183554634 0.116381831
0.775711417 0.190891653 0.118785642
0.815939307 0.196204931 0.125616342
0.852877617 0.203415632 0.131941676
0.889816344 0.210120052 0.131561995
0.931308985 0.215180174 0.138646126
0.968880296 0.226691663 0.144971803
0.989373922 0.232763976 0.151549399
0.998608351 0.241998523 0.162049279
0.998608351 0.251359969 0.168374315
0.162808403 0.227830693 0.047059000
0.174952403 0.231119692 0.047059000
0.190259188 0.232763976 0.047059000
0.214041576 0.231499135 0.048323840
0.237571239 0.228462860 0.049082838
0.258064866 0.223655701 0.048576768
0.290701985 0.222643703 0.048070703
0.311195433 0.220999420 0.043136999
0.344591826 0.218722701 0.048450481
0.375838012 0.218722701 0.049841933
0.407463580 0.211258665 0.056420024
0.435673505 0.206830710 0.060847737
0.455028653 0.201897338 0.065021999
0.479316711 0.198861659 0.066793032
0.508032382 0.199114278 0.074256703
0.532826900 0.198987782 0.081087790
0.561669886 0.200505972 0.088677995
0.585705221 0.198481694 0.094749987
0.617078006 0.198481694 0.098798260
0.644149363 0.200758696 0.101328291
0.677546024 0.206578135 0.106894284
0.707906544 0.210626394 0.107906416
0.744338751 0.216698393 0.117899992
0.780771554 0.222770408 0.122454189
0.816824555 0.226565272 0.125110701
0.857937992 0.230993330 0.132826984
0.895129800 0.239848047 0.134344995
0.934598148 0.245161146 0.140416995
0.973054588 0.254522383 0.149778664
0.990259230 0.263124377 0.155977473
0.998481989 0.268310994 0.164199710
1.000000000 0.278178692 0.172548994
0.181024998 0.247565091 0.050094999
0.192410097 0.252119094 0.048576999
0.208222866 0.253763407 0.049336094
0.225427255 0.257305324 0.054396026
0.250854105 0.253131092 0.054016095
0.265654922 0.248956159 0.053636841
0.297026992 0.248450100 0.055661097
0.323339403 0.246805817 0.053004488
0.339279115 0.243769988 0.046173189
0.372675538 0.243769988 0.058317970
0.402403653 0.238077313 0.064010225
0.429222167 0.232258022 0.065780997
0.455787539 0.229221731 0.068058193
0.477039933 0.226186052 0.074130192
0.505881965 0.223149672 0.082732506
0.530549824 0.223276183 0.088678002
0.554838598 0.224794179 0.093991093
0.583428502 0.230233759 0.100695506
0.616824985 0.230360284 0.106894001
0.644149125 0.231119186 0.108918190
0.675268471 0.234155566 0.110436089
0.709424198 0.240228087 0.114737131
0.745983422 0.246173576 0.118026502
0.783048809 0.251612991 0.124731094
0.817963362 0.256925911 0.126249090
0.854142845 0.262112439 0.129032075
0.892599940 0.267679006 0.134598032
0.931562304 0.276280642 0.140416995
0.971789777 0.286148012 0.152561560
0.991524220 0.292726099 0.158127889
0.993927956 0.298671603 0.164958999
1.000000000 0.301707983 0.171030998
0.199241012 0.280961514 0.062239006
0.208349407 0.280961514 0.056167006
0.226186275 0.276913494 0.056799781
0.244655639 0.277546138 0.066034488
0.259962469 0.283491880 0.078304872
0.272106469 0.271347135 0.054016121
0.299557000 0.269702524 0.056167174
0.326881409 0.268058240 0.058697492
0.351423085 0.265022397 0.058317978
0.378747523 0.261985987 0.058317978
0.406324893 0.264895886 0.070461996
0.429727763 0.261353999 0.076154225
0.453510135 0.256546825 0.080202289
0.480075538 0.253510475 0.086274967
0.501327932 0.250474095 0.092346966
0.527766824 0.252245307 0.096141681
0.554838598 0.253637016 0.099304199
0.583428502 0.254522562 0.103731900
0.616824985 0.257558942 0.112839520
0.650221407 0.260468125 0.119038716
0.683238208 0.263377756 0.119165227
0.714737117 0.267552525 0.117520481
0.742947042 0.273497999 0.118026510
0.782416284 0.276533604 0.127134889
0.819481552 0.284250289 0.129285485
0.857179105 0.293105662 0.132068470
0.895635605 0.301075459 0.137634426
0.929031909 0.304111063 0.140670031
0.970651150 0.315370172 0.154458806
0.993548214 0.322074771 0.157115549
0.999746978 0.326122493 0.155977115
1.000000000 0.332068026 0.164959013
0.220366865 0.293990999 0.068563998
0.232384384 0.296900868 0.068310998
0.239342004 0.299051106 0.068690769
0.251739293 0.297785997 0.069196835
0.265528202 0.300442696 0.075521678
0.292852879 0.295888871 0.084123865
0.307527184 0.293864757 0.075015739
0.331056446 0.292220056 0.076280996
0.354079843 0.289942980 0.076280996
0.379253477 0.289057374 0.076280996
0.400758862 0.283111840 0.073371135
0.430107504 0.284123987 0.079443388
0.454016507 0.280961633 0.083617866
0.477798909 0.278431714 0.089690126
0.504364252 0.280708313 0.095762126
0.532827437 0.277672529 0.104237929
0.557621956 0.279696554 0.111322060
0.582795918 0.281087875 0.115876295
0.613915145 0.281846970 0.115875907
0.644528866 0.287665993 0.119418226
0.674003720 0.292725861 0.121569000
0.708412230 0.296774119 0.122580864
0.745603859 0.301075369 0.126502350
0.782289743 0.309677690 0.130044028
0.817204297 0.314990610 0.132321119
0.853004456 0.322074711 0.136495784
0.891461134 0.329158872 0.142062008
0.932068288 0.334598303 0.137887418
0.968121469 0.340290755 0.146236703
0.992409825 0.348386973 0.153826639
0.999114394 0.355218083 0.156482980
0.997090161 0.365338624 0.167615131
0.243643492 0.314231515 0.082732506
0.249715239 0.317267358 0.084756248
0.257558256 0.318279475 0.080834761
0.267425418 0.318785399 0.082605988
0.277672261 0.318026513 0.081087798
0.294876605 0.316635191 0.089690186
0.320683032 0.318152964 0.093231991
0.335863411 0.316508710 0.088804707
0.357115924 0.314231515 0.086907260
0.381404251 0.314231515 0.084377259
0.402783126 0.310436249 0.087539643
0.426059246 0.306388497 0.088551253
0.455281377 0.307526857 0.091587633
0.478304774 0.306262016 0.096774250
0.502087176 0.305756062 0.102846250
0.529791057 0.308032781 0.107273541
0.555597663 0.304997176 0.111827739
0.578747571 0.307653487 0.118153065
0.609108090 0.310436517 0.117900036
0.639468729 0.313978255 0.122454092
0.673624456 0.318152994 0.125490472
0.704364240 0.324098498 0.124604866
0.744591773 0.328399748 0.127387732
0.781024575 0.337508142 0.128526092
0.817204297 0.344339252 0.131309256
0.849209309 0.350411236 0.136875242
0.885389149 0.356483251 0.144591942
0.927893877 0.362555236 0.140037745
0.967109323 0.366603494 0.147248566
0.991144896 0.372675478 0.149272978
1.000000000 0.379633099 0.155344620
0.998102248 0.390639246 0.168626994
0.265654981 0.339658648 0.098671995
0.266413599 0.340417266 0.099430606
0.271600276 0.341302633 0.097153641
0.283744156 0.341176122 0.095888637
0.298165530 0.338519990 0.096268088
0.304996639 0.338519990 0.099304281
0.325363606 0.338772953 0.100063324
0.347248316 0.339658320 0.100948706
0.363187641 0.338899642 0.099430896
0.386717319 0.339658648 0.094497345
0.406957865 0.336748779 0.095509350
0.429095656 0.332574278 0.097280383
0.453383625 0.330677003 0.102592997
0.480202019 0.333712667 0.105376355
0.501454413 0.332448065 0.109677345
0.529791057 0.333080471 0.116761476
0.555217862 0.335357189 0.118279286
0.577735186 0.333586574 0.117646709
0.607590020 0.339152634 0.119670980
0.636812091 0.342441261 0.126628637
0.672106445 0.348893017 0.127387732
0.708539248 0.352941275 0.131435990
0.744971216 0.359013259 0.129032120
0.781403840 0.367109537 0.130043998
0.817836583 0.375079274 0.133459926
0.856040299 0.380012631 0.134977981
0.886401117 0.386590719 0.146109998
0.926375866 0.393295258 0.144971192
0.966223776 0.398988098 0.151422828
0.989247143 0.402656615 0.155724242
0.999114394 0.409614235 0.155344993
0.998861372 0.418722630 0.169765636
0.283871025 0.366224021 0.110309996
0.281087637 0.363946617 0.108285673
0.284503520 0.362555027 0.105502807
0.295888871 0.362808049 0.105503000
0.315875530 0.362808049 0.110689513
0.324983925 0.362808049 0.113725126
0.340670645 0.360531330 0.111701317
0.359646022 0.358886987 0.110563032
0.377356023 0.359899014 0.110815927
0.395572007 0.365971029 0.113851540
0.414294779 0.363820195 0.108918063
0.434282243 0.359013021 0.104870260
0.456926018 0.355471075 0.106388420
0.480961055 0.355218023 0.114484027
0.502213418 0.358254403 0.114484027
0.532321393 0.358886987 0.123339601
0.561416984 0.360404849 0.129664958
0.586590528 0.363440573 0.130044460
0.613915026 0.366476983 0.127008080
0.641239405 0.370524704 0.133586317
0.675901175 0.378747493 0.134218961
0.714358211 0.388868064 0.131688952
0.750790954 0.394940048 0.137634471
0.787223041 0.401012063 0.140670136
0.823908567 0.409108311 0.145477533
0.862618268 0.415686399 0.147375286
0.903858125 0.419481099 0.145857036
0.934218884 0.428589463 0.151929036
0.972042799 0.437697858 0.157747999
0.993548214 0.443010807 0.161796182
0.998861432 0.448070616 0.166476995
0.995825052 0.457179010 0.172548994
0.302086979 0.384439975 0.116381995
0.302086979 0.390511960 0.125490382
0.305755377 0.386084408 0.125616819
0.313092709 0.385072559 0.123719230
0.325110406 0.387096792 0.122580528
0.337127924 0.387096792 0.119797893
0.343706638 0.387096792 0.117773511
0.363820702 0.384819686 0.118026704
0.385452390 0.383174986 0.118912317
0.398608446 0.384186983 0.116887935
0.422644168 0.387349844 0.119924285
0.441619366 0.385072529 0.117014572
0.463883638 0.383681029 0.118532628
0.490069419 0.385578781 0.126628786
0.511321843 0.382542402 0.123592407
0.534978032 0.383174986 0.125996202
0.562682152 0.384693176 0.130929798
0.590006351 0.387729198 0.134598136
0.619987071 0.390764982 0.142188430
0.647312105 0.404933363 0.133586049
0.680328846 0.411890805 0.137760580
0.717393875 0.419228226 0.139278576
0.753826618 0.425300807 0.140670091
0.790259421 0.431372792 0.143706486
0.828968704 0.437444806 0.144465417
0.866413295 0.444149375 0.144338906
0.904617190 0.449588805 0.142820716
0.943327308 0.455913842 0.148893416
0.976344168 0.465022236 0.152308583
0.995066404 0.468817413 0.154206008
0.998229027 0.472991794 0.159266174
0.992789388 0.484503388 0.172548994
0.322706789 0.412270606 0.127260983
0.322706789 0.413535595 0.129158586
0.329158574 0.413155824 0.133965969
0.332953572 0.412397116 0.135483831
0.340164334 0.415813059 0.134344995
0.358380586 0.413788795 0.129285112
0.365464628 0.413788795 0.131056473
0.376470685 0.412144095 0.128020078
0.398481995 0.409866780 0.128779188
0.413914979 0.409866780 0.127387509
0.432890743 0.407969654 0.130170852
0.451107234 0.413029790 0.135230988
0.468943775 0.411131948 0.133333147
0.492220044 0.411637992 0.136875227
0.515623212 0.412903190 0.138140380
0.532068014 0.412270606 0.132700801
0.557874978 0.412270606 0.132700801
0.587096930 0.415053785 0.133965567
0.620999098 0.419860631 0.139531970
0.650980294 0.426818162 0.141555637
0.685894907 0.440101266 0.140037730
0.720809281 0.448197275 0.142567679
0.754459023 0.455660969 0.141176000
0.790891826 0.461732984 0.141935095
0.825047314 0.467805535 0.140417486
0.864262938 0.475268900 0.140291005
0.901707768 0.482858866 0.138772801
0.939278662 0.490828604 0.141050085
0.973434746 0.489942819 0.149272963
0.994433939 0.504364371 0.155850559
0.999114394 0.508159578 0.159518987
0.994560182 0.514231563 0.170145184
0.334851176 0.441113204 0.134851187
0.340923190 0.442631394 0.137887195
0.344338953 0.440480620 0.138519764
0.354712158 0.439974546 0.137760997
0.356483191 0.445794195 0.140417203
0.372042924 0.446173459 0.138899192
0.382163167 0.442631394 0.138899311
0.396204859 0.442504883 0.140164480
0.412144184 0.439468473 0.138646290
0.430360168 0.438709378 0.139405385
0.444022745 0.435800254 0.139278859
0.466287225 0.437318206 0.141303003
0.481467634 0.442251831 0.145098001
0.499304205 0.440480530 0.142188191
0.521062613 0.443516612 0.141429424
0.542694569 0.442631394 0.143326998
0.559392393 0.442631394 0.140291005
0.587982476 0.443263799 0.138519764
0.623529434 0.448450178 0.141556159
0.652877927 0.454522192 0.141555831
0.685894907 0.464389652 0.141555548
0.725363314 0.475522071 0.144591942
0.757494986 0.484629691 0.142441198
0.793927848 0.492093354 0.139658198
0.829601526 0.498165548 0.138899297
0.862997830 0.504237950 0.137254998
0.902213991 0.513219237 0.136748940
0.939658344 0.522327602 0.135736808
0.973434448 0.526881754 0.146742627
0.989879787 0.528652370 0.152814955
0.997596443 0.542441547 0.160151586
0.994560182 0.543074191 0.165591002
0.342314959 0.470335126 0.140417561
0.353194147 0.473371357 0.143326998
0.358254343 0.471473753 0.144465432
0.365717947 0.470967710 0.144465581
0.376723528 0.474003971 0.139152572
0.382542551 0.479822963 0.144718572
0.392409861 0.476407528 0.146362990
0.406198680 0.474256963 0.144465432
0.426059574 0.474130422 0.147122085
0.444275558 0.471094042 0.150158480
0.455028415 0.468058407 0.146110132
0.475015819 0.469070256 0.146995559
0.499683619 0.471473604 0.145098001
0.515623033 0.474256963 0.145603999
0.534598112 0.476913095 0.141049981
0.555091619 0.476407349 0.142061993
0.577609181 0.474256963 0.145730570
0.597090125 0.474256933 0.144465417
0.630487323 0.477292567 0.147501811
0.657685339 0.482479125 0.144339085
0.688804686 0.491714001 0.142567843
0.723592699 0.502846420 0.140923142
0.762681544 0.511954069 0.143833011
0.798102438 0.521062493 0.138772994
0.834535003 0.527893543 0.137887418
0.871473610 0.533965528 0.136622414
0.904870152 0.541049659 0.137634411
0.944086313 0.550284564 0.134977534
0.976976752 0.558127761 0.144718230
0.994560361 0.565591455 0.154712215
0.995825052 0.568627119 0.155850977
0.992789388 0.571663558 0.158886597
0.366603047 0.506767988 0.155597955
0.372675836 0.509803593 0.146489576
0.374952972 0.506388068 0.142947227
0.381530821 0.504364192 0.143959358
0.394939572 0.507400453 0.148260966
0.397975951 0.510436058 0.148260966
0.411385298 0.508665383 0.151296645
0.424414992 0.508665323 0.147501305
0.438077122 0.510689020 0.144465223
0.453383982 0.510562539 0.156230479
0.468690872 0.507526934 0.147628129
0.487413228 0.508538783 0.151170254
0.510309994 0.510435998 0.152688310
0.533839047 0.510689020 0.145603999
0.558127820 0.510689020 0.151675984
0.572295964 0.513345838 0.147122011
0.591524422 0.512839854 0.146616191
0.615306914 0.510689020 0.147501796
0.639594972 0.510689020 0.141429022
0.664642811 0.513725400 0.136116073
0.694876730 0.520809770 0.135989785
0.729285300 0.530170858 0.137507960
0.765717983 0.539278567 0.137761012
0.796078801 0.548386991 0.137760997
0.831498921 0.555218041 0.139531702
0.870714307 0.561290026 0.138140038
0.910942197 0.568374157 0.134598017
0.944339335 0.580518901 0.140670016
0.972928822 0.584440172 0.140670002
0.991903961 0.593295515 0.149019450
0.998861372 0.602024317 0.155092001
0.995825052 0.605059981 0.149778977
0.382542372 0.551549375 0.148513645
0.388614446 0.549019754 0.147754610
0.398988217 0.549905121 0.145098001
0.402783215 0.546362936 0.143959358
0.410752386 0.546362936 0.146616191
0.416191936 0.549399197 0.149020001
0.426818639 0.552434802 0.149020001
0.440101355 0.551549375 0.148513645
0.453763366 0.552687764 0.143959358
0.470967472 0.552687764 0.148007616
0.488931239 0.555344582 0.145350769
0.506135345 0.554332733 0.146363154
0.527767301 0.555471063 0.149019718
0.551549733 0.555471063 0.142314643
0.570777833 0.555471063 0.143326640
0.595066667 0.553067267 0.146995455
0.613282979 0.556862772 0.143579811
0.635673940 0.558254421 0.142820865
0.657811761 0.558254421 0.138899416
0.684883118 0.558254480 0.141176015
0.711069107 0.561290383 0.137001753
0.743706644 0.567615390 0.139278993
0.779886365 0.575078785 0.142568022
0.810246468 0.586844027 0.137254998
0.845161200 0.595951796 0.132700995
0.881593645 0.602529764 0.131435663
0.919797421 0.609107852 0.127766997
0.953193963 0.618975282 0.129284978
0.981277466 0.623150229 0.140669957
0.994433880 0.626185834 0.142947212
1.000000000 0.634408593 0.152055621
0.998861372 0.641239703 0.157368660
0.403415471 0.593295217 0.145098001
0.403794736 0.592156827 0.139405265
0.410372794 0.591271460 0.137508005
0.419987589 0.591271460 0.141302839
0.424794495 0.589247167 0.142061815
0.433902472 0.590765417 0.139026210
0.443137378 0.590006173 0.139532268
0.458570719 0.594686449 0.144465551
0.471979827 0.594433606 0.143200263
0.489057451 0.593295217 0.143200263
0.503478765 0.594307303 0.140290871
0.521694958 0.599114478 0.137634039
0.538772583 0.597975850 0.141429529
0.560784280 0.597469747 0.137634039
0.582289696 0.599114478 0.139278740
0.603415608 0.596710682 0.134092078
0.630740404 0.596710682 0.137128457
0.653763711 0.601771295 0.134851173
0.676280975 0.603036463 0.131815225
0.697406590 0.603036463 0.136242643
0.726628721 0.603036463 0.137381002
0.753953099 0.606072068 0.132321388
0.787476242 0.611258447 0.133839488
0.817836761 0.619860768 0.133080259
0.852751315 0.629728138 0.128905997
