Assets/Resources/EldamarStudio/100 Horror LUTs Pack/LUTs/cube/Gravevenom LUT.cube
LUT_3D_SIZE 5
DOMAIN_MIN 0.000000 0.000000 0.000000
DOMAIN_MAX 0.903226 0.903226 0.903226
0.078431003 0.047059000 0.047059000
0.109170996 0.050980002 0.052624710
0.171283990 0.070588000 0.073877417
0.294371009 0.116761126 0.103984997
0.543200433 0.176596820 0.142567992
0.094117999 0.104616992 0.079443701
0.124224991 0.107906409 0.079443701
0.187982276 0.129158691 0.098418705
0.313978255 0.170777828 0.124225415
0.567741692 0.241113499 0.167109698
0.110436417 0.237444401 0.141302988
0.145857409 0.240101382 0.130802989
0.225680232 0.260341823 0.142567992
0.365717649 0.308412522 0.169386402
0.634028971 0.400379628 0.219860807
0.095129870 0.488804251 0.198355243
0.164579690 0.502467215 0.216824710
0.312460512 0.521441877 0.231878534
0.487792373 0.554459333 0.266034126
0.739531875 0.630613267 0.355723947
0.422138005 0.829221785 0.504237354
0.458191097 0.833269596 0.504364192
0.559645772 0.843011022 0.543453336
0.701707721 0.855154872 0.584187090
0.849082708 0.867172599 0.650474429
0.086274996 0.047059000 0.082353003
0.110815704 0.054901998 0.091840707
0.172928706 0.084377408 0.110815704
0.300569117 0.120303839 0.146489412
0.550031304 0.159898862 0.191271529
0.098039001 0.109170996 0.105249994
0.121947698 0.116381988 0.113472693
0.186337575 0.133080289 0.129158705
0.311701089 0.170398295 0.153699994
0.571030855 0.233143687 0.208601817
0.107526705 0.236432701 0.161543414
0.143453285 0.241998374 0.162808403
0.224668115 0.260341823 0.176217690
0.371916533 0.308412522 0.203035697
0.642884314 0.398102522 0.261480063
0.078305006 0.493105799 0.243643537
0.163567573 0.503479123 0.252498567
0.309550792 0.521821558 0.271220952
0.492726266 0.553826749 0.307273954
0.735230982 0.630613267 0.398861527
0.423276365 0.831625342 0.524351537
0.466287225 0.831372619 0.537128210
0.563946784 0.843011022 0.561290264
0.701454759 0.854775310 0.601897299
0.843137443 0.875015616 0.668564081
0.086274996 0.051612586 0.161543414
0.109803997 0.066033997 0.162175998
0.179126993 0.092220411 0.180518821
0.303858101 0.125869706 0.229348689
0.560910821 0.141176000 0.306134969
0.096394710 0.118659116 0.182163104
0.121568576 0.121947698 0.181783825
0.186337993 0.139278993 0.202403694
0.319923848 0.169386417 0.238456950
0.591271281 0.204300702 0.317646921
0.105249576 0.234788403 0.238709405
0.131688714 0.247564688 0.238076985
0.230866402 0.276027828 0.268817395
0.386717200 0.307147503 0.296647668
0.663504422 0.380771607 0.359898776
0.006831284 0.499177814 0.345097691
0.121315710 0.505755842 0.351549536
0.295762420 0.528652489 0.368627101
0.494623244 0.559012949 0.396837384
0.743200541 0.637191653 0.488172024
0.413535804 0.827956736 0.591650546
0.458191097 0.838456571 0.597469568
0.559013367 0.839721620 0.616445422
0.703098834 0.854395747 0.652371824
0.853636980 0.874383211 0.718532562
0.071600132 0.067678869 0.302340239
0.114737704 0.078431003 0.312460542
0.204427689 0.095762126 0.325869232
0.329791248 0.125489995 0.365085274
0.579506576 0.138519838 0.462618619
0.057938170 0.127513990 0.333207130
0.114990160 0.135610431 0.329664856
0.211891413 0.148133859 0.352055669
0.350664258 0.172296122 0.379759699
0.606072068 0.204680562 0.477039754
0.000632584 0.269196540 0.388235539
0.072612293 0.270208657 0.396963924
0.225680232 0.284503400 0.415433377
0.399240673 0.311321825 0.444276065
0.676913261 0.366350383 0.527387679
0.001012128 0.511322141 0.497659385
0.051992688 0.521062434 0.498545080
0.283365220 0.537128687 0.526628196
0.516255260 0.579000473 0.567236245
0.755217850 0.632005036 0.616951227
0.406451166 0.832384706 0.688172221
0.450727224 0.834788084 0.697406590
0.549525499 0.845035017 0.705249608
0.698418915 0.857178867 0.737254739
0.856925726 0.879949450 0.776596844
0.005186845 0.053510334 0.660974205
0.041113589 0.051866043 0.657305241
0.268310964 0.054775178 0.671473384
0.471600056 0.062239323 0.698292196
0.688298404 0.123212948 0.728905380
0.000000000 0.140543833 0.675015688
0.000000000 0.140543818 0.676280499
0.264263391 0.137254998 0.686401010
0.472864926 0.162175983 0.707020700
0.706767380 0.215433359 0.739025831
0.002530012 0.300948799 0.701961040
0.002909876 0.294370562 0.713725567
0.209993541 0.310816199 0.719670594
0.484882772 0.343833089 0.738013506
0.736116111 0.403795183 0.766097188
0.003922000 0.586844087 0.765844703
0.005060117 0.589500248 0.763187706
0.264263451 0.586211503 0.773814023
0.528399408 0.603541911 0.782289743
0.783934236 0.652245224 0.805565774
0.443137020 0.852877557 0.841113627
0.469829172 0.855154812 0.838583291
0.566349924 0.854142606 0.841113448
0.707526743 0.869196594 0.860341430
0.869955599 0.891966760 0.885515451
