Assets/Resources/EldamarStudio/100 Horror LUTs Pack/LUTs/cube/Gravevenom LUT.cube
DOMAIN_MIN 0 0 0
DOMAIN_MAX 1 1 1
LUT_3D_SIZE 32
0.078431003 0.047059000 0.047059000
0.081467390 0.044022612 0.047059000
0.084503770 0.045287773 0.049209226
0.086274996 0.047059000 0.048450001
0.086654447 0.046679452 0.043136999
0.089690059 0.043643065 0.043136999
0.100315996 0.048197001 0.048197001
0.109170996 0.050980002 0.052624710
0.114484094 0.051739097 0.054901998
0.117520489 0.054775488 0.054901998
0.132194862 0.057811871 0.054901998
0.143327251 0.062871993 0.058949992
0.153574005 0.067805350 0.065021999
0.165212005 0.070588000 0.070841029
0.171283990 0.070588000 0.073877417
0.184566796 0.077798799 0.076913193
0.198229000 0.085388996 0.082985193
0.212270558 0.090828575 0.090828575
0.233522981 0.093864977 0.093864977
0.246426001 0.099684007 0.096900649
0.268058211 0.107653253 0.099936739
0.294371009 0.116761126 0.103984997
0.318785489 0.125869498 0.110056989
0.346109927 0.134977907 0.116129003
0.375711560 0.141809002 0.122200996
0.408855289 0.147880986 0.126881674
0.446806043 0.154964998 0.130423993
0.492346406 0.167108983 0.136495993
0.543200433 0.176596820 0.142567992
0.596584320 0.185705200 0.152181968
0.653004169 0.196584597 0.164326206
0.713724971 0.211765006 0.176470995
0.081467390 0.044022612 0.040987000
0.081467390 0.047059000 0.056167386
0.086654000 0.052625161 0.056167386
0.090575770 0.052372225 0.053257611
0.092726447 0.048197545 0.047691386
0.095762059 0.055787839 0.058317386
0.098798320 0.052751452 0.053257387
0.111069083 0.055661093 0.055661093
0.122074671 0.057811674 0.058697287
0.129664481 0.060847484 0.060973998
0.135609999 0.060973998 0.063883863
0.146362871 0.065907605 0.064010382
0.156609610 0.070841253 0.065781385
0.168247670 0.074130386 0.068058386
0.174320385 0.079696387 0.073877417
0.187602580 0.082100190 0.074510001
0.202782810 0.091461383 0.079949580
0.217077553 0.099304385 0.088425383
0.233522996 0.099936977 0.093864985
0.254775345 0.102972642 0.102466650
0.273371130 0.110689342 0.107905999
0.296394736 0.118785381 0.110056743
0.318785489 0.125869498 0.110056989
0.346109927 0.134977907 0.116129003
0.377988279 0.144086286 0.124478281
0.413282573 0.152308702 0.131309375
0.452372134 0.160531059 0.135989934
0.495382786 0.170145378 0.139531612
0.543579996 0.179633215 0.153573424
0.596584320 0.186970368 0.157242000
0.651233137 0.200126573 0.167868197
0.707652986 0.223908991 0.188614994
0.082353003 0.047437999 0.039216001
0.084503770 0.050474387 0.047944613
0.088804774 0.051360000 0.054522451
0.092346773 0.056673225 0.054522451
0.095256448 0.051739547 0.050727319
0.101834059 0.057305932 0.062871769
0.104870319 0.062745452 0.055534225
0.109550998 0.059709065 0.056040641
0.120936230 0.060974225 0.059582900
0.128652513 0.062618524 0.062618516
0.143453538 0.067046002 0.065654866
0.147501290 0.069070257 0.068690740
0.156356648 0.075015776 0.068817228
0.167488769 0.079064034 0.069323227
0.177356049 0.083238766 0.075395226
0.192789733 0.089057811 0.078811005
0.204933345 0.093612000 0.080329195
0.217583567 0.102593414 0.087539986
0.229727998 0.104111232 0.093612008
0.254775375 0.109044649 0.100316428
0.274130464 0.115875736 0.107526764
0.296141744 0.122960128 0.112586640
0.319164991 0.127893761 0.112333730
0.352561712 0.134977907 0.120430000
0.380139053 0.146236509 0.126628503
0.414927065 0.153953210 0.131562218
0.454143137 0.162808135 0.136622295
0.496647835 0.173561215 0.142947316
0.542314827 0.184819818 0.154458806
0.601517975 0.193928197 0.166097194
0.658570528 0.203036129 0.170777753
0.714484572 0.225300223 0.190006226
0.083618164 0.056040321 0.043010838
0.081594221 0.059076384 0.047817998
0.090576001 0.057431996 0.050474387
0.097912833 0.058697160 0.054775160
0.097533382 0.059076611 0.054395709
0.103099220 0.062112771 0.062112872
0.109677158 0.067678839 0.059076678
0.114358157 0.070082292 0.055534255
0.120430157 0.067046098 0.060088836
0.126502156 0.066540167 0.062618516
0.140417412 0.072359160 0.066919707
0.152308911 0.076407418 0.068690740
0.157621518 0.080582164 0.072865002
0.167235881 0.086401135 0.073118001
0.180391982 0.089437254 0.077165999
0.193548426 0.093611993 0.082099967
0.207210958 0.100948833 0.086401194
0.218216136 0.105755836 0.088804998
0.229221985 0.108159035 0.093612008
0.252498358 0.115243167 0.099684007
0.275395304 0.121947736 0.104490831
0.296647966 0.130043983 0.110562839
0.321315497 0.133586332 0.114231013
0.354332656 0.140797004 0.124478064
0.385199279 0.150158152 0.127514005
0.415433139 0.160784304 0.135862991
0.453384012 0.167362258 0.136369050
0.496647835 0.178747714 0.143959448
0.544338703 0.192156971 0.156989142
0.599746704 0.201265037 0.166097194
0.662112534 0.212144434 0.176976591
0.719038665 0.227324158 0.189500168
0.085895449 0.068564542 0.051359549
0.078305162 0.070841156 0.054775383
0.085642226 0.068564087 0.056040544
0.097533382 0.065528154 0.057811543
0.105881996 0.068564542 0.063503996
0.102846384 0.071600154 0.060468383
0.109930225 0.076786548 0.059582997
0.117393866 0.079569548 0.061227284
0.123466447 0.079190098 0.063883543
0.129538447 0.076154485 0.063883550
0.138899222 0.081467547 0.069702543
0.149272516 0.085515708 0.071346998
0.161037445 0.089310996 0.073624097
0.170145050 0.095129967 0.079190098
0.185072407 0.098165579 0.079190098
0.195066258 0.101960801 0.083618060
0.204933643 0.106894352 0.089690447
0.215939537 0.114863545 0.094876997
0.234155580 0.114863560 0.094877005
0.255154938 0.123212904 0.100443006
0.276407272 0.130043998 0.104617253
0.298924685 0.136495546 0.108665094
0.326375514 0.142694056 0.114737086
0.353952914 0.151802465 0.126375809
0.383934081 0.160910845 0.127893716
0.416065633 0.170398667 0.131435528
0.451486170 0.179507032 0.142820612
0.497027308 0.188614637 0.145857006
0.547880769 0.202276796 0.157621801
0.604047716 0.213282526 0.167868435
0.662112534 0.222011134 0.177356049
0.713724971 0.237191543 0.192536458
0.082859069 0.083744928 0.054395933
0.085895449 0.080708548 0.060467932
0.091208160 0.082985707 0.063883774
0.098798223 0.081973709 0.065148935
0.102846384 0.080708548 0.066540383
0.105881996 0.083744928 0.069575995
0.112966388 0.086780548 0.066540390
0.120429926 0.088677935 0.067299291
0.126502067 0.088677935 0.070335090
0.132574067 0.088298477 0.072991945
0.144465804 0.091081865 0.078810938
0.152055874 0.094623677 0.078810684
0.162555635 0.097659707 0.079696283
0.176217824 0.101201966 0.085262865
0.185325444 0.104237571 0.085262865
0.193041995 0.112080798 0.087666057
0.204174250 0.115622997 0.092726059
0.218975201 0.118405923 0.098165639
0.237191975 0.123971947 0.100949004
0.258191317 0.132321298 0.106515005
0.279443651 0.137634188 0.110689260
0.300696045 0.143200129 0.114737257
0.323339880 0.151802436 0.120809861
0.353699923 0.160910845 0.126881868
0.385831833 0.170019209 0.131688699
0.420113862 0.180518910 0.136495665
0.457558185 0.191651076 0.146110013
0.503099322 0.200759411 0.154965386
0.553953350 0.209867015 0.155344933
0.607337117 0.223529175 0.163187742
0.662112534 0.237191528 0.175331637
0.713724971 0.252371937 0.195572063
0.089943320 0.093864672 0.067552321
0.092979059 0.093358614 0.063504323
0.096015446 0.094623774 0.067425549
0.104364157 0.096395001 0.070461839
0.109550677 0.095003322 0.071727000
0.110436067 0.095888935 0.072612382
0.113472320 0.093864679 0.073118322
0.124224991 0.095256001 0.070082292
0.132067993 0.096773997 0.072106004
0.138139993 0.100316003 0.076913171
0.144971743 0.105755545 0.082859315
0.153068006 0.106767677 0.086907059
0.162555635 0.109297641 0.086021319
0.177482992 0.112586997 0.089310676
0.188867897 0.117899895 0.093864672
0.200379312 0.123339310 0.098671667
0.211258516 0.129285187 0.100315996
0.227703869 0.130929738 0.103731573
0.247817963 0.135104015 0.106767975
0.266287059 0.141429678 0.110056683
0.287539423 0.150537580 0.116129160
0.308791816 0.154838458 0.120809637
0.330297142 0.161037311 0.126755476
0.358254015 0.172548905 0.130423680
0.390891850 0.181657284 0.138772964
0.428463280 0.192156985 0.143706307
0.467678696 0.203795061 0.150664061
0.509171307 0.212903440 0.155724451
0.560025394 0.227071792 0.161923006
0.613409281 0.236179382 0.170778185
0.668943763 0.251612574 0.184060618
0.723845661 0.270081997 0.203668326
0.094117999 0.104616992 0.079443701
0.103731602 0.104616992 0.071727000
0.101834059 0.106767766 0.073750935
0.103605285 0.108538993 0.078051709
0.110815547 0.108538993 0.079569995
0.112080708 0.108538993 0.074510001
0.117900029 0.109298088 0.081087992
0.124224991 0.107906409 0.079443701
0.134092093 0.108665310 0.077925310
0.139278710 0.113851704 0.083111711
0.148640022 0.116634697 0.087539740
0.156357005 0.121947698 0.089943446
0.162428990 0.121947698 0.092979059
0.175838277 0.124478020 0.093738027
0.187982276 0.129158691 0.098418705
0.203415707 0.135230690 0.102845997
0.217077911 0.141302690 0.107400186
0.232258111 0.144465581 0.108791694
0.251486301 0.147501469 0.112839967
0.269955724 0.153320715 0.112586647
0.291713744 0.159645960 0.119164765
0.313978255 0.170777828 0.124225415
0.336116165 0.176597208 0.129791468
0.363440603 0.187223420 0.135863096
0.396963835 0.195445985 0.141809002
0.433143616 0.204554006 0.148134038
0.476407409 0.216445118 0.153447062
0.519291401 0.226692140 0.156483456
0.567741692 0.241113499 0.167109698
0.621125996 0.254396141 0.173561186
0.674003839 0.264389366 0.186970368
0.729412019 0.283364713 0.202909306
0.097153999 0.116761193 0.090069897
0.107779615 0.116761193 0.077166617
0.109423995 0.118152872 0.078811005
0.106641091 0.122200996 0.084883004
0.107020542 0.121821545 0.089437000
0.110056832 0.121442094 0.078052007
0.118912317 0.123213321 0.085389093
0.125743389 0.125363901 0.090828612
0.134092093 0.126122996 0.087793000
0.137128502 0.129158616 0.090828620
0.149652094 0.130044192 0.094623871
0.159013256 0.132574201 0.095636003
0.168501005 0.137887195 0.097533450
0.175078988 0.137887195 0.100316100
0.187222987 0.140417516 0.102846414
0.204174593 0.145857096 0.105882183
0.220114097 0.151929080 0.109677285
0.235294461 0.158001080 0.111448526
0.250474155 0.161163986 0.117141001
0.269196719 0.167742103 0.117899835
0.289689988 0.173814088 0.119417734
0.313978255 0.180645123 0.127261028
0.338772982 0.195698991 0.130550399
0.367995024 0.205439806 0.139658198
0.400632471 0.213030010 0.144971475
0.439215600 0.222011507 0.151170418
0.480202138 0.231119260 0.155218035
0.528778851 0.243010983 0.158760354
0.578873754 0.257052809 0.170904711
0.629474759 0.270461947 0.183048964
0.683112025 0.284883052 0.188488558
0.731688917 0.297027081 0.197596192
0.109297998 0.128905982 0.105249509
0.106261611 0.128905982 0.080961525
0.106134996 0.128905982 0.078811012
0.107147157 0.132827342 0.084883012
0.110056929 0.140037566 0.089437008
0.113092549 0.137001947 0.083365008
0.123719163 0.136622503 0.089690328
0.129158989 0.138393298 0.095635772
0.131056473 0.141302630 0.096900620
0.137128502 0.144339025 0.093865015
0.151802868 0.147375375 0.099810489
0.160784498 0.148260981 0.101708010
0.169259995 0.150790989 0.103985004
0.181150988 0.156103984 0.109424487
0.193294987 0.156103984 0.109424487
0.210246593 0.161037505 0.111954190
0.225427002 0.167109489 0.116508387
0.238330081 0.173181489 0.120556913
0.253510505 0.179253519 0.117520534
0.274256885 0.187982365 0.125996366
0.293485016 0.195066497 0.127008229
0.313978255 0.201138496 0.127513990
0.338772982 0.207843006 0.133586019
0.375205815 0.219987020 0.142694429
0.406704485 0.229727820 0.144971490
0.442883790 0.241492659 0.149399176
0.486274123 0.255408049 0.158254430
0.534850895 0.264516413 0.167362019
0.588741243 0.276407480 0.176217332
0.639595270 0.288677961 0.189120695
0.689310491 0.303478599 0.200379610
0.740796506 0.324351490 0.203668967
0.109803997 0.146869004 0.094244003
0.109677479 0.152687997 0.096141867
0.106641091 0.152687997 0.089057870
0.108411998 0.152687997 0.094876707
0.113851674 0.155723870 0.100695550
0.121947929 0.155217946 0.092093870
0.124984190 0.154712006 0.096141875
0.132700995 0.156356722 0.099936999
0.137508094 0.158633739 0.101707771
0.145730868 0.159519359 0.102972612
0.151802868 0.159645870 0.105756000
0.162934735 0.164705992 0.107779995
0.172169417 0.167615637 0.110056996
0.184566900 0.171663836 0.115622997
0.199367732 0.174319997 0.115622997
0.209107921 0.179126993 0.115622997
0.227324307 0.183681190 0.118153058
0.244908154 0.188361853 0.122833990
0.262365878 0.194433883 0.126628906
0.283112228 0.203289226 0.131941870
0.304364622 0.212397113 0.135230988
0.326628864 0.219481260 0.135230735
0.352814823 0.225680217 0.139151990
0.378114939 0.235040873 0.139911041
0.419101655 0.247185439 0.151296705
0.457558155 0.258317709 0.158001184
0.499557048 0.271979928 0.166603252
0.540923595 0.285895288 0.173308268
0.594813287 0.297659844 0.185072705
0.651233494 0.311575055 0.196204841
0.702340424 0.326628715 0.206704617
0.749904871 0.345856875 0.209740996
0.107779741 0.163061246 0.100316249
0.109803997 0.167109504 0.099304117
0.109677479 0.172928512 0.100189731
0.111701414 0.171663344 0.100189731
0.117773511 0.170524791 0.106261544
0.121948197 0.168880507 0.103731930
0.130044058 0.172928512 0.105249733
0.134724736 0.172928512 0.109677441
0.141555831 0.175585151 0.109297901
0.150664225 0.176849991 0.109803520
0.158886999 0.178874254 0.114864118
0.166983247 0.180897996 0.113851994
0.177229509 0.185831636 0.113851994
0.189374000 0.188868031 0.118152998
0.202783152 0.191904083 0.121694997
0.221252441 0.199367240 0.125742987
0.231878236 0.203921437 0.127261177
0.250980139 0.207590237 0.130297408
0.269196957 0.213662267 0.134977743
0.288172096 0.220493346 0.134977996
0.315117180 0.227703989 0.142947733
0.335736990 0.236685380 0.143327251
0.360404700 0.244022980 0.145603985
0.392283261 0.255028367 0.151296258
0.428210050 0.266413838 0.162428558
0.469323128 0.278558224 0.167615667
0.511195421 0.290702254 0.174193442
0.552182317 0.304364413 0.181783617
0.602909803 0.320935965 0.193169221
0.655787349 0.336622387 0.203541994
0.710309863 0.352941245 0.217204198
0.756989002 0.371157259 0.225933254
0.108158998 0.182795629 0.113219641
0.110056736 0.184693381 0.111321896
0.112080999 0.188741624 0.111574635
0.112460516 0.192157120 0.111574635
0.120809905 0.189120740 0.111574635
0.121569000 0.186084926 0.113851927
0.128020316 0.187223643 0.113472320
0.136621997 0.192283630 0.117646702
0.144971088 0.193801641 0.120683089
0.154838488 0.197216794 0.118405804
0.162808225 0.200252861 0.122960098
0.170778260 0.202150375 0.122960389
0.182163358 0.205186278 0.121062644
0.194813415 0.208475634 0.121568643
0.208728641 0.212397411 0.127640635
0.224667788 0.220240474 0.132573992
0.244781628 0.225173831 0.135989547
0.257558197 0.228842616 0.138393357
0.275268972 0.234914660 0.140923038
0.295762002 0.243263632 0.145224348
0.318152815 0.250474274 0.144086093
0.348513603 0.256546289 0.153194487
0.367868096 0.265654624 0.153826997
0.403288811 0.277798653 0.161922753
0.441998839 0.288804591 0.172169283
0.482606262 0.300948948 0.182416022
0.522074699 0.314105123 0.180898339
0.563946843 0.327514261 0.189373538
0.614421427 0.343832910 0.200000018
0.667172730 0.362049043 0.213789031
0.718785405 0.379380226 0.226438865
0.767615259 0.397343278 0.244908631
0.113472030 0.210120037 0.123086996
0.113472030 0.209867075 0.121821970
0.116128802 0.212017775 0.123466253
0.117900029 0.214295000 0.126755029
0.118279517 0.213915527 0.125489995
0.121315904 0.210879132 0.125489995
0.127894029 0.208096355 0.121441998
0.134851336 0.209488034 0.121441990
0.144971088 0.215560034 0.126249090
0.160151497 0.221632019 0.129285485
0.166856036 0.224541187 0.132321119
0.173687503 0.225806087 0.131562218
0.182922378 0.226691708 0.130170956
0.198355094 0.229981065 0.130423993
0.216571853 0.236053064 0.136495993
0.230233982 0.244022802 0.139911234
0.246679217 0.249082997 0.142188057
0.267172575 0.250601023 0.142947033
0.282353014 0.256673038 0.142947048
0.305123091 0.267805040 0.154838413
0.328272760 0.278051794 0.158254042
0.352055281 0.286401063 0.156483129
0.382542491 0.292726040 0.165464997
0.415938944 0.304870069 0.171536997
0.453889877 0.314737350 0.177862033
0.494750261 0.325743049 0.184187040
0.537255108 0.338899136 0.190259054
0.576723456 0.357115895 0.196331054
0.626059413 0.372422844 0.205312863
0.679190338 0.389120996 0.219481394
0.732953727 0.406957656 0.238836557
0.784566939 0.422138065 0.260088950
0.110436417 0.237444401 0.141302988
0.110436417 0.234408766 0.126122594
0.116888195 0.236306041 0.122707352
0.120936416 0.240606964 0.129791424
0.121315867 0.244275510 0.140037864
0.124351509 0.241239876 0.125489995
0.140038207 0.240733802 0.130549997
0.145857409 0.240101382 0.130802989
0.150031731 0.242884398 0.131309092
0.160151497 0.248956382 0.129285485
0.169512868 0.249209389 0.132321119
0.182036668 0.251866072 0.133332998
0.194180995 0.253131211 0.134977579
0.207463473 0.254269809 0.139531612
0.225680232 0.260341823 0.142567992
0.241492584 0.264010012 0.143832996
0.257558346 0.269829005 0.149019614
0.277039945 0.275268555 0.156230241
0.297533393 0.283997387 0.164199382
0.312713772 0.290069401 0.155850753
0.339278817 0.299304128 0.165085405
0.365717649 0.308412522 0.169386402
0.391650856 0.317014784 0.171536982
0.425047308 0.329158813 0.177608997
0.462998241 0.339026093 0.185958281
0.503858328 0.352308780 0.194434077
0.546868742 0.369259804 0.202403829
0.591903806 0.387475848 0.208475828
0.634028971 0.400379628 0.219860807
0.683744550 0.414927572 0.233143583
0.735989928 0.432511389 0.251612961
0.787602603 0.452498823 0.275268555
0.107400194 0.264768779 0.142694190
0.112207189 0.261733174 0.144339204
0.112207189 0.262998015 0.131309047
0.120556548 0.266033947 0.133839503
0.124351732 0.269449592 0.147122264
0.127387866 0.264389724 0.140037864
0.140670642 0.268690795 0.140164599
0.152309000 0.267046094 0.141302884
0.156103894 0.267805159 0.140543804
0.165211514 0.273877591 0.139152467
0.179126859 0.276533782 0.144338921
0.186210990 0.276533782 0.143327057
0.201391488 0.280328959 0.144085959
0.216318831 0.283111989 0.148892805
0.232384816 0.287033767 0.154079407
0.250600964 0.293105781 0.159518987
0.265780985 0.296141386 0.159518987
0.285009533 0.300695360 0.164073184
0.309803993 0.306261748 0.167868033
0.330297351 0.314990610 0.174699336
0.353067696 0.324857563 0.173181728
0.381909907 0.334471911 0.180771664
0.408095956 0.343833268 0.182289496
0.443769693 0.358254611 0.186084807
0.474889338 0.370398581 0.194434091
0.516761601 0.383807749 0.202150792
0.560277939 0.401011914 0.210752994
0.603921294 0.415433377 0.220619991
0.649209380 0.430739641 0.227197975
0.691714108 0.446426392 0.244655147
0.741429508 0.463124782 0.265528172
0.793042004 0.482858986 0.292852610
0.108917996 0.292093188 0.145730197
0.113472186 0.290575385 0.151802585
0.118279189 0.290322423 0.149525836
0.119544350 0.293358356 0.141176209
0.128146634 0.296015203 0.151676357
0.133459747 0.292220175 0.153194249
0.140544131 0.294750392 0.152182132
0.152309000 0.298924685 0.151929483
0.160658091 0.296647370 0.151170194
0.171283901 0.301201969 0.152688190
0.184693053 0.304364502 0.155471191
0.198355392 0.306894183 0.158507064
0.207843021 0.308032840 0.156609803
0.225427151 0.313472331 0.159519047
0.240607202 0.316508412 0.165591374
0.258191168 0.320430189 0.170145199
0.277925372 0.326502174 0.174699381
0.294370741 0.329537958 0.174699381
0.319924206 0.332574368 0.174699381
0.341682553 0.341176361 0.178494543
0.368247688 0.353700161 0.186843544
0.397596359 0.364832312 0.189879939
0.426059335 0.374067158 0.193168700
0.459708810 0.387855917 0.198988095
0.494623542 0.402277172 0.206578091
0.529158950 0.413029820 0.214295149
0.576470435 0.430866390 0.220367193
0.624035001 0.445034891 0.230487183
0.664642453 0.461353689 0.244908363
0.708412349 0.478304595 0.258317351
0.749146223 0.495635778 0.280455381
0.797596216 0.513219357 0.309551179
0.113724999 0.321947694 0.155470982
0.116128810 0.321947694 0.160277992
0.121947996 0.320682704 0.160531193
0.126122594 0.321315289 0.158127815
0.129917979 0.324731141 0.155470982
0.139025643 0.325237125 0.163820356
0.144971311 0.327134848 0.163440675
0.151296690 0.330170810 0.161037132
0.161290511 0.332447529 0.159645990
0.176470920 0.332447529 0.165717989
0.190006569 0.335989982 0.166603580
0.204174668 0.339025855 0.167994887
0.219355047 0.342694163 0.171157137
0.234788477 0.345983505 0.171410099
0.250347704 0.349398673 0.177103236
0.267931581 0.351802319 0.181404173
0.288298756 0.355724096 0.184440166
0.308285952 0.361796111 0.186211407
0.329538405 0.364832491 0.186211407
0.352055937 0.372801781 0.188108981
0.378368139 0.383807272 0.191903830
0.409107804 0.398228675 0.200252697
0.442504913 0.407590032 0.203162566
0.473371148 0.420240134 0.210752904
0.509550691 0.433396399 0.221125841
0.549272478 0.447691172 0.228209749
0.587729573 0.457305521 0.236812472
0.644401968 0.475268513 0.243516967
0.685388565 0.494117618 0.263504326
0.724730909 0.511701465 0.282985479
0.766729772 0.529032111 0.304237723
0.803162575 0.544212520 0.328526527
0.113724992 0.361416966 0.167615011
0.113724992 0.361416966 0.167615011
0.120429792 0.357115954 0.168121010
0.125489980 0.354079962 0.167868048
0.126881585 0.355091989 0.167615011
0.135989964 0.361164004 0.167615011
0.147627965 0.361670017 0.168374047
0.157368720 0.363567322 0.168121010
0.167236015 0.365844041 0.168627143
0.179506555 0.365844041 0.171790019
0.197596803 0.371663779 0.174952880
0.213282719 0.375458717 0.175711975
0.228462696 0.379633009 0.178241953
0.243896127 0.385452002 0.183554918
0.262112886 0.391523987 0.186590523
0.280075967 0.392535985 0.192283034
0.301328421 0.394307196 0.196584210
0.323466420 0.398229003 0.198355451
0.338646054 0.404300988 0.195319071
0.365465134 0.410120010 0.203668416
0.392283738 0.416445017 0.206325039
0.420872957 0.426312149 0.210120127
0.451612562 0.440986514 0.218342990
0.485009789 0.456166953 0.218342990
0.524984539 0.466540277 0.230487302
0.569766223 0.480328977 0.239595279
0.615054071 0.496774018 0.245920137
0.648450375 0.508917987 0.267172486
0.694496691 0.529537797 0.289816678
0.735736609 0.546995223 0.310309947
0.776344180 0.562428594 0.332068205
0.818342984 0.577609003 0.361923009
0.108158991 0.403668731 0.176976353
0.108158991 0.403668731 0.176976353
0.112459995 0.403668731 0.179127127
0.120935798 0.402656585 0.178494543
0.126628548 0.403415382 0.176976353
0.135736927 0.399873406 0.176976353
0.147375003 0.403415710 0.182036355
0.161163703 0.405313015 0.182542369
0.173308015 0.408348829 0.184060365
0.185452014 0.410373122 0.189120501
0.208981737 0.413409472 0.183807522
0.225174263 0.417457461 0.188867658
0.241492704 0.421631724 0.191524297
0.258570433 0.427197725 0.195446014
0.276787192 0.428209752 0.195951939
0.297406554 0.436685532 0.203795165
0.317520201 0.439342290 0.208728522
0.341808796 0.443011105 0.212396994
0.367741793 0.449083120 0.215812415
0.385705441 0.455155104 0.221126080
0.413030088 0.463124841 0.226438984
0.441366345 0.471094310 0.230360493
0.472105861 0.482479244 0.239215851
0.510816097 0.492346674 0.241872013
0.548766613 0.507526994 0.248703301
0.587982297 0.519038737 0.262871683
0.628969133 0.533459723 0.273497820
0.664642751 0.545603693 0.290196151
0.706008971 0.560404539 0.308791697
0.751422822 0.577861905 0.332827389
0.796457767 0.592156768 0.357495278
0.844655395 0.605439365 0.389753371
0.100189745 0.444275707 0.184186995
0.103984743 0.446173459 0.193674728
0.112080738 0.446173459 0.192030504
0.118152738 0.447438300 0.193801731
0.127387539 0.450094461 0.192536473
0.139531925 0.447058439 0.195572466
0.145477742 0.450474501 0.194939733
0.162555441 0.451866180 0.202656433
0.180518731 0.453889936 0.201897472
0.197216749 0.455787688 0.203415468
0.217204466 0.460721344 0.203541741
0.237318248 0.461859941 0.203668475
0.254775643 0.466034174 0.208601832
0.274003774 0.471853137 0.211638018
0.293864816 0.473497450 0.213282734
0.316381931 0.476913244 0.214800790
0.340670317 0.484503448 0.222390980
0.362681776 0.489184290 0.226438716
0.389247417 0.496521443 0.232510746
0.408475697 0.498798430 0.238582954
0.436179698 0.504870474 0.242757991
0.463504106 0.512966692 0.245793864
0.493105233 0.521188974 0.253131211
0.529032469 0.530297399 0.259708852
0.570398748 0.542061985 0.271094024
