Assets/Resources/EldamarStudio/100 Horror LUTs Pack/LUTs/cube/Gravevenom LUT.cube
LUT_3D_SIZE 8
DOMAIN_MIN 0.000000 0.000000 0.000000
DOMAIN_MAX 0.903226 0.903226 0.903226
0.078431003 0.047059000 0.047059000
0.086654447 0.046679452 0.043136999
0.114484094 0.051739097 0.054901998
0.153574005 0.067805350 0.065021999
0.198229000 0.085388996 0.082985193
0.268058211 0.107653253 0.099936739
0.375711560 0.141809002 0.122200996
0.543200433 0.176596820 0.142567992
0.085895449 0.068564542 0.051359549
0.105881996 0.068564542 0.063503996
0.123466447 0.079190098 0.063883543
0.161037445 0.089310996 0.073624097
0.204933643 0.106894352 0.089690447
0.276407272 0.130043998 0.104617253
0.383934081 0.160910845 0.127893716
0.547880769 0.202276796 0.157621801
0.097153999 0.116761193 0.090069897
0.107020542 0.121821545 0.089437000
0.134092093 0.126122996 0.087793000
0.168501005 0.137887195 0.097533450
0.220114097 0.151929080 0.109677285
0.289689988 0.173814088 0.119417734
0.400632471 0.213030010 0.144971475
0.578873754 0.257052809 0.170904711
0.108158998 0.182795629 0.113219641
0.120809905 0.189120740 0.111574635
0.144971088 0.193801641 0.120683089
0.182163358 0.205186278 0.121062644
0.244781628 0.225173831 0.135989547
0.318152815 0.250474274 0.144086093
0.441998839 0.288804591 0.172169283
0.614421427 0.343832910 0.200000018
0.108917996 0.292093188 0.145730197
0.128146634 0.296015203 0.151676357
0.160658091 0.296647370 0.151170194
0.207843021 0.308032840 0.156609803
0.277925372 0.326502174 0.174699381
0.368247688 0.353700161 0.186843544
0.494623542 0.402277172 0.206578091
0.664642453 0.461353689 0.244908363
0.100189745 0.444275707 0.184186995
0.127387539 0.450094461 0.192536473
0.180518731 0.453889936 0.201897472
0.254775643 0.466034174 0.208601832
0.340670317 0.484503448 0.222390980
0.436179698 0.504870474 0.242757991
0.570398748 0.542061985 0.271094024
0.723086596 0.594939530 0.331182718
0.161290556 0.647564530 0.280961543
0.185199395 0.653383791 0.286147982
0.256166667 0.655154884 0.300189674
0.342820883 0.658823490 0.315369904
0.432384461 0.674889445 0.322074741
0.541429698 0.690322518 0.361037523
0.647817850 0.705376267 0.393927544
0.773181081 0.735104203 0.466160357
0.422138005 0.829221785 0.504237354
0.440100908 0.835420489 0.508032560
0.469323218 0.834534764 0.511448264
0.529538393 0.840986788 0.530170560
0.595066249 0.845161378 0.550284505
0.680455327 0.852118671 0.577609301
0.761542857 0.865148783 0.608602285
0.849082708 0.867172599 0.650474429
0.082353003 0.047059000 0.059582997
0.090575546 0.046679452 0.063503996
0.121062547 0.056040548 0.069323540
0.153194457 0.073244549 0.081087738
0.198608547 0.092093639 0.098292448
0.272359252 0.115243189 0.121948451
0.374193281 0.142062023 0.140290797
0.546742260 0.171283826 0.169512823
0.087033994 0.070967548 0.076027997
0.099177547 0.075648546 0.075648546
0.117140636 0.084250547 0.083491549
0.157494992 0.092472993 0.095635995
0.198987991 0.112080894 0.107400090
0.276786745 0.135863349 0.126881987
0.382163316 0.160910830 0.145097822
0.546363175 0.197722822 0.169892371
0.105123095 0.118279092 0.097153999
0.111321993 0.120683096 0.105123095
0.134851098 0.125363901 0.104617551
0.169260100 0.134725004 0.106135443
0.216571629 0.154333010 0.124984443
0.290449083 0.176217481 0.139025643
0.409234673 0.207842946 0.161416799
0.573687375 0.254775494 0.188108608
0.099810347 0.191904083 0.121315278
0.118026547 0.191524535 0.124984443
0.141050100 0.196584180 0.127640903
0.186843649 0.205565825 0.141429648
0.244022831 0.226691619 0.147248194
0.318659097 0.247817829 0.162555456
0.442757547 0.291587651 0.183301911
0.623149991 0.344338983 0.217583880
0.112713456 0.286021620 0.163567558
0.123213001 0.295129567 0.160657898
0.157874733 0.298671871 0.166476741
0.210626289 0.310436636 0.172042832
0.274889380 0.324098378 0.180898190
0.361795992 0.354206115 0.194940001
0.496268243 0.401897609 0.223909095
0.670082092 0.459835500 0.269955546
0.090702452 0.441998452 0.207336977
0.125363797 0.447944194 0.207716733
0.182416275 0.449588895 0.213409349
0.244402096 0.464516103 0.219228387
0.337128371 0.480075896 0.235926718
0.432510763 0.500822425 0.255534530
0.566097260 0.538393557 0.284250528
0.724730968 0.593421698 0.348387092
0.159898803 0.650474250 0.300695807
0.197469637 0.654016256 0.306768000
0.254522443 0.658317804 0.317646921
0.343073845 0.666160822 0.331435621
0.435926467 0.676786900 0.352055460
0.545604169 0.692093611 0.377103001
0.653384089 0.710563004 0.418342561
0.776596904 0.736748636 0.481340587
0.415812790 0.829095185 0.506135404
0.438583016 0.835799932 0.519291222
0.469069898 0.837191582 0.523845494
0.530549943 0.839595437 0.537634134
0.600126266 0.847691178 0.558380604
0.679316342 0.854522586 0.586084485
0.761163414 0.863883436 0.623529315
0.846805990 0.874636173 0.668817341
0.085515901 0.047817901 0.086148098
0.090955094 0.051359549 0.089310899
0.119924098 0.057179097 0.097153999
0.155597553 0.076787002 0.112839997
0.204553992 0.096394897 0.130929992
0.274257004 0.112460352 0.148513734
0.378747374 0.138013706 0.174699366
0.554332495 0.154838741 0.202150568
0.087413445 0.078810647 0.100695647
0.099936545 0.074003644 0.100695543
0.124225445 0.088172443 0.108918190
0.154332906 0.100316092 0.127387539
0.207463384 0.115622640 0.137128279
0.280708641 0.133965999 0.150411189
0.391018301 0.157115564 0.179759547
0.564326406 0.188867897 0.207717001
0.098798096 0.118279189 0.114357993
0.117267452 0.124605000 0.132068545
0.135610089 0.130803093 0.133207083
0.171663180 0.142568097 0.134345442
0.219355196 0.155092001 0.152056009
0.299557239 0.178241640 0.164073348
0.412397474 0.205186576 0.189500377
0.580897808 0.247058928 0.223529235
0.103478901 0.194686636 0.144971281
0.116381735 0.198987991 0.154332981
0.147754639 0.201644629 0.159392640
0.184440643 0.209867179 0.166097194
0.239595279 0.229095429 0.175837830
0.319671005 0.249715269 0.192662999
0.446046740 0.288425028 0.209867209
0.624668241 0.336495519 0.252878070
0.109297916 0.290322363 0.195825189
0.124604799 0.293231845 0.186337993
0.156736091 0.302973181 0.197343186
0.204806834 0.310309708 0.198481828
0.274004191 0.326502174 0.213788882
0.368247807 0.354079723 0.227071181
0.502340436 0.402277350 0.256040305
0.670587838 0.461226970 0.300948799
0.080835000 0.445793688 0.246679083
0.108665362 0.451486349 0.240354061
0.175458476 0.455914199 0.250221729
0.246173531 0.466793090 0.259203106
0.340796918 0.481720120 0.268564194
0.441366374 0.500442684 0.286021620
0.570524931 0.545983374 0.322327375
0.721821547 0.596204698 0.385958284
0.153194129 0.651359856 0.338013530
0.175964445 0.654016256 0.337634087
0.247564927 0.654395580 0.347248673
0.339278817 0.664642632 0.359772384
0.434028924 0.676407397 0.380771637
0.543706417 0.687033296 0.406072199
0.652751565 0.708538532 0.440986753
0.779885948 0.739152253 0.508285940
0.422770292 0.833902657 0.535736382
0.440353751 0.830107570 0.537128568
0.474130332 0.833396614 0.545224369
0.533333182 0.839595377 0.556609571
0.600126505 0.844022751 0.574446261
0.677166224 0.854522467 0.601897359
0.761922419 0.861606300 0.632637858
0.849968255 0.872232735 0.673118234
0.083491646 0.049335998 0.128399998
0.096520998 0.053636741 0.134725094
0.117520280 0.064642541 0.139405191
0.155850992 0.079569653 0.141302645
0.200885534 0.099557191 0.166476637
0.273245096 0.118279383 0.191144899
0.383048892 0.130550340 0.225932643
0.560404599 0.136875167 0.262618631
0.090954997 0.083491646 0.143327102
0.108286001 0.081467286 0.141809002
0.123845898 0.092093542 0.152814910
0.155471444 0.098292351 0.159392729
0.204427287 0.120303452 0.174952537
0.279063910 0.131309345 0.198608458
0.397216916 0.151296914 0.233776122
0.569386244 0.164958730 0.265781283
0.088172354 0.122201093 0.162935093
0.108538546 0.129664645 0.157369092
0.136495918 0.136748642 0.170398548
0.167235732 0.136622459 0.179000631
0.223529637 0.156230539 0.197343186
0.297912627 0.173434749 0.208602011
0.420620024 0.199746802 0.239595383
0.596963704 0.223655730 0.282985628
0.101961002 0.195066288 0.187855974
0.120809905 0.192663088 0.192663074
0.143453091 0.205945373 0.203668192
0.191145003 0.218089640 0.211385280
0.255028576 0.227450818 0.223655626
0.329538256 0.251739532 0.236432448
0.457684845 0.286527276 0.265781194
0.636306047 0.332574219 0.311195403
0.092346556 0.294370472 0.234281987
0.107779540 0.303858399 0.240733624
0.150917366 0.308918506 0.240733832
0.208728626 0.314231813 0.247311980
0.276786715 0.334218383 0.259582639
0.373687893 0.360784173 0.283111721
0.511827707 0.399114579 0.308032811
0.679822743 0.456546366 0.357874990
0.023276530 0.448071092 0.291967362
0.077925526 0.453510284 0.291460901
0.154332995 0.459076822 0.293864727
0.239089102 0.469955713 0.307147622
0.338013649 0.487159997 0.324477911
0.441239566 0.506641209 0.345224470
0.573940277 0.546742380 0.375205696
0.730297506 0.598861516 0.431245953
0.121188894 0.650474548 0.395951569
0.156862929 0.657305479 0.390259475
0.236306027 0.658064485 0.402403414
0.331688911 0.666666865 0.412903279
0.433649391 0.676407516 0.430107653
0.544465661 0.689310253 0.455028653
0.658949792 0.714357913 0.491966814
0.783301532 0.746742070 0.555344820
0.421884388 0.834787846 0.562049448
0.434028715 0.832258046 0.566350222
0.473624110 0.836432457 0.584313869
0.531562150 0.841239810 0.590385556
0.599747002 0.844149292 0.605312824
0.678557396 0.852371871 0.627071142
0.763314366 0.864010155 0.659709215
0.850600898 0.878051639 0.698798180
0.077546000 0.056420192 0.183175176
0.088172346 0.060721353 0.186843544
0.124604799 0.070588000 0.196584284
0.163060993 0.083491646 0.204047740
0.209107995 0.101074994 0.222391188
0.271727175 0.119544737 0.247817919
0.386464268 0.137887001 0.290322542
0.569386601 0.137634158 0.349525541
0.089690447 0.088931344 0.199240729
0.102720000 0.094497353 0.195699170
0.127008185 0.093611635 0.204806745
0.163820192 0.107400186 0.216698453
0.216571838 0.121189356 0.228715986
0.282226533 0.137507543 0.254016638
0.398734808 0.153953344 0.296267927
0.576596797 0.165338099 0.348260552
0.098165907 0.133965999 0.212144181
0.109803900 0.134345442 0.218216538
0.130043983 0.141049907 0.218343079
0.174446538 0.147627637 0.233396187
0.224794179 0.163694084 0.249842182
0.295762092 0.182542905 0.271727145
0.423276454 0.202150375 0.316382110
0.602529645 0.220493346 0.363820285
0.085895449 0.201391190 0.250221640
0.114610903 0.200885639 0.256546646
0.137887090 0.207590088 0.253637075
0.183301985 0.219607830 0.265401453
0.243010730 0.231372714 0.276786834
0.333333254 0.256040365 0.301328391
0.468690753 0.276407272 0.338013470
0.647691071 0.309803784 0.386211216
0.088678196 0.302973181 0.299051166
0.098039001 0.305376381 0.291967273
0.143453300 0.308412373 0.302340180
0.202909291 0.327261358 0.308918536
0.285768360 0.346110195 0.329538167
0.386970103 0.367109358 0.353447109
0.524984241 0.397596657 0.379633367
0.694876790 0.446046829 0.427704006
0.004048004 0.457558900 0.359772116
0.044022985 0.452371716 0.366982549
0.138773099 0.464010358 0.371410608
0.227830365 0.476533562 0.375205696
0.334092170 0.494370729 0.388614923
0.447438657 0.514611185 0.414421111
0.583680987 0.549145997 0.446046680
0.737128079 0.599240899 0.500063360
0.069829285 0.658317447 0.462365568
0.120050564 0.656799614 0.462871701
0.212523654 0.662365735 0.468564272
0.314610809 0.669702888 0.476786822
0.432384640 0.680202305 0.499177545
0.545224786 0.692852736 0.518279433
0.659582615 0.712333858 0.547501564
0.784819722 0.746615946 0.600885391
0.405566007 0.835799932 0.610626042
0.419481397 0.832257807 0.615432918
0.459835321 0.837697685 0.621884644
0.520429850 0.838456750 0.631119430
0.593674541 0.846679568 0.646046937
0.679569900 0.856293559 0.664389670
0.762049198 0.863124490 0.691966891
0.852245152 0.876533806 0.728779137
0.076660268 0.068690740 0.271979719
0.092599809 0.070967548 0.278178543
0.126628727 0.079949193 0.281846970
0.170271635 0.087413348 0.291966975
0.225173920 0.104996994 0.306135178
0.299430758 0.121441998 0.324604452
0.393927813 0.138772711 0.359898746
0.577735305 0.138013899 0.440354407
0.083997712 0.093232185 0.284250468
0.091334544 0.095635995 0.289057493
0.128146544 0.099936545 0.283617884
0.169133380 0.111321993 0.300063014
0.231372625 0.122960180 0.313093096
0.299810290 0.139911354 0.330550194
0.403415740 0.153194249 0.371790171
0.590006292 0.164705813 0.444781989
0.069323003 0.145730197 0.311195582
0.091967195 0.139278904 0.297533005
0.125869632 0.148766384 0.308665723
0.181404337 0.151170090 0.318532437
0.240354374 0.164073542 0.333839029
0.322074622 0.182163358 0.352941364
0.425806284 0.203794912 0.393168718
0.612397134 0.217583984 0.457811534
0.029981179 0.218848735 0.338140368
0.069956072 0.215686440 0.336495548
0.118279256 0.218469277 0.343959630
0.182922259 0.225047544 0.354965001
0.261100829 0.239595369 0.367109239
0.345603824 0.257938027 0.391650707
0.472612470 0.281846970 0.429474831
0.658950090 0.317014337 0.492220223
0.011638459 0.321315825 0.384693474
0.033017345 0.322833806 0.387349546
0.103984825 0.329158694 0.395192683
0.188488632 0.333839118 0.406198472
0.283365190 0.350664377 0.420366466
0.393548459 0.369513184 0.441492468
0.530550420 0.395319462 0.470208555
0.700948715 0.440986514 0.528273046
0.000000000 0.461733460 0.452118725
0.002403808 0.463251293 0.444022715
0.108665347 0.473497450 0.455787182
0.212523639 0.484503359 0.470714808
0.329031914 0.502087176 0.487918884
0.455534190 0.528399408 0.512586951
0.593801260 0.553067923 0.538772762
0.742061615 0.591524243 0.578494430
0.064769112 0.650980413 0.546995521
0.103479087 0.654522359 0.549398780
0.201391637 0.662745178 0.558254361
0.310689479 0.673624277 0.566350102
0.427324504 0.686780453 0.584693491
0.543832958 0.698798120 0.596837282
0.664769053 0.718785524 0.623656034
0.797470033 0.751676202 0.672485471
0.402150393 0.833396554 0.668690503
0.430486858 0.831119359 0.672612131
0.456040323 0.834787846 0.677925467
0.517014086 0.842378438 0.689563513
0.586843312 0.844781756 0.698545277
0.676660180 0.854142725 0.717014492
0.760404646 0.865148783 0.732700884
0.856166840 0.881720424 0.763946593
0.022643728 0.070588000 0.420746565
0.057432279 0.075395294 0.428083569
0.123845711 0.076786712 0.437065125
0.192283630 0.086274706 0.439215899
0.269070476 0.091081806 0.452751756
0.352308691 0.105502546 0.468185008
0.457052261 0.116002291 0.493611842
0.593168676 0.137254998 0.537381530
0.013535986 0.097533256 0.434155852
0.044023175 0.102466546 0.432890564
0.115749352 0.104743741 0.441998839
0.190638646 0.108538635 0.452498108
0.272738904 0.114737637 0.464136451
0.364199787 0.129791453 0.486653656
0.468817085 0.144591838 0.507147372
0.607842982 0.163314447 0.552055359
0.004807197 0.148893103 0.452751547
0.014674628 0.146868840 0.459456086
0.092852630 0.155218303 0.457052469
0.187602639 0.160910740 0.467678636
0.277672380 0.167741820 0.483491391
0.374699473 0.182542905 0.500190020
0.484882623 0.200506091 0.530423880
0.621884823 0.221505269 0.561037362
0.002276998 0.224288642 0.485768557
0.002277288 0.223149985 0.486907184
0.023023456 0.231246024 0.493738145
0.170904294 0.234914556 0.505376279
0.278558105 0.248197362 0.517899930
0.394687027 0.261480391 0.529032171
0.518912137 0.289310634 0.556988835
0.664389849 0.318532437 0.598734677
0.000759096 0.350537658 0.533712804
0.001897546 0.353067547 0.532068253
0.000759096 0.351296544 0.544591844
0.121695191 0.350790352 0.548007309
0.287919372 0.357748091 0.557874858
0.416951150 0.377988577 0.577103019
0.553953052 0.404427350 0.594687045
0.701201856 0.444781989 0.631752014
0.002277288 0.505629420 0.590891838
0.001644712 0.501581371 0.589500308
0.000759104 0.508665442 0.593295336
0.166477084 0.513093054 0.604174733
0.319797546 0.518912196 0.611005902
0.457558900 0.532700896 0.630234063
0.604048073 0.559266210 0.643263519
0.750537515 0.598228931 0.675901115
0.070588380 0.670082271 0.662871838
0.092599653 0.664895594 0.653384089
0.192030296 0.673750758 0.651233554
0.315623194 0.681340873 0.665654480
0.426059633 0.692852736 0.678810656
0.551802576 0.706641078 0.695129514
0.676913559 0.728905857 0.714863539
0.796584368 0.757495344 0.737507820
0.406451344 0.831752002 0.749272525
0.430487096 0.832890153 0.739784837
0.458064407 0.832004845 0.748892963
0.515623093 0.843137264 0.755344689
0.585325301 0.847944260 0.763694048
0.672359049 0.857305348 0.775458395
0.764073193 0.867426038 0.787982345
0.864389837 0.883491635 0.821632087
0.005186845 0.053510334 0.660974205
0.000000000 0.051233631 0.664136529
0.083618380 0.051613081 0.660594463
0.210499659 0.049335990 0.667678595
0.330044359 0.050854180 0.679063737
0.439468503 0.061227191 0.691967189
0.562934756 0.083112299 0.707273602
0.688298404 0.123212948 0.728905380
0.002277285 0.085895166 0.670714378
0.006831273 0.082606018 0.663250923
0.056926150 0.085515715 0.666160703
0.204933465 0.090323009 0.681087971
0.327134639 0.098545462 0.682479203
0.446679443 0.107020639 0.698292136
0.569892168 0.127134830 0.715496182
0.698924601 0.164705634 0.728652835
0.000000000 0.155724093 0.675015509
0.002277285 0.153573990 0.683111668
0.000759101 0.157495201 0.679063559
0.189373672 0.155850902 0.690828443
0.313852161 0.165085092 0.693105578
0.444275618 0.179127082 0.710562706
0.575458407 0.200379193 0.724098563
0.711321652 0.238456726 0.742314816
0.001138644 0.235547453 0.700316072
0.002783356 0.239215821 0.697533429
0.000758999 0.240986556 0.701581299
0.133586273 0.251106977 0.715496421
0.307147503 0.265401661 0.717267215
0.455407739 0.278937519 0.732447505
0.587349653 0.310436428 0.743706584
0.730297387 0.348260254 0.760151565
0.001518192 0.379127204 0.721821368
0.001138640 0.376470357 0.727514148
0.002276991 0.368753970 0.728399813
0.015939273 0.365338385 0.724098444
0.288677990 0.383175015 0.734598219
0.456040531 0.404427439 0.752055466
0.606072128 0.434661806 0.757874608
0.739658594 0.473623991 0.777102947
0.001897740 0.545098186 0.755471170
0.003795180 0.547375262 0.758760333
0.000000000 0.545477629 0.758127332
0.104490690 0.540291071 0.760151505
0.307653278 0.536748767 0.765211940
0.476786703 0.554712117 0.771663427
0.634029090 0.583427966 0.786970198
0.776091337 0.613282681 0.797216654
0.135863468 0.714737236 0.803795099
0.156609759 0.712713242 0.794180870
0.256546438 0.711954176 0.797090411
0.360025257 0.717520237 0.800758779
0.455914080 0.718279302 0.809234381
0.569133282 0.728526235 0.812144518
0.684882462 0.738393545 0.820367038
0.815812886 0.763440490 0.839975059
0.443137020 0.852877557 0.841113627
0.458570451 0.852498114 0.833396435
0.482732356 0.855407596 0.842631638
0.536495984 0.856925786 0.842631400
0.602023959 0.856799603 0.845414400
0.683744550 0.864642560 0.854775369
0.772295833 0.875015676 0.872485638
0.869955599 0.891966760 0.885515451
