Assets/Resources/EldamarStudio/100 Horror LUTs Pack/LUTs/cube/Grossbug LUT.cube
DOMAIN_MIN 0 0 0
DOMAIN_MAX 1 1 1
LUT_3D_SIZE 32
0.074510001 0.066666998 0.070588000
0.074510001 0.066666998 0.070588000
0.074510001 0.066666998 0.070588000
0.078305162 0.067931838 0.071853161
0.087413445 0.070967548 0.075268999
0.096521065 0.074003935 0.081340998
0.108158998 0.074510001 0.079822682
0.121947698 0.074510001 0.081720419
0.136369199 0.074510001 0.085515901
0.148513988 0.074510001 0.082479529
0.172295988 0.074510001 0.091081873
0.190512255 0.080582254 0.098165996
0.206830993 0.089690350 0.104237996
0.224794030 0.098292030 0.110309996
0.239974409 0.101328418 0.116381995
0.257558614 0.109171189 0.122453995
0.277293175 0.119797379 0.128525987
0.298545539 0.131309405 0.134597987
0.319797993 0.140417039 0.140670002
0.338266999 0.146742716 0.143959358
0.360278457 0.156609997 0.150790736
0.384566993 0.166730002 0.160910994
0.408981472 0.173054978 0.172801986
0.436305910 0.185199007 0.178874001
0.465907544 0.197343573 0.189499989
0.500442624 0.208096310 0.201644331
0.539405107 0.217710122 0.213282943
0.575837851 0.229854882 0.222390532
0.620240450 0.241998971 0.239468634
0.665781081 0.255914181 0.257684946
0.711321771 0.272865593 0.274130225
0.756862998 0.294117987 0.286274999
0.071473613 0.069702610 0.064516000
0.071473613 0.069702610 0.070588000
0.077925391 0.067552380 0.070588000
0.083112001 0.069196999 0.073118001
0.091208152 0.073624387 0.078304708
0.105629444 0.074003935 0.084377378
0.112207383 0.071979679 0.075268745
0.124984086 0.074762613 0.080581702
0.139405400 0.078304708 0.087792613
0.151549608 0.080582000 0.082479529
0.166603491 0.083491862 0.091081873
0.188488245 0.089690119 0.098165996
0.206830993 0.097659610 0.103099354
0.224541053 0.104870036 0.107020639
0.236938789 0.113472417 0.110309996
0.254522383 0.116508804 0.118785799
0.275774986 0.122833766 0.127008185
0.298545539 0.131309405 0.134597987
0.319797993 0.140417039 0.140670002
0.343833029 0.155091375 0.143959358
0.366350472 0.161922604 0.148892999
0.389627129 0.170777738 0.156862736
0.412017882 0.179126978 0.167235985
0.439342320 0.191271007 0.184946001
0.471220642 0.203415573 0.195572570
0.505123317 0.214168310 0.207716748
0.542441487 0.223276064 0.218848988
0.578874230 0.232890502 0.225426927
0.620620012 0.242378443 0.239848197
0.664010346 0.257684946 0.252372205
0.709171534 0.275015801 0.269449949
0.756862998 0.294117987 0.292346984
0.072738774 0.072738774 0.064895771
0.074889004 0.072738774 0.066666767
0.081340775 0.072738774 0.074889004
0.085389160 0.073498003 0.073624164
0.090702221 0.078811005 0.076280773
0.109424159 0.078811005 0.078811094
0.119164996 0.080582224 0.082606137
0.130170703 0.080834836 0.078684486
0.143833086 0.085641868 0.089563765
0.154585794 0.088678263 0.089057781
0.171789870 0.093864866 0.093232103
0.188994497 0.098924987 0.102340482
0.208981767 0.106767774 0.107400350
0.226944804 0.112839773 0.110436030
0.240986824 0.120050408 0.113472417
0.262238979 0.124351799 0.119165018
0.278937161 0.130423799 0.129791215
0.300063372 0.137128383 0.137001574
0.319797993 0.144718587 0.138519779
0.343833029 0.157242149 0.146110132
0.364326477 0.168627515 0.151043773
0.390132993 0.175964415 0.160151899
0.415306747 0.185199007 0.171790242
0.446679711 0.197343558 0.187982008
0.474257052 0.207336798 0.199493796
0.507653356 0.218089893 0.207463905
0.543833077 0.227703765 0.218342990
0.581910074 0.238456443 0.230992988
0.623655856 0.249715596 0.240733802
0.669702590 0.265907913 0.250600994
0.713852048 0.282732517 0.265528381
0.761164010 0.298418999 0.294117987
0.077040002 0.079569995 0.070461839
0.080075935 0.080835164 0.071727000
0.081087612 0.082099997 0.070588224
0.093991160 0.082099997 0.079696164
0.092852995 0.087792546 0.077799000
0.111448221 0.088678166 0.079569995
0.125110477 0.092473313 0.080835164
0.136242688 0.094244450 0.086527713
0.151423082 0.097280055 0.090322994
0.161543503 0.100316323 0.096395001
0.176849991 0.104996994 0.098292291
0.193801343 0.111068986 0.105376095
0.212018132 0.117140993 0.112207480
0.230234161 0.122960024 0.115749188
0.246426404 0.128020152 0.120809577
0.266286969 0.132953808 0.126249149
0.284756333 0.139026135 0.131561995
0.301834106 0.147501320 0.142441154
0.321315795 0.153573960 0.141303137
0.343833029 0.163947180 0.150664359
0.366856486 0.172928736 0.157875001
0.389121026 0.183048978 0.163947001
0.419101506 0.192409664 0.178115338
0.447944403 0.203415811 0.191018254
0.479317278 0.213282689 0.201644450
0.510689497 0.222390652 0.211764678
0.543579996 0.232511058 0.215813071
0.580771446 0.245414153 0.231752142
0.625426590 0.257558495 0.245793819
0.670208454 0.273751169 0.254396141
0.717014313 0.293232381 0.265781105
0.762176037 0.305755854 0.295382828
0.082732551 0.092472993 0.078810550
0.086527832 0.095509380 0.083364934
0.083491541 0.098545320 0.077798769
0.087159775 0.099936545 0.075521708
0.104996994 0.100316092 0.083491549
0.117140993 0.103352480 0.089563549
0.131056324 0.108538993 0.089184314
0.144212544 0.111701541 0.090702444
0.156736091 0.112080991 0.096015446
0.171916500 0.115116611 0.102087453
0.184566543 0.118911862 0.103478998
0.199114263 0.123972096 0.108791828
0.215433300 0.129285097 0.115622640
0.233144000 0.135357097 0.119165033
0.251106977 0.138519958 0.128273413
0.269322991 0.143959537 0.134598449
0.286021382 0.151170194 0.140290901
0.299936950 0.159645990 0.143579602
0.324225038 0.165718019 0.149652407
0.345730394 0.174573362 0.160531461
0.368880481 0.181783989 0.168880537
0.394433975 0.189121008 0.175331995
0.424667507 0.201138511 0.181530505
0.446426004 0.210246921 0.190638915
0.476786852 0.220113799 0.200126737
0.511195540 0.229601204 0.209487975
0.547374725 0.238962620 0.221505523
0.577735424 0.254142970 0.230613902
0.623276114 0.266666532 0.246932417
0.670081973 0.281973392 0.260974199
0.714358151 0.299683899 0.273750961
0.756862998 0.314863533 0.298038989
0.085768931 0.110688999 0.081846938
0.094876550 0.113725379 0.097027324
0.094370835 0.116761774 0.092979155
0.098418705 0.117267706 0.088931091
0.114104606 0.115496479 0.092599936
0.129284993 0.118532866 0.092599936
0.138899311 0.121568605 0.098671935
0.149019703 0.125110701 0.101581283
0.159392938 0.126881927 0.104364060
0.171916500 0.127261385 0.105123065
0.187096864 0.136115998 0.114104927
0.203794926 0.142188504 0.117647253
0.221505284 0.145983875 0.121695220
0.239216000 0.147501871 0.125237033
0.251359999 0.153573871 0.134345397
0.269322991 0.159139931 0.138646200
0.290575385 0.165211931 0.146742448
0.311574966 0.171789989 0.155471295
0.330297023 0.177862018 0.158760026
0.351802379 0.186717361 0.164832070
0.374952465 0.193928003 0.171916530
0.399240971 0.199999988 0.179000810
0.424667507 0.207210511 0.187602505
0.451992720 0.216318905 0.196710914
0.482859135 0.229981273 0.208095998
0.516255617 0.242757857 0.215559736
0.550664067 0.253890008 0.221631989
0.586843789 0.263251364 0.233649507
0.627830565 0.275774926 0.245414034
0.673118055 0.289690107 0.262112468
0.716887891 0.306261986 0.278810978
0.756862998 0.323971927 0.298038989
0.096395001 0.131435320 0.092473000
0.095382616 0.134471700 0.095003068
0.102339998 0.135357320 0.101581454
0.105502836 0.138014153 0.096521161
0.118152864 0.137887642 0.097406678
0.133333251 0.138773248 0.101707675
0.145983323 0.141809002 0.106767677
0.158380702 0.144845039 0.109550677
0.170018986 0.147122324 0.111701094
0.182163000 0.147122324 0.113472320
0.192156866 0.150790453 0.117141187
0.209360987 0.157874316 0.122201055
0.227577284 0.163946956 0.127514318
0.245541036 0.166730314 0.133586317
0.259962320 0.168248311 0.140417412
0.279317111 0.176723510 0.147121996
0.296141446 0.182921991 0.150284514
0.318026394 0.188994154 0.159392983
0.341935664 0.195066661 0.168121368
0.357874393 0.201391682 0.171410650
0.382922202 0.208602324 0.179379895
0.407843322 0.214674309 0.186084673
0.432257801 0.220872819 0.193674505
0.459582388 0.229981229 0.202782914
0.486906976 0.245920300 0.211891279
0.522580624 0.258570671 0.223782301
0.558760405 0.268564314 0.230234057
0.595193148 0.275648445 0.236306310
0.631878316 0.287412971 0.253510296
0.676154256 0.301328182 0.269196719
0.724351466 0.316508591 0.288298666
0.772042990 0.333080322 0.308158994
0.110183701 0.149398699 0.106261700
0.108792022 0.154079378 0.104616992
0.110562697 0.156609699 0.110056765
0.119164698 0.156609699 0.108032830
0.128652543 0.158507437 0.104616992
0.141302928 0.157242283 0.108158998
0.152308702 0.161417082 0.122453697
0.162808418 0.164452702 0.118658699
0.178747714 0.167489082 0.120935798
0.192662716 0.168374702 0.125743181
0.203541860 0.169639528 0.125490159
0.218722403 0.174699411 0.131815434
0.235800043 0.179632768 0.133712694
0.253257692 0.184946314 0.141303033
0.268437684 0.186337993 0.148766696
0.286780804 0.191903889 0.153193995
0.308033198 0.197975889 0.160784185
0.324098378 0.203921407 0.164073572
0.348387212 0.209993944 0.173181713
0.364579380 0.217710704 0.178621352
0.388994217 0.223782688 0.185452253
0.414295137 0.230866551 0.193548262
0.438077182 0.237697482 0.199746892
0.465401620 0.246805891 0.208854914
0.497659713 0.256166995 0.216318563
0.526375353 0.272991657 0.226818606
0.565085471 0.283111989 0.238962710
0.602656841 0.291460991 0.245414451
0.640733659 0.304490685 0.260088682
0.680834532 0.316761166 0.276660383
0.727261126 0.332827181 0.293991357
0.780391991 0.348766714 0.313724995
0.122327901 0.167615101 0.120682999
0.125363901 0.171410188 0.116887711
0.125237226 0.176090866 0.122453868
0.132827088 0.178621188 0.125489935
0.143453091 0.177862093 0.118279092
0.151422933 0.174446151 0.119038090
0.161290228 0.179000735 0.129158422
0.171916604 0.182669476 0.138393104
0.181784093 0.185705096 0.130803078
0.200000107 0.188741490 0.139911473
0.213915095 0.190385997 0.138899326
0.228589401 0.193675101 0.141682342
0.244908631 0.198608458 0.148893088
0.260088950 0.201644138 0.148893088
0.275268555 0.204680517 0.156483412
0.293611526 0.209361196 0.160784200
0.313346088 0.215433195 0.167615280
0.334598452 0.218469590 0.176091075
0.352941036 0.224415109 0.179253966
0.371410370 0.232511356 0.186590999
0.393042445 0.240481094 0.192283347
0.421126038 0.246046960 0.199620262
0.442757875 0.255154580 0.205945984
0.470714897 0.264262974 0.215686187
0.503352582 0.272612095 0.224035084
0.538520157 0.282099664 0.231372222
0.569892168 0.296268076 0.244022965
0.609108210 0.308159083 0.256419986
0.647817791 0.322959900 0.269702822
0.690575361 0.337887049 0.286401153
0.733333170 0.351802289 0.301581562
0.781910002 0.370019108 0.316761196
0.125363529 0.194939494 0.132826999
0.137507513 0.191903889 0.126754999
0.136242509 0.195698977 0.131562278
0.139405146 0.200379670 0.135610342
0.152561486 0.202150896 0.133459494
0.152561501 0.196078122 0.139531493
0.163061008 0.200253144 0.132700816
0.176723212 0.203036502 0.136369497
0.190891713 0.203921884 0.145983487
0.203036502 0.206957504 0.152055487
0.221252486 0.212903008 0.155344874
0.235167474 0.216698274 0.156103969
0.247564808 0.219860852 0.158760488
0.260088950 0.222896531 0.164073497
0.275268555 0.225932911 0.164073497
0.295255780 0.228969306 0.166856200
0.316381693 0.235167786 0.174446374
0.337634057 0.242757604 0.185199469
0.358886510 0.245793998 0.191271499
0.385578364 0.251739502 0.202783018
0.406704456 0.259835750 0.207084000
0.427451015 0.266793370 0.208475620
0.451865524 0.270334989 0.212017998
0.482226342 0.279443383 0.224161997
0.512460530 0.290828466 0.236179471
0.545857251 0.302719444 0.245287478
0.582036912 0.314484060 0.253130585
0.618468940 0.323592454 0.268310964
0.655028105 0.338140279 0.278051823
0.698671281 0.355091423 0.294497162
0.745224178 0.373054683 0.313725561
0.787981987 0.391271472 0.328905970
0.140037864 0.213535741 0.139151990
0.140543878 0.210499376 0.147627875
0.144085869 0.216065764 0.145856872
0.145857036 0.220366865 0.152688161
0.158127874 0.222138003 0.154712200
0.173307866 0.226185873 0.143073872
0.173307866 0.222644061 0.154205874
0.185578570 0.225933149 0.152687997
0.200758964 0.227957100 0.156736001
0.215053976 0.230993256 0.158506989
0.224288866 0.228209868 0.161669880
0.240480602 0.236306116 0.164705724
0.255787283 0.239974871 0.165591121
0.271727026 0.241239697 0.167868167
0.286907285 0.244275406 0.170524999
0.306894511 0.252118796 0.180138990
0.328146935 0.256167203 0.184693053
0.348766714 0.261859745 0.192030579
0.367741853 0.267172843 0.200379878
0.383428216 0.270208508 0.203668520
0.410246611 0.278051734 0.211638004
0.435547262 0.286147982 0.217710257
0.463630706 0.291207850 0.226565868
0.488424838 0.297532886 0.233143881
0.521062315 0.306641281 0.238456577
0.556230068 0.318152845 0.252877653
0.593675077 0.331308991 0.266539872
0.627703846 0.347628176 0.274509430
0.666793287 0.356735915 0.292346656
0.708791792 0.371410161 0.303984821
0.751802444 0.389373451 0.320050597
0.788235009 0.409613997 0.335231006
0.159266248 0.233776242 0.155344248
0.155218259 0.238836348 0.156356648
0.157241985 0.236306012 0.159013256
0.159772307 0.240354076 0.159013256
0.167742252 0.240354076 0.165464997
0.179380253 0.246426508 0.161796317
0.186464250 0.248956293 0.159265995
0.193042248 0.247564971 0.166476712
0.208602190 0.250980228 0.167615354
0.225047737 0.255281478 0.168880507
0.234408602 0.256546617 0.173814118
0.249589235 0.259582490 0.176849991
0.265907496 0.265275240 0.181024253
0.283870995 0.265528291 0.183048278
0.299051404 0.268564314 0.186084658
0.317014486 0.272359043 0.190259501
0.336749107 0.278431445 0.196331516
0.357495546 0.282732636 0.199494243
0.377103269 0.290195972 0.207210973
0.396584630 0.297533154 0.214800626
0.415559977 0.296773762 0.219734460
0.442631394 0.305376112 0.226818383
0.471979976 0.312586755 0.237571239
0.500063002 0.320556492 0.241746008
0.529158592 0.332953781 0.253637224
0.562554896 0.343453467 0.258064508
0.600252807 0.354079574 0.274130344
0.635167420 0.364706159 0.281720519
0.673877418 0.379000396 0.294370651
0.715117276 0.389879674 0.310816169
0.757748187 0.405692488 0.324984252
0.792282999 0.425806254 0.341302991
0.174825996 0.257305652 0.173181280
0.168754011 0.264137030 0.169007033
0.171410516 0.265781492 0.169259995
0.175711319 0.263883770 0.170398638
0.181404456 0.260847390 0.170398638
0.186717346 0.264642864 0.174952641
0.195066646 0.269323319 0.176849961
0.205566287 0.271853268 0.175964355
0.217710301 0.271853268 0.179759637
0.235167965 0.277166307 0.183175474
0.245793760 0.281467527 0.186843991
0.257558495 0.285389006 0.192030385
0.275774986 0.289184004 0.195066288
0.293991059 0.289690018 0.200885251
0.310057044 0.293611765 0.203921407
0.328779280 0.298924834 0.208096161
0.346995384 0.300822198 0.209614351
0.365844548 0.304490983 0.210879505
0.387097001 0.313092649 0.216951653
0.408349395 0.322200984 0.224667937
0.430740356 0.325996190 0.234155461
0.455028653 0.325995922 0.240227982
0.482353002 0.334977746 0.248956144
0.510689259 0.344085902 0.251992553
0.541049540 0.356609911 0.262998283
0.575078905 0.369259953 0.274004012
0.608981371 0.381404132 0.280582070
0.645414114 0.386338085 0.289690435
0.684503436 0.398861408 0.302593619
0.724604666 0.414547414 0.317647159
0.763567507 0.429348588 0.335484177
0.799493670 0.447817624 0.354206264
0.180897996 0.284630030 0.185579032
0.176091030 0.287666410 0.179253995
0.180265799 0.288298994 0.179380253
0.187603027 0.288805008 0.182922199
0.194054514 0.288425535 0.185831994
0.197090119 0.285389155 0.185831994
0.207210645 0.289690018 0.190133035
0.220493704 0.294117749 0.193422034
0.234915003 0.296395034 0.194686994
0.247059017 0.296395034 0.200758994
0.259203017 0.301961005 0.201265037
0.269829243 0.306261748 0.205060005
0.282606006 0.308412075 0.209740609
0.300316036 0.308918089 0.212777004
0.318532795 0.314990073 0.215812609
0.339152753 0.322959840 0.221252024
0.359139979 0.328020066 0.224541053
0.377735585 0.329032034 0.226059109
0.398988038 0.335104018 0.232131913
0.419987381 0.343706399 0.237951010
0.443643481 0.349272758 0.247311994
0.469703048 0.353067994 0.257685035
0.500189483 0.359266490 0.263883531
0.524857819 0.368374169 0.267172933
0.553952992 0.379506618 0.276534051
0.587981999 0.390765399 0.286401004
0.626692116 0.400126129 0.292979091
0.663124859 0.412270904 0.302087456
0.701454759 0.424668014 0.316255808
0.741935134 0.439847976 0.332953960
0.777988136 0.458949625 0.352182180
0.808349013 0.480202019 0.376471013
0.186969995 0.311954409 0.200759411
0.196078390 0.314990789 0.191651016
0.197723180 0.313725621 0.189626992
0.200759411 0.315117002 0.194054574
0.203542411 0.318785518 0.201138869
0.215306878 0.315749884 0.204047978
0.220872819 0.317773491 0.201518297
0.229854688 0.321442097 0.205313414
0.240986988 0.323719412 0.209361315
0.253131002 0.323719412 0.212902978
0.265275002 0.326628506 0.216065854
0.279443234 0.332320988 0.218469143
0.295635641 0.336622030 0.220998988
0.315496415 0.339278817 0.221884608
0.327640384 0.345350832 0.224920988
0.348260343 0.349019617 0.230360404
0.369512767 0.354838789 0.234914601
0.389500141 0.359013230 0.238583237
0.408096403 0.362428397 0.247311503
0.426565409 0.368501127 0.250600934
0.453004479 0.375205815 0.256166995
0.481088132 0.379633278 0.264516115
0.509297907 0.383554488 0.272991896
0.542694330 0.392662883 0.282100290
0.574193239 0.401771098 0.287666380
0.606957376 0.414295048 0.297786385
0.641619444 0.427198142 0.308159471
0.675268829 0.436558872 0.317267835
0.706388593 0.451359808 0.329032391
0.751043499 0.464136362 0.343580157
0.791270971 0.480201960 0.359392971
0.814420998 0.501454413 0.376471013
0.209866777 0.339278787 0.220746785
0.209361181 0.344718367 0.211638391
0.209867015 0.343453735 0.206831008
0.214927346 0.342947423 0.210373148
0.219101995 0.346742332 0.217963442
0.227197990 0.343706697 0.216951057
0.234281987 0.343327254 0.222138107
0.245287687 0.348007590 0.219102070
0.256672978 0.350284696 0.222138092
0.268816978 0.348639995 0.225174114
0.285768569 0.353952914 0.228209853
0.297912598 0.356989056 0.233269989
0.311574757 0.361543238 0.237823799
0.328526020 0.364579558 0.240353778
0.342820793 0.368500769 0.241239399
0.362175554 0.372169584 0.246679589
0.383427978 0.378241569 0.255787581
0.403415352 0.385199130 0.260215223
0.419860959 0.390006423 0.262238830
0.445287794 0.395825505 0.268184334
0.467299253 0.403795034 0.271220744
0.494623780 0.410373241 0.276786804
0.520809472 0.414927393 0.284503490
0.554205894 0.421758473 0.293611884
0.583048880 0.433143586 0.300442994
0.616192281 0.443769753 0.306514978
0.650095105 0.456926048 0.316634983
0.685389221 0.466034144 0.327640623
0.723339617 0.478051603 0.346615970
0.757242322 0.493231982 0.364073157
0.795951784 0.507779598 0.378747582
0.815685987 0.527513802 0.390891999
0.226565376 0.368121386 0.232890800
0.222011179 0.374193370 0.229854792
0.228083402 0.372295946 0.229601592
0.228842169 0.370525181 0.226565212
0.237697542 0.373307824 0.234282002
0.244908184 0.372548908 0.234661236
0.247944191 0.372042984 0.236179441
0.257431686 0.375332385 0.238836274
0.271853179 0.379886389 0.237318084
0.283997357 0.377609074 0.240354478
0.297406554 0.380265564 0.240354106
0.313092977 0.385831654 0.246932194
0.327514291 0.390006363 0.253004193
0.340923399 0.393169194 0.258570194
0.357368588 0.394939959 0.258570194
0.375837773 0.399493992 0.261859596
0.398608387 0.401012182 0.266413778
0.419860750 0.410119951 0.277925372
0.436812192 0.417078108 0.278431207
0.458570361 0.423150182 0.282226384
0.483997464 0.429601640 0.287918925
0.511322141 0.438709527 0.292979062
0.536875188 0.445414662 0.299430490
0.563314319 0.452877998 0.305755883
0.595192850 0.461986184 0.314105183
0.626692295 0.472738832 0.322960168
0.660215259 0.484756380 0.329791248
0.695635855 0.494876623 0.340923369
0.731688797 0.508159339 0.361037165
0.769386351 0.519038558 0.380771339
0.805819213 0.536875367 0.403794736
0.827830374 0.556356370 0.416698188
0.234535396 0.397849530 0.239089131
0.230360359 0.404554129 0.242757946
0.236811921 0.403289109 0.245414570
0.248829558 0.399747103 0.248956397
0.254901558 0.400126547 0.246299565
0.263756901 0.403162181 0.251865566
0.266540140 0.403035700 0.252877563
0.272485554 0.404427409 0.253510147
0.285262167 0.410879523 0.254269063
0.297406912 0.410879523 0.257305473
0.307273686 0.410879523 0.255787283
0.319797397 0.414294988 0.258949816
0.336748838 0.420367122 0.268184572
0.354712516 0.426186085 0.273750573
0.372548938 0.426565528 0.273750573
0.391397536 0.430740118 0.277419358
0.412017345 0.434408545 0.281087935
0.435041130 0.435673535 0.284123540
0.456293553 0.444781899 0.293231934
0.475395143 0.451739520 0.297406912
0.498671412 0.457811534 0.302340537
0.524098694 0.464263111 0.308159441
0.556989074 0.473118484 0.317014068
0.575711787 0.481214225 0.320050478
0.604680836 0.490954816 0.328273267
0.639468849 0.500695586 0.338772953
0.674383581 0.509804010 0.351423025
0.707526982 0.521821558 0.360784382
0.739658356 0.536622345 0.379253745
0.774193347 0.548893154 0.400000066
0.808096230 0.559899092 0.418342710
0.844529033 0.584187150 0.445667148
0.249715045 0.425174028 0.257305950
0.252751440 0.434282362 0.263377964
0.255028725 0.436685979 0.260594994
0.261606812 0.436179996 0.259329826
0.270081997 0.436559439 0.261480004
0.276153982 0.439595044 0.261480004
0.282479674 0.437571317 0.261985987
0.289690226 0.434788257 0.263630688
0.300569087 0.435547173 0.266413897
0.315622985 0.444276035 0.269449532
0.327767015 0.444276035 0.272485912
0.339658499 0.446299762 0.272991955
0.355471611 0.450727344 0.278304994
0.375964969 0.456546932 0.288931012
0.391144544 0.459582537 0.288931012
0.411384791 0.462365836 0.296141803
0.432384193 0.465654790 0.303225994
0.453257173 0.469070017 0.308412343
0.471473992 0.475141972 0.311447978
0.492726326 0.484250367 0.317773730
0.519417942 0.491208017 0.323592991
0.547248244 0.497280031 0.328652859
0.572169423 0.503478587 0.332194507
0.593421876 0.506514966 0.335230917
0.621252537 0.516887963 0.345098019
0.654649258 0.528779030 0.356988996
0.689563990 0.540164173 0.369639099
0.716888368 0.549272537 0.384819448
0.744718790 0.563946843 0.399493843
0.776091099 0.577355981 0.420493394
0.807084203 0.589247286 0.441619545
0.832385004 0.602403998 0.457811981
0.276028067 0.463630378 0.281088024
0.276281118 0.464389384 0.281594008
0.279316962 0.471347541 0.281214774
0.283618033 0.472612739 0.279570222
0.290069371 0.472612739 0.282226384
0.291334361 0.473245144 0.282226384
0.297406375 0.473751068 0.284756690
0.306768090 0.472612739 0.286653996
0.317773700 0.472992092 0.288931012
0.330929846 0.480076253 0.289942890
0.351549745 0.480455756 0.298545241
0.359645724 0.482479483 0.301581085
0.372548997 0.484376758 0.301201642
0.391903728 0.487160027 0.304364324
0.409614265 0.492725968 0.306894004
0.427197695 0.498165369 0.309297830
0.448070556 0.501581252 0.314611197
0.468690515 0.505249739 0.318785787
0.486907333 0.511321723 0.321821421
0.510689378 0.517393708 0.333206385
0.531941772 0.526502132 0.337381393
0.559645653 0.533459723 0.344592005
0.587602854 0.539658248 0.353193879
0.614168286 0.548007727 0.361543268
0.639974654 0.555598021 0.369133651
0.671220660 0.564453065 0.380771697
0.704237759 0.574320138 0.393927723
0.729285419 0.587982535 0.411384791
0.759266675 0.597090244 0.421252191
0.788488269 0.610246837 0.437950790
0.819987178 0.623276472 0.461100936
0.848071039 0.637318015 0.483871371
0.299557239 0.503099203 0.297785997
0.293864995 0.504996479 0.297785997
0.305502951 0.505502522 0.305123478
0.306008875 0.507780135 0.299557567
0.308665365 0.508665740 0.301960707
0.305628985 0.514737725 0.311068714
0.320176721 0.512839973 0.304111302
0.326249152 0.512839973 0.307147682
0.340164840 0.513599098 0.311701357
0.355724454 0.518532753 0.315116704
0.369006872 0.520683467 0.316255599
0.383934468 0.520809948 0.323213190
0.393421829 0.523845553 0.325110465
0.410878807 0.525110483 0.323339701
0.429095566 0.531182468 0.326375306
0.449209452 0.535357237 0.333206534
0.465907633 0.539910972 0.334724724
0.485768467 0.542947292 0.338646561
0.503984988 0.547754467 0.344212532
0.527767479 0.555724204 0.349904746
0.555850506 0.559898436 0.362049192
0.577102900 0.566982865 0.365085334
0.604553998 0.572295964 0.374319732
0.630107641 0.581404388 0.381656885
0.655534267 0.586717248 0.392663032
