Assets/Resources/EldamarStudio/100 Horror LUTs Pack/LUTs/cube/Grossbug LUT.cube
LUT_3D_SIZE 5
DOMAIN_MIN 0.000000 0.000000 0.000000
DOMAIN_MAX 0.903226 0.903226 0.903226
0.074510001 0.066666998 0.070588000
0.121947698 0.074510001 0.081720419
0.239974409 0.101328418 0.116381995
0.384566993 0.166730002 0.160910994
0.620240450 0.241998971 0.239468634
0.110183701 0.149398699 0.106261700
0.162808418 0.164452702 0.118658699
0.268437684 0.186337993 0.148766696
0.414295137 0.230866551 0.193548262
0.640733659 0.304490685 0.260088682
0.186969995 0.311954409 0.200759411
0.229854688 0.321442097 0.205313414
0.327640384 0.345350832 0.224920988
0.481088132 0.379633278 0.264516115
0.706388593 0.451359808 0.329032391
0.318785131 0.543580234 0.313978255
0.351549566 0.555344284 0.324351579
0.450347960 0.571663260 0.347627699
0.601391435 0.600379288 0.392410010
0.787349641 0.658950090 0.477925092
0.578621209 0.818722606 0.587476432
0.602909327 0.822137594 0.593168855
0.667299390 0.833143771 0.606577992
0.770777762 0.844275653 0.647185385
0.876407564 0.864515781 0.708032489
0.061100710 0.071221001 0.106894284
0.125236705 0.076154292 0.118026696
0.243896410 0.121315703 0.157621831
0.390765548 0.184693277 0.210879281
0.626691759 0.251106828 0.270714998
0.110183701 0.150410980 0.148133680
0.164452702 0.167741701 0.158254400
0.266160816 0.198481679 0.191904113
0.414041847 0.239342257 0.229221687
0.644402623 0.305123687 0.295002967
0.200126410 0.315876395 0.233143687
0.239342406 0.325363666 0.240986690
0.331562370 0.341682494 0.257305712
0.484756380 0.382922083 0.294370383
0.711701572 0.455281377 0.367994934
0.319544137 0.548766255 0.348639846
0.357495129 0.552055657 0.360784531
0.451992244 0.570398688 0.374826223
0.599494100 0.594560266 0.408855230
0.782289743 0.655660927 0.498291939
0.583428264 0.817836702 0.591524601
0.594686627 0.824035585 0.597975791
0.664642572 0.831499100 0.620240152
0.765717924 0.845161498 0.659202993
0.871726751 0.865148604 0.705502391
0.073877417 0.074510001 0.205312997
0.131435990 0.087286703 0.209614113
0.242631406 0.130802989 0.238709405
0.399620414 0.186337993 0.292979389
0.637824178 0.247185141 0.361036986
0.122580700 0.162808403 0.237697691
0.166729987 0.172295704 0.241239995
0.269070089 0.200758994 0.264769405
0.415306836 0.240987122 0.308665246
0.658317327 0.299810261 0.376090795
0.198102415 0.319797397 0.301454425
0.236053407 0.325996101 0.316508383
0.338772804 0.346615821 0.334850967
0.488298535 0.380012363 0.373181701
0.716255367 0.451359808 0.439594775
0.312966555 0.548133850 0.423529118
0.349904835 0.551675975 0.425173819
0.448323697 0.568374693 0.443137527
0.599114656 0.600758970 0.476154417
0.783175349 0.657937825 0.548134208
0.565971017 0.815433204 0.627956748
0.589120865 0.821758330 0.631119370
0.658064604 0.829854369 0.651486456
0.762301922 0.843263805 0.687539577
0.874383211 0.864515901 0.735989988
0.083365127 0.092219993 0.331689000
0.144845128 0.109550700 0.344339132
0.261606395 0.146110281 0.367615253
0.410120279 0.197090134 0.405186385
0.649968505 0.248829842 0.488045812
0.120935991 0.177482277 0.358760118
0.181024566 0.186085120 0.369133681
0.286148101 0.207590118 0.389879793
0.437570840 0.249462709 0.430993259
0.670588315 0.302466840 0.508159280
0.195066705 0.327640831 0.425173998
0.236052990 0.337887526 0.436306238
0.344086230 0.352182239 0.457558513
0.503984571 0.385831386 0.492852956
0.726375520 0.440859973 0.554712236
0.307021141 0.559139967 0.535863280
0.348513424 0.559519112 0.543200552
0.450600654 0.575205564 0.558254540
0.601391435 0.605313122 0.581783414
0.788614810 0.653384089 0.638076961
0.562428892 0.817836761 0.708918631
0.583175480 0.825932860 0.709424496
0.639341891 0.831119776 0.718153238
0.748513639 0.842630923 0.743200660
0.870461762 0.867425621 0.778367996
0.048197348 0.107147165 0.611258388
0.167109534 0.118026540 0.614168286
0.326502204 0.144465417 0.627451062
0.510689497 0.187349871 0.653383732
0.720935583 0.253763646 0.693484545
0.040733647 0.188361987 0.631498933
0.167994827 0.191903710 0.629854321
0.339531809 0.213788569 0.646805823
0.529664636 0.251106828 0.675142169
0.732068419 0.316634983 0.707779527
0.009740590 0.342062235 0.677165985
0.130297646 0.343326807 0.671853185
0.343959808 0.359013408 0.688171744
0.555344582 0.394433796 0.710056722
0.764705956 0.451992393 0.733333170
0.264010131 0.601391375 0.739784598
0.307779700 0.600126505 0.740037739
0.426185966 0.593927801 0.746615887
0.599747062 0.604680419 0.752814770
0.808095872 0.650474489 0.780897915
0.561416745 0.837064803 0.809613764
0.588867545 0.835420549 0.818975389
0.641113460 0.840986788 0.825426757
0.744971633 0.850853741 0.837444782
0.877672493 0.871094584 0.868690431
