Assets/Resources/EldamarStudio/100 Horror LUTs Pack/LUTs/cube/Grossbug LUT.cube
LUT_3D_SIZE 8
DOMAIN_MIN 0.000000 0.000000 0.000000
DOMAIN_MAX 0.903226 0.903226 0.903226
0.074510001 0.066666998 0.070588000
0.087413445 0.070967548 0.075268999
0.136369199 0.074510001 0.085515901
0.206830993 0.089690350 0.104237996
0.277293175 0.119797379 0.128525987
0.360278457 0.156609997 0.150790736
0.465907544 0.197343573 0.189499989
0.620240450 0.241998971 0.239468634
0.082732551 0.092472993 0.078810550
0.104996994 0.100316092 0.083491549
0.156736091 0.112080991 0.096015446
0.215433300 0.129285097 0.115622640
0.286021382 0.151170194 0.140290901
0.368880481 0.181783989 0.168880537
0.476786852 0.220113799 0.200126737
0.623276114 0.266666532 0.246932417
0.122327901 0.167615101 0.120682999
0.143453091 0.177862093 0.118279092
0.181784093 0.185705096 0.130803078
0.244908631 0.198608458 0.148893088
0.313346088 0.215433195 0.167615280
0.393042445 0.240481094 0.192283347
0.503352582 0.272612095 0.224035084
0.647817791 0.322959900 0.269702822
0.174825996 0.257305652 0.173181280
0.181404456 0.260847390 0.170398638
0.217710301 0.271853268 0.179759637
0.275774986 0.289184004 0.195066288
0.346995384 0.300822198 0.209614351
0.430740356 0.325996190 0.234155461
0.541049540 0.356609911 0.262998283
0.684503436 0.398861408 0.302593619
0.226565376 0.368121386 0.232890800
0.237697542 0.373307824 0.234282002
0.271853179 0.379886389 0.237318084
0.327514291 0.390006363 0.253004193
0.398608387 0.401012182 0.266413778
0.483997464 0.429601640 0.287918925
0.595192850 0.461986184 0.314105183
0.731688797 0.508159339 0.361037165
0.299557239 0.503099203 0.297785997
0.308665365 0.508665740 0.301960707
0.340164840 0.513599098 0.311701357
0.393421829 0.523845553 0.325110465
0.465907633 0.539910972 0.334724724
0.555850506 0.559898436 0.362049192
0.655534267 0.586717248 0.392663032
0.775205612 0.630866587 0.452371538
0.414927542 0.667172551 0.409993827
0.419734091 0.667299569 0.414548010
0.450094640 0.678937554 0.416065842
0.497912556 0.681720197 0.428462923
0.561290324 0.693105578 0.450094640
0.639342248 0.705376029 0.476154298
0.723719239 0.715243280 0.502466559
0.810373068 0.738267064 0.552435160
0.578621209 0.818722606 0.587476432
0.591524601 0.824035585 0.579759598
0.612017632 0.821378767 0.593674660
0.647311568 0.830107808 0.604300976
0.691587389 0.837444663 0.615053594
0.755597591 0.841492534 0.640354276
0.808222651 0.856925905 0.667678714
0.876407564 0.864515781 0.708032489
0.070208549 0.074130453 0.090195999
0.087413445 0.067046449 0.083871000
0.141429543 0.080328643 0.100695640
0.207210541 0.104617447 0.120682992
0.277672619 0.137887195 0.142188534
0.364579529 0.172801927 0.181404442
0.470335096 0.204933554 0.209235013
0.621885061 0.250221521 0.251613081
0.087033994 0.096395001 0.085768543
0.108159088 0.104617544 0.096774541
0.153953448 0.120682992 0.113219544
0.215812758 0.133586541 0.131562188
0.286780179 0.161796555 0.153573990
0.373687476 0.193548098 0.187729359
0.479949266 0.225553557 0.220366836
0.626185596 0.268943816 0.259835631
0.122201093 0.173560649 0.137507543
0.143453181 0.174699187 0.139532089
0.181404546 0.185705096 0.153194562
0.238583535 0.198988095 0.163314447
0.307400525 0.221758187 0.186084732
0.393168986 0.240860552 0.202403724
0.503352582 0.275775075 0.240607277
0.652877867 0.319418281 0.277419478
0.167235747 0.260847270 0.180139080
0.184946194 0.264389724 0.184060991
0.220493540 0.272232741 0.197090536
0.272991598 0.284756631 0.207969636
0.347374827 0.301201761 0.223655730
0.429601520 0.323212832 0.244402274
0.539911211 0.353953272 0.274889290
0.679063916 0.399747103 0.312713623
0.216065988 0.376849979 0.241493002
0.238963008 0.364958972 0.243390545
0.266287178 0.377102941 0.245920271
0.326628357 0.392915815 0.264769167
0.393927991 0.403794914 0.277293175
0.482732505 0.428336561 0.296015084
0.598608136 0.463124722 0.325743258
0.727893949 0.505882382 0.374067247
0.297026902 0.505882442 0.310436517
0.305755913 0.507400274 0.313598901
0.342694640 0.510056913 0.315496266
0.395446092 0.525490403 0.330170721
0.467045933 0.538393080 0.341808826
0.553953230 0.557621658 0.361290008
0.655407846 0.584946513 0.401138514
0.770777702 0.625679612 0.462492436
0.401897728 0.661859334 0.409993798
0.410752803 0.667172551 0.409740567
0.443896264 0.668058455 0.415686280
0.491967231 0.672359169 0.428842574
0.560278177 0.682226479 0.448576868
0.634914756 0.696014881 0.476280838
0.718279541 0.710183561 0.505249798
0.800632358 0.731182992 0.548639655
0.573940575 0.817583799 0.577861845
0.582036614 0.820746481 0.585705459
0.604427397 0.819861054 0.589500129
0.638709426 0.822896838 0.604174554
0.688424885 0.830739975 0.617837071
0.749778271 0.840227664 0.640101016
0.808728695 0.850094736 0.672232926
0.861100376 0.858317494 0.701708019
0.059582900 0.068184994 0.117520094
0.087792993 0.074889451 0.121062547
0.144212201 0.080708094 0.135483995
0.207969636 0.109297641 0.160658002
0.279696375 0.144212380 0.179506794
0.368247986 0.177103087 0.211891338
0.474509656 0.213029996 0.246047094
0.627450883 0.251106828 0.281593829
0.087033898 0.101075090 0.128526092
0.109297633 0.105376445 0.129664630
0.150790542 0.120303541 0.149272531
0.221758187 0.141809002 0.176723540
0.292726338 0.168880552 0.191650733
0.374825835 0.201770738 0.218595982
0.486653805 0.231498837 0.252245307
0.629854441 0.271853358 0.290701985
0.123845898 0.173940092 0.173181176
0.150917456 0.178241640 0.177862078
0.185705081 0.193548098 0.183302075
0.242884174 0.203288734 0.198229089
0.311828077 0.226439074 0.212397188
0.397849351 0.251486182 0.244402081
0.505882323 0.279696196 0.268817365
0.653763473 0.322327822 0.311195195
0.172801733 0.270335257 0.214674085
0.191650644 0.267552525 0.218596086
0.226818636 0.276154637 0.227197990
0.280075729 0.288298279 0.235800177
0.345351189 0.301201642 0.251865745
0.430234104 0.327893823 0.269829452
0.546109974 0.361163914 0.301075548
0.686274350 0.402023822 0.345730424
0.234282091 0.373687297 0.272612274
0.238456637 0.375205278 0.271094054
0.277292967 0.383048475 0.278937280
0.327007830 0.391271561 0.285515547
0.400379360 0.404933572 0.303225964
0.487918973 0.429981291 0.323086500
0.599746823 0.465275198 0.353953183
0.725616813 0.511954308 0.398987830
0.302593082 0.511321962 0.337002099
0.312460333 0.511701524 0.341935635
0.341049850 0.515622795 0.345097810
0.396964282 0.524224997 0.355850637
0.472232550 0.540796697 0.368500829
0.552435160 0.555597723 0.386337817
0.659076750 0.585072577 0.429981112
0.773434401 0.630107701 0.480328739
0.403162360 0.666413665 0.432890266
0.417583883 0.672738552 0.435926646
0.447691441 0.675901592 0.446173489
0.498291880 0.682353258 0.457938164
0.562175512 0.690069318 0.471094340
0.637444675 0.699557483 0.496394366
0.719165206 0.713852167 0.523086607
0.808095932 0.739911318 0.570018768
0.576850176 0.818848610 0.599620581
0.590891957 0.821884751 0.600885272
0.607842803 0.825806499 0.605565727
0.646932244 0.830360591 0.618722200
0.692979097 0.837191820 0.635420680
0.746995449 0.842631221 0.655154586
0.809108257 0.855028152 0.687918544
0.877039850 0.864895523 0.715116799
0.065021999 0.071726643 0.175458282
0.088551894 0.071346998 0.171536997
0.141809091 0.085389093 0.179379985
0.202909276 0.112080991 0.198987991
0.284756631 0.148133993 0.226818442
0.371284097 0.178241730 0.259329468
0.474889189 0.211891353 0.284250587
0.633775949 0.247185141 0.335230768
0.091334544 0.106135540 0.176976174
0.112839893 0.111195184 0.178494185
0.157874733 0.122580633 0.199367538
0.214168549 0.142947555 0.209108189
0.289816260 0.172422275 0.235420525
0.375838161 0.200506181 0.259203166
0.493737817 0.233143553 0.297280341
0.634282053 0.266666740 0.332700938
0.124225356 0.177102998 0.217330724
0.146109641 0.186084643 0.226439089
0.185705096 0.197090551 0.233523086
0.243643269 0.202909291 0.236938626
0.313346088 0.227197975 0.256926000
0.401012182 0.249462441 0.279569894
0.512333989 0.285262287 0.311701298
0.661480010 0.316128731 0.352308571
0.177102983 0.267931998 0.258949637
0.187602744 0.262744814 0.260467827
0.226439089 0.277292997 0.263503909
0.280834645 0.288677633 0.276913643
0.348513484 0.308665156 0.290954828
0.432637632 0.326628476 0.311701387
0.549398899 0.356609643 0.345350981
0.687286437 0.396964073 0.382542610
0.232384533 0.374066740 0.311954379
0.239215821 0.378621012 0.311321825
0.274130255 0.383427918 0.315623075
0.331688643 0.388488203 0.325490028
0.396205187 0.402909815 0.343074024
0.488551587 0.431119829 0.365338624
0.605819166 0.462745279 0.390512347
0.734977961 0.510183573 0.437065065
0.291966975 0.507400453 0.380518466
0.308539093 0.510942757 0.377102822
0.347374827 0.518026710 0.381530464
0.396458000 0.527893603 0.391524374
0.472106278 0.538772702 0.407589912
0.556356728 0.557242095 0.429854453
0.655787289 0.586970270 0.461353809
0.778115153 0.628083587 0.514737725
0.399367213 0.668184519 0.472232908
0.413409293 0.668311179 0.472991645
0.440607250 0.671094298 0.472359270
0.492852628 0.677798927 0.488931209
0.558254480 0.686147988 0.504111290
0.634788036 0.698671639 0.523719192
0.718658864 0.711954534 0.550031900
0.804680407 0.737128377 0.595319331
0.577229559 0.822643638 0.618595839
0.582163095 0.819228292 0.621505558
0.598608673 0.823276281 0.618722141
0.639215589 0.827704012 0.632384419
0.684630036 0.832005143 0.648070812
0.743832767 0.843390286 0.667299151
0.811132252 0.854648650 0.698292077
0.876154244 0.865654409 0.729917943
0.074510001 0.076027803 0.234155178
0.098039195 0.084250644 0.233902544
0.145730197 0.096394897 0.242884189
0.211132437 0.122707352 0.258570194
0.283617973 0.148766190 0.282100171
0.371157467 0.179253459 0.308918655
0.484503269 0.211638093 0.343832880
0.640354156 0.247058600 0.391018212
0.100948989 0.117520183 0.250601202
0.113978341 0.129791349 0.251106739
0.159013286 0.131941736 0.260974109
0.218975633 0.153194442 0.268691003
0.290322661 0.176723555 0.283491373
0.378747612 0.202909291 0.316887707
0.495761991 0.234282091 0.350410879
0.639974654 0.265148640 0.394686759
0.138013899 0.186464190 0.269450188
0.155218095 0.188109100 0.281720519
0.190512285 0.198228985 0.284503162
0.246426627 0.210373536 0.295382798
0.311701149 0.229601383 0.312586963
0.399746835 0.251486212 0.338520110
0.519797623 0.282858908 0.372801900
0.670082390 0.316887826 0.416065991
0.173181280 0.269070625 0.301707834
0.197596207 0.271473825 0.308918536
0.229095623 0.281214267 0.315623075
0.281214178 0.292599648 0.330170631
0.352561504 0.305503070 0.345477194
0.439721793 0.330550283 0.370778024
0.557495415 0.356483251 0.398482114
0.693991005 0.389247268 0.439721614
0.228083193 0.375964373 0.355471373
0.243769988 0.380645186 0.369892359
0.274130255 0.388615221 0.372042954
0.328525990 0.392789632 0.381404191
0.407337368 0.410373360 0.397976160
0.490955383 0.432637632 0.416698188
0.604427576 0.459835380 0.444022447
0.739152551 0.498418987 0.484756172
0.290195942 0.509424508 0.424920917
0.306894273 0.514610946 0.429095477
0.340290755 0.517647266 0.435420603
0.393928170 0.529791117 0.448450416
0.468690723 0.539531469 0.457811713
0.554838717 0.561922729 0.478431284
0.664895535 0.591650903 0.512460530
0.776596963 0.630360544 0.557495177
0.395446301 0.666540563 0.518532455
0.408728570 0.666919887 0.519544542
0.434535176 0.673624277 0.520809352
0.483870983 0.678810835 0.532194912
0.550537467 0.690196097 0.541935384
0.634535015 0.697912574 0.564705789
0.716761231 0.713599205 0.589753270
0.808854878 0.741049826 0.626438975
0.556230247 0.825300455 0.648576736
0.564958870 0.824920893 0.646299779
0.587476194 0.825932860 0.655407608
0.629095137 0.828589559 0.662871778
0.679949284 0.833143771 0.674509764
0.742314577 0.842251658 0.691713810
0.808475435 0.853004575 0.713598788
0.868817389 0.865654409 0.744085789
0.084377259 0.088172257 0.305376470
0.103478998 0.096394807 0.308032721
0.151928991 0.109297737 0.323086739
0.222390980 0.129664734 0.333965838
0.295255989 0.156356543 0.352055550
0.381783754 0.187981993 0.377861738
0.488804728 0.217836708 0.414294749
0.646173418 0.248323992 0.471094370
0.096268184 0.123339534 0.305882484
0.123086996 0.132194549 0.319418162
0.170018911 0.143832639 0.330044001
0.230613530 0.160151735 0.341808915
0.301075518 0.180139095 0.359519273
0.386464208 0.208476007 0.380138993
0.499810308 0.231878281 0.422011256
0.644655228 0.267931670 0.469449699
0.134092197 0.195445836 0.345603913
0.158001363 0.201391280 0.350158244
0.194939986 0.198988080 0.362555355
0.255028546 0.215433091 0.368121475
0.325363636 0.234661639 0.378115177
0.413788795 0.261353731 0.407210469
0.520556509 0.286400914 0.437571466
0.672865272 0.316382080 0.492725968
0.176091164 0.273244888 0.382163256
0.183681354 0.279696286 0.383681178
0.227577537 0.283618003 0.393169105
0.285641760 0.296521634 0.401391655
0.355471075 0.311321825 0.415306926
0.444528461 0.331688613 0.433143735
0.555597663 0.352435172 0.464263260
0.700822055 0.387982100 0.513219535
0.224794373 0.384946138 0.435167700
0.233016729 0.386843473 0.428715795
0.275521845 0.392789543 0.440101266
0.330550283 0.398987919 0.452625185
0.404807180 0.412270606 0.462365717
0.501201630 0.432764113 0.487159938
0.614674270 0.456166923 0.513978601
0.740417182 0.495129794 0.549525619
0.287792712 0.518659174 0.493358463
0.304617375 0.516002297 0.499430627
0.345477462 0.525363564 0.507020712
0.392662734 0.532953680 0.514231622
0.467552394 0.547375321 0.530170679
0.557874680 0.563820481 0.542314768
0.668817461 0.588235497 0.570272148
0.782036781 0.622264385 0.607210636
0.390259027 0.664769232 0.575331748
0.402909547 0.670335591 0.571536660
0.436306119 0.672612309 0.588108659
0.484503478 0.678178549 0.591903567
0.546869218 0.691713989 0.602656662
0.628463030 0.699430764 0.617330968
0.716128826 0.716761529 0.635926723
0.814168036 0.743073702 0.673117936
0.561669648 0.815559685 0.699810386
0.570651352 0.823276639 0.691714346
0.587729394 0.823149741 0.693232179
0.620746434 0.828336358 0.699177623
0.662871718 0.835800111 0.705629289
0.734092355 0.838329911 0.726755440
0.801644325 0.855154812 0.745983481
0.871473730 0.865907729 0.768247724
0.083997712 0.104237705 0.421758264
0.111321993 0.109803997 0.427704006
0.169260010 0.119924091 0.436685562
0.241745561 0.135609999 0.447564870
0.330423564 0.161416799 0.464895427
0.419986993 0.183807552 0.481594026
0.519797325 0.214041710 0.511322260
0.656419992 0.251106828 0.556989372
0.102340452 0.138393551 0.424668103
0.123592548 0.142441556 0.437191844
0.175837830 0.149778709 0.442251772
0.251739621 0.166982904 0.456040621
0.333839029 0.184060797 0.469702661
0.427071542 0.209740728 0.490448833
0.533459961 0.235673279 0.517140985
0.653890014 0.264389843 0.549398899
0.116887905 0.202276915 0.454648823
0.141176298 0.204554006 0.467426002
0.195825383 0.212270901 0.473497719
0.265907764 0.222896740 0.477545857
0.351549566 0.237571076 0.489310503
0.450094640 0.258570373 0.509677231
0.553193927 0.285136193 0.537001848
0.676913500 0.321948290 0.574952066
0.135989726 0.285894990 0.500569284
0.160657570 0.284629822 0.497533202
0.215180367 0.292599648 0.501707554
0.291461021 0.300442934 0.509171188
0.379380077 0.317646831 0.531309009
0.472485840 0.334092349 0.541808724
0.578621328 0.360404998 0.557368577
0.703731596 0.390385896 0.594686866
0.194686726 0.398608178 0.540923297
0.206325188 0.402150750 0.538519621
0.254142880 0.403289288 0.548134267
0.314737320 0.403794944 0.552435040
0.404174477 0.412903100 0.563061535
0.512080967 0.436306089 0.582542539
0.622643590 0.456672877 0.603921294
0.741555572 0.487160087 0.629221976
0.270714760 0.536748946 0.595951736
0.291461021 0.540290534 0.602024019
0.328273088 0.538266897 0.603921533
0.383428127 0.547754824 0.607337177
0.463883847 0.552434981 0.614294887
0.560404480 0.564199865 0.628715813
0.667931736 0.587855995 0.648070812
0.785452247 0.617836654 0.675015628
0.383554578 0.676660299 0.660594523
0.399620533 0.672865272 0.659202814
0.429095536 0.676027834 0.653384149
0.479317278 0.683871269 0.664263248
0.545983255 0.687792242 0.667552292
0.622770250 0.699557304 0.683112264
0.715243220 0.719165266 0.699557304
0.815306723 0.738267064 0.726375282
0.555977106 0.820872545 0.745603919
0.569513023 0.819102049 0.747121871
0.582795739 0.823149860 0.743832946
0.619987369 0.829980969 0.751423299
0.669576168 0.836305797 0.763314009
0.725490272 0.843896389 0.768753767
0.793421865 0.854016602 0.788235068
0.878558040 0.867045820 0.809740841
0.048197348 0.107147165 0.611258388
0.103605106 0.112839699 0.612903118
0.186337993 0.122327901 0.617710412
0.278557986 0.135863349 0.621884763
0.379633367 0.155976996 0.633775949
0.483870894 0.179506898 0.649588704
0.604300976 0.216318995 0.672232866
0.720935583 0.253763646 0.693484545
0.056546196 0.145098105 0.622011244
0.104111269 0.143073544 0.617836535
0.187982380 0.151296899 0.623529553
0.282479256 0.163820088 0.631625414
0.380139351 0.181910276 0.640354455
0.489563406 0.205819175 0.656925738
0.598228812 0.231878281 0.672612309
0.717394054 0.273118526 0.686906755
0.036685415 0.204047933 0.633523226
0.103605196 0.208476007 0.639595151
0.190512195 0.211891264 0.636938691
0.285515547 0.224161997 0.646426380
0.392283261 0.238204077 0.654522419
0.502087355 0.258190840 0.671600461
0.614421248 0.286654294 0.685262322
0.732574403 0.329538047 0.705755830
0.013662215 0.285388827 0.655281425
0.052878074 0.291714013 0.660467744
0.182036713 0.296521455 0.662744999
0.290069640 0.305882454 0.665781260
0.398861557 0.319164902 0.673244774
0.509424508 0.335610628 0.687286615
0.628589749 0.363693804 0.704870224
0.747501373 0.402530074 0.720176876
0.028210238 0.407843351 0.688045621
0.073624365 0.411637902 0.687539577
0.163187936 0.405439645 0.693990946
0.282605946 0.404680341 0.693358481
0.405186564 0.417709976 0.702846169
0.526881516 0.439215571 0.714610636
0.654269338 0.465528190 0.727134645
0.770777583 0.502593338 0.746489406
0.217204660 0.562681615 0.731182575
0.243137375 0.563061237 0.727893770
0.289816678 0.561416626 0.732194483
0.356483281 0.555977464 0.730929732
0.445414543 0.551676035 0.736369431
0.560025454 0.569259644 0.745224416
0.685642123 0.594433725 0.761416972
0.798987746 0.619860709 0.776090741
0.395066082 0.710183263 0.768880486
0.407463819 0.707020819 0.768627286
0.431878388 0.708159029 0.768121302
0.488171935 0.707147539 0.777735531
0.545098186 0.710816026 0.774319589
0.623655736 0.711954355 0.780012548
0.714863777 0.718153000 0.784946263
0.824920893 0.739911318 0.801391304
0.561416745 0.837064803 0.809613764
0.572296023 0.835799932 0.825173736
0.597975612 0.834661782 0.816951454
0.623782575 0.837064803 0.822896600
0.669575870 0.841239810 0.824920654
0.724225461 0.846299767 0.831878662
0.797343254 0.861226797 0.849841833
0.877672493 0.871094584 0.868690431
