Assets/Resources/EldamarStudio/100 Horror LUTs Pack/LUTs/cube/Gumuq LUT.cube
LUT_3D_SIZE 8
DOMAIN_MIN 0.000000 0.000000 0.000000
DOMAIN_MAX 0.903226 0.903226 0.903226
0.000000000 0.000000000 0.000000000
0.028083093 0.000758999 0.000758999
0.169133291 0.000000000 0.004680902
0.319544286 0.000000000 0.000000000
0.470714569 0.000000000 0.006325195
0.628715694 0.001897740 0.000000000
0.788108587 0.000000000 0.000000000
0.946995616 0.059202783 0.005186845
0.032384545 0.035547547 0.007463549
0.074383087 0.034408998 0.000000000
0.192663088 0.042251997 0.006325001
0.335230976 0.037571095 0.005566002
0.475774825 0.027957089 0.002403808
0.632890642 0.049841896 0.000758999
0.790765285 0.099557534 0.003668552
0.947880864 0.143453509 0.000000000
0.176976278 0.152688190 0.005439998
0.198988095 0.152688101 0.000000000
0.229475081 0.139405191 0.000000000
0.344592273 0.148766384 0.000759096
0.484124064 0.165970996 0.000000000
0.634535491 0.188615084 0.006325001
0.793421566 0.220746279 0.001518192
0.949525595 0.247438088 0.003794989
0.294370264 0.274762988 0.000000000
0.320809633 0.273624629 0.001517999
0.349272370 0.276027739 0.003162904
0.379506648 0.254522294 0.000000000
0.495003372 0.278052002 0.000758999
0.641998827 0.307273746 0.002024260
0.802150488 0.341429263 0.000000000
0.957368612 0.366097420 0.001265167
0.431499183 0.422770560 0.000000000
0.442631215 0.426818460 0.004807003
0.476281106 0.427577555 0.000759096
0.502719343 0.422897071 0.001138644
0.547628343 0.397090167 0.004554189
0.655661166 0.424288571 0.000379548
0.810752571 0.457305670 0.002403808
0.962808371 0.483744353 0.005060350
0.560025454 0.598987937 0.001897740
0.575079322 0.598482013 0.000000000
0.603541911 0.601012170 0.005819255
0.641239762 0.604048073 0.004048004
0.679696739 0.591903567 0.001138547
0.716635466 0.565717697 0.000000000
0.827830553 0.585578740 0.005439708
0.974066973 0.605439544 0.001265167
0.705755532 0.772422552 0.000000000
0.708918273 0.778621256 0.001644712
0.741176248 0.774572790 0.002403808
0.779127181 0.777482629 0.004427648
0.825426996 0.777988315 0.004680709
0.855913818 0.756609797 0.004807003
0.890702009 0.725363493 0.000000000
0.973814070 0.713346124 0.018216563
0.830613434 0.911574781 0.000000000
0.837571323 0.907906175 0.003922000
0.858949840 0.911321938 0.009234989
0.899430633 0.907779992 0.025806624
0.933206618 0.914358139 0.053510398
0.983301640 0.908286035 0.079316825
0.992283165 0.884756625 0.147501394
0.992156982 0.851359785 0.224541202
0.013662547 0.011765000 0.021125998
0.050474543 0.007843000 0.012903451
0.184060991 0.000000000 0.028969094
0.305882633 0.000379548 0.022643901
0.446805745 0.002656643 0.029221931
0.605439484 0.005313286 0.032890804
0.776217580 0.049335826 0.028842092
0.940417409 0.111954503 0.048324078
0.018342545 0.045414094 0.016824547
0.081846543 0.046173092 0.025047095
0.178114727 0.059076544 0.025806095
0.307021081 0.068943895 0.026565095
0.453130811 0.074636340 0.024161899
0.612523675 0.093738087 0.023782544
0.776597023 0.128273278 0.025806386
0.940670311 0.173814073 0.037065350
0.161037460 0.142947555 0.014041997
0.189626992 0.137002096 0.016824644
0.202783078 0.131941646 0.023529097
0.329411715 0.152688190 0.012017542
0.466413826 0.173813999 0.022390645
0.614800453 0.199620187 0.015053735
0.784060597 0.230107382 0.010752799
0.941555738 0.265780926 0.032004803
0.286654174 0.267046183 0.002276998
0.302719623 0.264262825 0.005060450
0.338013738 0.267046183 0.000759000
0.366097748 0.252119184 0.002656546
0.491587728 0.275268704 0.011005905
0.632131457 0.309803605 0.005439805
0.790006101 0.344592214 0.004174641
0.938772976 0.368754268 0.015180076
0.414927632 0.415812552 0.001518192
0.426818371 0.413788706 0.002403808
0.462112367 0.417710006 0.002783356
0.499810368 0.416950911 0.003035997
0.528399765 0.395446181 0.000758999
0.653130651 0.423529476 0.000379548
0.811638296 0.463630468 0.001517999
0.950537324 0.489310741 0.019860964
0.558633447 0.589247167 0.002024260
0.568627238 0.593168736 0.003035997
0.594054222 0.597090185 0.001518192
0.638709784 0.600505948 0.002024260
0.674509645 0.593927801 0.000379548
0.710436285 0.563314021 0.003542453
0.829095304 0.583428323 0.001517999
0.966856301 0.607463717 0.047817860
0.694876254 0.761923015 0.001897740
0.700062811 0.765338540 0.003794996
0.722580850 0.763061404 0.001518192
0.760531485 0.764199853 0.000000000
0.813409388 0.770018637 0.000000000
0.844275832 0.746363044 0.005819256
0.878051996 0.715749741 0.008728540
0.961922765 0.707527161 0.058697149
0.818469167 0.906641364 0.086274423
0.831372440 0.916255355 0.077039436
0.851612687 0.904364049 0.067552298
0.887286723 0.903984547 0.078684263
0.933459699 0.907779992 0.101707608
0.980139017 0.904617071 0.142820641
0.988741219 0.885009468 0.214168295
0.996457577 0.849842131 0.252624959
0.043769997 0.022770097 0.099304184
0.093485534 0.011385452 0.095003538
0.184820086 0.000759096 0.097786188
0.310942292 0.003162904 0.091587901
0.448071182 0.000759096 0.101834096
0.591903806 0.047312275 0.125363901
0.745730281 0.132194787 0.149525478
0.920050621 0.179379910 0.169892192
0.083364643 0.062619001 0.093105994
0.113472179 0.060594540 0.088045552
0.185199544 0.067299098 0.088045552
0.309803635 0.072738998 0.089563541
0.436306179 0.096900992 0.111322097
0.580265462 0.147627920 0.134725004
0.753067672 0.175585136 0.148260638
0.917140782 0.219354600 0.171283945
0.108033001 0.143326998 0.067299187
0.142061636 0.146363094 0.079443544
0.211385280 0.157369092 0.093106091
0.318405747 0.169892192 0.099304095
0.444149196 0.191777274 0.119797386
0.590638578 0.222011536 0.126122832
0.760531485 0.251992166 0.142567903
0.923592627 0.294749916 0.175079167
0.243516982 0.262744904 0.094749995
0.271347553 0.260341734 0.093105987
0.320809633 0.263503909 0.096647643
0.347248733 0.254522294 0.099304184
0.469196469 0.278304636 0.114231184
0.608855069 0.319797516 0.132194996
0.771157146 0.357368737 0.149019644
0.930044115 0.393801451 0.167489097
0.381277442 0.408728480 0.092979185
0.397849470 0.403289288 0.094624087
0.442631185 0.404680341 0.091461197
0.471473396 0.408728540 0.096141994
0.506008983 0.385199279 0.110310093
0.633649588 0.421125740 0.125869378
0.794180512 0.468184471 0.135104269
0.942567706 0.502846181 0.173940539
0.526502192 0.582416356 0.062618710
0.545730650 0.581783652 0.062871449
0.576344371 0.585199177 0.059076451
0.618342817 0.588741422 0.049588643
0.657558918 0.584439993 0.076660380
0.692726135 0.558633745 0.110562928
0.814294875 0.588108480 0.140037715
0.959519088 0.617963433 0.199114531
0.674383342 0.766223848 0.063883744
0.680835187 0.764073133 0.058570750
0.713852167 0.766097546 0.060974270
0.756483078 0.767615378 0.064642750
0.803921461 0.768374503 0.076407462
0.837571442 0.753953218 0.115117267
0.868184507 0.720809340 0.163441092
0.965338707 0.723086476 0.226945177
0.817583680 0.908159554 0.238203764
0.811384916 0.908791602 0.237950414
0.834914684 0.908665597 0.238583297
0.883617938 0.906894147 0.246046960
0.922327399 0.910815895 0.261100471
0.972675383 0.909424722 0.279063672
0.982542574 0.888425231 0.313851804
0.998734832 0.857179046 0.348007530
0.110436283 0.000000000 0.215812638
0.152308643 0.003922000 0.211005732
0.218596086 0.000000000 0.206324920
0.317267269 0.002783356 0.193421990
0.459455997 0.001138644 0.190638632
0.598735094 0.029095734 0.198861286
0.751170218 0.081467628 0.221505269
0.915496349 0.178241938 0.258191168
0.148513645 0.075901099 0.197343275
0.174699277 0.082605645 0.195066184
0.220873103 0.089690447 0.188361749
0.317267179 0.084882744 0.183301896
0.454269469 0.100189991 0.180391908
0.591018081 0.129158884 0.201644540
0.755850554 0.165085196 0.224668086
0.905629098 0.249082863 0.267425716
0.157874644 0.164453000 0.179380089
0.192156732 0.164832562 0.179759637
0.252245277 0.179759637 0.174952731
0.334092528 0.182416186 0.178494275
0.451233298 0.207083836 0.188615084
0.583428204 0.238836184 0.210119918
0.742314816 0.292472839 0.247944266
0.903984725 0.347880989 0.289816529
0.200126633 0.266287267 0.151422933
0.227197990 0.274130285 0.155724183
0.294244528 0.294117630 0.179759622
0.377229631 0.298798621 0.201264992
0.470461756 0.312460244 0.207084030
0.597090185 0.344212532 0.226312280
0.757368803 0.375711560 0.250221282
0.905376196 0.419607937 0.286274254
0.341935754 0.409107924 0.172043189
0.369386554 0.410373360 0.188235536
0.414041758 0.417077839 0.212650537
0.464136839 0.411891162 0.209867090
0.506767988 0.405186802 0.212776482
0.629474998 0.442757726 0.234914362
0.779000819 0.485515505 0.266666621
0.930297196 0.532068133 0.304111242
0.488424838 0.577482700 0.222643927
0.508032799 0.580265582 0.220366627
0.542947352 0.579759836 0.223529547
0.591903746 0.584946513 0.220746294
0.640101492 0.586084723 0.227830365
0.678304553 0.565717697 0.246552989
0.802023888 0.597090304 0.274509668
0.945224285 0.638330281 0.334345162
0.634535313 0.757368565 0.253130853
0.647691250 0.762175560 0.257558614
0.669323087 0.754711926 0.253636926
0.718659163 0.756229937 0.254775554
0.769892454 0.762175679 0.262238890
0.817077696 0.752055705 0.272106349
0.848070920 0.723719299 0.289942950
0.947627962 0.731435895 0.335230708
0.791777015 0.903858006 0.379633069
0.787728965 0.907020867 0.374193192
0.817204237 0.905502737 0.373940140
0.854522765 0.904617071 0.377861857
0.902593315 0.905882239 0.386464238
0.954711974 0.910689533 0.399620324
0.983680964 0.893232167 0.430739909
0.992409945 0.869323015 0.450095057
0.193421990 0.000000000 0.341303170
0.218469381 0.000000000 0.339405537
0.277292997 0.006198903 0.336622298
0.344592184 0.035420541 0.322074741
0.463757187 0.027830375 0.310816169
0.611005485 0.041872371 0.317646742
0.768374443 0.099177882 0.324098587
0.922074616 0.182289585 0.352308571
0.211385086 0.103225991 0.318785697
0.237318188 0.100063086 0.326502293
0.285768390 0.113092735 0.314611256
0.351169944 0.120935731 0.308791816
0.457305551 0.118532538 0.307273835
0.607716501 0.138519898 0.309171170
0.764199853 0.172169268 0.317141175
0.921695173 0.237317979 0.356103718
0.248197272 0.203668386 0.303099304
0.268184721 0.207083851 0.301454991
0.301454961 0.213789091 0.291840374
0.357115507 0.218469188 0.289183825
0.458823472 0.216065988 0.291967273
0.597596407 0.241872087 0.302846193
0.754965305 0.280202299 0.323086649
0.913345814 0.342821062 0.369386375
0.243137628 0.302719623 0.288424850
0.277672559 0.297533184 0.290954828
0.334851444 0.300189644 0.290449083
0.395825624 0.325743169 0.298165351
0.482858837 0.328399628 0.299051195
0.610626042 0.364073455 0.316381991
0.757495522 0.406451374 0.348007739
0.890701950 0.469955683 0.398608267
0.294496983 0.418216377 0.275522172
0.305502981 0.418469012 0.266160369
0.360278159 0.434661478 0.276281059
0.439468354 0.449462473 0.310815990
0.525616646 0.467425376 0.334092349
0.627324700 0.482353181 0.353067547
0.769386590 0.518406332 0.378874063
0.907273591 0.567488849 0.423782200
0.403921545 0.589500487 0.277293175
0.426945060 0.589247108 0.290828526
0.484883159 0.586717069 0.320809454
0.553067446 0.600885391 0.346616358
0.624667943 0.599367261 0.347501367
0.666033983 0.585958004 0.361163735
0.795192540 0.625932872 0.400126398
0.924604535 0.670841038 0.454269350
0.593928099 0.754459083 0.391524464
0.603415549 0.760278046 0.397090197
0.632258058 0.758380413 0.396710664
0.680835187 0.760278165 0.396837473
0.745857000 0.764705658 0.403162569
0.795446277 0.761543512 0.407210678
0.831499398 0.735736787 0.419734180
0.940038025 0.753953218 0.471600085
0.753193855 0.907020569 0.500569284
0.758127391 0.904617071 0.498038977
0.778368056 0.904743612 0.501707613
0.820619881 0.907400429 0.506261945
0.875142395 0.904996634 0.511701167
0.928146482 0.910309911 0.517141044
0.964452863 0.901960433 0.536875129
0.991144776 0.875774801 0.555597663
0.260594755 0.005692737 0.501328468
0.289057255 0.014294736 0.501075447
0.341176629 0.038583253 0.493232459
0.406578273 0.067172997 0.490196079
0.488298714 0.097026989 0.475774646
0.622643471 0.085894994 0.471473724
0.775331855 0.107653469 0.471979737
0.934598565 0.198987603 0.464263350
0.279190540 0.129285082 0.489057750
0.301707804 0.134724796 0.484629989
0.346236467 0.137381539 0.484630078
0.418342978 0.150284469 0.481467277
0.487539530 0.164705724 0.466160804
0.620240271 0.157748356 0.464263260
0.774572968 0.178747728 0.465401888
0.921188831 0.240860343 0.459708959
0.314610749 0.244528919 0.456293434
0.328399867 0.242631286 0.457305402
0.363820344 0.244655445 0.464895546
0.419481516 0.252498448 0.456673086
0.491840571 0.263883442 0.457432121
0.617204487 0.262365490 0.448450446
0.772801995 0.289184034 0.466919810
0.919670880 0.360151887 0.471853316
0.318658978 0.323719025 0.454648823
0.345477283 0.335610628 0.453257471
0.398355722 0.353953302 0.452371746
0.448829859 0.363820523 0.444908112
0.501075387 0.371916384 0.445540935
0.620999455 0.370651633 0.442378193
0.762808323 0.401644289 0.452245623
0.904111326 0.466160655 0.488551259
0.306641549 0.479063839 0.443010449
0.337760985 0.477292717 0.445161551
0.390259266 0.472865254 0.450094461
0.471220821 0.476913363 0.454648733
0.545603871 0.503098905 0.463630885
0.647311687 0.510183573 0.470841199
0.778241932 0.552814364 0.491334736
0.903984904 0.596331000 0.535483539
0.352561474 0.598987937 0.405060202
0.365717530 0.598608375 0.417836457
0.418089747 0.606072366 0.423023313
0.490069628 0.615939081 0.433649570
0.587981880 0.640986919 0.481214672
0.683491766 0.646173477 0.512713492
0.786970019 0.674636006 0.539152622
0.914737701 0.709930301 0.588235140
0.458950281 0.767615557 0.414294988
0.486653835 0.766350269 0.434788197
0.535357475 0.767868102 0.453510761
0.610372961 0.769133389 0.497659653
0.698039353 0.771663308 0.541303098
0.770904541 0.773181260 0.540543973
0.805313289 0.756989300 0.543580174
0.922201276 0.781783760 0.588867724
0.695003092 0.907147586 0.582416534
0.710689127 0.910056829 0.595066190
0.733206630 0.907273650 0.608475387
0.784187436 0.904870391 0.635420382
0.824920774 0.912966490 0.631245971
0.895761788 0.910183787 0.637065172
0.939531922 0.911701560 0.647944450
0.971536636 0.890448809 0.659582257
0.320556283 0.077039979 0.694623590
0.337381244 0.088804565 0.690954983
0.391018361 0.105250075 0.689057231
0.460721284 0.121821567 0.686780572
0.536495566 0.151549369 0.675648332
0.628209949 0.178873986 0.670967817
0.788108587 0.170145258 0.660594523
0.938393593 0.220999315 0.648577034
0.333080292 0.169892535 0.678937554
0.351929098 0.176850095 0.695635676
0.396963596 0.185072631 0.681467056
0.464642584 0.195572466 0.675268829
0.536622167 0.211511806 0.671853423
0.629222214 0.230866566 0.664769232
0.785325706 0.223655984 0.649715245
0.923086464 0.255661249 0.635926723
0.364452809 0.285515577 0.664010227
0.386211276 0.293864816 0.672485769
0.421631902 0.295762151 0.667678833
0.479696721 0.302340031 0.662618518
0.549905241 0.317014277 0.659076750
0.634155750 0.325869739 0.656420231
0.789626777 0.324731410 0.655281425
0.926755190 0.369765967 0.634535253
0.401897550 0.405945629 0.650474250
0.419228375 0.413662016 0.655154884
0.454648972 0.416824907 0.654522359
0.503858268 0.422770560 0.647058904
0.567741930 0.431751937 0.649209261
0.641239643 0.437697470 0.639342010
0.780265510 0.432890564 0.641492963
0.909550786 0.479316920 0.630360603
0.395446092 0.500063181 0.658570468
0.415939212 0.503225446 0.650854051
0.462871552 0.515117168 0.645667434
0.533586204 0.544212461 0.647058904
0.593169034 0.551296592 0.639595270
0.657811642 0.559013367 0.643769741
0.781910300 0.558380485 0.632637441
0.908918619 0.602782845 0.640227795
0.360278070 0.676533759 0.647944510
0.393169016 0.675648212 0.643390357
0.447691500 0.672612429 0.644655287
0.521568596 0.667172432 0.644275546
0.621504962 0.665907681 0.651612937
0.692978740 0.689184189 0.659582615
0.794940054 0.697027206 0.653130829
0.906894386 0.735610425 0.679190397
0.414674282 0.776976585 0.594939828
0.444149435 0.775331974 0.582542837
0.480329186 0.779632986 0.591271400
0.543073952 0.776849926 0.599241018
0.629981041 0.780645251 0.617204309
0.724351466 0.795319736 0.654648840
0.808096230 0.800885260 0.686147988
0.908791780 0.822643995 0.724857688
0.586464107 0.918406188 0.611891031
0.604047656 0.917141020 0.618975163
0.626944959 0.915369928 0.631246030
0.692093670 0.915243447 0.662997842
0.769259632 0.918785572 0.710309803
0.845793724 0.914104939 0.757748127
0.910815835 0.915369987 0.750790775
0.947754323 0.902339816 0.759898901
0.360910833 0.193927780 0.872485638
0.379759520 0.197596341 0.867678881
0.428842723 0.211638033 0.871220767
0.485135794 0.228842616 0.866160810
0.563440979 0.258823454 0.863630772
0.656293750 0.289057612 0.860720634
0.756989241 0.321062297 0.854142725
0.931182742 0.328652740 0.846299767
0.372295976 0.257432163 0.867931426
0.395698845 0.260088325 0.861100197
0.434408635 0.266919792 0.865781248
0.493990898 0.283365071 0.857431591
0.567362368 0.298165798 0.858570576
0.649588883 0.319797337 0.850474417
0.751423001 0.344085902 0.840986848
0.921441913 0.353446931 0.837444305
0.424035788 0.365464866 0.858696878
0.427956879 0.373434573 0.849462092
0.465148628 0.378621042 0.861226857
0.520556688 0.390259445 0.854649067
0.583302021 0.404300809 0.850853860
0.667172849 0.421252370 0.853130817
0.762555242 0.436559111 0.845540881
0.921947777 0.448197603 0.838203430
0.468058199 0.502972901 0.845793605
0.483871162 0.502340317 0.842504561
0.511574984 0.508412421 0.844022691
0.556736231 0.514610708 0.842378020
0.612523615 0.517773449 0.839342058
0.678684294 0.525996268 0.831245840
0.761922717 0.538899243 0.827450871
0.916128755 0.534977913 0.823150039
0.487666011 0.589752913 0.841998816
0.510562956 0.605186582 0.842251956
0.553320706 0.625553489 0.834787786
0.601644397 0.637318373 0.835673749
0.650221348 0.639595330 0.833143413
0.707906485 0.642125249 0.830487072
0.776217759 0.653004348 0.826185703
0.910436451 0.650600791 0.824161768
0.499430686 0.711827636 0.847185433
0.517140806 0.713092804 0.844275892
0.563820243 0.711068511 0.841492891
0.615812659 0.715369701 0.842884421
0.685768664 0.746489286 0.841998875
0.743453443 0.753447533 0.832763851
0.803415477 0.758507073 0.832131445
0.914104819 0.758633673 0.830486715
0.477419287 0.847691476 0.838583291
0.505629122 0.845161378 0.836938620
0.542441368 0.842378318 0.835926473
0.602782845 0.841492832 0.834408522
0.669323325 0.834408224 0.829601407
0.754206479 0.827956915 0.825932860
0.821379066 0.838709831 0.832890153
0.911954343 0.839974701 0.827577531
0.576976597 0.931182742 0.783681214
0.593927741 0.929285049 0.791524589
0.613915086 0.929790795 0.794813454
0.665275276 0.928779006 0.802023709
0.720176697 0.923465967 0.808348954
0.790006340 0.927893698 0.825806379
0.865527809 0.923592508 0.848577023
0.932447612 0.933712721 0.879063725
