Assets/Resources/EldamarStudio/100 Horror LUTs Pack/LUTs/cube/Gumuq LUT.cube
DOMAIN_MIN 0 0 0
DOMAIN_MAX 1 1 1
LUT_3D_SIZE 32
0.000000000 0.000000000 0.000000000
0.000000000 0.000000000 0.006072000
0.000000000 0.000000000 0.003542000
0.007589999 0.000000000 0.000000000
0.028083093 0.000758999 0.000758999
0.064515866 0.006830999 0.006830999
0.100948639 0.005313323 0.010373322
0.135736689 0.002277292 0.008476003
0.169133291 0.000000000 0.004680902
0.202530488 0.000000002 0.007716512
0.241745874 0.002909871 0.002024001
0.281214237 0.001897744 0.000000000
0.319544286 0.000000000 0.000000000
0.356230110 0.000000000 0.000000000
0.395699203 0.000000000 0.000000000
0.432763964 0.000000000 0.004806995
0.470714569 0.000000000 0.006325195
0.510183513 0.000000000 0.003289424
0.549652040 0.000000000 0.000253032
0.591903746 0.000000000 0.000000000
0.628715694 0.001897740 0.000000000
0.664136350 0.002909872 0.000000000
0.703858435 0.000000000 0.000000000
0.749398887 0.000000000 0.000000000
0.788108587 0.000000000 0.000000000
0.824541330 0.001391672 0.000000000
0.861986160 0.007969996 0.001011999
0.904490829 0.032257970 0.007083993
0.946995616 0.059202783 0.005186845
0.973561168 0.081214398 0.002150783
0.986084998 0.101201959 0.000000000
0.992156982 0.125489995 0.000000000
0.000000000 0.000000000 0.006072000
0.003036387 0.000000000 0.006072000
0.003036387 0.000000000 0.003542000
0.015686383 0.001265161 0.002529999
0.041745480 0.003036387 0.005692549
0.067552254 0.003795387 0.003795387
0.103985026 0.009867387 0.002277065
0.138773084 0.005060296 0.012523605
0.171410590 0.000759096 0.014547617
0.202530488 0.003036386 0.001644515
0.244655728 0.000126517 0.001770999
0.286274374 0.000885613 0.002024256
0.324477911 0.000000000 0.001897743
0.359266430 0.000000000 0.000759032
0.398734808 0.000000000 0.009108387
0.430993199 0.000000000 0.001897587
0.469196767 0.000000000 0.001771000
0.510816097 0.000632576 0.000885613
0.552688420 0.003036384 0.000253032
0.592156768 0.000253031 0.000000000
0.628715694 0.001897740 0.000000000
0.665148258 0.003922000 0.000000000
0.706767619 0.002909875 0.000000000
0.749398887 0.000000000 0.000000000
0.794939816 0.004553996 0.004553996
0.835040987 0.017204314 0.004680682
0.872612059 0.034282383 0.002530323
0.907526493 0.053510353 0.001011993
0.944718242 0.077799015 0.001771000
0.977608740 0.099430718 0.000885613
0.993421614 0.116761588 0.000000000
0.995192647 0.134598389 0.000000000
0.000000000 0.002150774 0.003542000
0.003036387 0.002150774 0.003542000
0.010373225 0.006451774 0.005692774
0.020493547 0.005186613 0.004680774
0.049462318 0.006451773 0.009614226
0.079063870 0.008223000 0.006578161
0.102719866 0.011132224 0.007843452
0.140796915 0.012270938 0.006451774
0.175205514 0.006451773 0.016318679
0.206957996 0.008096481 0.005059998
0.251106977 0.003162903 0.002150774
0.289563745 0.000126518 0.000126518
0.328399390 0.001138644 0.001771226
0.361543298 0.002150774 0.000000000
0.395319402 0.002150774 0.003415636
0.436179578 0.002150774 0.004554200
0.471094161 0.000632582 0.001518192
0.512333930 0.000632576 0.001518198
0.553321004 0.003668967 0.000000002
0.593042374 0.003289417 0.002150774
0.628715694 0.002150774 0.000253034
0.663124263 0.005945998 0.000000000
0.703478515 0.008728985 0.000000000
0.748007536 0.015812868 0.000000000
0.788488090 0.028209770 0.000252996
0.831246197 0.038456425 0.003542000
0.870208740 0.058950059 0.002277290
0.905249417 0.075521752 0.002530326
0.947754383 0.096900620 0.000000000
0.973560750 0.114104956 0.001771217
0.993547976 0.133333191 0.001265166
0.996078014 0.152308777 0.000000000
0.008855159 0.012777159 0.002529999
0.013156385 0.015307158 0.002529999
0.021758385 0.015812999 0.000885613
0.033396319 0.018090161 0.002656839
0.056926094 0.015812773 0.008728839
0.085895091 0.018848933 0.008349065
0.115496315 0.020619836 0.009108162
0.144086003 0.022896871 0.010499839
0.181277305 0.020620160 0.008981841
0.214168325 0.020620158 0.005439515
0.254143029 0.017331159 0.003668710
0.296141684 0.013282903 0.004427743
0.332574159 0.009108161 0.000253002
0.366350055 0.011005999 0.000253032
0.398734808 0.008981999 0.001265161
0.433649570 0.008981999 0.001265161
0.475901335 0.011258967 0.000253031
0.515369713 0.010120152 0.003921829
0.554838777 0.013788966 0.002783031
0.593042374 0.015307158 0.001518196
0.631246030 0.019101998 0.002024260
0.666666448 0.023150250 0.000000000
0.703478634 0.030107815 0.000252992
0.746742547 0.043390479 0.002529999
0.787729442 0.057558469 0.000000000
0.825932980 0.070587970 0.000000000
0.865908027 0.085768379 0.000000000
0.903857946 0.100948751 0.002277287
0.945730448 0.117646955 0.001265167
0.979127109 0.134851277 0.000506056
0.991144538 0.147880897 0.002656839
0.996078014 0.171031162 0.000000000
0.032384545 0.035547547 0.007463549
0.037697546 0.040101547 0.007084001
0.048450094 0.040101320 0.005059999
0.060720704 0.037824161 0.000379548
0.074383087 0.034408998 0.000000000
0.092599861 0.037444610 0.006072000
0.125616550 0.038709544 0.007463549
0.160025120 0.039974704 0.007084001
0.192663088 0.042251997 0.006325001
0.223023102 0.042251997 0.000253000
0.256673068 0.042251997 0.000000000
0.295382947 0.040607288 0.003288997
0.335230976 0.037571095 0.005566002
0.371663064 0.032005090 0.000000000
0.408095807 0.026186097 0.002909868
0.440480590 0.025300544 0.003542452
0.475774825 0.027957089 0.002403808
0.518026531 0.034029081 0.000505992
0.557494998 0.040101096 0.006577995
0.594180703 0.043769900 0.002656544
0.632890642 0.049841896 0.000758999
0.671980143 0.059202801 0.000758999
0.711574972 0.071474038 0.000506007
0.751296461 0.086654447 0.005566002
0.790765285 0.099557534 0.003668552
0.828463316 0.109298080 0.000000000
0.865528584 0.115749605 0.000000000
0.908032537 0.130929962 0.000000000
0.947880864 0.143453509 0.000000000
0.980645120 0.156609729 0.000000000
0.999493957 0.171790138 0.000758999
0.996457577 0.186970547 0.000758999
0.071852930 0.068943933 0.004427936
0.071852930 0.062871933 0.001391549
0.083617702 0.063124932 0.009614000
0.094496861 0.063883707 0.009867161
0.101707473 0.064768992 0.003036387
0.104743861 0.058696993 0.000000000
0.135610312 0.064262934 0.003542323
0.167868331 0.066033930 0.002783228
0.198735192 0.066539995 0.001012001
0.229095891 0.066539995 0.000253000
0.265274853 0.066539995 0.000000000
0.301201582 0.066539995 0.000000000
0.337507725 0.067172572 0.001012001
0.371663064 0.068437867 0.000000000
0.408095807 0.068437867 0.000000000
0.444528610 0.069829062 0.000506065
0.478431195 0.072359130 0.000506065
0.515243173 0.076533854 0.000000001
0.557494998 0.082605869 0.000506004
0.594180703 0.088677868 0.003795356
0.634408474 0.092346668 0.005313191
0.674383342 0.097406797 0.006830999
0.711574972 0.104870424 0.006578007
0.754079819 0.120050833 0.000505998
0.793801248 0.132953912 0.003289288
0.830487072 0.143706590 0.002024263
0.865402043 0.151802868 0.000000000
0.904996872 0.158254355 0.000000000
0.944844663 0.170777917 0.000000000
0.979000390 0.181151137 0.000000000
1.000000000 0.193042532 0.001770991
0.999493957 0.208222941 0.006830999
0.103731640 0.087160319 0.001391678
0.108791634 0.091208324 0.000885613
0.115243413 0.093738317 0.000000000
0.125869632 0.093232155 0.005566002
0.131562188 0.092978865 0.001391678
0.134598568 0.089057647 0.000506065
0.145224646 0.082985640 0.000000000
0.176976725 0.085768640 0.001391678
0.207337320 0.087286636 0.000000000
0.237697661 0.090828642 0.000000000
0.266286999 0.093358316 0.000000000
0.300695747 0.095382571 0.000000000
0.337760955 0.098165639 0.002276998
0.374193370 0.102340318 0.004553999
0.410626113 0.102340318 0.000000000
0.444655120 0.107147314 0.000000000
0.479443192 0.110309824 0.000000000
0.514104724 0.113346048 0.000000001
0.554712296 0.117520317 0.000000003
0.594180703 0.121062644 0.002783357
0.632511199 0.130929634 0.002024260
0.672359288 0.134851322 0.003795129
0.708791673 0.138013825 0.005186811
0.746489525 0.148387238 0.001517999
0.793548226 0.156736314 0.000000000
0.829601288 0.169765964 0.001391678
0.863377810 0.180645317 0.000000000
0.904870391 0.186717317 0.000000000
0.944338739 0.190512627 0.000000000
0.978494346 0.204427376 0.003541982
0.998229027 0.216824591 0.003289008
0.994939983 0.232005000 0.002783001
0.139025688 0.115496688 0.001644708
0.141808689 0.113345981 0.001644708
0.145097747 0.122707404 0.000000000
0.158001304 0.124984242 0.000000000
0.165970951 0.122706950 0.001138547
0.171537340 0.122201338 0.004933705
0.177229702 0.113345981 0.001644708
0.187729388 0.110562980 0.000000000
0.216571987 0.109804079 0.001517998
0.245161012 0.113219701 0.003288996
0.272612303 0.116381824 0.001644708
0.303984761 0.121062241 0.000000000
0.338520288 0.125237271 0.000000000
0.376976728 0.131309405 0.004554003
0.412017792 0.134092405 0.001265006
0.447691500 0.135610402 0.000000000
0.481087893 0.140164211 0.000000000
0.515749276 0.143200576 0.000000001
0.555218220 0.146236449 0.000000005
0.594687104 0.152561754 0.004427646
0.632511199 0.158001393 0.005313257
0.671980143 0.168121397 0.001264999
0.709171236 0.169892386 0.002277292
0.747121811 0.180518612 0.000759096
0.789373517 0.188994393 0.001644708
0.833775938 0.196458057 0.003036025
0.866413772 0.209108338 0.002276998
0.907779813 0.214041695 0.000000000
0.945983469 0.219101816 0.003288997
0.978494346 0.225933149 0.005186690
0.999114394 0.239342004 0.006831109
0.993801296 0.253004402 0.000000000
0.176976278 0.152688190 0.005439998
0.175458282 0.145097792 0.003162904
0.177735180 0.148766637 0.001771227
0.183048412 0.154585928 0.000000001
0.198988095 0.152688101 0.000000000
0.206957936 0.156103939 0.007969839
0.214041874 0.148007542 0.005945905
0.219607800 0.140923187 0.002277292
0.229475081 0.139405191 0.000000000
0.253763109 0.136369571 0.006072000
0.278684616 0.138393313 0.004174775
0.309298128 0.143453181 0.001897744
0.344592273 0.148766384 0.000759096
0.380519032 0.154586062 0.000506064
0.413409293 0.160152003 0.000000000
0.448450595 0.163694099 0.000000000
0.484124064 0.165970996 0.000000000
0.518785596 0.169639185 0.000000000
0.558254123 0.172802076 0.000000006
0.596964121 0.180645362 0.004807102
0.634535491 0.188615084 0.006325001
0.671980143 0.194687083 0.005819002
0.711574972 0.200632602 0.000000000
0.751676023 0.210879207 0.000000000
0.793421566 0.220746279 0.001518192
0.834534824 0.230613753 0.003795319
0.873497963 0.239216089 0.006325001
0.912713408 0.242504731 0.000759007
0.949525595 0.247438088 0.003794989
0.978368044 0.257558405 0.008855121
0.999873459 0.264389724 0.009108402
0.996837080 0.273498118 0.000000001
0.210373476 0.183048978 0.011511997
0.204301491 0.180012584 0.002403613
0.209234700 0.181024760 0.000126518
0.217963159 0.181910336 0.000000004
0.226312488 0.180012494 0.000000003
0.226312518 0.186084509 0.000000000
0.239342332 0.181910008 0.000379516
0.249082983 0.175584987 0.000126516
0.256799519 0.169765979 0.000000000
0.268943489 0.163693994 0.000000000
0.287413210 0.163567513 0.000253000
0.314104974 0.167741984 0.000126516
0.348007441 0.172675624 0.001138644
0.386591017 0.175838456 0.003542450
0.416950971 0.178874075 0.000506067
0.449841917 0.186843812 0.000000000
0.484882981 0.194054484 0.000000000
0.521821201 0.199999973 0.000000000
0.561290503 0.206072003 0.000000002
0.597976208 0.212017506 0.002783356
0.634535491 0.220113739 0.002150743
0.671980143 0.228083491 0.000253000
0.711574972 0.234029010 0.000000000
0.754079819 0.237065420 0.000000000
0.796458006 0.245034695 0.000000000
0.837571084 0.255534351 0.000126517
0.876533628 0.266540527 0.000253003
0.912966371 0.272612512 0.000253000
0.949525595 0.275901169 0.000000000
0.975331962 0.287918925 0.003794982
0.991271079 0.300442994 0.006198527
0.999873459 0.300822526 0.000000005
0.237950876 0.210499868 0.005946001
0.240606993 0.207463473 0.002656613
0.245287761 0.208728641 0.004300999
0.251865894 0.209234700 0.005818999
0.257305741 0.207716420 0.005059999
0.262365729 0.216318741 0.000000000
0.269956052 0.214800417 0.000000000
0.281087995 0.209107861 0.000000000
0.287665963 0.203794956 0.000000000
0.293358713 0.199873731 0.000000000
0.302592874 0.196710870 0.000000000
0.324857622 0.194687128 0.000000000
0.354585499 0.198102742 0.000000000
0.390006214 0.202909827 0.001012129
0.423023701 0.205945447 0.000632583
0.450980514 0.211384863 0.000000000
0.483365178 0.219987184 0.000000000
0.519038379 0.227450863 0.000000000
0.558507085 0.233522892 0.000000000
0.597976267 0.242378235 0.000000000
0.634535491 0.250474483 0.001012129
0.672991991 0.257558614 0.000000000
0.714357615 0.261985898 0.000000000
0.754079819 0.273371637 0.000000000
0.794307232 0.278684735 0.000000000
0.836179435 0.285768598 0.002782990
0.876154065 0.294876873 0.004807000
0.910183012 0.305755854 0.000000000
0.954585612 0.309171677 0.000000000
0.982922196 0.315749347 0.003541982
0.995192885 0.327008009 0.008728608
0.994180977 0.331055999 0.008728870
0.263250977 0.239848495 0.001897744
0.270335108 0.240860090 0.000885613
0.271600038 0.240101010 0.000253004
0.283238411 0.240607396 0.003795004
0.289310694 0.238330200 0.003795004
0.293737978 0.244149163 0.001012001
0.302340299 0.247185439 0.000000000
0.309803963 0.244149044 0.001644708
0.318532348 0.239974484 0.002783158
0.324098736 0.238203719 0.004047995
0.334977627 0.231119365 0.002024256
0.340037763 0.226059243 0.000000000
0.364326239 0.225300625 0.000000000
0.394054025 0.230234206 0.000253032
0.420366704 0.233269811 0.002024256
0.457052797 0.242757753 0.000000000
0.488931388 0.245793760 0.003035997
0.523466229 0.253383905 0.004047995
0.561542988 0.260847241 0.004047994
0.601012111 0.269702613 0.002024256
0.634788513 0.278811008 0.000126516
0.672991991 0.287919134 0.000000000
0.715622485 0.293231755 0.000000000
0.758886695 0.303478777 0.000000000
0.800379515 0.311068982 0.000000000
0.837064922 0.319924295 0.000000000
0.877672136 0.326249510 0.004301068
0.915622711 0.332321495 0.002783263
0.953573465 0.340543807 0.000000000
0.984946191 0.341808975 0.000000000
1.000000000 0.350157857 0.004680613
0.996204972 0.357368499 0.007717004
0.294370264 0.274762988 0.000000000
0.296647668 0.275521874 0.000000000
0.302719623 0.276407272 0.001138644
0.306767792 0.276280791 0.002276998
0.320809633 0.273624629 0.001517999
0.324604362 0.275901347 0.000000000
0.333838969 0.276660323 0.000000000
0.342441261 0.277545959 0.001644708
0.349272370 0.276027739 0.003162904
0.358380765 0.276407272 0.005439517
0.365844280 0.268817067 0.003795227
0.373054892 0.261732906 0.001897744
0.379506648 0.254522294 0.000000000
0.403035641 0.257558674 0.000000000
0.422517031 0.260594487 0.002150772
0.457052380 0.268564224 0.002656840
0.495003372 0.278052002 0.000758999
0.531436086 0.279316992 0.005566003
0.567868292 0.287918657 0.005566002
0.605945468 0.295888633 0.006198706
0.641998827 0.307273746 0.002024260
0.674383640 0.315370262 0.001012128
0.716634572 0.324351400 0.001138644
0.761163712 0.333459526 0.001138644
0.802150488 0.341429263 0.000000000
0.843896270 0.349145949 0.000000000
0.877292693 0.360784560 0.000000000
0.917899847 0.362681985 0.002403804
0.957368612 0.366097420 0.001265167
0.983807564 0.373307914 0.002276998
0.997976005 0.376849890 0.000506007
0.997722983 0.386211276 0.002783356
0.335863054 0.316255063 0.000000000
0.327767432 0.313219458 0.000253032
0.331056267 0.312587023 0.001897742
0.339405149 0.312587023 0.004680839
0.349146098 0.312334061 0.007843032
0.355218112 0.312334061 0.001771032
0.365591079 0.310562789 0.000000000
0.375837743 0.309424073 0.002150708
0.384693086 0.309677154 0.003162904
0.393801481 0.312713534 0.000126516
0.394940019 0.307274044 0.000000000
0.399241060 0.301708013 0.000505999
0.406831026 0.294497371 0.000759032
0.419228047 0.285136044 0.000505999
0.434408426 0.288172424 0.000505999
0.465148598 0.292853028 0.002150772
0.501075327 0.300948799 0.002909807
0.537002087 0.310183048 0.000506000
0.573434949 0.316255063 0.000506006
0.609867036 0.322074741 0.005060005
0.646299481 0.333080292 0.004048004
0.682985306 0.345730275 0.000759096
0.719544530 0.351929516 0.003668968
0.761922777 0.361037165 0.003668968
0.799873531 0.370145351 0.001644712
0.839342237 0.379253656 0.000000000
0.880582035 0.388109028 0.000000000
0.913978398 0.397216648 0.000000000
0.955091655 0.396457881 0.000000000
0.983428001 0.400253206 0.003289014
0.995192647 0.409994036 0.006072009
0.992156982 0.422138065 0.000000000
0.366223812 0.346615821 0.000000000
0.369260222 0.343580216 0.003036387
0.369765997 0.344845057 0.001138642
0.372801781 0.345983386 0.000632584
0.376976490 0.345603943 0.002403554
0.394687206 0.342694819 0.010879410
0.398228884 0.347754806 0.002277089
0.404806823 0.350284487 0.004933705
0.411511391 0.351169884 0.008222899
0.418089479 0.349146277 0.000126516
0.427197844 0.346362919 0.000000000
0.434408635 0.344718397 0.004047996
0.440607160 0.340037733 0.007716638
0.446552426 0.330676377 0.009614378
0.461732805 0.318532377 0.006577994
0.481720179 0.316761762 0.001770998
0.510689378 0.324731201 0.003668581
0.542315125 0.338645965 0.006577992
0.573434949 0.352687806 0.006577988
0.609867036 0.355977148 0.001011992
0.646299481 0.361543387 0.001265006
0.683744371 0.371536791 0.000000000
0.722580910 0.382289469 0.000632584
0.762049317 0.391397864 0.000632584
0.799873531 0.400506109 0.000632584
0.840480566 0.409614116 0.000000000
0.883870721 0.418216079 0.000000000
0.920050442 0.424541771 0.000000000
0.958760440 0.430993199 0.000000000
0.986464381 0.435167760 0.001771217
0.997596443 0.442757994 0.003668814
0.992156982 0.452498823 0.000000000
0.396584600 0.381783605 0.000000000
0.399620384 0.381151170 0.005439578
0.404806972 0.378114998 0.002024192
0.408095956 0.383174926 0.002529999
0.409993589 0.385831565 0.004047996
0.420113832 0.380771697 0.003036134
0.425680250 0.382922590 0.004174679
0.435294271 0.387349874 0.000000000
0.443643421 0.390385687 0.004554200
0.449715406 0.390639067 0.000379516
0.458696634 0.390006512 0.000000000
0.461732775 0.384946376 0.000000000
0.470841289 0.381910115 0.004174649
0.478431404 0.374066591 0.006704973
0.491461009 0.364073396 0.003668589
0.506641328 0.359139562 0.003036004
0.524857759 0.353067577 0.000000000
0.551423311 0.361163348 0.003036004
0.583554983 0.376343757 0.003036003
0.614674628 0.385199130 0.002276996
0.651106596 0.393927783 0.001897740
0.689563274 0.404047936 0.003415674
0.730297208 0.417077601 0.004680515
0.767488897 0.419354677 0.002403804
0.804680526 0.428463072 0.002403804
0.845287919 0.437571436 0.001012132
0.888804674 0.446173400 0.000506064
0.923339665 0.452245682 0.002403804
0.960025430 0.451106966 0.004806995
0.987096965 0.460720927 0.001265014
0.998229027 0.470714569 0.001518196
0.992156982 0.482858986 0.000000000
0.431499183 0.422770560 0.000000000
0.431499183 0.419734180 0.006072000
0.433649570 0.420619786 0.003542000
0.438456416 0.420113713 0.000000000
0.442631215 0.426818460 0.004807003
0.450980186 0.420746177 0.001012001
0.456040680 0.423782676 0.000000000
0.464136869 0.425300837 0.001518192
0.476281106 0.427577555 0.000759096
0.481593996 0.429854870 0.000000001
0.492093682 0.431499183 0.001518192
0.502719343 0.428969353 0.000000000
0.502719343 0.422897071 0.001138644
0.513093054 0.417077392 0.003922000
0.523972154 0.410499781 0.002150776
0.533965766 0.403162539 0.003035997
0.547628343 0.397090167 0.004554189
0.561543584 0.389879376 0.002656622
0.587855816 0.400632173 0.000000000
0.621505558 0.411764741 0.000000000
0.655661166 0.424288571 0.000379548
0.696141422 0.435420454 0.002403808
0.739405215 0.449209183 0.004807003
0.775838017 0.451992184 0.003162710
0.810752571 0.457305670 0.002403808
0.848576963 0.467805356 0.006578470
0.892346978 0.476028144 0.003036126
0.926755190 0.481087983 0.002024256
0.962808371 0.483744353 0.005060350
0.987096965 0.485009342 0.005819210
1.000000000 0.495382339 0.000632584
0.995193005 0.508665204 0.000000000
0.468437552 0.467046529 0.000000000
0.467299372 0.462238908 0.004807008
0.465781540 0.461353332 0.004174577
0.468311369 0.465022117 0.000000000
0.472106069 0.466919959 0.000379548
0.483997107 0.460847229 0.000632576
0.491081595 0.464895606 0.000632576
0.498545527 0.468944103 0.001012132
0.509045005 0.468311548 0.003162905
0.512080669 0.468311548 0.000126518
0.523213267 0.470588237 0.002277296
0.536748886 0.470208824 0.001897745
0.548766136 0.466666818 0.001138646
0.549272120 0.460594118 0.003668969
0.558000982 0.457178980 0.003289424
0.565338135 0.450600892 0.005060200
0.573813915 0.440860093 0.007463625
0.585326076 0.433016688 0.009867433
0.594433844 0.433016717 0.000759032
0.624161720 0.440986693 0.000000000
0.661859453 0.454396278 0.000000001
0.699810266 0.467552423 0.000000001
0.747754455 0.476786554 0.000126513
0.783681214 0.483870685 0.000632576
0.817836881 0.489310533 0.001897566
0.855913937 0.497533500 0.002277095
0.892347038 0.508159459 0.009867433
0.928146541 0.511195123 0.001138559
0.962681592 0.517520130 0.002024256
0.987982154 0.521821320 0.003289424
1.000000000 0.525110543 0.003036400
1.000000000 0.531182528 0.000000008
0.495761991 0.506515026 0.000000000
0.501834035 0.506515026 0.000000000
0.500695825 0.503858209 0.002656774
0.502972841 0.505123019 0.002403807
0.511574566 0.509424031 0.000379548
0.520682931 0.503352106 0.003415932
0.527513981 0.507399976 0.003668967
0.531941772 0.513472497 0.002024262
0.536496043 0.516761899 0.000253035
0.542441547 0.513852060 0.000126520
0.551296890 0.513852060 0.000000006
0.562682033 0.514105022 0.000253039
0.575079024 0.512713373 0.001138652
0.585704982 0.509171009 0.003668978
0.591776967 0.503099024 0.000632588
0.600505829 0.499683857 0.000253033
0.609361172 0.491587967 0.000506000
0.618722558 0.481594324 0.000759032
0.627830982 0.478557974 0.000759032
0.642504573 0.475774616 0.000000000
0.676533461 0.483491510 0.000000002
0.716508269 0.494876862 0.000000003
0.753826499 0.504111052 0.000126516
0.787222922 0.516255856 0.003162904
0.820872903 0.521062672 0.008222958
0.861227274 0.527134717 0.006831301
0.904491067 0.535483956 0.000759035
0.925743401 0.538519621 0.000759035
0.953573763 0.546868861 0.000000001
0.978115201 0.552182198 0.000253032
0.994433939 0.555218399 0.000253043
1.000000000 0.558507025 0.000000045
0.525869727 0.551549375 0.000000000
0.531941712 0.548766792 0.000000000
0.538013756 0.548766792 0.002150774
0.539405584 0.547628105 0.002656839
0.544718564 0.550284564 0.000000000
0.549019277 0.551422715 0.000632579
0.553067684 0.552941084 0.003668965
0.562175751 0.555471063 0.003922000
0.570145488 0.556989312 0.002024262
0.578241706 0.553952932 0.000000004
0.584440291 0.553826392 0.005566003
0.597596645 0.555850625 0.005566004
0.608222723 0.558886766 0.007843002
0.616571724 0.560531139 0.011511684
0.622643769 0.554459095 0.003415942
0.638330340 0.545983315 0.000379553
0.647059083 0.542188585 0.000000000
0.654269695 0.534472167 0.000000000
0.661227405 0.527134776 0.000000000
0.670335710 0.521315753 0.000000000
0.693105817 0.514484346 0.001897740
0.727134705 0.520430028 0.002783357
0.759519041 0.531688392 0.002783357
0.784946263 0.549146235 0.003162905
0.825173914 0.552182436 0.001644712
0.860088646 0.557495415 0.004807311
0.901201844 0.565591633 0.002783357
0.940670788 0.568627298 0.002783357
0.964579284 0.576976538 0.000126525
0.981151223 0.584313750 0.000000000
0.993927956 0.586590827 0.011511554
1.000000000 0.585831344 0.036179382
0.560025454 0.598987937 0.001897740
0.564199686 0.595951855 0.000000000
0.570271730 0.593168736 0.002150774
0.572548926 0.596963882 0.002656839
0.575079322 0.598482013 0.000000000
0.581151247 0.598482013 0.000000000
0.591777027 0.599620521 0.000632582
0.589879751 0.601012170 0.005313257
0.603541911 0.601012170 0.005819255
0.618342996 0.599114478 0.003921513
0.622643709 0.598987937 0.002024003
0.627197981 0.601011693 0.004048004
0.641239762 0.604048073 0.004048004
0.649588764 0.608602166 0.008349041
0.660594463 0.604174435 0.005819429
0.670588315 0.599494159 0.007210933
0.679696739 0.591903567 0.001138547
0.686274707 0.587855756 0.000000000
0.694876730 0.580012441 0.000000000
0.707527041 0.573687434 0.000000000
0.716635466 0.565717697 0.000000000
0.738899708 0.557621419 0.002024260
0.764073193 0.564199448 0.002277252
0.793674827 0.575331807 0.005819256
0.827830553 0.585578740 0.005439708
