Assets/Resources/EldamarStudio/100 Horror LUTs Pack/LUTs/cube/Gumuq LUT.cube
LUT_3D_SIZE 5
DOMAIN_MIN 0.000000 0.000000 0.000000
DOMAIN_MAX 0.903226 0.903226 0.903226
0.000000000 0.000000000 0.000000000
0.135736689 0.002277292 0.008476003
0.395699203 0.000000000 0.000000000
0.664136350 0.002909872 0.000000000
0.946995616 0.059202783 0.005186845
0.139025688 0.115496688 0.001644708
0.187729388 0.110562980 0.000000000
0.412017792 0.134092405 0.001265006
0.671980143 0.168121397 0.001264999
0.945983469 0.219101816 0.003288997
0.366223812 0.346615821 0.000000000
0.404806823 0.350284487 0.004933705
0.461732805 0.318532377 0.006577994
0.683744371 0.371536791 0.000000000
0.958760440 0.430993199 0.000000000
0.595446110 0.647565246 0.002909872
0.636432290 0.645541251 0.003288997
0.699177682 0.651106954 0.002277288
0.764200091 0.608222246 0.000000000
0.973307908 0.637317955 0.000000000
0.830613434 0.911574781 0.000000000
0.853130877 0.908538699 0.007463717
0.918785214 0.909551203 0.043137159
0.988614798 0.901454449 0.087412864
0.992156982 0.851359785 0.224541202
0.041492712 0.021252289 0.071979985
0.153700396 0.002277292 0.071979985
0.377988368 0.001644708 0.075901404
0.627830684 0.089057580 0.107400402
0.929664731 0.158127502 0.142314687
0.086021699 0.116761692 0.049082991
0.179506689 0.126249403 0.070335694
0.374699384 0.153699979 0.087665990
0.633143604 0.197216690 0.111954555
0.923086524 0.263630539 0.137887329
0.329285115 0.327007949 0.070588000
0.371157497 0.330297381 0.069702700
0.433902502 0.317900211 0.089310691
0.666792989 0.374825954 0.104364276
0.938393176 0.448450327 0.143073931
0.569765627 0.636052966 0.009740571
0.614041984 0.632510841 0.020872574
0.683744073 0.643896520 0.009108415
0.751422822 0.604680538 0.066034518
0.966856480 0.643516839 0.167488903
0.821125686 0.910183787 0.208095804
0.831878603 0.904617369 0.191777214
0.902339995 0.907526791 0.210372940
0.982036531 0.904617131 0.253763169
1.000000000 0.856166959 0.320683122
0.151170403 0.000000000 0.278052211
0.230233982 0.000632584 0.266540110
0.387855351 0.003289416 0.248576820
0.644529104 0.047564700 0.248956084
0.919544578 0.173561200 0.298924387
0.203415394 0.161922693 0.239468381
0.256040692 0.169765696 0.232257813
0.385831386 0.174952701 0.232890815
0.629854620 0.218848690 0.256799519
0.907400310 0.311448365 0.318279505
0.245919958 0.336875379 0.206072390
0.304111391 0.349272817 0.214547813
0.450601220 0.375458807 0.253131211
0.646173298 0.416065782 0.291840374
0.917520344 0.502466619 0.368501037
0.502593517 0.625300705 0.281340808
0.540164649 0.631878614 0.291461080
0.637697637 0.632511199 0.293611914
0.714484394 0.616825104 0.314104646
0.938646317 0.675521791 0.399114639
0.767615795 0.902972579 0.431751937
0.789247394 0.899683595 0.433522910
0.864389718 0.906261802 0.439089179
0.951043546 0.907273889 0.467425823
0.991777182 0.870967627 0.490701765
0.274762988 0.016825125 0.541809261
0.339405388 0.043643121 0.541049838
0.460215092 0.092978992 0.530676663
0.665148199 0.104111254 0.518026292
0.933839619 0.205059931 0.507527232
0.315875858 0.221758395 0.516255677
0.361290544 0.222390980 0.515749395
0.468311250 0.241113111 0.509297967
0.662491858 0.243389979 0.496267915
0.924730957 0.332068026 0.512840092
0.338393122 0.393801391 0.498924524
0.401897699 0.401391357 0.492978960
0.505502641 0.437697798 0.490448982
0.666792989 0.449082524 0.495255828
0.910562873 0.546236336 0.537760675
0.365717888 0.646553099 0.447565228
0.416824698 0.651107013 0.457685113
0.546995640 0.666793108 0.490069240
0.719924271 0.690702260 0.561290264
0.911448479 0.742567897 0.622896910
0.665654421 0.911195636 0.584946454
0.700822413 0.910816193 0.600126505
0.792536318 0.909551203 0.664895773
0.898544908 0.911195636 0.663124740
0.966476560 0.894750059 0.688172221
0.360910833 0.193927780 0.872485638
0.413662523 0.207337052 0.869955599
0.527007937 0.243643433 0.866034269
0.677798927 0.297659725 0.864263058
0.931182742 0.328652740 0.846299767
0.409361243 0.338393152 0.861732721
0.444655240 0.343706161 0.859455764
0.546995521 0.367868185 0.860720634
0.683871031 0.404047936 0.852118611
0.925236940 0.427450985 0.843516648
0.501074910 0.562681615 0.840986788
0.532827079 0.575838029 0.845161140
0.609487772 0.584187210 0.841113567
0.714737415 0.599873185 0.837570786
0.919291794 0.604553759 0.832637131
0.496900618 0.750031412 0.844149232
0.544085801 0.751043499 0.840986609
0.644528866 0.750790775 0.839848459
0.766476810 0.777229965 0.833016872
0.911574781 0.778620899 0.827197731
0.576976597 0.931182742 0.783681214
0.603794634 0.927260756 0.792536497
0.693864346 0.925237179 0.808475614
0.809487820 0.930423617 0.831625283
0.932447612 0.933712721 0.879063725
