Assets/Resources/EldamarStudio/100 Horror LUTs Pack/LUTs/cube/Hatoved LUT.cube
LUT_3D_SIZE 5
DOMAIN_MIN 0.000000 0.000000 0.000000
DOMAIN_MAX 0.903226 0.903226 0.903226
0.031373002 0.039216001 0.027450999
0.242631391 0.006831295 0.055534583
0.506767392 0.000632584 0.032005426
0.742568135 0.089310862 0.060847998
0.984819591 0.159645975 0.129790783
0.106894284 0.229474992 0.025173709
0.265781105 0.224920988 0.024541706
0.493991107 0.236432686 0.031752121
0.737634420 0.275016129 0.066413708
0.982162774 0.303099692 0.129285097
0.209234834 0.446679384 0.057558831
0.313851953 0.451613069 0.062745422
0.484503388 0.454522371 0.055534583
0.725237250 0.492726088 0.082353003
0.976849914 0.510689437 0.145224825
0.265654862 0.719038367 0.073624127
0.353067398 0.724225104 0.090955414
0.525363684 0.729791284 0.091334864
0.741556287 0.732701123 0.098165996
0.979253650 0.727767289 0.191144973
0.379632741 0.959771752 0.289436758
0.443010598 0.965085447 0.305502862
0.583427727 0.965085447 0.303858578
0.782036662 0.959139824 0.322200745
0.984692812 0.950663984 0.332700580
0.021252289 0.053257290 0.188361391
0.231878683 0.025173709 0.187729403
0.446679354 0.065781116 0.206325114
0.687666118 0.133459985 0.231498986
0.967488885 0.196204990 0.265528411
0.137381405 0.193548411 0.183428109
0.251486093 0.207337394 0.192915976
0.445667118 0.229222119 0.206325114
0.689943254 0.269449383 0.229222119
0.966476738 0.314484388 0.270841360
0.232763991 0.420493394 0.207589701
0.316508383 0.423782378 0.214168116
0.468184829 0.429348499 0.214800701
0.701707840 0.480708390 0.232131556
0.968501031 0.517267644 0.280961245
0.280708313 0.708918273 0.232510954
0.350537837 0.712587118 0.244275689
0.516634822 0.711195529 0.236432523
0.724857688 0.716382086 0.240354270
0.971663177 0.732321382 0.305882096
0.393295318 0.954585791 0.370019078
0.450854003 0.947754681 0.372928381
0.591271162 0.950410903 0.379253477
0.781783462 0.949019432 0.395572335
0.984440029 0.945098102 0.418216020
0.139278576 0.041239571 0.409867406
0.278178275 0.049335714 0.397849679
0.453763813 0.079822987 0.375964373
0.688298523 0.139026120 0.410373271
0.951423228 0.233016789 0.447311789
0.207210571 0.234028980 0.376850128
0.295508981 0.231119692 0.370651394
0.445540696 0.234408692 0.367488801
0.682732403 0.271346986 0.403795093
0.945224464 0.352941364 0.457178801
0.259582400 0.413915366 0.377988786
0.322959989 0.425679803 0.380265683
0.483870804 0.444654971 0.397596806
0.688298523 0.479696542 0.419228226
0.946236312 0.537634611 0.471600205
0.314863712 0.687159896 0.427324682
0.372548997 0.693485141 0.427703977
0.520429969 0.697027326 0.430866390
0.717646956 0.705249667 0.438456535
0.954585612 0.736622512 0.492093652
0.460467815 0.952055633 0.529032171
0.496268421 0.942820787 0.534218967
0.625806272 0.940797210 0.544718385
0.792915940 0.946110189 0.553953230
0.972169399 0.944212615 0.569639146
0.242251858 0.113851994 0.672865272
0.350410998 0.120683126 0.660341382
0.527008355 0.133459985 0.643770099
0.712207258 0.158001125 0.629728258
0.954711735 0.253004670 0.639721751
0.277166009 0.277925402 0.642504573
0.355597585 0.278557837 0.637318134
0.522707105 0.282859117 0.631752253
0.704617083 0.293990970 0.611132145
0.950790763 0.366097301 0.648070812
0.297406554 0.489816815 0.618975401
0.370019019 0.487792403 0.614927292
0.521821797 0.493737966 0.613788724
0.704617083 0.499683827 0.615812957
0.938646495 0.571283877 0.657558322
0.330550134 0.701328099 0.622770131
0.403668255 0.709171534 0.620872676
0.552561820 0.712713361 0.633016825
0.735610247 0.728779137 0.644529104
0.942188621 0.760404944 0.690448999
0.564073443 0.934092343 0.718406081
0.595066309 0.940543890 0.725489914
0.689943135 0.939531803 0.739025772
0.810246646 0.937634468 0.733712792
0.968374431 0.943200469 0.742568135
0.291587979 0.233016953 0.912966430
0.377608687 0.242504656 0.912966430
0.537380993 0.262492180 0.907653451
0.753573537 0.292978883 0.899936557
0.976849794 0.332574427 0.894623578
0.323718965 0.369892359 0.903351903
0.392030537 0.375205338 0.906008720
0.552814722 0.384693205 0.899177730
0.752941012 0.401770890 0.898165524
0.977229476 0.431246161 0.893611491
0.406957597 0.582795322 0.900442362
0.463124633 0.593927741 0.887792468
0.593801618 0.597849667 0.890701771
0.768121541 0.602782905 0.892346442
0.966476738 0.608981311 0.880328715
0.464389622 0.776470542 0.891460598
0.514231384 0.775205672 0.886906743
0.635420501 0.784693182 0.889057636
0.782416105 0.786337852 0.882479489
0.952435076 0.788993955 0.888551295
0.558760583 0.945603609 0.883997679
0.596584439 0.945477784 0.896267891
0.693231761 0.942188382 0.893991172
0.828462958 0.942820966 0.898418784
0.957241774 0.946742594 0.918279409
