Assets/Resources/EldamarStudio/100 Horror LUTs Pack/LUTs/cube/Hatoved LUT.cube
DOMAIN_MIN 0 0 0
DOMAIN_MAX 1 1 1
LUT_3D_SIZE 32
0.031373002 0.039216001 0.027450999
0.040480614 0.039216001 0.030487388
0.058190770 0.039216001 0.035674002
0.085768320 0.039216001 0.041745998
0.122960091 0.038077451 0.048197545
0.165464863 0.028969064 0.057305932
0.202909634 0.017331004 0.058823999
0.242631391 0.006831295 0.055534583
0.284377098 0.000000000 0.051739097
0.323845506 0.000000000 0.054775476
0.363314629 0.000000000 0.043264002
0.398735255 0.000000000 0.039216001
0.434408635 0.001138644 0.038077358
0.473371029 0.003668968 0.035041034
0.506767392 0.000632584 0.032005426
0.537760615 0.000000000 0.026565392
0.569639206 0.009107991 0.025047192
0.603035688 0.027324138 0.028715992
0.636432946 0.045540951 0.034788013
0.672612727 0.058191009 0.043643363
0.707147717 0.074130468 0.052751735
0.742568135 0.089310862 0.060847998
0.781910002 0.098544985 0.067046471
0.818342805 0.110688999 0.076154098
0.852498293 0.120556280 0.082985573
0.885894656 0.129664660 0.091840975
0.918785155 0.138773069 0.102466933
0.949145854 0.147881448 0.105502538
0.984819591 0.159645975 0.129790783
1.000000000 0.171789959 0.146489203
0.999114394 0.184819594 0.158254206
0.996078014 0.200000003 0.176470995
0.040480614 0.036179613 0.036559388
0.037445001 0.033144001 0.033523001
0.061606385 0.041745998 0.040860388
0.089310318 0.045288000 0.042758003
0.122960091 0.045288000 0.042884547
0.165464863 0.044149451 0.057305932
0.202909634 0.037571386 0.046173681
0.244275689 0.031372681 0.046932608
0.286653787 0.025047291 0.047944386
0.323845506 0.018215999 0.048703481
0.360404730 0.018215999 0.043010999
0.397723109 0.016192259 0.035168007
0.432131648 0.017457385 0.030866712
0.467552066 0.022643998 0.026691679
0.503731787 0.027956970 0.032005426
0.532321155 0.034535185 0.026565392
0.563567221 0.042504765 0.025047192
0.597596109 0.056419760 0.029348569
0.633396566 0.069828957 0.037824396
0.672359705 0.088045724 0.043896392
0.707147717 0.095003024 0.050853994
0.741556287 0.105502866 0.058823738
0.778874338 0.116761759 0.067046471
0.815306425 0.128905773 0.076154098
0.851739168 0.136495769 0.087539569
0.885894656 0.144845054 0.096521303
0.919797122 0.154459387 0.106008604
0.955217838 0.166097447 0.111574538
0.985578597 0.169892833 0.122580647
1.000000000 0.179127142 0.137381136
0.998229027 0.190891594 0.151802406
0.993042350 0.206072003 0.176470995
0.040986773 0.052498545 0.037065227
0.048703384 0.055914160 0.042631388
0.065022551 0.050727770 0.039595000
0.096647710 0.061606608 0.046173386
0.129032314 0.063124545 0.043137453
0.169765860 0.057811771 0.047691386
0.207210630 0.065654777 0.052624907
0.245287687 0.062871777 0.044022936
0.286780298 0.059582546 0.045541000
0.321821749 0.051865838 0.042757995
0.356103748 0.051486321 0.036938999
0.394560248 0.049462065 0.030866491
0.431119502 0.048703417 0.024794456
0.465275079 0.053763546 0.019481033
0.497912824 0.059835538 0.023656059
0.531435788 0.068311349 0.024415165
0.561796188 0.078937538 0.024414770
0.595825136 0.089816540 0.028083580
0.632257998 0.098924570 0.034155983
0.669323325 0.112333722 0.046932232
0.704996943 0.119164996 0.053004704
0.738393366 0.124984026 0.059076771
0.773561001 0.136749253 0.066793479
0.807969749 0.142821014 0.071853094
0.848703325 0.154711992 0.085388795
0.885135710 0.160784334 0.094750218
0.920303226 0.169133708 0.103604995
0.958380640 0.179632992 0.112965994
0.987349629 0.185958058 0.132953659
0.998228788 0.197849616 0.138014004
0.998734832 0.208096132 0.150410965
0.996457994 0.220746547 0.176470995
0.039216001 0.081846997 0.036559161
0.057685159 0.084124155 0.043137226
0.075901382 0.084124155 0.042378228
0.102720156 0.083112158 0.043136999
0.136116534 0.091081321 0.044275839
0.173813924 0.084630094 0.038583066
0.212017804 0.089437321 0.043137003
0.248829693 0.095003322 0.044275712
0.287539184 0.095003322 0.041239902
0.321442306 0.089943320 0.035673834
0.354838699 0.088425159 0.029601842
0.391018242 0.087666065 0.027324488
0.428209931 0.088045314 0.021252003
0.464263201 0.091461152 0.016191998
0.495635808 0.097533152 0.020240255
0.525869787 0.104743801 0.020872839
0.563061357 0.112840310 0.023909159
0.595825315 0.123719312 0.030613568
0.630993128 0.129791334 0.034914821
0.667425573 0.138899326 0.044022817
0.701960921 0.147248477 0.056040317
0.735357285 0.148260340 0.062112834
0.769006670 0.159519494 0.068184830
0.804680526 0.164832413 0.072359100
0.843643546 0.170904160 0.083238438
0.883364916 0.179000333 0.098038986
0.917773128 0.185579062 0.103098996
0.953447104 0.194686860 0.112206988
0.987349629 0.201138318 0.132447630
0.996963918 0.210499555 0.147627994
0.996584117 0.225174144 0.151169971
1.000000000 0.233902991 0.173940673
0.040734001 0.118279092 0.038457002
0.068817385 0.116002478 0.041113164
0.089310542 0.115117088 0.037697453
0.112966321 0.116129093 0.037064999
0.142568097 0.121821545 0.040480454
0.175964490 0.121821545 0.028336452
0.213662416 0.124351867 0.031372454
0.251106977 0.125363991 0.032511167
0.286780179 0.125363991 0.029854907
0.323212981 0.125363991 0.026818514
0.357874423 0.122833677 0.021632001
0.392536074 0.121821545 0.021252289
0.427450836 0.123339541 0.021252003
0.461100966 0.129411533 0.016445031
0.494623840 0.135483533 0.022643542
0.524351776 0.141555637 0.024667548
0.557748377 0.147627920 0.026944837
0.598102570 0.153320983 0.032890957
0.628463447 0.159393013 0.041998584
0.663630545 0.165844545 0.046299808
0.697786152 0.173055291 0.053510446
0.731562555 0.180518955 0.064389549
0.765085459 0.183681086 0.070335031
0.804300904 0.192536458 0.076154009
0.843390286 0.197469801 0.086401023
0.881846905 0.201264769 0.099557303
0.917393565 0.204554066 0.113345549
0.941682279 0.213662446 0.113345549
0.978494287 0.219354987 0.128526092
0.994686663 0.227198198 0.143200412
0.993927956 0.235041529 0.154964983
1.000000000 0.241113544 0.167108998
0.052877996 0.154711872 0.032385003
0.086274385 0.157748252 0.032385003
0.105755776 0.157621875 0.028589390
0.129032090 0.155091867 0.028842229
0.160784096 0.152182326 0.034408454
0.185072869 0.155217931 0.019228067
0.218469247 0.157748252 0.022264067
0.252877772 0.157495230 0.023402780
0.286021203 0.155724004 0.021126065
0.317140996 0.155724004 0.020746518
0.359392732 0.155724004 0.020620000
0.392283440 0.155217931 0.019608000
0.423655927 0.155217931 0.018975291
0.455028176 0.156735927 0.016445031
0.491460919 0.162807912 0.025553409
0.527387619 0.168880537 0.031751931
0.559266329 0.174952790 0.033775933
0.592283547 0.180392355 0.035420641
0.625427067 0.183681011 0.038962979
0.655787766 0.192536354 0.048070587
0.687159956 0.197343677 0.050474066
0.720050395 0.202403933 0.056546316
0.755977094 0.207969859 0.067299418
0.792409897 0.214041859 0.070335038
0.829348564 0.220619932 0.078431293
0.867678642 0.227577537 0.089437045
0.905629039 0.234661803 0.101581067
0.938645899 0.237950444 0.110309936
0.970904529 0.239088997 0.120935909
0.991144776 0.245414197 0.134092033
0.996457696 0.252751619 0.145350665
1.000000000 0.256293923 0.154964998
0.085262641 0.198734954 0.026312357
0.108539023 0.201770708 0.028842678
0.131182641 0.202656314 0.028842678
0.150537640 0.202656314 0.026059322
0.179380178 0.198734865 0.029475003
0.205819175 0.193169028 0.020746388
0.230107307 0.193674967 0.018216323
0.263504118 0.196710929 0.020999324
0.296900719 0.196963727 0.020366902
0.329032302 0.198734954 0.022137675
0.363440722 0.193674967 0.017077677
0.397849500 0.193674967 0.017077677
0.429348648 0.193674967 0.019354675
0.461100399 0.194180965 0.021252062
0.492979109 0.200252950 0.028083732
0.529411912 0.206324950 0.037191510
0.564326525 0.210879505 0.041872192
0.596964121 0.215939626 0.043516736
0.632258296 0.220873013 0.046552658
0.667932034 0.226944998 0.057685293
0.700190008 0.236053377 0.059202902
0.733206928 0.239342630 0.060594320
0.769260168 0.242378622 0.069323190
0.798482120 0.248450652 0.072359420
0.834914863 0.252245337 0.084503599
0.871347249 0.258064300 0.091334641
0.909171104 0.265528113 0.100569062
0.944591701 0.270588517 0.113725439
0.977988183 0.276027948 0.128020287
0.991903722 0.277798712 0.141935498
0.996078014 0.284503311 0.155724227
0.997469664 0.289184004 0.168121636
0.106894284 0.229474992 0.025173709
0.128146663 0.234155312 0.019987393
0.150537699 0.238330111 0.022517294
0.166223705 0.238330111 0.025047295
0.189753368 0.237191558 0.025426840
0.218342930 0.228083640 0.020620001
0.241492704 0.228209987 0.024541706
0.265781105 0.224920988 0.024541706
0.299178094 0.227956787 0.023023514
0.332574546 0.230993181 0.023402516
0.365970880 0.230233982 0.022643704
0.397343516 0.229854703 0.018974997
0.428842634 0.229854703 0.021252286
0.462239027 0.230360702 0.027071385
0.493991107 0.236432686 0.031752121
0.525869846 0.237571388 0.036938898
0.562302649 0.243643403 0.044528708
0.597090542 0.248703673 0.048323989
0.634535253 0.256799698 0.052371748
0.667679012 0.261227399 0.057179015
0.702214003 0.265907735 0.066413969
0.737634420 0.275016129 0.066413708
0.774573147 0.277166694 0.072485700
0.804933906 0.283238679 0.077039905
0.840733826 0.285389125 0.087539569
0.877166569 0.289816409 0.099936955
0.913092792 0.294876397 0.104996696
0.948386848 0.298671901 0.119038425
0.982162774 0.303099692 0.129285097
0.994433701 0.310689449 0.146110177
0.996204674 0.312839687 0.160404980
0.997722745 0.317393690 0.174826279
0.117520094 0.253004283 0.025933003
0.140290469 0.258317173 0.018343000
0.160657629 0.263630629 0.016192321
0.181404099 0.266413987 0.018216001
0.195066199 0.266413987 0.025426548
0.224667951 0.258444160 0.024667930
0.246679321 0.257178873 0.026439227
0.271094412 0.255281210 0.030613907
0.295382977 0.249968097 0.031373002
0.328779399 0.253004491 0.025300227
0.360657781 0.256799430 0.027197968
0.391271502 0.259835362 0.026944937
0.423529536 0.261733115 0.027324289
0.456672966 0.262239099 0.032891002
0.489563376 0.268311083 0.035420675
0.521315515 0.268690884 0.038456708
0.554712296 0.270209074 0.043769997
0.591777623 0.276913673 0.049841993
0.631246150 0.288931191 0.055914000
0.663883626 0.293485463 0.057937995
0.696141779 0.296521336 0.061353635
0.730803132 0.300822139 0.069449902
0.769891977 0.309551001 0.075395413
0.802656651 0.314358026 0.080835007
0.840607405 0.318153083 0.091460995
0.877925277 0.319418103 0.102972567
0.914358079 0.325490117 0.113092959
0.948007524 0.325996101 0.125489980
0.982921839 0.327134937 0.132320985
0.995066106 0.335231036 0.146236300
0.993168890 0.342441171 0.161922976
0.999240935 0.342441171 0.174066991
0.132700503 0.292473435 0.019861009
0.160024866 0.295509070 0.025933003
0.176344022 0.298671722 0.026945004
0.191524491 0.299304307 0.025806328
0.210246593 0.296774030 0.025426559
0.234535366 0.296774000 0.040606927
0.254016489 0.291334510 0.032258004
0.278937399 0.285642028 0.027577523
0.307526976 0.280328929 0.028336618
0.331815004 0.277292520 0.031373009
0.359392405 0.283238769 0.031119976
0.386970282 0.287160218 0.031246491
0.417836964 0.289057523 0.033396970
0.453636587 0.289563507 0.038963005
0.483997315 0.295635492 0.038963009
0.516887784 0.299304336 0.041492682
0.551675916 0.303605497 0.047564708
0.588741243 0.310310066 0.055913996
0.628210485 0.319418490 0.061986007
0.664895475 0.325870007 0.068057999
0.699177682 0.329917789 0.070082001
0.733586431 0.333965480 0.072485521
0.769891977 0.339911044 0.078431033
0.800252855 0.339911044 0.081467427
0.837571383 0.346995324 0.091460988
0.874257147 0.351549506 0.103604972
0.908286154 0.352814525 0.116128571
0.944718897 0.358886510 0.131308928
0.983681262 0.356736362 0.138392985
0.998102248 0.364579678 0.153320149
0.995951533 0.375964850 0.170904100
0.996204555 0.378873974 0.180138990
0.147880867 0.308665127 0.034155868
0.160657376 0.317520469 0.034408871
0.183680773 0.320556641 0.031878874
0.201897293 0.322327882 0.036685709
0.222896636 0.320556730 0.042377871
0.249715745 0.315496743 0.034787938
0.256293535 0.318026423 0.042378001
0.279190391 0.316381872 0.039088998
0.308792114 0.313598961 0.039088998
0.335230887 0.310563117 0.039974611
0.362428755 0.313345730 0.040101126
0.389753133 0.313346267 0.036053132
0.420493394 0.314611107 0.037697770
0.456166893 0.316887885 0.045287967
0.483870804 0.322959870 0.047944129
0.516634762 0.326628685 0.052751735
0.553067565 0.334218860 0.056293540
0.590259373 0.343073845 0.061353572
0.625174105 0.349904954 0.065148875
0.659076571 0.356229991 0.068437517
0.695382476 0.362302482 0.072485738
0.729791284 0.366350472 0.073497869
0.764325976 0.370524734 0.075774863
0.800252855 0.376090735 0.081593908
0.835167587 0.376090735 0.086906999
0.871220767 0.379126877 0.097785980
0.905123234 0.380138874 0.109424062
0.941555977 0.386210859 0.119797438
0.972675800 0.389626712 0.137633964
0.991903961 0.388867855 0.150031179
0.994939864 0.396584600 0.165464595
0.998987854 0.403668731 0.174573004
0.165085509 0.342061490 0.041239738
0.181277499 0.349146158 0.041239738
0.195825279 0.349905014 0.043010991
0.214547664 0.350411087 0.043264154
0.233523056 0.349272549 0.054648966
0.254269779 0.344845235 0.047438249
0.275521934 0.344339192 0.046426252
0.288424969 0.344085813 0.047564544
0.316129208 0.343706250 0.047184996
0.342188776 0.341935456 0.047184996
0.369513124 0.344718635 0.045161255
0.394813269 0.345730513 0.049209248
0.422137648 0.344971597 0.044275604
0.454901785 0.348007262 0.049335774
0.480455399 0.352308482 0.052371833
0.516634762 0.360025316 0.055787608
0.548513353 0.364579499 0.058823999
0.585199237 0.373813897 0.061353680
0.618595719 0.378494263 0.064389721
0.654016435 0.384566754 0.071473904
0.685515463 0.386843771 0.070714518
0.721695244 0.392663240 0.074509747
0.756230175 0.396837503 0.076913245
0.792662561 0.402909487 0.084883004
0.829095304 0.408475518 0.092979252
0.866919696 0.409867197 0.099051237
0.902593315 0.410499752 0.109930247
0.940543830 0.413535744 0.120556429
0.973687351 0.414927334 0.133585960
0.991650939 0.416192502 0.148260415
0.996204972 0.416192502 0.159645647
1.000000000 0.421885252 0.166476741
0.182163343 0.378873944 0.045413997
0.198102653 0.381530792 0.046552639
0.211891130 0.383428514 0.046426129
0.227071509 0.383807749 0.050854161
0.242631450 0.380771369 0.058444452
0.258570939 0.377735555 0.055408064
0.280202627 0.376091272 0.057178997
0.303984702 0.375585228 0.054395933
0.326755077 0.374825925 0.052877739
0.351423353 0.375584930 0.053257287
0.376344234 0.377356142 0.051486511
0.400505990 0.378368288 0.052245639
0.427071273 0.378368288 0.056040645
0.454395652 0.381403893 0.053004257
0.479569793 0.384440064 0.054269414
0.513598800 0.393422067 0.059582800
0.548513353 0.401012272 0.058823999
0.580139101 0.407084256 0.060088992
0.614041626 0.410625964 0.063630685
0.649082720 0.417584002 0.069955721
0.686274469 0.419861257 0.076027907
0.720683277 0.421885252 0.076027639
0.757242441 0.427704275 0.082099639
0.792662621 0.431752264 0.090195909
0.829095185 0.437824279 0.099304281
0.865780950 0.441366345 0.109297983
0.904744089 0.443896651 0.115876056
0.943580031 0.443896651 0.127387628
0.976596773 0.443896651 0.142947257
0.993548214 0.447312266 0.155091405
1.000000000 0.449083269 0.168121591
1.000000000 0.449589282 0.172169283
0.197090060 0.407211035 0.051486064
0.209487811 0.404174656 0.055028383
0.218975261 0.405692846 0.053004257
0.230866209 0.409741044 0.054775290
0.246173054 0.414674550 0.058950450
0.264389843 0.411638170 0.055914063
0.284630269 0.408855379 0.059709031
0.308033019 0.407717019 0.060215034
0.332321078 0.408476055 0.055914059
0.359645486 0.414548069 0.058950450
0.381403893 0.414801061 0.058823999
0.403162301 0.414801061 0.058570966
0.427071273 0.414801061 0.058823999
0.457179010 0.415054023 0.058570966
0.484503388 0.418089628 0.055534583
0.516128778 0.427577615 0.061859764
0.548513353 0.436686039 0.064389966
0.579886079 0.442504972 0.060341958
0.616318941 0.448576987 0.066413976
0.650474429 0.457685381 0.069702677
0.688804507 0.461354017 0.076280735
0.731309295 0.463125020 0.083871000
0.773561001 0.469323486 0.089816511
0.807083964 0.469702989 0.095762037
0.842757583 0.474004030 0.104617253
0.878937304 0.477546066 0.115117006
0.915370107 0.477293044 0.127008066
0.951802850 0.477293044 0.136116445
0.982921958 0.477293044 0.154838800
0.997849226 0.481847197 0.171283960
0.999240994 0.490323007 0.184060559
0.999240994 0.496395022 0.199240968
0.209234834 0.446679384 0.057558831
0.224415213 0.443643004 0.066666447
0.230360627 0.447058946 0.059455987
0.240986735 0.451233625 0.061859414
0.258191288 0.454142958 0.073750570
0.273497432 0.451107293 0.061986059
0.289183885 0.450601220 0.058950312
0.313851953 0.451613069 0.062745422
0.339911401 0.452498466 0.064010315
0.359645516 0.450980812 0.061986059
0.384060740 0.451233804 0.059203446
0.409740657 0.451233804 0.056799743
0.433523029 0.451233804 0.056673225
0.457179010 0.451486766 0.058570966
0.484503388 0.454522371 0.055534583
0.511827767 0.457558602 0.059708994
0.544971347 0.464010388 0.066413581
0.579506516 0.469449818 0.068690568
0.613282561 0.472864985 0.069449589
0.652498662 0.484503716 0.072738938
0.686907113 0.490322649 0.077672414
0.725237250 0.492726088 0.082353003
0.767489016 0.496647865 0.083744518
0.803921819 0.505755484 0.086780906
0.839721978 0.508412242 0.099557124
0.874763072 0.512081087 0.112080917
0.909298122 0.513472736 0.124225415
0.945730865 0.510689437 0.136116445
0.976849914 0.510689437 0.145224825
0.994813144 0.510689437 0.162175953
0.997343421 0.515243590 0.177355975
0.990132570 0.523719370 0.190132588
0.228589788 0.486147791 0.070841186
0.234155580 0.485515207 0.063124619
0.247185737 0.486780375 0.070082009
0.254775584 0.490069777 0.061985988
0.270335525 0.491208076 0.069576010
0.285515636 0.488171905 0.069575995
0.300695300 0.490069777 0.060215320
0.317520380 0.486780763 0.060468286
0.344086081 0.487539500 0.065022290
0.367235810 0.487792462 0.065275319
0.388867736 0.485262781 0.067046054
0.413156480 0.485262781 0.061986189
0.438962817 0.485262781 0.059708994
0.461733043 0.485262781 0.061480224
0.486907214 0.486148149 0.062745385
0.516634762 0.491587609 0.064515993
0.543959141 0.496141791 0.070587993
0.577735305 0.502846360 0.072865017
0.612902999 0.509424388 0.065781012
0.649462283 0.516002476 0.075774550
0.690828681 0.522454023 0.078810930
0.725743115 0.525489926 0.082353003
0.763820171 0.528399765 0.082732506
0.800253034 0.530676723 0.090322897
0.836685777 0.537507653 0.097912692
0.873118520 0.540670455 0.112839647
0.907021046 0.543200791 0.124478251
0.939658225 0.542062163 0.130929992
0.977988720 0.541682601 0.142821014
0.990638793 0.543453336 0.162555337
0.996963978 0.545856774 0.182669193
0.995445788 0.553446949 0.197849602
0.239216000 0.522580564 0.078431003
0.248323992 0.525616586 0.066286996
0.251739532 0.526249170 0.064010002
0.266413987 0.526755214 0.067552000
0.278304994 0.526881754 0.064642541
0.290069729 0.526122630 0.074130185
0.309804052 0.523592710 0.066034324
0.328146577 0.526249230 0.061986480
0.347881168 0.523213208 0.065781184
0.374446481 0.527007878 0.069576472
0.392915875 0.522707105 0.066540129
0.419228494 0.523213387 0.069576003
0.443516999 0.523213387 0.063503996
0.468311071 0.523213387 0.063250996
0.495129794 0.523213387 0.067552216
0.519671142 0.524984360 0.066034190
0.548513353 0.528020382 0.069070198
0.577735305 0.534092367 0.075142190
0.614168167 0.542315185 0.068311192
0.649082720 0.548640132 0.069323204
0.686274469 0.554332614 0.077292740
0.727767110 0.557368517 0.082353130
0.762301981 0.560531378 0.084250666
0.798734844 0.563314378 0.093358710
0.833649397 0.564832389 0.103984699
0.868690848 0.569512665 0.114484333
0.905503035 0.572043002 0.128526121
0.938899159 0.572043002 0.133586258
0.974193215 0.572043002 0.146109968
0.995193005 0.570778131 0.161037147
0.995193005 0.572928369 0.185705200
1.000000000 0.577735364 0.203922004
0.241745979 0.556609929 0.077798590
0.254396379 0.562049508 0.068816975
0.259456396 0.565085530 0.063377574
0.266413987 0.565085530 0.063377574
0.284630001 0.562428713 0.064136572
0.291713983 0.565212071 0.078557946
0.310436636 0.560658097 0.072865419
0.332448125 0.558887005 0.067299418
0.354459584 0.561416745 0.066287428
0.378747582 0.567488670 0.072359428
0.395572454 0.563187718 0.066413708
0.420240492 0.562555373 0.065528005
0.449588984 0.565718114 0.069575988
0.473877043 0.565971076 0.064009987
0.503478825 0.566350520 0.069322996
0.527261198 0.565085530 0.065148592
0.552182138 0.565085530 0.063630618
0.580139101 0.565085530 0.066034421
0.616571963 0.571157575 0.072106428
0.650221407 0.576597154 0.068311416
0.684882879 0.582036555 0.070461996
0.721062720 0.587096691 0.075648561
0.760531068 0.590006530 0.084630422
0.797469854 0.595066547 0.093232118
0.832257867 0.597849548 0.103984602
0.866919398 0.598608434 0.116761200
0.899810553 0.602150142 0.128905982
0.938899398 0.602403104 0.138140142
0.973054767 0.601770699 0.154458806
0.992283225 0.601264775 0.170271769
0.999367416 0.599114537 0.185072631
0.999367416 0.599114537 0.203289434
0.253890008 0.593042016 0.074762978
0.256926388 0.596078455 0.077798583
0.260974228 0.601517975 0.070967779
0.268817216 0.605819166 0.066413976
0.284630001 0.607969999 0.067172974
0.302846014 0.607969999 0.073244974
0.314990640 0.603163004 0.072485685
0.331435978 0.600380003 0.070335045
0.351423204 0.600632966 0.068817042
0.375712007 0.600885928 0.063251041
0.397090852 0.601138949 0.066413909
0.421885252 0.600632966 0.064389721
0.450601012 0.603163004 0.065528005
0.479949057 0.608475983 0.070082009
0.504237831 0.611511588 0.070082001
0.529031992 0.607084036 0.063377827
0.556103408 0.604553998 0.060594786
0.586211145 0.604553998 0.062998049
0.616571963 0.604554057 0.062998042
0.650221407 0.607843399 0.063504040
0.683617711 0.611132264 0.068690777
0.717267394 0.614421189 0.074510016
0.751423419 0.617331028 0.075522043
0.790891886 0.617331028 0.081594057
0.827830553 0.622391045 0.090196319
0.865401566 0.625174046 0.102340296
0.902846158 0.626439035 0.116761222
0.933206916 0.632511020 0.128905997
0.966982722 0.630107880 0.151422933
0.986211181 0.630866766 0.171410412
0.993548334 0.632511020 0.187602967
0.996331036 0.632511020 0.200253069
0.254902005 0.643390119 0.077292651
0.260721028 0.646426499 0.074762970
0.270208627 0.645161331 0.077798583
0.277672172 0.648070931 0.073750816
0.289816558 0.650348186 0.072233006
0.305629373 0.647944391 0.073498003
0.321315706 0.650474727 0.079570003
0.337001979 0.648450732 0.075648367
0.356736183 0.649209619 0.074130259
0.381025016 0.651233435 0.074130006
0.410752535 0.651233435 0.074003525
0.434029162 0.651233435 0.070967659
0.460594654 0.651233435 0.069449648
0.488551378 0.653510392 0.073118329
0.510309815 0.654016376 0.070588000
0.541808784 0.657052577 0.075394996
0.570271790 0.655155122 0.074256852
0.599999905 0.654522538 0.076027796
0.628210008 0.652371764 0.073877007
0.666920125 0.652371764 0.073877007
0.696521461 0.657305360 0.077672482
0.730170846 0.660214722 0.085895225
0.767235994 0.661606371 0.091587514
0.804048300 0.666920125 0.100316368
0.838962674 0.666920125 0.115496360
0.874889314 0.669197083 0.124731012
0.912460446 0.668691039 0.136748433
0.947375238 0.667931736 0.155723900
0.975079179 0.668690741 0.165211841
0.990512133 0.671094358 0.185325772
0.995825231 0.672485769 0.208855316
0.998861372 0.668690741 0.236179382
0.260594755 0.683617711 0.074636005
0.262871742 0.688551366 0.084883124
0.275142461 0.694876671 0.086147964
0.284756482 0.688045442 0.082858741
0.293232173 0.688298702 0.077925451
0.305376202 0.689816535 0.076407261
0.328146577 0.686148047 0.081467740
0.344971657 0.690828681 0.085895032
0.364705741 0.691334724 0.082099989
0.388994247 0.693232000 0.083997250
0.413408995 0.691460729 0.080328740
0.443516493 0.691460729 0.083870739
0.468943626 0.692599356 0.078937382
0.496015042 0.693358481 0.080202736
0.518912137 0.693358481 0.078811057
0.547880828 0.691966772 0.082985468
0.581277609 0.695003152 0.086021475
0.611385286 0.695382714 0.086780749
0.638709784 0.693611503 0.082479514
0.673371315 0.695256233 0.084123738
0.707147777 0.695256233 0.086021475
0.735484004 0.698292017 0.091081865
0.772169232 0.697406471 0.098418504
0.808602035 0.699936807 0.107526906
0.846553028 0.703352749 0.123465985
