Assets/Resources/EldamarStudio/100 Horror LUTs Pack/LUTs/cube/Hatoved LUT.cube
LUT_3D_SIZE 8
DOMAIN_MIN 0.000000 0.000000 0.000000
DOMAIN_MAX 0.903226 0.903226 0.903226
0.031373002 0.039216001 0.027450999
0.122960091 0.038077451 0.048197545
0.284377098 0.000000000 0.051739097
0.434408635 0.001138644 0.038077358
0.569639206 0.009107991 0.025047192
0.707147717 0.074130468 0.052751735
0.852498293 0.120556280 0.082985573
0.984819591 0.159645975 0.129790783
0.040734001 0.118279092 0.038457002
0.142568097 0.121821545 0.040480454
0.286780179 0.125363991 0.029854907
0.427450836 0.123339541 0.021252003
0.557748377 0.147627920 0.026944837
0.697786152 0.173055291 0.053510446
0.843390286 0.197469801 0.086401023
0.978494287 0.219354987 0.128526092
0.117520094 0.253004283 0.025933003
0.195066199 0.266413987 0.025426548
0.295382977 0.249968097 0.031373002
0.423529536 0.261733115 0.027324289
0.554712296 0.270209074 0.043769997
0.696141779 0.296521336 0.061353635
0.840607405 0.318153083 0.091460995
0.982921839 0.327134937 0.132320985
0.182163343 0.378873944 0.045413997
0.242631450 0.380771369 0.058444452
0.326755077 0.374825925 0.052877739
0.427071273 0.378368288 0.056040645
0.548513353 0.401012272 0.058823999
0.686274469 0.419861257 0.076027907
0.829095185 0.437824279 0.099304281
0.976596773 0.443896651 0.142947257
0.239216000 0.522580564 0.078431003
0.278304994 0.526881754 0.064642541
0.347881168 0.523213208 0.065781184
0.443516999 0.523213387 0.063503996
0.548513353 0.528020382 0.069070198
0.686274469 0.554332614 0.077292740
0.833649397 0.564832389 0.103984699
0.974193215 0.572043002 0.146109968
0.260594755 0.683617711 0.074636005
0.293232173 0.688298702 0.077925451
0.364705741 0.691334724 0.082099989
0.468943626 0.692599356 0.078937382
0.581277609 0.695003152 0.086021475
0.707147777 0.695256233 0.086021475
0.846553028 0.703352749 0.123465985
0.980771780 0.699430764 0.182289556
0.283618003 0.827704251 0.135230988
0.307273805 0.830360591 0.139658540
0.384060800 0.829854310 0.141429275
0.476407290 0.831751943 0.144844919
0.594560266 0.832890272 0.152941078
0.717014432 0.835799754 0.150916994
0.844022870 0.830613613 0.155470982
0.965971053 0.821378887 0.206957519
0.379632741 0.959771752 0.289436758
0.413156182 0.966603041 0.301454872
0.458697140 0.964326382 0.303984731
0.540037811 0.962428629 0.299936593
0.634535372 0.963820636 0.303984791
0.752941430 0.960404694 0.319417566
0.870588541 0.955471218 0.328400016
0.984692812 0.950663984 0.332700580
0.038077451 0.054901998 0.101454549
0.111574635 0.034155451 0.094370544
0.256167084 0.021125998 0.111954086
0.384186924 0.039089091 0.130423546
0.520556808 0.064516544 0.136243075
0.669070482 0.104870282 0.161922738
0.820999265 0.141302839 0.167994544
0.973940313 0.178620994 0.192156911
0.056293093 0.102972642 0.101454549
0.128020525 0.113599092 0.095129542
0.244781747 0.115496539 0.117899641
0.375964284 0.128400087 0.119417831
0.515116751 0.146868736 0.133206993
0.658444047 0.174193740 0.145856813
0.809234679 0.202024296 0.164832547
0.964073002 0.225047529 0.183175370
0.138646200 0.218848735 0.125743449
0.193168640 0.231498733 0.122201093
0.265907615 0.224035174 0.121821642
0.386590719 0.237318099 0.127640992
0.526881754 0.258064568 0.143073648
0.667046010 0.289437026 0.155092001
0.817836821 0.314990401 0.161669642
0.972295702 0.332574546 0.195698783
0.185452178 0.357115269 0.136622429
0.233775720 0.359139711 0.130297452
0.309424192 0.353953153 0.134724885
0.400632620 0.357874364 0.136622638
0.530044019 0.379759252 0.136622444
0.665401936 0.406451285 0.151929185
0.810626268 0.428083539 0.166729793
0.956609249 0.437950462 0.189247280
0.239088982 0.509677529 0.146109730
0.270714700 0.509930193 0.147881344
0.346742749 0.508412302 0.142441377
0.432511270 0.512713611 0.146489277
0.537001729 0.509171367 0.147754446
0.671347260 0.539278805 0.150411278
0.820746243 0.561416864 0.168500811
0.964832425 0.570145547 0.204554185
0.262492001 0.668943644 0.147881091
0.297912806 0.670841038 0.151423022
0.361669809 0.671726942 0.152561471
0.459962279 0.675648153 0.155850902
0.566856623 0.678810894 0.155850992
0.689310491 0.678684056 0.152688086
0.833143711 0.692346752 0.181530371
0.976976573 0.698039412 0.224541143
0.275774807 0.816824973 0.183301792
0.309803545 0.816445529 0.181656912
0.374572933 0.811638355 0.178368375
0.465401471 0.814041615 0.180645287
0.577356219 0.815306902 0.184313834
0.700822234 0.813914895 0.186717540
0.835041106 0.813155890 0.199367344
0.957748175 0.804427445 0.228083596
0.370651603 0.957241774 0.297279865
0.396078348 0.950790644 0.312586993
0.438330293 0.951043546 0.298038930
0.521188796 0.946362853 0.302213699
0.627830744 0.948639989 0.311574876
0.741303146 0.949272573 0.332447827
0.864136636 0.948766708 0.347374856
0.981530786 0.943200529 0.349778235
0.026565194 0.050980002 0.222517088
0.149272546 0.033017002 0.225806192
0.274383098 0.029728096 0.222644001
0.394686729 0.049715545 0.228083193
0.527387381 0.086907193 0.239848197
0.656293750 0.118532635 0.247944355
0.806957483 0.166097090 0.269449979
0.963187873 0.205565825 0.290575773
0.104617544 0.123466454 0.201011643
0.171283543 0.132953554 0.210120007
0.266540110 0.131309450 0.201391205
0.385199547 0.146616101 0.220999092
0.514864147 0.164579093 0.235800102
0.648830056 0.190385908 0.254269540
0.796837449 0.216951281 0.274636388
0.951296628 0.249968067 0.289310545
0.165464908 0.219354987 0.207716912
0.208096549 0.241493002 0.223023549
0.295509100 0.244529098 0.220999092
0.396963656 0.248829648 0.225680098
0.513219178 0.270335168 0.237444997
0.657052696 0.294244438 0.255534172
0.805313408 0.318911999 0.271853387
0.962428808 0.341049999 0.299177974
0.217457637 0.365971088 0.235420644
0.262618870 0.364453077 0.244275659
0.323719084 0.362049192 0.236306548
0.409867287 0.359266520 0.229221746
0.523466170 0.381530374 0.240986645
0.659203172 0.406957597 0.253510356
0.809993505 0.432005018 0.271220714
0.955344856 0.448830068 0.292346925
0.257938206 0.499810278 0.257052362
0.283997625 0.509677649 0.246426538
0.353573799 0.506135285 0.245288000
0.434534729 0.504111528 0.245288000
0.532954097 0.507653296 0.245288000
0.668311477 0.535104394 0.256926179
0.817204475 0.559392750 0.273371190
0.963314295 0.576849997 0.305123329
0.282732546 0.678557992 0.266666740
0.303858459 0.679696620 0.264769286
0.374826103 0.673877358 0.267299175
0.464010179 0.676533699 0.262365401
0.569259703 0.680455685 0.260974109
0.690196276 0.681973696 0.268437833
0.832005262 0.692726076 0.287286490
0.971916378 0.706514835 0.328399718
0.298545271 0.819734395 0.292979181
0.335863471 0.824035645 0.302972704
0.395066082 0.820493281 0.296141714
0.486780256 0.825173914 0.295382887
0.589120626 0.822137952 0.299936801
0.710436463 0.818595707 0.297280461
0.837697625 0.819860935 0.304111362
0.962302387 0.812397003 0.338013887
0.404680520 0.960151553 0.400379777
0.446552753 0.953067601 0.409487963
0.490322649 0.953067601 0.410372943
0.563187420 0.955850601 0.412903070
0.653384089 0.954459071 0.416065782
0.760278285 0.951549470 0.423402697
0.870082080 0.948387265 0.428589582
0.983933926 0.948387086 0.443769753
0.101581275 0.025806289 0.349905282
0.182795629 0.028462738 0.342188358
0.288551629 0.040986639 0.327261180
0.388488263 0.055534285 0.322327644
0.515496373 0.089942992 0.337254822
0.651359797 0.119797476 0.355218112
0.798861504 0.160910651 0.375584930
0.952308595 0.230360791 0.398987621
0.142441183 0.131435990 0.309171289
0.198735088 0.145604178 0.309045255
0.284629732 0.142441288 0.306894273
0.379759371 0.141682193 0.305755824
0.500821948 0.165591642 0.328525811
0.636812449 0.182036638 0.346869171
0.789879799 0.219607547 0.366982847
0.934977889 0.265275270 0.393295288
0.192662984 0.240733743 0.319164932
0.231752172 0.246173620 0.323339403
0.305503070 0.248197287 0.321568727
0.395192742 0.250221521 0.310816199
0.507147551 0.269449919 0.331309289
0.640101373 0.293358833 0.352561444
0.794307232 0.324604750 0.375584930
0.945351005 0.364959061 0.406704515
0.226438999 0.342567921 0.306135267
0.260847300 0.344844908 0.314864188
0.327893645 0.361037284 0.326248914
0.417583972 0.367236286 0.328525931
0.511448443 0.379379809 0.339531839
0.639468729 0.403289169 0.354459018
0.789879918 0.429474890 0.376723260
0.938519716 0.454395920 0.397596449
0.269196630 0.493864834 0.345350832
0.299430996 0.497659862 0.343959272
0.354838371 0.496521294 0.347122103
0.432005018 0.494497001 0.342315108
0.527640820 0.500442564 0.340670258
0.658064485 0.530676723 0.358507425
0.806577921 0.559772015 0.383427948
0.953953028 0.580138803 0.415559709
0.291081637 0.655787110 0.365591258
0.320935726 0.658950090 0.366477281
0.382036746 0.659456134 0.367236257
0.464263022 0.662618458 0.368880272
0.569892824 0.667804956 0.366097540
0.679949462 0.672106445 0.371916264
0.820619941 0.689437091 0.399746925
0.965717852 0.705123425 0.439215362
0.321821570 0.806072295 0.399114609
0.351549357 0.809740901 0.400253117
0.401897728 0.802530050 0.394560456
0.491081566 0.806072295 0.396963954
0.589753449 0.806957483 0.398987800
0.701960444 0.807084262 0.401644349
0.826185942 0.808222890 0.410373271
0.948134243 0.810246706 0.435546875
0.448576868 0.944718778 0.494750440
0.464263171 0.944212556 0.489436984
0.502340317 0.944212377 0.485262424
0.571031094 0.943832815 0.493485123
0.656673014 0.945857227 0.494497448
0.763314426 0.947121859 0.506768048
0.873118341 0.946236610 0.514863729
0.982162774 0.943959534 0.532068193
0.174067184 0.058823999 0.483617991
0.235041186 0.065401547 0.475268841
0.330803305 0.070461899 0.466160566
0.426691651 0.086527638 0.458823740
0.524984419 0.105629183 0.445035189
0.659709156 0.132700533 0.458823442
0.807590425 0.170019090 0.480202287
0.952181756 0.239721596 0.504870355
0.198229000 0.166983008 0.449083000
0.250095010 0.167868197 0.460594505
0.330803096 0.164199740 0.453763276
0.424921006 0.168500900 0.440481007
0.514864206 0.175205544 0.433396190
0.644528687 0.193168744 0.456166983
0.791018248 0.225173920 0.471979916
0.937760711 0.268564165 0.492726177
0.228969008 0.270335197 0.433396280
0.268943936 0.279064000 0.444022655
0.339405179 0.273498118 0.441998988
0.422770530 0.275521666 0.436938524
0.515623212 0.273498118 0.428589314
0.646299660 0.296901107 0.449209630
0.797469676 0.326628685 0.481846988
0.942441523 0.383301914 0.507147431
0.263504207 0.376470655 0.436811805
0.289690346 0.382795721 0.436432481
0.352308631 0.381150931 0.430107385
0.433649719 0.386211276 0.435547262
0.528905451 0.388488293 0.437065154
0.649841666 0.412650257 0.457811594
0.782542646 0.447944343 0.483112186
0.931815028 0.489689916 0.517773509
0.273624003 0.496015191 0.433270186
0.309677184 0.502340376 0.439595371
0.367742002 0.505376339 0.443516999
0.458570182 0.519923806 0.457685202
0.552435338 0.528020382 0.455914170
0.664768875 0.540543973 0.469575912
0.798608363 0.564200163 0.491334468
0.937507987 0.592030346 0.524604857
0.309551001 0.661606908 0.470082164
0.337381452 0.660468161 0.474636197
0.395319432 0.662112355 0.473118186
0.477293074 0.666793466 0.480581731
0.569765985 0.670334935 0.480961174
0.681973517 0.673750460 0.482858926
0.820746303 0.696521282 0.515749633
0.949778438 0.718026698 0.552561939
0.374573082 0.806451321 0.514611065
0.401770920 0.805566132 0.521694839
0.439721882 0.804807067 0.519671142
0.506894350 0.806831002 0.512587011
0.604301214 0.810246468 0.517140985
0.710815966 0.804807067 0.516761422
0.828210056 0.806451321 0.524225116
0.952308357 0.816571653 0.556230485
0.499177784 0.944591999 0.593295157
0.511701405 0.941555798 0.595825493
0.545351028 0.944718778 0.596331358
0.608348906 0.944845021 0.598861575
0.687539637 0.943959594 0.606704772
0.775711417 0.947501540 0.610120237
0.873624444 0.945224464 0.616571903
0.976470649 0.941303194 0.619607806
0.233143732 0.099683732 0.630360484
0.278811187 0.103605248 0.620367169
0.365844101 0.110310085 0.614547431
0.468058020 0.115749471 0.606072307
0.568247914 0.128779441 0.589626610
0.669702470 0.144844994 0.589247167
0.813915253 0.177988544 0.594054282
0.952687979 0.249209702 0.610626221
0.246173725 0.185578793 0.594180763
0.287412971 0.185452282 0.599746644
0.364326298 0.189500272 0.595066488
0.458950251 0.188994348 0.587223351
0.554079711 0.193674922 0.578621268
0.661859453 0.203542277 0.578747451
0.795445979 0.227451012 0.583428383
0.941935241 0.276407182 0.601264894
0.264262825 0.297912836 0.594686925
0.307653338 0.299683571 0.590132892
0.370525181 0.295508921 0.585705519
0.462618619 0.299557447 0.581783473
0.557748318 0.298292279 0.578241765
0.668184459 0.306641340 0.571663439
0.800126255 0.335610449 0.594560444
0.946742296 0.389879555 0.617963433
0.286021471 0.412144095 0.575458229
0.313345999 0.413662106 0.580139339
0.374699742 0.412903190 0.572295845
0.463377655 0.412523657 0.570018768
0.556736112 0.417330533 0.570018649
0.652498186 0.416445374 0.560910821
0.786590695 0.446046591 0.585452199
0.930423439 0.495762199 0.616572082
0.292346805 0.528273106 0.579633474
0.321568608 0.532068133 0.569765985
0.386211187 0.531688690 0.571536839
0.464895815 0.535357118 0.573561192
0.564073384 0.547880888 0.578367889
0.673371017 0.555218399 0.584693253
0.801138759 0.584693015 0.607463956
0.928399622 0.624667704 0.637064993
0.313345999 0.661859453 0.583301425
0.340417743 0.659835696 0.582921982
0.405439794 0.664642870 0.586464345
0.488045394 0.669955730 0.589247167
0.591776907 0.686907172 0.605060220
0.697153449 0.691334724 0.609108210
0.816824794 0.707906783 0.636812210
0.946236670 0.732068241 0.660341501
0.384566694 0.801011801 0.618342698
0.413029552 0.799746573 0.610626161
0.460847646 0.800252914 0.616951346
0.535863101 0.802656531 0.624161601
0.623023391 0.805059791 0.636306167
0.714737713 0.804933727 0.634661913
0.820240259 0.808475733 0.636812210
0.944085717 0.819734097 0.666919708
0.553447366 0.938140512 0.701201439
0.567994893 0.939911366 0.693738222
0.600126386 0.935230672 0.701960623
0.650474489 0.938266873 0.704996824
0.703605294 0.937128305 0.707147479
0.785958350 0.938393414 0.706894279
0.873877406 0.940164804 0.714231253
0.969639361 0.942694604 0.715749443
0.267298996 0.158127993 0.773434281
0.310056835 0.156862721 0.769892693
0.388108909 0.162808090 0.768754005
0.487539262 0.171663627 0.761796176
0.593928039 0.181403980 0.756736577
0.707779706 0.195572272 0.743832827
0.835167587 0.203542277 0.746616244
0.958886504 0.261100650 0.738140106
0.271979988 0.220240533 0.752182007
0.314104825 0.224667847 0.760404706
0.389247537 0.223655641 0.756989300
0.484377027 0.228336737 0.754459262
0.586970150 0.233776018 0.746110022
0.697406471 0.243896335 0.734851241
0.823023140 0.248956278 0.730929852
0.942188323 0.289057523 0.722327292
0.291840911 0.336748987 0.756230235
0.321695030 0.337508112 0.749778390
0.395698875 0.336116374 0.748134077
0.485009134 0.337887555 0.744591951
0.594813228 0.344592005 0.745730519
0.700695992 0.348134011 0.740670204
0.824035406 0.353826642 0.731562436
0.947501242 0.400000364 0.729917586
0.320050627 0.456293643 0.737128556
0.348893106 0.459708989 0.738393307
0.406198442 0.455281645 0.731941819
0.489310622 0.458570629 0.729285300
0.591271520 0.460847616 0.729538262
0.697912633 0.460088521 0.723213196
0.809993565 0.467045903 0.716508567
0.933839440 0.500822246 0.729285240
0.337001979 0.578874469 0.727767110
0.367489010 0.580138922 0.734345317
0.423023194 0.582922161 0.728526473
0.499178082 0.585199475 0.726249218
0.591524243 0.587602675 0.723972261
0.698671639 0.587096691 0.727513909
0.811005533 0.586717486 0.720683217
0.933713019 0.621252418 0.739405572
0.367362261 0.701328456 0.738013864
0.392663002 0.705629528 0.732953966
0.444781840 0.703985035 0.735230803
0.525869370 0.705502868 0.734598279
0.622390687 0.709930480 0.738393247
0.720050275 0.715749741 0.740670025
0.825553715 0.721694946 0.738772810
0.935230732 0.749904871 0.764326155
0.379380286 0.809361279 0.721441984
0.404301286 0.804680288 0.721315503
0.459329486 0.802403450 0.727261245
0.537508070 0.804807246 0.726375282
0.627704084 0.804174244 0.728020012
0.728525996 0.817204416 0.745224237
0.828336298 0.819861233 0.751549602
0.941049635 0.835294008 0.779126823
0.556735992 0.930803180 0.780265391
0.574067175 0.936748803 0.787096977
0.606704712 0.935357153 0.788994253
0.664895415 0.935231030 0.795066476
0.737001836 0.938519955 0.804933429
0.804807007 0.939785242 0.808728755
0.876281083 0.934977651 0.806704462
0.956989348 0.938646495 0.811638236
0.291587979 0.233016953 0.912966430
0.325110823 0.236305952 0.909298062
0.398102164 0.246046796 0.912966430
0.486021489 0.256420135 0.910436392
0.600758851 0.270082176 0.909171283
0.720176876 0.287918746 0.906008840
0.843643427 0.307906210 0.898924470
0.976849794 0.332574427 0.894623578
0.307400107 0.288424999 0.903099537
0.331435680 0.287413180 0.900948286
0.401391178 0.292346597 0.905629456
0.495256454 0.301454663 0.901328027
0.597849369 0.309297681 0.898292005
0.712586701 0.319797397 0.891081572
0.840607285 0.337128520 0.888677895
0.973560750 0.351170242 0.885388911
0.328525811 0.396204948 0.897786021
0.362934798 0.397090286 0.906009018
0.418596119 0.404554069 0.900442660
0.506894171 0.406072170 0.902466595
0.606451511 0.414421022 0.895002782
0.724351704 0.424288273 0.894623518
0.847311974 0.437571257 0.891587377
0.974193633 0.450221539 0.892346561
0.380771607 0.521189213 0.891840577
0.400126457 0.522327602 0.892852306
0.451612532 0.525743484 0.895255923
0.530423582 0.527640879 0.892093599
0.617077827 0.529664636 0.886274219
0.724478245 0.531309187 0.883744657
0.840860367 0.536875248 0.877545953
0.961163759 0.541429222 0.876280785
0.413282424 0.636053205 0.893864572
0.444275796 0.643010855 0.884123921
0.488930970 0.647691309 0.885388911
0.559139669 0.650347769 0.884376764
0.642631054 0.651486099 0.884123802
0.737507701 0.648323476 0.880328596
0.847185373 0.652751267 0.878051877
0.952181697 0.654269159 0.878051579
0.457052529 0.746868670 0.894749761
0.481340617 0.751296461 0.896014988
0.523086667 0.754712164 0.891966760
0.590765119 0.757621586 0.884629726
0.671220601 0.759898543 0.884123981
0.759139657 0.764579415 0.882226467
0.856673062 0.762302518 0.886780620
0.955470860 0.763693571 0.883491516
0.483112037 0.848830044 0.879949152
0.511068642 0.848070979 0.887919068
0.551675916 0.846046865 0.885768414
0.611511707 0.846426249 0.885641992
0.682479262 0.846173525 0.884123743
0.768374503 0.845287621 0.882605910
0.852119088 0.842884123 0.879949331
0.948766768 0.850094914 0.885388911
0.558760583 0.945603609 0.883997679
0.574067235 0.947248340 0.896900356
0.607463598 0.944212615 0.896520853
0.664769232 0.946995556 0.894370615
0.732447863 0.942694366 0.894623578
0.811005533 0.941555738 0.899177670
0.883744538 0.941176355 0.903352201
0.957241774 0.946742594 0.918279409
