Assets/Resources/EldamarStudio/100 Horror LUTs Pack/LUTs/cube/Hauntbrain LUT.cube
LUT_3D_SIZE 5
DOMAIN_MIN 0.000000 0.000000 0.000000
DOMAIN_MAX 0.903226 0.903226 0.903226
0.062744997 0.027450999 0.007843000
0.071600288 0.025806291 0.016319003
0.206072390 0.012397422 0.007843000
0.459203243 0.000000000 0.001012128
0.736495733 0.061859615 0.047185145
0.068311289 0.045793995 0.014041712
0.104996696 0.049082987 0.004554003
0.247944370 0.080455408 0.004554003
0.487286270 0.117140979 0.007210581
0.744591713 0.196078330 0.061606813
0.196964234 0.234914377 0.003289416
0.232258230 0.237191498 0.000000000
0.360531211 0.250601202 0.000000000
0.552308559 0.299304277 0.022390991
0.772422194 0.379506618 0.137002200
0.389627129 0.475901127 0.079823114
0.426818401 0.487033546 0.089816414
0.519670904 0.492599249 0.121315233
0.647438288 0.511195362 0.158254117
0.825300455 0.580518782 0.256040782
0.644908488 0.763946772 0.353573412
0.661859632 0.765338421 0.360151559
0.716887712 0.775079012 0.375205129
0.806957781 0.785831749 0.410499424
0.899809778 0.807210624 0.466160387
0.065022290 0.025806291 0.017963292
0.075521708 0.025806291 0.011765000
0.203795105 0.004554423 0.028462704
0.454901934 0.000000000 0.056673117
0.730044425 0.095509067 0.122453801
0.073876999 0.051359698 0.022896998
0.124984398 0.062491704 0.026185995
0.249589086 0.081467696 0.035673700
0.481467247 0.118785687 0.067046285
0.740417421 0.205819085 0.134851232
0.194560692 0.232258230 0.050727282
0.246299669 0.234535113 0.050727278
0.359772205 0.253510505 0.063124284
0.548766613 0.301201522 0.102087401
0.770145297 0.387349635 0.185325801
0.417963237 0.482099831 0.141176686
0.440227807 0.482100248 0.148640230
0.526249349 0.492219925 0.176850259
0.646805823 0.512839854 0.197722822
0.826059341 0.579506636 0.287665904
0.648576677 0.763314426 0.375711411
0.663124681 0.760025382 0.370524764
0.715749502 0.770524979 0.395066291
0.800632656 0.784187317 0.429601461
0.900821865 0.804427445 0.475901395
0.103351980 0.020240422 0.106008977
0.138646409 0.010120292 0.098797977
0.240101397 0.000000000 0.109297559
0.469323546 0.000632584 0.159012973
0.728020191 0.120682940 0.232258230
0.113472700 0.077545695 0.108918279
0.161922678 0.079190403 0.114231259
0.282226086 0.090954989 0.123339683
0.494876713 0.123972118 0.170524687
0.740037918 0.229727954 0.244402498
0.234914377 0.236179382 0.143959805
0.284883082 0.253510505 0.156356826
0.416698188 0.287160218 0.191017985
0.566982865 0.321568519 0.219481111
0.773054779 0.396457762 0.283997625
0.441745698 0.482732266 0.256167114
0.469829291 0.486654103 0.257811397
0.544465125 0.495129824 0.268943816
0.654269338 0.517393887 0.290448964
0.826185942 0.584060669 0.357747972
0.634914339 0.760025442 0.422643781
0.658317506 0.756989121 0.427577466
0.712081194 0.765211582 0.440354198
0.802783132 0.780897915 0.478431404
0.903099179 0.805186152 0.521568358
0.189374119 0.000000000 0.292473257
0.246299699 0.000000000 0.292852551
0.367994964 0.001644712 0.292219967
0.529791296 0.002023998 0.308159262
0.749525607 0.141302750 0.366350383
0.203415409 0.107653692 0.294496834
0.260088533 0.103732109 0.293485135
0.386590809 0.111954406 0.299683809
0.541935325 0.139152691 0.309803694
0.754712045 0.242884353 0.374952406
0.312333703 0.287539542 0.315749377
0.352182090 0.290196240 0.313725293
0.462112665 0.309424222 0.330423653
0.594813108 0.335610420 0.341555834
0.786464334 0.396710902 0.405945510
0.462998241 0.480835259 0.367109239
0.486148119 0.497659862 0.372169256
0.564073086 0.512460530 0.390638679
0.691587389 0.546489418 0.432764113
0.843516767 0.588614762 0.469070077
0.645920455 0.762555480 0.529917777
0.663124323 0.764579356 0.527640641
0.713345885 0.770398617 0.545603812
0.798102617 0.787476420 0.559771895
0.901074946 0.807337046 0.601644814
0.311321825 0.000000000 0.590259433
0.371916473 0.000000000 0.596837521
0.510183632 0.010625975 0.597469985
0.667552114 0.107526720 0.584313631
0.828083456 0.220240414 0.594180763
0.332321376 0.157748222 0.589626551
0.383301646 0.164326385 0.586337388
0.517140865 0.185325786 0.588994384
0.674382985 0.229854196 0.589626849
0.832637429 0.290575624 0.597975612
0.410752803 0.369006783 0.594180703
0.448956251 0.372928619 0.594686806
0.555344343 0.380771756 0.594180584
0.692599654 0.398734927 0.599367142
0.839721799 0.425933182 0.606577992
0.531056046 0.570145309 0.616571903
0.541176677 0.576091051 0.619101822
0.611764967 0.572042942 0.617204368
0.720935941 0.579885900 0.623782277
0.861226737 0.605439782 0.645793796
0.646173596 0.783554733 0.664642632
0.668310940 0.779632747 0.675901532
0.710183620 0.779632807 0.686400950
0.801644742 0.795319438 0.702340424
0.911448598 0.833269596 0.749778509
