Assets/Resources/EldamarStudio/100 Horror LUTs Pack/LUTs/cube/Hauntbrain LUT.cube
LUT_3D_SIZE 8
DOMAIN_MIN 0.000000 0.000000 0.000000
DOMAIN_MAX 0.903226 0.903226 0.903226
0.062744997 0.027450999 0.007843000
0.062744997 0.027071452 0.008601999
0.079190105 0.023529001 0.011764999
0.148640275 0.015686000 0.007843000
0.277039975 0.000000000 0.007843000
0.420746207 0.000000000 0.004048004
0.584187567 0.000000000 0.007843000
0.736495733 0.061859615 0.047185145
0.065528452 0.035673548 0.000379548
0.066666998 0.031373002 0.004681000
0.089690447 0.035673548 0.011005905
0.161164001 0.037191641 0.003162904
0.288804382 0.033396356 0.002403808
0.429348707 0.039848287 0.002024260
0.581657529 0.061859824 0.006831284
0.733839571 0.121821351 0.052624948
0.074383095 0.060974188 0.012523902
0.093232095 0.068817191 0.000758999
0.132321090 0.069576100 0.001517998
0.201517731 0.088425092 0.000000000
0.313093066 0.107147187 0.000000000
0.449335665 0.136116087 0.001138645
0.605313182 0.164326102 0.016318997
0.745856762 0.217330739 0.067931890
0.132953987 0.164326280 0.000000000
0.156103641 0.165464640 0.000000000
0.200379387 0.171663731 0.002783356
0.267425656 0.182795629 0.002783356
0.371157467 0.208981469 0.003922000
0.494370729 0.234788269 0.008981644
0.627324283 0.271473557 0.038330212
0.765970826 0.322707087 0.106261604
0.237824365 0.303858191 0.000000000
0.261480182 0.304870635 0.004807003
0.298292309 0.305123180 0.000000001
0.361669570 0.313852161 0.003415545
0.433017373 0.329538167 0.012397190
0.543579996 0.348766834 0.046553180
0.659456313 0.381151378 0.092726178
0.790638983 0.437444836 0.162428841
0.360278457 0.444528729 0.048450723
0.375838250 0.448703289 0.058444012
0.406071931 0.449841738 0.062745363
0.464010090 0.454902053 0.077040076
0.528652668 0.463504255 0.106768169
0.611005485 0.473750472 0.120809458
0.700695992 0.502340019 0.165212020
0.817710519 0.551929295 0.235041425
0.502466559 0.606072247 0.186464265
0.511448264 0.600505590 0.185072556
0.537128389 0.606831312 0.197469547
0.578494668 0.609993815 0.209866911
0.627324581 0.616951466 0.224161834
0.693991244 0.625679851 0.239848256
0.760657549 0.631245971 0.266540557
0.838583112 0.661985993 0.310309947
0.644908488 0.763946772 0.353573412
0.652245581 0.770145178 0.353067577
0.661606669 0.767868400 0.362175822
0.702340364 0.774193227 0.370145380
0.740290761 0.776976585 0.382289588
0.791524351 0.784819603 0.404427409
0.844781816 0.791018307 0.432764143
0.899809778 0.807210624 0.466160387
0.059582997 0.027450999 0.016065547
0.062744997 0.027071452 0.008601999
0.073624194 0.027450999 0.011764904
0.147501633 0.013409002 0.008981644
0.270461828 0.002783356 0.010499643
0.412903190 0.000000000 0.021884805
0.573434114 0.002277288 0.037444998
0.729917586 0.079949327 0.081088252
0.062744997 0.027830547 0.008981547
0.067425996 0.024288097 0.002276998
0.088804543 0.031752452 0.008981547
0.160025537 0.029727997 0.013788549
0.277419537 0.035294097 0.015306646
0.420366555 0.047185350 0.028589547
0.581910312 0.070967995 0.039468832
0.729538023 0.132321194 0.078810975
0.073244549 0.062112637 0.008222548
0.094750091 0.064895995 0.008981548
0.131941631 0.069955640 0.012903451
0.200758740 0.089184090 0.010120095
0.313852280 0.114231095 0.016445000
0.449335665 0.133333445 0.025679994
0.597849131 0.171284094 0.052624833
0.746109903 0.220113903 0.096267901
0.140038073 0.165464640 0.013662547
0.162049189 0.164705738 0.012144354
0.204301089 0.173687384 0.017204192
0.270082176 0.182289273 0.018342642
0.366729915 0.208981469 0.024921091
0.494750142 0.236812010 0.043390445
0.624541163 0.271600276 0.068184823
0.751929164 0.318406254 0.124098442
0.245161384 0.297026932 0.021884998
0.259203166 0.304111630 0.018216541
0.304111630 0.307273746 0.023276379
0.365338534 0.316255361 0.033016928
0.442378163 0.323718935 0.050221637
0.542694390 0.345983565 0.074889272
0.662618756 0.380771726 0.118911818
0.784946144 0.435294390 0.184060723
0.363187671 0.445161223 0.083744727
0.383048892 0.444275707 0.089183815
0.415939271 0.447438002 0.090702012
0.458823562 0.457305372 0.101707719
0.527893543 0.459203094 0.124098361
0.603415906 0.472232670 0.145604014
0.702213705 0.498798460 0.183681086
0.812017500 0.552181959 0.247817531
0.505502999 0.592915535 0.198482260
0.510562956 0.594686866 0.200253084
0.526501954 0.592662871 0.203415811
0.570904374 0.599746823 0.212397456
0.620746017 0.604933798 0.225300461
0.685135961 0.612523556 0.241239816
0.751423299 0.625679851 0.265148371
0.836938679 0.651106834 0.310563177
0.640101135 0.767488837 0.353700250
0.653636575 0.761670053 0.355470955
0.660215080 0.760151863 0.362429053
0.694623411 0.763187945 0.366730034
0.737001657 0.772169292 0.386211395
0.790765345 0.781530499 0.411385119
0.843264103 0.797216713 0.441492856
0.901960731 0.798987925 0.468817234
0.063504092 0.024288096 0.017204000
0.071346998 0.026691904 0.020366903
0.086148106 0.023529001 0.014800999
0.152940914 0.014927000 0.032763995
0.279443175 0.000000000 0.046805993
0.417963356 0.000759096 0.070082352
0.572295845 0.009107990 0.097027093
0.729032516 0.103857979 0.134092346
0.059962451 0.028210096 0.016065551
0.078810647 0.025806095 0.021884998
0.096647643 0.031752456 0.023023548
0.172548831 0.028968997 0.034788452
0.285262764 0.035673641 0.055913739
0.418722332 0.046932191 0.071979903
0.575078845 0.079949722 0.098798536
0.728146493 0.149525791 0.138646096
0.082985193 0.067299187 0.030486999
0.103352189 0.079823002 0.032005094
0.162935004 0.086021192 0.040607095
0.219607726 0.097406641 0.048070736
0.323339283 0.111068994 0.057811286
0.456420064 0.138013825 0.081720352
0.603794992 0.170524999 0.100696079
0.740417361 0.231372640 0.153826639
0.152181819 0.172928378 0.049209092
0.177735284 0.174952641 0.051992543
0.219607726 0.183934182 0.062618904
0.276660711 0.188994631 0.061733093
0.382922292 0.208981469 0.071853183
0.494370699 0.237444624 0.092220090
0.626059353 0.277925164 0.130044103
0.755218029 0.330550313 0.178747624
0.255914181 0.306135267 0.080455281
0.272738725 0.306135356 0.081720643
0.313978463 0.311575085 0.089184090
0.373940736 0.315875828 0.091460995
0.451866269 0.327261269 0.101581082
0.545857251 0.349146366 0.124984175
0.660341501 0.385958374 0.164199978
0.782162905 0.440986812 0.220872998
0.385072470 0.447185397 0.138646632
0.391524255 0.449082911 0.144465461
0.425047576 0.450221479 0.145603910
0.475774825 0.452625215 0.157874480
0.534218669 0.465528011 0.169259921
0.605060220 0.472865373 0.187602550
0.699810147 0.501075327 0.224415064
0.818975389 0.552435219 0.278304636
0.509930372 0.598355532 0.236938372
0.516761303 0.597596288 0.234788105
0.541176319 0.603036284 0.241619453
0.579633176 0.604680538 0.253130823
0.628969312 0.612270772 0.262112498
0.687286496 0.619481504 0.274763018
0.756103516 0.628336489 0.300568998
0.841113210 0.660341203 0.342820764
0.649588823 0.762302220 0.388361663
0.655534327 0.758760452 0.383807868
0.669702649 0.763820410 0.384439886
0.702213526 0.772548914 0.399240762
0.743706226 0.774952352 0.411132246
0.792030215 0.778621137 0.427830219
0.840986967 0.792915940 0.462112665
0.899556935 0.804933488 0.480455399
0.079063997 0.023529001 0.066793635
0.095129542 0.021252003 0.068817183
0.124857642 0.013409002 0.066414088
0.173307925 0.008349358 0.069576278
0.287286192 0.000379548 0.092219986
0.427071720 0.003922000 0.118026473
0.579759896 0.009107991 0.150917277
0.724478126 0.119417772 0.199114427
0.079190098 0.034914646 0.069323443
0.096268088 0.032131903 0.055660922
0.127134636 0.028968997 0.067172989
0.194813281 0.026565192 0.069070637
0.295382828 0.039215904 0.095762439
0.430107713 0.043390449 0.123592377
0.585578561 0.079443567 0.157874465
0.724225104 0.161669731 0.201518238
0.103731640 0.082479641 0.086148001
0.124478191 0.083238550 0.076154537
0.172169402 0.095509097 0.089563638
0.237570837 0.098924734 0.091461092
0.338519812 0.115369737 0.109803826
0.467931718 0.139658540 0.136495739
0.596964121 0.185325563 0.168500826
0.738646388 0.247564808 0.221631601
0.164326280 0.172169298 0.089816287
0.189374089 0.183175176 0.108412638
0.245414734 0.193295270 0.116128735
0.319038630 0.212017268 0.134092644
0.399620622 0.224668086 0.137634277
0.510563254 0.248450533 0.160278276
0.622264206 0.284883261 0.186211273
0.749652207 0.334092259 0.236306280
0.267298996 0.310816169 0.148260534
0.296394736 0.309550732 0.147374824
0.337001830 0.322580397 0.155344620
0.391903907 0.322454363 0.159139633
0.468563914 0.335483849 0.174320266
0.562049091 0.356609941 0.196710825
0.664263189 0.391777217 0.227577567
0.783554792 0.447438210 0.278557956
0.400506020 0.445540577 0.205313101
0.410246372 0.450221479 0.201517820
0.444402128 0.450600952 0.208475620
0.487539619 0.456420243 0.216318741
0.545477808 0.465148449 0.228336573
0.616065800 0.474889100 0.242125109
0.705629349 0.502593458 0.273371190
0.815053761 0.557368636 0.323086530
0.509550929 0.594939828 0.279822916
0.520430088 0.593042254 0.285641998
0.541935623 0.592283070 0.279569805
0.580771923 0.601011932 0.292219907
0.630234063 0.606957495 0.297659814
0.690196276 0.617204249 0.314990610
0.753447235 0.626818180 0.330423594
0.837444425 0.656672895 0.371537000
0.640101135 0.760025442 0.414674401
0.648577034 0.760657966 0.414926946
0.665654659 0.762302399 0.415053666
0.697659791 0.766223788 0.421884954
0.741049886 0.770524859 0.434408218
0.789120674 0.783175409 0.459582329
0.842125535 0.791650593 0.476407170
0.900948405 0.805818558 0.508791745
0.114358187 0.011765000 0.149398983
0.135104358 0.006325195 0.146742538
0.180898085 0.000000000 0.147122085
0.237191364 0.000000000 0.149778530
0.317773581 0.000000000 0.161163986
0.433523446 0.003542452 0.184566468
0.583301783 0.013788893 0.222264469
0.734092236 0.127260774 0.268691003
0.112586990 0.028589353 0.151043192
0.131562084 0.032131806 0.142820835
0.179632932 0.030107545 0.148639992
0.250474185 0.029727997 0.153447196
0.324098378 0.038709737 0.164453194
0.445920020 0.047691286 0.191018179
0.594687045 0.088172182 0.225679830
0.726375520 0.166729972 0.263250887
0.142441392 0.100189991 0.152435169
0.165717646 0.106767736 0.155597568
0.213788897 0.105629191 0.165970996
0.278304726 0.114610732 0.161164179
0.357748270 0.120430186 0.172802269
0.474889010 0.141935542 0.194307625
0.610879302 0.187602460 0.237824172
0.750157714 0.251865953 0.285515189
0.204806730 0.194940075 0.176850200
0.221125841 0.202783182 0.173561275
0.273624420 0.205819264 0.181024730
0.342947453 0.219102085 0.198355630
0.423276633 0.229222268 0.204048261
0.525869727 0.258570522 0.232004821
0.637064934 0.298924446 0.261227161
0.760025263 0.342947453 0.301454782
0.288172156 0.311448365 0.202530369
0.307273924 0.317520529 0.205692366
0.354712248 0.326502174 0.221505389
0.425680012 0.344845027 0.236306176
0.508412361 0.363314331 0.257432371
0.577356339 0.375838369 0.266539901
0.671347380 0.400252908 0.288298458
0.788994372 0.445920199 0.327008009
0.416192204 0.450347990 0.268184930
0.428715914 0.453763515 0.269196451
0.465275139 0.456166714 0.275522083
0.510689318 0.467931718 0.288424820
0.564832389 0.473370999 0.294749945
0.623782158 0.485135913 0.308286190
0.716002524 0.513725460 0.331182450
0.820366919 0.558633804 0.377608895
0.521062553 0.595951796 0.335990071
0.529538333 0.596458018 0.340417266
0.552308440 0.598355353 0.342188358
0.583681345 0.606325269 0.344844908
0.634788156 0.611764669 0.355471164
0.693485022 0.619607568 0.369892746
0.760151386 0.629854262 0.385072738
0.847438455 0.662997901 0.423655957
0.635799944 0.761163831 0.448576957
0.647058487 0.761290193 0.451233298
0.662238836 0.764073312 0.455534428
0.698165357 0.768247724 0.465148747
0.737128377 0.774193227 0.476027936
0.787855744 0.783554733 0.495256126
0.845414460 0.791271269 0.516128719
0.897659779 0.803162396 0.543959439
0.172169477 0.000000000 0.258064479
0.192915916 0.003542452 0.258064479
0.240733817 0.000759096 0.259709179
0.309550643 0.001138644 0.259329617
0.391018122 0.000000000 0.265528023
0.483238220 0.002024260 0.271726727
0.597722828 0.027197819 0.296900749
0.747501314 0.140290618 0.349398732
0.178114727 0.029981026 0.250980258
0.194054469 0.030993162 0.254142970
0.246932521 0.026944643 0.258064479
0.314990729 0.026944643 0.259329617
0.396078259 0.030739930 0.267678559
0.491967201 0.050347637 0.275774717
0.598734796 0.091460913 0.295255989
0.734724820 0.174446777 0.339152277
0.198102370 0.122833572 0.260847718
0.225047633 0.125110373 0.261986375
0.261353552 0.125489920 0.256293565
0.336622268 0.128652632 0.269070357
0.419734180 0.139658540 0.276281089
0.505755544 0.152561471 0.278431386
0.626185894 0.191524178 0.314358026
0.757748127 0.261100650 0.356736422
0.253890008 0.225300387 0.264136463
0.274763077 0.226945087 0.278558165
0.313472629 0.230866462 0.280455619
0.378874362 0.241872370 0.282099724
0.459329635 0.248071074 0.293611258
0.539911091 0.261227369 0.299304187
0.640607297 0.296014994 0.325363576
0.764832318 0.344718397 0.372802079
0.335357100 0.345098168 0.300822020
0.344212562 0.343326718 0.301328480
0.395066738 0.345224470 0.309930265
0.447817743 0.354712188 0.314231724
0.520936370 0.371536911 0.330676913
0.591777205 0.385958195 0.337254643
0.684250534 0.410752743 0.362049311
0.798861623 0.445287913 0.406325281
0.430613458 0.446426451 0.330676705
0.439595014 0.450221479 0.336875021
0.474763095 0.462745339 0.344338983
0.516761661 0.472232461 0.346362740
0.581277430 0.492599458 0.371410519
0.652118683 0.507020772 0.393295199
0.733459711 0.527767181 0.406198740
0.832131386 0.561037421 0.442757815
0.523972034 0.595066547 0.402024001
0.529664993 0.597469807 0.396584302
0.558380723 0.600252926 0.407210708
0.592030346 0.604807198 0.413788736
0.645161033 0.617963493 0.430233926
0.703984678 0.625553489 0.433270216
0.770524979 0.633396804 0.451612532
0.853004754 0.667805433 0.485768557
0.646426320 0.759266317 0.515496671
0.650094748 0.762681901 0.516002357
0.663883507 0.765085578 0.517014503
0.694750011 0.766603410 0.521442294
0.733206809 0.776470184 0.530170918
0.784440279 0.784693360 0.540543497
0.839974523 0.793548107 0.556989074
0.900568843 0.805059671 0.583934307
0.237191573 0.002277288 0.405060142
0.263883382 0.000000000 0.405692726
0.314737558 0.003162904 0.404554069
0.381403923 0.003921710 0.406704843
0.472106457 0.001518192 0.408349544
0.558633983 0.007589993 0.404807121
0.655407488 0.062618554 0.413915247
0.758001506 0.150411218 0.432763964
0.242757693 0.034282282 0.394939840
0.266160548 0.035168000 0.403162539
0.311701179 0.035547446 0.399114549
0.385199279 0.036938637 0.396710783
0.468437731 0.050600987 0.404554158
0.554838896 0.077925466 0.403794974
0.649209261 0.121442109 0.409107834
0.744338751 0.184187040 0.427197814
0.266919672 0.151043475 0.409993827
0.285768390 0.153699934 0.397343546
0.334977388 0.150158092 0.405060142
0.402024209 0.160784557 0.406072259
0.484630167 0.169639379 0.409234524
0.574826062 0.187602654 0.415053993
0.665654719 0.218848556 0.420999348
0.762555063 0.266666651 0.444149107
0.312460631 0.262491912 0.403921485
0.333206922 0.260088742 0.412397474
0.371536940 0.264895737 0.405692726
0.440606892 0.269196570 0.409993529
0.508538723 0.278937638 0.414294809
0.590385795 0.293864638 0.418975204
0.673877239 0.312966287 0.421252191
0.775964558 0.344718635 0.450094938
0.384440362 0.375711560 0.417583644
0.405186743 0.375332117 0.422643751
0.438583255 0.380392253 0.425679654
0.487413108 0.384946018 0.428589612
0.552308679 0.388488472 0.429727972
0.623150051 0.401011914 0.435926735
0.697786450 0.408728480 0.448450357
0.802023709 0.443390191 0.481846839
0.465401292 0.492852747 0.445034832
0.479064018 0.492599249 0.456040740
0.501834452 0.494876355 0.448956192
0.542567909 0.501201689 0.456419975
0.596078277 0.507653296 0.465528458
0.664389789 0.519165158 0.477166116
0.743833005 0.530170560 0.489942968
0.834661424 0.563061476 0.522201002
0.531309009 0.600505531 0.479317278
0.540164590 0.599620521 0.479317009
0.558760405 0.601644337 0.482353091
0.594686925 0.611005545 0.489436984
0.642378151 0.621125817 0.496394366
0.712080717 0.635040760 0.515749514
0.791397572 0.656420290 0.546616316
0.863251090 0.679443061 0.564452946
0.641998470 0.761670053 0.572928607
0.657305539 0.758886576 0.581530809
0.666666687 0.761670053 0.576596975
0.698291957 0.769386232 0.588108838
0.734851241 0.776090622 0.598987997
0.781530499 0.785958111 0.608602047
0.841366529 0.797596157 0.624541521
0.903984487 0.811005771 0.646552861
0.311321825 0.000000000 0.590259433
0.335357368 0.000000000 0.594939709
0.387602627 0.000000000 0.597596407
0.456166923 0.001138644 0.591777205
0.551675975 0.029980779 0.591397762
0.646046579 0.091081493 0.587855577
0.740037620 0.155218348 0.592662573
0.828083456 0.220240414 0.594180763
0.317393780 0.071600348 0.588741124
0.343579948 0.068816900 0.589373708
0.389626801 0.073750436 0.587982118
0.463757277 0.088172078 0.588235199
0.548387170 0.109424695 0.589879870
0.638583183 0.143326625 0.582542717
0.729285181 0.187982515 0.581024468
0.816951573 0.238077179 0.588488340
0.336369604 0.189120740 0.586084545
0.364199698 0.190765157 0.591018200
0.406325012 0.193674818 0.593421698
0.482985437 0.205566257 0.590891659
0.563567221 0.221252367 0.589879632
0.654395700 0.245287627 0.588867724
0.740923524 0.273624152 0.589373887
0.826312602 0.306767941 0.593421876
0.376596749 0.308412075 0.586843610
0.399367183 0.311954528 0.586337626
0.440227598 0.313599259 0.587982059
0.504743457 0.321315408 0.586084425
0.583807766 0.329285264 0.586211205
0.660088301 0.339026004 0.585831761
0.746742249 0.356229991 0.592915833
0.826312244 0.377609104 0.593674779
0.444149375 0.424414992 0.584946454
0.454396158 0.427956820 0.601011574
0.480076075 0.423529267 0.596584201
0.529917777 0.423909009 0.595572352
0.600126326 0.430613339 0.593927801
0.673750877 0.438836098 0.599240661
0.756230235 0.451233059 0.602783024
0.840860248 0.470082015 0.610246599
0.512839854 0.545350730 0.609993398
0.518785596 0.547627985 0.613282859
0.538646638 0.547754705 0.612270653
0.576217711 0.542947233 0.610373139
0.626818419 0.541429400 0.613282919
0.698924661 0.548007548 0.619481325
0.775837779 0.560657799 0.626185894
0.855407596 0.579380333 0.636938572
0.572675526 0.663251042 0.635546803
0.583174944 0.661859632 0.632131577
0.599873304 0.659582198 0.634029269
0.631246030 0.661100566 0.635926425
0.671094120 0.661480129 0.634282172
0.726249218 0.662365735 0.638709784
0.794180810 0.666034341 0.648577034
0.875521779 0.684756041 0.658190608
0.646173596 0.783554733 0.664642632
0.655534565 0.775711417 0.676913261
0.670334876 0.777608693 0.673877597
0.699303746 0.781024456 0.682985306
0.732827127 0.783807814 0.688551307
0.784693360 0.792030334 0.699304283
0.843643129 0.805818558 0.717140675
0.911448598 0.833269596 0.749778509
