Assets/Resources/EldamarStudio/100 Horror LUTs Pack/LUTs/cube/Hauntbrain LUT.cube
DOMAIN_MIN 0 0 0
DOMAIN_MAX 1 1 1
LUT_3D_SIZE 32
0.062744997 0.027450999 0.007843000
0.062744997 0.027450999 0.007843000
0.064895771 0.029601775 0.009993774
0.065401837 0.030107839 0.010499839
0.062744997 0.027071452 0.008601999
0.062744997 0.024035066 0.014673999
0.065275319 0.026059322 0.018216323
0.071600288 0.025806291 0.016319003
0.079190105 0.023529001 0.011764999
0.082226500 0.023528999 0.011764995
0.102719866 0.020619871 0.003036130
0.123972245 0.017583745 0.004047996
0.148640275 0.015686000 0.007843000
0.178748026 0.015433032 0.007843000
0.206072390 0.012397422 0.007843000
0.240607589 0.004554200 0.007843000
0.277039975 0.000000000 0.007843000
0.313472122 0.000000000 0.006578010
0.349904984 0.000000000 0.000506007
0.383554369 0.000000000 0.005566004
0.420746207 0.000000000 0.004048004
0.459203243 0.000000000 0.001012128
0.496141970 0.000000000 0.004048480
0.544718802 0.000000000 0.007084098
0.584187567 0.000000000 0.007843000
0.620619953 0.000000000 0.010625990
0.657558203 0.004554060 0.018722126
0.697027266 0.031878423 0.036938883
0.736495733 0.061859615 0.047185145
0.775964558 0.093991123 0.061606400
0.814547956 0.126502186 0.079822972
0.850979984 0.156863004 0.098039001
0.065781385 0.024414614 0.007843000
0.059709385 0.030487388 0.007843000
0.064010382 0.026185840 0.007843000
0.064136997 0.027830549 0.008728613
0.060088836 0.030107841 0.007084001
0.062744997 0.027071452 0.002529999
0.065275319 0.026565386 0.018721998
0.071600288 0.025806291 0.017710328
0.080708101 0.022770099 0.010247001
0.088298500 0.020493388 0.005692999
0.105882004 0.023402516 0.005692999
0.124984115 0.022643613 0.005060127
0.148640275 0.021758001 0.008981644
0.179000989 0.021252001 0.010373387
0.209107995 0.015433035 0.004807387
0.238836214 0.007590427 0.002403583
0.275521785 0.001518195 0.001771000
0.313472122 0.000000000 0.001771000
0.349904984 0.000000000 0.000506001
0.383554369 0.000000000 0.000000002
0.420746207 0.000000000 0.001771000
0.461227238 0.000000000 0.001012128
0.501707971 0.000000000 0.003922000
0.538646817 0.000000000 0.004048485
0.580392301 0.004553996 0.009361384
0.617583930 0.011637980 0.010879387
0.654522419 0.022264123 0.014674384
0.693990886 0.047058810 0.027830496
0.733460009 0.069070183 0.043390423
0.772928476 0.101834342 0.058570329
0.812397182 0.134724960 0.081214175
0.850979984 0.162935004 0.110183001
0.064516224 0.025679775 0.003542000
0.064895995 0.025300227 0.003542000
0.060974225 0.027071454 0.012143999
0.063251384 0.026059322 0.007084000
0.059203450 0.030613905 0.005059999
0.062239062 0.025806291 0.009614000
0.065275319 0.029601775 0.008728772
0.068311289 0.027957065 0.013788778
0.077925093 0.026438871 0.008981999
0.089816496 0.026186258 0.008475999
0.107652999 0.026818678 0.008223000
0.129917502 0.027830549 0.006198743
0.152941272 0.025553260 0.007843000
0.183049023 0.023276033 0.009614226
0.211511731 0.019101780 0.007337232
0.239721596 0.014927039 0.003668970
0.273118377 0.010373225 0.000632582
0.311954290 0.007969584 0.000000000
0.349905014 0.006451774 0.000000000
0.385705143 0.006451774 0.000000000
0.417204231 0.002656777 0.000000000
0.458950251 0.004174772 0.001012128
0.503479004 0.006451774 0.003922000
0.539911807 0.006451774 0.003922000
0.578621268 0.015306767 0.006325223
0.616698325 0.026944742 0.012397217
0.653637052 0.042124838 0.016445287
0.693105400 0.064768881 0.030233987
0.732574403 0.086400792 0.053636804
0.779127061 0.114737578 0.058191232
0.818342745 0.148134351 0.077292725
0.855281532 0.175458774 0.109423995
0.064010158 0.029980998 0.000000000
0.063251384 0.025679775 0.006325160
0.065781385 0.024794161 0.009867160
0.064010158 0.026059322 0.011891162
0.061353996 0.030993454 0.002783160
0.063504227 0.025806291 0.014927160
0.067805320 0.028589645 0.011891162
0.073371612 0.032258295 0.011006003
0.078684323 0.029980998 0.005692904
0.093358658 0.032511324 0.010246839
0.110183321 0.031373002 0.010499839
0.131182671 0.032637838 0.008475905
0.157748163 0.033776481 0.005439517
0.188108906 0.028083324 0.005566033
0.216445372 0.024035584 0.006578161
0.246299788 0.023529354 0.005439809
0.278178364 0.018215999 0.002403808
0.313978523 0.020113567 0.001897566
0.352182001 0.019607967 0.003795158
0.387602925 0.019354999 0.001265161
0.424035460 0.019355163 0.000000000
0.456420213 0.015307158 0.000000000
0.503479004 0.020873152 0.002656839
0.539911807 0.023150159 0.002656839
0.579886436 0.033523310 0.007463869
0.616698325 0.044655129 0.014421150
0.654143155 0.063377224 0.019987224
0.694370568 0.084629588 0.032131597
0.732574403 0.103351951 0.056672782
0.777862251 0.127893567 0.075142398
0.825932741 0.160404950 0.079190508
0.860088825 0.188108832 0.108411998
0.065528452 0.035673548 0.000379548
0.060594998 0.029601548 0.013282840
0.063124999 0.027830547 0.018090002
0.067046449 0.028336614 0.016066000
0.066666998 0.031373002 0.004681000
0.066666998 0.028336613 0.016824998
0.072106451 0.030360773 0.012397227
0.079443701 0.033017289 0.008728709
0.089690447 0.035673548 0.011005905
0.101834461 0.035673544 0.007969515
0.118026868 0.033523321 0.007463549
0.136875689 0.034155738 0.005819260
0.161164001 0.037191641 0.003162904
0.191524073 0.039974999 0.000632516
0.221884817 0.034156006 0.003668868
0.254648805 0.035294194 0.003922000
0.288804382 0.033396356 0.002403808
0.324604541 0.027324116 0.001138567
0.358000994 0.036432516 0.010246963
0.391777515 0.038330093 0.005819447
0.429348707 0.039848287 0.002024260
0.467805237 0.042631544 0.000000000
0.504364491 0.043137528 0.000126512
0.541050255 0.049715545 0.000379548
0.581657529 0.061859824 0.006831284
0.620367229 0.073877402 0.016571980
0.654522598 0.084629610 0.029095514
0.697027266 0.105881974 0.032131899
0.733839571 0.121821351 0.052624948
0.776217759 0.142314926 0.073371395
0.822517574 0.167615503 0.092852898
0.861985981 0.197975546 0.114104547
0.056420065 0.038709935 0.003415935
0.059456453 0.032637935 0.000379548
0.063124999 0.030866936 0.004680840
0.067931838 0.029601773 0.011006000
0.069702610 0.028336613 0.016825000
0.066666998 0.031373002 0.010752998
0.074256673 0.033396613 0.012777001
0.081214480 0.034788065 0.007969938
0.090069897 0.036053099 0.005692903
0.104870073 0.038709939 0.007969514
0.128652796 0.041619062 0.004933872
0.147374988 0.041619062 0.004427936
0.169512704 0.043263640 0.003922000
0.197596073 0.046046998 0.003668902
0.227956817 0.046046998 0.006704512
0.260720760 0.047438189 0.004933873
0.292599380 0.048955999 0.002403808
0.324604541 0.048070513 0.000632576
0.358001024 0.051612910 0.004174966
0.394180745 0.060721289 0.002150643
0.433902532 0.062618867 0.000506065
0.473877251 0.065148927 0.000000000
0.510436475 0.070461914 0.000126512
0.549904883 0.082605936 0.003162904
0.588867903 0.091461211 0.007969931
0.627451301 0.100189917 0.014547991
0.663377941 0.108791865 0.023655999
0.700062931 0.127134353 0.041239511
0.734598517 0.143073738 0.054901868
0.772043109 0.163567320 0.073371395
0.813915253 0.187855899 0.093358964
0.855913997 0.213155925 0.117140934
0.062492318 0.039216001 0.011511676
0.062998384 0.038203999 0.005945612
0.066034220 0.038583227 0.007210773
0.070461839 0.037697837 0.008981999
0.073877320 0.035420772 0.014168454
0.077292942 0.038456611 0.010246678
0.081846990 0.036433000 0.009234678
0.090955026 0.041113317 0.007590390
0.100948997 0.044402320 0.006198900
0.117899843 0.049209487 0.012776509
0.134218737 0.052245773 0.002403549
0.158507496 0.055281378 0.005439674
0.181151271 0.058064315 0.006451677
0.208728641 0.062238999 0.006451677
0.239088789 0.062238999 0.007210577
0.269449592 0.064642802 0.003036004
0.299683511 0.069196641 0.001391678
0.330297112 0.072485641 0.000000000
0.365591317 0.077419296 0.001138645
0.399240762 0.080961682 0.001138643
0.443263441 0.088172317 0.003794996
0.482985258 0.091461316 0.004048129
0.516382039 0.097659819 0.002530322
0.553447247 0.107400641 0.003162904
0.592915535 0.117267340 0.008475997
0.630993009 0.126375660 0.015939308
0.667931736 0.135610312 0.025173804
0.706387937 0.153826296 0.043390300
0.740164459 0.171916440 0.053890128
0.777103126 0.187096819 0.072612487
0.817457199 0.210879281 0.094244570
0.859961987 0.238456309 0.120177321
0.068311289 0.045793995 0.014041712
0.069955997 0.050727699 0.012902997
0.072106227 0.051233634 0.005060069
0.077672161 0.051739246 0.006831295
0.080708541 0.049082991 0.008349294
0.082985707 0.050853767 0.011638062
0.095635697 0.050474312 0.007843000
0.104996696 0.049082987 0.004554003
0.114105090 0.055914089 0.003795290
0.129664719 0.062871702 0.012017514
0.146615863 0.066034153 0.005692710
0.166223779 0.069070444 0.000758999
0.189373910 0.073244698 0.004554003
0.216192380 0.079063728 0.004554003
0.247944370 0.080455408 0.004554003
0.276660293 0.082858793 0.003036004
0.307020694 0.088931181 0.000000000
0.336369097 0.095129691 0.001897566
0.372801960 0.101201706 0.004933700
0.406451374 0.106135339 0.000000000
0.442757457 0.111068979 0.002150708
0.487286270 0.117140979 0.007210581
0.519544542 0.123339489 0.005692801
0.560531497 0.132447883 0.007210997
0.597596288 0.139911398 0.011764994
0.634281933 0.150411025 0.017836986
0.669955790 0.160784334 0.027703771
0.707147121 0.177861676 0.044781882
0.744591713 0.196078330 0.061606813
0.783175111 0.210879162 0.074510157
0.819987178 0.230487168 0.096647955
0.859456003 0.260847390 0.123213284
0.074383095 0.060974188 0.012523902
0.075901486 0.069323480 0.012523712
0.078937329 0.070462093 0.007084001
0.082985267 0.071474031 0.000000000
0.093232095 0.068817191 0.000758999
0.092852935 0.068817191 0.012143999
0.102972999 0.068817191 0.009108003
0.119417988 0.068817191 0.006072002
0.132321090 0.069576100 0.001517998
0.141429499 0.078684486 0.007589998
0.159266204 0.082732223 0.005692773
0.177988455 0.085768349 0.001897744
0.201517731 0.088425092 0.000000000
0.223023161 0.094750129 0.000000000
0.254902214 0.098798513 0.000000000
0.285009772 0.101834282 0.000000001
0.313093066 0.107147187 0.000000000
0.344718188 0.118153132 0.001897567
0.381151050 0.124731198 0.011005959
0.414041579 0.129285187 0.004933637
0.449335665 0.136116087 0.001138645
0.485768259 0.142188281 0.004174967
0.522327542 0.148260280 0.007084097
0.566603720 0.156736106 0.009487906
0.605313182 0.164326102 0.016318997
0.640353978 0.173181430 0.024668084
0.674763024 0.185326084 0.032258157
0.708665371 0.200252727 0.047438528
0.745856762 0.217330739 0.067931890
0.787096322 0.234282151 0.087160081
0.826818228 0.248703182 0.104997054
0.857179105 0.279064000 0.129285082
0.089563489 0.085262984 0.015559509
0.086527877 0.091334984 0.006451902
0.088045716 0.088931501 0.002150709
0.091081649 0.088172495 0.000000000
0.096268490 0.093105987 0.000758999
0.114484489 0.093105987 0.006830999
0.116635017 0.093105987 0.003036003
0.127260998 0.093105987 0.003541999
0.144465119 0.093864888 0.007590000
0.159645513 0.096900508 0.007589998
0.177482754 0.103099011 0.007842998
0.193675235 0.107020751 0.003668520
0.214800969 0.108918495 0.000000001
0.244275555 0.109930530 0.000000000
0.268564284 0.119038910 0.000000002
0.300442785 0.123086683 0.000000004
0.330550194 0.127640486 0.000000004
0.359898597 0.136369154 0.001897568
0.396331459 0.154585958 0.011005964
0.427198201 0.155597985 0.008981641
0.461480409 0.161543235 0.003795004
0.497912943 0.169512749 0.001138645
0.534471512 0.175585449 0.004048484
0.573940754 0.181657463 0.004048489
0.611385524 0.190132692 0.013282996
0.646426618 0.200505823 0.026565658
0.680835009 0.212650508 0.041366551
0.720303357 0.224794477 0.056546923
0.754205763 0.239721790 0.077040277
0.793168306 0.258570671 0.098292194
0.833016753 0.278557956 0.120176718
0.866287470 0.297280014 0.144465491
0.101833999 0.109550998 0.004048002
0.098798387 0.115622990 0.003668516
0.102213994 0.115243770 0.001012129
0.108539030 0.111195706 0.000000000
0.115623318 0.112713546 0.000758999
0.126249000 0.120303862 0.006830999
0.136875317 0.117773540 0.007843000
0.142947584 0.120682992 0.005818999
0.158127844 0.123212993 0.007843000
0.177609235 0.124098390 0.007842998
0.192789614 0.121315733 0.004933871
0.211005852 0.127387732 0.004933871
0.229348630 0.132447869 0.001771227
0.253889948 0.136495858 0.000253032
0.278178662 0.142947406 0.002909870
0.302466840 0.152055800 0.007716866
0.338899374 0.157621726 0.005692873
0.373181403 0.163693726 0.002909871
0.402783006 0.172801957 0.005186969
0.439215750 0.179885998 0.005946000
0.471726716 0.185831726 0.004933871
0.507147372 0.192915872 0.002909871
0.543579876 0.197217345 0.004301473
0.580265760 0.206072003 0.012650127
0.615180314 0.216698557 0.021758702
0.649588704 0.227830589 0.033902850
0.683491230 0.240480945 0.047565058
0.720556378 0.255028725 0.062745430
0.754711747 0.269829541 0.077925801
0.791650534 0.283238679 0.102214143
0.832131445 0.302846432 0.125743315
0.869576097 0.327134728 0.148007870
0.113978505 0.135863245 0.000000000
0.114990368 0.139911503 0.000000000
0.118405990 0.141556010 0.004047996
0.125743151 0.138520077 0.001517996
0.134471983 0.136242792 0.000000000
0.141935319 0.142062172 0.002783003
0.155091569 0.143074185 0.007843000
0.165844247 0.141682506 0.006198711
0.177609175 0.147754401 0.005060164
0.197596744 0.151549235 0.003795003
0.215053856 0.150663853 0.002909615
0.230234236 0.151676223 0.003922000
0.249588892 0.156609878 0.002783356
0.270588279 0.161290497 0.000000000
0.291334540 0.163820505 0.001265160
0.323719233 0.176343799 0.004681000
0.349525452 0.182416171 0.007717004
0.386970103 0.188614815 0.003289425
0.415686250 0.196078524 0.001897748
0.447311997 0.202150494 0.005945740
0.481846988 0.208222494 0.005945740
0.515243411 0.216192245 0.007969738
0.550664008 0.220619977 0.010246728
0.587096810 0.231625333 0.017457094
0.621252298 0.243010819 0.028842568
0.653257310 0.255155236 0.043769963
0.687033296 0.267299235 0.057685055
0.724983811 0.280961394 0.072865427
0.758760273 0.296141803 0.090069532
0.792156637 0.313092917 0.105249912
0.829348564 0.325743198 0.129791319
0.866540015 0.347375244 0.151043743
0.132953987 0.164326280 0.000000000
0.134851247 0.166224033 0.000000000
0.140037626 0.168247998 0.002024002
0.147374794 0.168121472 0.005313001
0.156103641 0.165464640 0.000000000
0.162175640 0.167741939 0.000000000
0.172422305 0.168247998 0.002783001
0.185958281 0.169386640 0.005060067
0.200379387 0.171663731 0.002783356
0.218975618 0.180771440 0.000126517
0.236053288 0.180012271 0.001138644
0.253383905 0.179759547 0.000885612
0.267425656 0.182795629 0.002783356
0.289184034 0.185832024 0.000000000
0.310056597 0.186717629 0.000000000
0.339278609 0.197596461 0.001265160
0.371157467 0.208981469 0.003922000
0.399114251 0.212650269 0.004554416
0.429474980 0.221252620 0.002530036
0.462112725 0.227577642 0.006704648
0.494370729 0.234788269 0.008981644
0.525743127 0.242884263 0.012017513
0.558759987 0.249209270 0.018595494
0.593168795 0.259329289 0.027703643
0.627324283 0.271473557 0.038330212
0.660467923 0.282479614 0.053257611
0.690828681 0.294623643 0.070967697
0.728399396 0.306767613 0.086148076
0.765970826 0.322707087 0.106261604
0.802783132 0.338519871 0.123845458
0.833523154 0.358506888 0.141682252
0.866160631 0.371663630 0.163187638
0.163567096 0.195446029 0.000253032
0.163314074 0.194687068 0.000000000
0.167362094 0.197343290 0.000505999
0.173940226 0.198861092 0.000000000
0.183428034 0.199367091 0.000759032
0.189500034 0.199367091 0.000759032
0.195572093 0.198861092 0.000000000
0.204933450 0.201011747 0.000000000
0.218849137 0.204301089 0.000000000
0.240101531 0.213409483 0.000000002
0.255787849 0.211385205 0.002656839
0.272739023 0.208855256 0.001897744
0.289437085 0.208096430 0.000000000
0.302846074 0.211132109 0.000000000
0.330170453 0.214168489 0.000000000
0.356735826 0.223909065 0.000253032
0.383807570 0.234282225 0.001518192
0.411765039 0.242758021 0.004554416
0.442125112 0.248830050 0.007590036
0.477545738 0.255155087 0.010626357
0.511827707 0.262871772 0.012271000
0.543200135 0.272738993 0.015559901
0.570650995 0.284883022 0.025047041
0.601011813 0.291208059 0.040353969
0.633649290 0.301328063 0.053510539
0.666792989 0.312333673 0.068438001
0.699937046 0.322201073 0.086148098
0.730296969 0.334345043 0.101328470
0.770524621 0.351549655 0.124225013
0.812523365 0.367995203 0.144212365
0.850980222 0.385579020 0.164959028
0.875268996 0.409867048 0.189247057
0.196964234 0.234914377 0.003289416
0.193927824 0.225806758 0.000253029
0.195825577 0.231499046 0.004300999
0.198229223 0.234281957 0.004047995
0.202024281 0.233017236 0.001138547
0.216824383 0.238836229 0.009867410
0.222897023 0.233776212 0.002277089
0.232258230 0.237191498 0.000000000
0.245161474 0.241239369 0.000000000
0.261353880 0.237697452 0.000000000
0.279696405 0.240986854 0.000000000
0.295256227 0.242757529 0.000632584
0.313346028 0.244528592 0.000000000
0.333206832 0.247564852 0.000000000
0.360531211 0.250601202 0.000000000
0.380644798 0.256040812 0.002403804
0.403794765 0.263377815 0.003289416
0.429981112 0.270082384 0.004554416
0.460341841 0.276154399 0.007590036
0.490701854 0.285009742 0.010626357
0.522327423 0.291587800 0.015559996
0.552308559 0.299304277 0.022390991
0.579759419 0.309170991 0.034155421
0.610120237 0.321315795 0.052372217
0.642757714 0.327640802 0.067678526
0.674762726 0.337760776 0.083617896
0.706262052 0.349778473 0.101328462
0.739405394 0.364705801 0.116508842
0.772422194 0.379506618 0.137002200
0.809487343 0.395319581 0.151802585
0.848070800 0.412270993 0.169892371
0.884377420 0.434155792 0.201391831
0.213535994 0.271979600 0.001518196
0.217710391 0.262871355 0.000885613
0.225426793 0.266666740 0.000000000
0.229222149 0.270714760 0.005566004
0.231119782 0.268058598 0.004047996
0.240227669 0.270082593 0.003036134
0.247817621 0.270841599 0.006578483
0.258823693 0.266413897 0.000759096
0.272485912 0.270967692 0.000000000
0.287666261 0.269829392 0.000000000
0.300948769 0.274889439 0.000000000
0.319164753 0.275901586 0.000000000
0.334724605 0.278557748 0.000000000
0.353447020 0.281593800 0.000253032
0.376470387 0.284630209 0.002403804
0.396584600 0.290069759 0.004806995
0.417836577 0.294623584 0.007843384
0.444655120 0.299810112 0.009361413
0.478557944 0.305882573 0.012397038
0.504111648 0.312334150 0.022644155
0.534471571 0.321442038 0.031372789
0.562808275 0.328020245 0.040480785
0.588867784 0.335610390 0.052498296
0.619228601 0.343200594 0.063883804
0.651866078 0.355344802 0.082099974
0.683870733 0.364452749 0.096014775
0.714737356 0.377102852 0.112713248
0.748134196 0.392283201 0.131688610
0.781530559 0.409867406 0.144971788
0.811384916 0.425047308 0.171536908
0.846805811 0.441998571 0.190385580
0.886274993 0.463250965 0.220746785
0.237824365 0.303858191 0.000000000
0.237824365 0.303858161 0.000000000
0.248197377 0.298544973 0.001518192
0.257811397 0.307653338 0.000253031
0.261480182 0.304870635 0.004807003
0.267552197 0.301454991 0.001012001
0.273624182 0.304490983 0.001012130
0.284629881 0.307400465 0.002277292
0.298292309 0.305123180 0.000000001
0.311954677 0.307400465 0.000000001
0.328779370 0.308792174 0.003035997
0.343453586 0.313852161 0.004554189
0.361669570 0.313852161 0.003415545
0.377482384 0.316255361 0.003035997
0.397469580 0.318026602 0.004807221
0.417836607 0.321948379 0.009361188
0.433017373 0.329538167 0.012397190
0.457937926 0.331941366 0.016698569
0.491714180 0.336242914 0.021505430
0.518532693 0.343833178 0.034408517
0.543579996 0.348766834 0.046553180
0.573940277 0.356862575 0.058697183
0.599493980 0.363188177 0.070841171
0.629854798 0.372043192 0.081340894
0.659456313 0.381151378 0.092726178
0.692852616 0.393295348 0.109550841
0.723845243 0.405439377 0.121821381
0.757242084 0.419607610 0.140037626
0.790638983 0.437444836 0.162428841
0.815939128 0.452372134 0.179127112
0.848576784 0.470208347 0.209487379
0.889311016 0.492093176 0.237444997
0.271726966 0.333712697 0.000632581
0.269449949 0.340290934 0.001264995
0.271853536 0.339658320 0.002783192
0.281467557 0.337507665 0.003921834
0.287919104 0.344718516 0.001264996
0.294244140 0.335863173 0.001264996
0.301581115 0.338140100 0.000632582
0.310689241 0.343579710 0.001264996
0.325616658 0.348133713 0.002529988
0.334725052 0.348133713 0.002529991
0.354206413 0.345224410 0.007083997
0.372043222 0.348260522 0.011132253
0.388362139 0.353320509 0.013156344
0.406831175 0.353067547 0.010879052
0.425426692 0.352688104 0.011638141
0.443516344 0.355091751 0.015812563
0.462112337 0.359898925 0.021631747
0.476154506 0.367109120 0.025933124
0.503479004 0.367109120 0.035041541
0.530170918 0.374825895 0.049082797
0.555597544 0.380139291 0.061733045
0.580644846 0.384187549 0.073877558
0.610879064 0.390639037 0.086021550
0.640733838 0.403289139 0.098165564
0.669449866 0.413156241 0.108665258
0.698924601 0.423023522 0.121189207
0.732321143 0.435167551 0.136875540
0.765717566 0.447311521 0.149272531
0.797216892 0.464136600 0.174826175
0.823655963 0.478810906 0.198102504
0.846679211 0.493232101 0.217963174
0.892220438 0.517520130 0.248323992
0.296015054 0.373181969 0.003668993
0.308159024 0.370145559 0.006704602
0.303731829 0.374572992 0.007337019
0.302720040 0.379379988 0.007590052
0.309171557 0.384186983 0.007337025
0.318279922 0.378114969 0.007337025
0.329664975 0.376849979 0.004807355
0.338013947 0.379000664 0.005313288
0.347122073 0.381530941 0.008855027
0.362049520 0.381530970 0.014674032
0.376976848 0.378621101 0.014674040
0.394686997 0.381657004 0.017204296
0.412650317 0.387728989 0.020240389
0.431120008 0.392536014 0.023023099
0.452372372 0.389500409 0.029095868
0.463757128 0.391524166 0.032258172
0.479949206 0.394560218 0.038583197
0.500442564 0.397469968 0.047185570
0.521695077 0.397469968 0.056293972
0.546236813 0.403035969 0.068185002
0.570777953 0.407463729 0.078684703
0.595066190 0.411512017 0.089057997
0.619987488 0.417963505 0.101201981
0.647311866 0.433143914 0.113345996
0.677166581 0.443516672 0.125489995
0.707273960 0.452624708 0.140164360
0.738393188 0.462492019 0.158127993
0.771790326 0.474635959 0.176343977
0.797216952 0.489436805 0.194054633
0.824035168 0.503098965 0.213282943
0.851486206 0.517014205 0.232384577
0.883112013 0.535736978 0.254396021
0.331435740 0.412650406 0.023403371
0.332447708 0.412397355 0.023656338
0.338140488 0.413662523 0.022390949
0.337887764 0.415306926 0.024288364
0.343580186 0.415686190 0.027324371
0.347880930 0.412017375 0.027324371
0.356989324 0.413535714 0.032384366
0.368880361 0.413788736 0.030107733
0.379506469 0.415686488 0.030107729
0.394686848 0.417710751 0.032131735
0.409867257 0.417584240 0.049082734
0.423023373 0.416572094 0.047058996
0.437444657 0.419987440 0.047438730
0.452625424 0.423908740 0.049083084
0.473877758 0.423402816 0.055155203
0.490322560 0.425174177 0.068438165
0.503225565 0.428209871 0.071474090
0.521947920 0.431245953 0.075522147
0.543200433 0.433396727 0.080328993
0.570018768 0.436179399 0.086654022
0.590512514 0.440354109 0.102593482
0.613029718 0.444402367 0.113346368
0.637318015 0.450727373 0.121948354
0.661986232 0.463250905 0.134092376
0.689310610 0.473877281 0.143959656
0.720556676 0.485768378 0.159772366
0.751296461 0.497659832 0.178874433
0.777862310 0.507527053 0.194813713
0.805945814 0.522327244 0.213029683
0.833902717 0.535736799 0.234788388
0.863124669 0.551423073 0.255914301
0.893485010 0.573434412 0.277166724
0.360278457 0.444528729 0.048450723
0.362175703 0.450221479 0.059835717
0.370018721 0.452371746 0.055787686
0.370525122 0.451612949 0.054016460
0.375838250 0.448703289 0.058444012
0.384946287 0.448703289 0.059962198
0.389247060 0.448829800 0.057431728
0.393421739 0.448576778 0.063504137
0.406071931 0.449841738 0.062745363
0.422390938 0.454016447 0.063883722
0.437571347 0.452245742 0.071853466
0.450727463 0.456040710 0.077798985
0.464010090 0.454902053 0.077040076
0.477166682 0.456166714 0.078810975
0.495129615 0.456166714 0.088171974
0.513472676 0.460468262 0.097659774
0.528652668 0.463504255 0.106768169
0.545730412 0.465907454 0.107147716
0.568247736 0.467678696 0.108918503
0.589373887 0.472612113 0.116634727
0.611005485 0.473750472 0.120809458
0.629222274 0.477798730 0.133966118
0.651612937 0.483870745 0.139405712
0.674130559 0.492472708 0.151549742
0.700695992 0.502340019 0.165212020
