Assets/Resources/EldamarStudio/100 Horror LUTs Pack/LUTs/cube/Hiryur LUT.cube
DOMAIN_MIN 0 0 0
DOMAIN_MAX 1 1 1
LUT_3D_SIZE 32
0.184313998 0.125489995 0.137254998
0.184313998 0.125489995 0.137254998
0.184313998 0.125489995 0.137254998
0.183048829 0.124225155 0.135989830
0.181151003 0.122327998 0.134092003
0.187223002 0.128399998 0.140164003
0.188235000 0.129411995 0.141176000
0.191523999 0.132700995 0.144465417
0.196078002 0.137254998 0.149020001
0.196078002 0.137254998 0.149020001
0.201897740 0.140164122 0.146110132
0.207969993 0.145224512 0.149145991
0.215180352 0.149020001 0.154079646
0.223782033 0.149272963 0.157115966
0.226818413 0.152308583 0.160151586
0.232257992 0.160151809 0.163187817
0.241365984 0.167741999 0.169260189
0.252877563 0.174446568 0.178368405
0.261985958 0.183554962 0.187476039
0.265528351 0.181530640 0.188235000
0.272359252 0.189879730 0.192029998
0.281467140 0.202023998 0.196078002
0.290954977 0.208222508 0.196584016
0.309170991 0.217330903 0.208728820
0.327387571 0.224161997 0.214041710
0.344212651 0.231625661 0.221252322
0.360910982 0.241239995 0.233396992
0.385198981 0.253383994 0.245540991
0.414800614 0.268184811 0.257684976
0.445161372 0.283365160 0.271600187
0.479064167 0.297659963 0.286780596
0.521569014 0.309803993 0.301961005
0.181277603 0.122454390 0.134218603
0.178241998 0.128526390 0.131182998
0.178241998 0.128526390 0.131182998
0.180771992 0.125996381 0.129917830
0.183807850 0.122707449 0.128020003
0.187223002 0.131435618 0.134092003
0.185705319 0.127387613 0.137634322
0.190132663 0.132953599 0.139784664
0.196078002 0.140290618 0.142947227
0.196078002 0.140290618 0.142947227
0.201897740 0.146110356 0.148766965
0.207969993 0.147248775 0.150158137
0.214042008 0.151297003 0.155218005
0.220746338 0.155344963 0.160151660
0.223782018 0.158380583 0.163187981
0.234029204 0.161416814 0.168627396
0.239848197 0.166223809 0.172296181
0.247438133 0.171410173 0.177735984
0.258950353 0.180518582 0.184440419
0.268058062 0.189626962 0.187982023
0.271600336 0.191397652 0.190132737
0.279443383 0.199999735 0.196078509
0.290954977 0.208222508 0.202403769
0.309170991 0.217330903 0.208728820
0.325110257 0.226439282 0.220872998
0.342567921 0.236053377 0.227577373
0.361417055 0.246806055 0.236432612
0.388235360 0.256420374 0.248576596
0.412523329 0.268564373 0.258064419
0.443896174 0.283365160 0.271600187
0.475521952 0.299430966 0.286780596
0.509424269 0.315876007 0.301961005
0.176091000 0.123719223 0.129032001
0.183807611 0.125490218 0.130297378
0.174320221 0.127261221 0.127261221
0.178115383 0.128526390 0.128526390
0.184313998 0.125490457 0.128399774
0.185578838 0.127514064 0.134471774
0.187855542 0.130423769 0.138013542
0.188108936 0.129285052 0.141049936
0.194686681 0.138393000 0.142567679
0.196078002 0.141176000 0.141176000
0.204047963 0.144844964 0.146995738
0.210120216 0.150917232 0.153068006
0.215053871 0.152308866 0.156230137
0.220113993 0.157369003 0.161290005
0.225047350 0.162302360 0.166223645
0.230992824 0.167488813 0.171663761
0.243137211 0.172042996 0.176217571
0.248070583 0.175711349 0.179253802
0.255661160 0.181783751 0.183808014
0.265022427 0.190891579 0.191397637
0.272232771 0.194307223 0.190638736
0.279570132 0.200126261 0.196204990
0.293105751 0.210373253 0.206325218
0.311321765 0.219481125 0.212397233
0.327261031 0.228589505 0.223023772
0.343832731 0.236306205 0.230993092
0.362049371 0.247438297 0.237824067
0.384440422 0.259835660 0.251612753
0.415559709 0.271600217 0.265401602
0.445160896 0.285515398 0.274509966
0.479443401 0.300695807 0.287160158
0.512333810 0.317647010 0.299810231
0.175078988 0.128019989 0.130549997
0.180898160 0.126755163 0.131056383
0.184692994 0.128019989 0.128526390
0.175078988 0.128020003 0.128020003
0.183048829 0.131435841 0.131815389
0.183048829 0.131056055 0.138772994
0.188108847 0.133080319 0.141049847
0.189879715 0.134851441 0.142820716
0.195192993 0.138646156 0.146615997
0.199746683 0.144718155 0.145097673
0.206072047 0.147881031 0.149525732
0.211890996 0.151675984 0.154332846
0.217962995 0.157747999 0.159266487
0.221378893 0.160657838 0.162302136
0.227451161 0.164705843 0.167361990
0.233523160 0.170778155 0.173434600
0.240101144 0.176850155 0.179253966
0.250980139 0.183554575 0.181657165
0.254648983 0.187855810 0.184060976
0.264516205 0.193927824 0.191397816
0.271726847 0.199873164 0.196710736
0.279823095 0.202909291 0.195699126
0.294750452 0.214674503 0.207084149
0.311827838 0.223782420 0.215433165
0.329032272 0.231625453 0.222264245
0.345603973 0.240606979 0.234029487
0.363820136 0.248197064 0.238583162
0.382036895 0.263377428 0.253004432
0.412270606 0.275901318 0.269449651
0.445667297 0.289816171 0.281088024
0.482605696 0.304996580 0.291081816
0.520177007 0.320177019 0.300568998
0.180012539 0.134471551 0.140796542
0.178494826 0.131435826 0.138519838
0.182163224 0.132321224 0.133713007
0.186464012 0.134851098 0.132574379
0.181151003 0.134851098 0.134471551
0.181151003 0.140923098 0.143579930
0.188361779 0.144844875 0.145857006
0.192536458 0.146236554 0.145857006
0.194433987 0.146615997 0.146615997
0.206578001 0.152687997 0.152687997
0.210373327 0.156230330 0.156230330
0.213788733 0.159645736 0.159645736
0.217583537 0.163440540 0.162681639
0.223908573 0.169259578 0.165464997
0.230107829 0.169386089 0.168374121
0.236559451 0.174573049 0.174193606
0.242631435 0.179886445 0.179886445
0.248703539 0.186590955 0.184693456
0.254775554 0.195698589 0.184693471
0.266793013 0.199620366 0.190639019
0.275142103 0.204553992 0.196711004
0.282858700 0.211258590 0.201391593
0.295129925 0.220366955 0.204807445
0.310309649 0.229475364 0.216951460
0.327767015 0.237065449 0.222643793
0.345603973 0.244528860 0.229474783
0.364579141 0.253510058 0.240860447
0.382795900 0.268690437 0.253004432
0.411258489 0.281594098 0.269702524
0.443010569 0.295509249 0.282985181
0.479570091 0.311448127 0.294117510
0.525110543 0.326628536 0.306261539
0.176976934 0.143579930 0.137760937
0.186084554 0.140543535 0.140796557
0.182416067 0.139658064 0.138519838
0.183933988 0.142694324 0.141303003
0.187223002 0.146995872 0.149651930
0.187223002 0.146995872 0.143579930
0.192283005 0.153067872 0.150158003
0.195572063 0.155344933 0.151929006
0.196331158 0.154585838 0.151929006
0.200506002 0.152687997 0.152687997
0.206830993 0.158760011 0.158760011
0.212397054 0.164326057 0.164326057
0.216824636 0.168753639 0.168753639
0.220872968 0.172295973 0.171536997
0.229981348 0.175332353 0.171536997
0.238583192 0.182669058 0.179253742
0.245667055 0.186717063 0.184819803
0.251739204 0.189626634 0.187729061
0.257811934 0.198734984 0.187729076
0.272232592 0.205059946 0.196078420
0.281214476 0.210625991 0.202783003
0.288298756 0.216697991 0.206831008
0.298165560 0.223402560 0.207843050
0.313345999 0.232510969 0.219987065
0.330802917 0.243896052 0.227577627
0.347627729 0.253636718 0.234535173
0.364832133 0.262238920 0.243643060
0.388867885 0.268690437 0.249968052
0.415053785 0.283870816 0.262112737
0.444655299 0.298545241 0.275268883
0.479064167 0.315496504 0.289563596
0.522074938 0.335736930 0.309297919
0.179000676 0.155218005 0.144845322
0.180518612 0.154711932 0.145351261
0.185325772 0.155977100 0.148386866
0.182922319 0.156356648 0.146110162
0.186084777 0.159519449 0.150790781
0.188235000 0.161669672 0.151170000
0.188235000 0.161669672 0.150158003
0.197596416 0.166097388 0.156230003
0.201897547 0.167742088 0.158760101
0.204933494 0.168248147 0.160531327
0.205819011 0.168880641 0.163819999
0.211890996 0.174952626 0.169892505
0.217962995 0.178747639 0.173687637
0.222643733 0.180645317 0.175585315
0.229475409 0.185958415 0.180139318
0.238583192 0.191397995 0.184946314
0.244655192 0.197343513 0.187855810
0.250980288 0.198988065 0.189499989
0.260847598 0.204300985 0.193295017
0.267678678 0.210626006 0.199114680
0.284756482 0.216697991 0.208222568
0.294370860 0.223782122 0.215939119
0.303605020 0.231498823 0.220619828
0.316382229 0.240607232 0.225553647
0.336116582 0.249715596 0.233143643
0.353193939 0.260214955 0.241998985
0.369892150 0.269829124 0.252751321
0.394180894 0.279949635 0.262871325
0.418596089 0.291461140 0.266666651
0.447691232 0.304870278 0.278810948
0.480708450 0.321062595 0.293611586
0.521569014 0.342314988 0.314864010
0.183680996 0.165717706 0.153953284
0.183680996 0.165717706 0.153953284
0.184187055 0.166223764 0.154459223
0.187223449 0.169260174 0.157495171
0.187602997 0.169260159 0.155218452
0.189373776 0.169765770 0.155724064
0.191523999 0.173560694 0.159518987
0.196457699 0.171916425 0.157874718
0.204048291 0.176470608 0.163187623
0.204427525 0.181277767 0.166223779
0.209487721 0.183048993 0.170904547
0.211890996 0.185452268 0.174319789
0.219101638 0.189247280 0.179253921
0.225679711 0.190006316 0.179759994
0.231752113 0.197469994 0.183048993
0.236938909 0.201897696 0.187476277
0.246046513 0.206451505 0.193548277
0.249968439 0.210120276 0.191523999
0.260088712 0.214168042 0.195572019
0.268310994 0.218342707 0.204933718
0.280328780 0.224414691 0.212903246
0.296521276 0.231498823 0.219987124
0.306514502 0.240480691 0.227830499
0.320177078 0.248070911 0.233902901
0.335863560 0.258823574 0.239216000
0.354332954 0.269323617 0.246679664
0.372042865 0.278684348 0.258064657
0.398608595 0.289690167 0.269069999
0.422896922 0.303478986 0.278178543
0.454016626 0.313978672 0.286527663
0.485262275 0.328779310 0.300442696
0.523213267 0.350031704 0.320935994
0.188994095 0.175585002 0.163061097
0.188235000 0.176344097 0.163061097
0.189752996 0.176344097 0.163820192
0.188741073 0.176850170 0.162808076
0.192156911 0.180266008 0.166603461
0.192915902 0.178368151 0.165085152
0.194686681 0.179886088 0.166603088
0.198734611 0.183301717 0.169259802
0.207084104 0.181024984 0.167741999
0.201012105 0.190132603 0.170777604
0.208728880 0.194180861 0.176723629
0.214547828 0.196457833 0.180012733
0.219101638 0.199873090 0.182289541
0.227956995 0.199873090 0.185325935
0.234028995 0.207463413 0.185831994
0.238456711 0.212523714 0.188994288
0.244528890 0.215559900 0.192789182
0.253004074 0.219228074 0.197596192
0.259076834 0.225300103 0.197596207
0.268690646 0.229348361 0.207969621
0.279316813 0.235041082 0.215939254
0.293485075 0.241366118 0.224541128
0.305882066 0.250474513 0.227830499
0.321694911 0.257179081 0.236938909
0.337634355 0.266287118 0.244528905
0.353573620 0.277672350 0.251233667
0.370272160 0.290829003 0.260847986
0.400126874 0.300695628 0.270208627
0.427451044 0.313598931 0.281973571
0.459582329 0.327514201 0.295635849
0.492852658 0.338646591 0.308791995
0.526249051 0.359898984 0.327008009
0.192030489 0.187729016 0.172169477
0.188994095 0.190765411 0.172169477
0.192535996 0.191524506 0.174320251
0.193295002 0.191524506 0.173434645
0.189120516 0.192410022 0.169639081
0.195192516 0.198482007 0.178747445
0.195951521 0.194054499 0.174699500
0.196078002 0.195066497 0.174067214
0.197975710 0.199241012 0.176850393
0.204048499 0.199240997 0.179885998
0.209614500 0.205439493 0.185831472
0.215812996 0.207337022 0.187855512
0.221758485 0.209740490 0.187981993
0.227956995 0.215053484 0.188361570
0.234028995 0.215053499 0.191397935
0.240100995 0.220239997 0.196710989
0.247564718 0.224667713 0.201138675
0.256040484 0.228336483 0.203668967
0.262112498 0.234408513 0.203668997
0.273750544 0.240480497 0.212017626
0.281973481 0.248323753 0.215559527
0.290449470 0.256293476 0.218975127
0.302846462 0.262618482 0.227830514
0.321062475 0.271726906 0.236938909
0.339152575 0.278431475 0.246046692
0.357242465 0.286148161 0.253636837
0.376344144 0.296900988 0.260847986
0.400632888 0.315117002 0.272991985
0.433143765 0.324984312 0.285009474
0.469702601 0.339658439 0.300695449
0.504617214 0.356609583 0.317773104
0.529285431 0.372042984 0.333079994
0.189247131 0.202782869 0.178368002
0.189120606 0.202909395 0.178368002
0.192535996 0.203795001 0.178368002
0.194813162 0.205060169 0.180645287
0.192283422 0.206325322 0.180265740
0.200885743 0.204807013 0.181783795
0.201897740 0.210878998 0.185831547
0.203542024 0.211258709 0.185831711
0.205565974 0.213788778 0.188108996
0.209487975 0.211637989 0.188994393
0.212650120 0.214547873 0.192029983
0.216698393 0.218595609 0.196078271
0.220746353 0.220619649 0.198102519
0.225047186 0.224667907 0.199620709
0.231119871 0.227324739 0.197343409
0.234788075 0.229727939 0.200379819
0.244908184 0.235293865 0.207463667
0.256799579 0.239721581 0.213915110
0.265148878 0.243516892 0.218469143
0.279570222 0.252372235 0.226818487
0.289942980 0.260468006 0.232131600
0.298039258 0.267552137 0.235167742
0.308285981 0.271853358 0.242125347
0.320935994 0.280961752 0.245667025
0.341429293 0.290069550 0.254775405
0.360278457 0.298165649 0.265274823
0.381024927 0.307779968 0.275395244
0.412523866 0.321188986 0.287539840
0.436811924 0.336748809 0.294370860
0.469449699 0.351675957 0.306008816
0.505755842 0.369892180 0.323719054
0.538140118 0.387096852 0.344971746
0.190259263 0.213915259 0.186464250
0.192283005 0.215938985 0.188487992
0.188488007 0.217963248 0.188487992
0.192030013 0.220493242 0.188487992
0.190891743 0.222770438 0.190006271
0.198355421 0.216445059 0.188362002
0.203922004 0.220999509 0.192915931
0.203922004 0.223782510 0.194307253
0.206578165 0.224921152 0.196204990
0.209614232 0.221884757 0.196204990
0.214674130 0.228716120 0.197090387
0.217710257 0.231751993 0.200126529
0.220746353 0.234787896 0.203162625
0.224288031 0.237571254 0.205692783
0.232131571 0.238836408 0.202656850
0.237824202 0.243896455 0.210499793
0.243896186 0.246932447 0.215053976
0.256799579 0.252498507 0.221758246
0.265907973 0.256926239 0.225047275
0.276533842 0.265528083 0.233902618
0.289816946 0.272739202 0.237318262
0.300063252 0.280708522 0.242251858
0.310436487 0.285009712 0.249335751
0.324478269 0.294117630 0.254269630
0.339405566 0.303225964 0.263883531
0.364832222 0.313725233 0.274383217
0.386590868 0.323972106 0.286021322
0.415433407 0.336116493 0.296647906
0.444908470 0.348893076 0.307527006
0.474509656 0.364073426 0.318912148
0.509677529 0.382922113 0.333965838
0.547248304 0.402277261 0.357115984
0.192157000 0.226438984 0.195572644
0.194054261 0.228336260 0.197469905
0.194054008 0.231372416 0.199493647
0.190512002 0.233396634 0.199493647
0.190891549 0.238709643 0.199493647
0.196204647 0.231878355 0.197216943
0.200000003 0.233143643 0.199494004
0.203922004 0.237065345 0.203415647
0.206198901 0.237824440 0.204933643
0.209993511 0.235547155 0.205692634
0.212523654 0.241872504 0.203415647
0.217710257 0.245794028 0.205439612
0.220746353 0.248829633 0.208476007
0.224541053 0.252119005 0.211764649
0.234535053 0.253890008 0.211385414
0.242377996 0.257558644 0.215812996
0.249968201 0.260974199 0.223782629
0.259076566 0.264642984 0.229854628
0.268184960 0.270714998 0.230866656
0.277292937 0.279569924 0.239215702
0.288298488 0.286780477 0.243770003
0.301455140 0.293864876 0.245793998
0.313725621 0.300189853 0.254522145
0.327893913 0.309297740 0.259582818
0.345351279 0.318405926 0.267931998
0.366350591 0.328905642 0.282352954
0.395698786 0.341049612 0.293991059
0.419987530 0.353194267 0.303099424
0.450727612 0.367615610 0.314863980
0.481720477 0.382669181 0.328779161
0.518659115 0.396964222 0.346616179
0.558633626 0.417457640 0.368121654
0.192157000 0.245161071 0.204680964
0.191397965 0.244655073 0.204680964
0.194054261 0.246805772 0.207084224
0.196331039 0.248576999 0.208855003
0.196963549 0.248576999 0.209108040
0.199999943 0.248576999 0.209108040
0.199746966 0.248324037 0.208602041
0.202150717 0.250221342 0.210246682
0.205945939 0.253004104 0.214042038
0.215053543 0.256040514 0.220114022
0.213535830 0.258823872 0.215306997
0.216318995 0.260342002 0.214800790
0.221505389 0.261227369 0.217836633
0.224794015 0.264516026 0.220619991
0.236938789 0.270588011 0.226691991
0.246426180 0.274256825 0.228210032
0.256040186 0.276281029 0.229728147
0.264895529 0.277546018 0.233396947
0.274003923 0.283618033 0.239468977
0.283112317 0.291967303 0.248070702
0.294371009 0.299430996 0.253636777
0.307527155 0.306261897 0.257432014
0.322833985 0.315243006 0.263630509
0.335231006 0.324224889 0.266919911
0.354206294 0.333586305 0.272486001
0.377735615 0.344085991 0.283364981
0.404807121 0.356483072 0.300316095
0.429095864 0.368627071 0.309424460
0.461100757 0.385578632 0.321441978
0.492725968 0.404047966 0.334851176
0.527513742 0.420999259 0.352941155
0.573054969 0.433144033 0.377229989
0.192157000 0.269449800 0.213788569
0.183048606 0.263377815 0.213788569
0.188741356 0.265022039 0.218089566
0.195319414 0.266792983 0.220998988
0.200126424 0.266792983 0.221378535
0.206071943 0.266792983 0.224288404
0.198987678 0.264263302 0.219228402
0.203289002 0.266793400 0.219354689
0.210500002 0.270714819 0.223149762
0.212017938 0.271220893 0.229222402
0.221125543 0.271347404 0.232384533
0.223655835 0.276028007 0.229475245
0.228462994 0.278557986 0.229981184
0.233902410 0.279696435 0.232763991
0.239974409 0.285768390 0.232763991
0.247311577 0.289437205 0.236432806
0.258570194 0.293991387 0.238836214
0.270587981 0.298798382 0.242504567
0.277039528 0.304870367 0.248576567
0.286147922 0.308159024 0.254649282
0.299051285 0.316255301 0.261353821
0.313599110 0.323718965 0.265781283
0.328905970 0.330423385 0.269702494
0.347121984 0.336495399 0.278810889
0.366350263 0.347754568 0.286654264
0.387602627 0.359266371 0.295129716
0.411132038 0.371916473 0.306641102
0.438203454 0.386843801 0.318532825
0.467805177 0.398987800 0.332953542
0.498798370 0.417710155 0.343959183
0.533586383 0.437444597 0.359645545
0.579127014 0.454396397 0.386337578
0.196963996 0.286527783 0.225300595
0.195066407 0.285262793 0.225300595
0.196710795 0.279190809 0.229601592
0.201770991 0.282732606 0.234408438
0.203668445 0.284630060 0.234787792
0.199620202 0.282605797 0.231751934
0.209867284 0.284883112 0.232004985
0.205692604 0.283491790 0.229221985
0.214041904 0.286527783 0.231498897
0.218975186 0.286527783 0.235926956
0.222896934 0.288930982 0.239089116
0.227957070 0.290955245 0.238077253
0.232131809 0.295509160 0.237318352
0.238203809 0.297280014 0.240606993
0.244275808 0.303351998 0.244907990
0.255154788 0.307020783 0.249715596
0.259708971 0.310057163 0.249715596
0.271347374 0.315243781 0.252245367
0.282732636 0.321315795 0.260088593
0.293991148 0.324604422 0.266160697
0.306894511 0.333333254 0.274130732
0.323086768 0.341935605 0.279696673
0.339658499 0.348134071 0.283111781
0.355597794 0.356482774 0.294496894
0.373813778 0.362555355 0.299051285
0.397722602 0.375838101 0.309297949
0.422011167 0.389500052 0.319923788
0.449336022 0.404680401 0.332068086
0.472106397 0.422011554 0.337254941
0.509550691 0.435926765 0.361290157
0.545983374 0.455028594 0.380139142
0.590005994 0.473244995 0.407463580
0.196964011 0.301707804 0.235926807
0.204554200 0.304744184 0.243516982
0.202783197 0.300442815 0.241745993
0.203794882 0.298165977 0.245288000
0.204806909 0.303225994 0.248070747
0.203668460 0.301328272 0.245414376
0.207716450 0.303352505 0.242884189
0.213282809 0.304744184 0.239848197
0.215559900 0.305503100 0.240607098
0.224667698 0.306261986 0.243643284
0.227957055 0.309171498 0.246679321
0.232511252 0.310689449 0.248703450
0.237824336 0.313725561 0.249083191
0.243769795 0.316508174 0.251739383
0.247311801 0.320050180 0.252751380
0.258191168 0.325236797 0.258823603
0.267299175 0.329791397 0.263377786
0.271600574 0.332827598 0.262238979
0.285010010 0.338013977 0.270461768
0.300443023 0.342820823 0.278304994
0.314484715 0.351549655 0.284756541
0.329665124 0.361670196 0.291840941
0.347501665 0.367868662 0.295256168
0.365465105 0.376976281 0.307400197
0.384440362 0.386843771 0.315749496
0.404048026 0.394307494 0.320177168
0.431119442 0.409234256 0.332574248
0.458444327 0.424414605 0.345730364
0.488045573 0.442251831 0.354459018
0.515623093 0.457179159 0.364326149
0.558127403 0.474130571 0.395572603
0.600632191 0.492979199 0.424162179
0.193421990 0.319417715 0.245667145
0.206072405 0.324225336 0.259582371
0.208096430 0.321695000 0.261606574
0.204554245 0.319417715 0.256166995
0.198861122 0.322454125 0.256926000
0.209740877 0.322707146 0.260215342
0.214927256 0.324604869 0.259456247
0.216318578 0.325996548 0.256040573
0.217963085 0.326755464 0.250980467
0.227071479 0.329791069 0.254016072
0.230360866 0.332827419 0.257052422
0.236685991 0.334471971 0.259456247
0.243263930 0.335610509 0.262998402
0.252118587 0.338899136 0.269070506
0.252877563 0.339658111 0.264516562
0.262492001 0.342567533 0.267425954
0.272232980 0.348639935 0.271979958
0.279569983 0.354079962 0.275648147
0.288678408 0.357115597 0.281720161
0.304237992 0.362934560 0.288677931
0.320556730 0.371536851 0.296520978
0.336369544 0.382289976 0.302213699
0.351802886 0.388488472 0.305376559
0.373055309 0.397596240 0.316508591
0.394307703 0.408981532 0.327640861
0.416192621 0.420999438 0.335989952
0.438457042 0.431119204 0.343074113
0.465781391 0.446299553 0.358127981
0.500442445 0.463504195 0.372549117
0.533965349 0.480076075 0.385958076
0.567235768 0.494876713 0.401770771
0.609740555 0.516129136 0.435167968
0.199494019 0.346742928 0.257811964
0.202530414 0.346742928 0.266919583
0.206578240 0.342947453 0.272232771
0.210120052 0.340670168 0.269449830
0.214041516 0.343706548 0.262998015
0.211005926 0.346742928 0.269070029
0.216825008 0.346995980 0.272359371
0.219354972 0.347249001 0.273245007
0.220872968 0.348007917 0.271979898
0.227071509 0.351043522 0.269196510
0.230360880 0.354079872 0.272232890
0.239469007 0.357115716 0.273245007
0.248830006 0.359898686 0.274636388
0.255154997 0.363187999 0.278178126
0.261226982 0.369259983 0.284250885
0.271599948 0.367615163 0.286907196
0.282226205 0.369892389 0.290196210
0.291713983 0.375332415 0.293864936
0.303858042 0.378368050 0.299936980
0.312966436 0.384187013 0.300442964
0.326628745 0.390258998 0.306894243
0.342821002 0.397849202 0.314737290
0.360910505 0.406704515 0.320556998
0.382162929 0.415812910 0.326629013
0.403415322 0.427197963 0.340038270
0.426059365 0.440733671 0.351929307
0.450601101 0.455408037 0.361290157
0.477925450 0.470588416 0.373434931
0.510562778 0.485768795 0.393801808
0.544212103 0.504744172 0.412523925
0.579126835 0.525237560 0.431119561
0.618848979 0.546490014 0.453384012
0.208349362 0.368501395 0.275522023
0.211385041 0.371284008 0.279064327
0.212270647 0.371284008 0.281720728
0.214674175 0.370271891 0.284124196
0.218848810 0.372549176 0.281846941
0.220619589 0.370777935 0.280708730
0.222643971 0.373814344 0.284250408
0.225174010 0.374067366 0.282353044
0.226691991 0.374067366 0.280835092
0.232764006 0.375079244 0.281847239
0.244275510 0.378114909 0.287413239
0.247311905 0.381151289 0.290449083
0.256040663 0.385325730 0.293485016
0.263757348 0.389753371 0.297912389
0.269829333 0.390765369 0.298924506
0.280708343 0.396837384 0.304996669
0.289816350 0.399493724 0.309930384
0.297659576 0.404933602 0.313599378
0.307653397 0.407969803 0.315370381
0.325363368 0.419354737 0.327008367
0.340164483 0.421631753 0.327008367
0.355218351 0.427956730 0.332447708
0.370018840 0.438582897 0.338393509
0.391271263 0.442378253 0.341809362
0.417077631 0.456040651 0.356989354
0.440733671 0.468690723 0.371283978
0.465022355 0.482479423 0.382289499
0.490069449 0.497659802 0.394434273
0.525363624 0.512840152 0.409234494
0.560657680 0.529791296 0.428463072
0.595066309 0.550031662 0.448450327
0.630739987 0.571284056 0.471599996
0.215559989 0.395446002 0.291840732
0.216698349 0.396584362 0.292979389
0.223276466 0.395572454 0.293864995
0.220746145 0.398102462 0.295129836
0.221505255 0.401391715 0.297785997
0.223023057 0.399873525 0.296268165
0.227957055 0.403795063 0.300189674
0.234282017 0.403542042 0.299936712
0.235800087 0.404048085 0.297153741
0.240733743 0.405186743 0.301328480
0.248829752 0.408096313 0.303478986
0.258697003 0.411132008 0.309424460
0.264010102 0.413029730 0.312460393
0.273118287 0.417583734 0.317267478
0.280834973 0.420872718 0.317267478
0.291713983 0.423782468 0.322074473
0.302340180 0.429854453 0.325110465
0.309424311 0.435294062 0.330423981
0.318532735 0.438330472 0.332953990
0.334092468 0.444022745 0.340291023
0.350410730 0.452371716 0.346742719
0.367615402 0.454395711 0.349778593
0.381024480 0.464642227 0.356736004
0.402276903 0.471220613 0.361543655
0.426186025 0.481467277 0.372169703
