Assets/Resources/EldamarStudio/100 Horror LUTs Pack/LUTs/cube/Hiryur LUT.cube
LUT_3D_SIZE 5
DOMAIN_MIN 0.000000 0.000000 0.000000
DOMAIN_MAX 0.903226 0.903226 0.903226
0.184313998 0.125489995 0.137254998
0.191523999 0.132700995 0.144465417
0.226818413 0.152308583 0.160151586
0.281467140 0.202023998 0.196078002
0.414800614 0.268184811 0.257684976
0.183680996 0.165717706 0.153953284
0.196457699 0.171916425 0.157874718
0.231752113 0.197469994 0.183048993
0.296521276 0.231498823 0.219987124
0.422896922 0.303478986 0.278178543
0.192157000 0.269449800 0.213788569
0.203289002 0.266793400 0.219354689
0.239974409 0.285768390 0.232763991
0.313599110 0.323718965 0.265781283
0.467805177 0.398987800 0.332953542
0.220619857 0.427830249 0.310056984
0.239342406 0.437950552 0.321188837
0.294370383 0.451992244 0.338520139
0.379759401 0.482732266 0.364959002
0.557115793 0.563566923 0.454016238
0.425426573 0.706514716 0.549651742
0.450474411 0.718279421 0.550916553
0.507906377 0.733965755 0.568627179
0.603035867 0.752561271 0.608475447
0.714484513 0.779632747 0.653004408
0.176470995 0.134977713 0.161796287
0.187602997 0.138899282 0.159518987
0.225173712 0.165085286 0.182036698
0.284377426 0.214168280 0.230107576
0.409487635 0.279190421 0.280834705
0.181024998 0.170651406 0.169006705
0.199367419 0.179126993 0.180771708
0.228842407 0.205313414 0.203668699
0.285135835 0.239342406 0.238710001
0.422264308 0.309677690 0.303099096
0.200000003 0.269070119 0.230107412
0.208855301 0.271346986 0.237318397
0.244528994 0.291967094 0.255660981
0.312586814 0.327008277 0.285389096
0.467172593 0.406198621 0.356862515
0.222390831 0.433396518 0.331562400
0.240986690 0.437950522 0.333586276
0.297280282 0.453636944 0.354206115
0.381151110 0.487666130 0.389627129
0.552814603 0.567741990 0.468690664
0.429474741 0.712333560 0.563314378
0.455407828 0.720556438 0.566982746
0.510563016 0.732321441 0.578114748
0.600505710 0.753826439 0.614674270
0.716761231 0.784313560 0.665401578
0.172548994 0.141808584 0.220998988
0.192157000 0.150664285 0.224920988
0.222263992 0.171916410 0.235420823
0.281467140 0.217457116 0.267805278
0.406957746 0.282479823 0.334218562
0.186590701 0.184693277 0.228209987
0.197090700 0.189879701 0.231119707
0.228463113 0.213155985 0.249082997
0.287413150 0.249462277 0.281846821
0.423276186 0.317520529 0.354459226
0.198734999 0.274635971 0.277925402
0.208222702 0.285768390 0.289057791
0.253004402 0.312586993 0.313851982
0.324478388 0.340670258 0.348260522
0.471727014 0.413408965 0.411511362
0.223276287 0.440227836 0.374826252
0.247438297 0.446806103 0.391524523
0.301581234 0.466666967 0.406831414
0.393801272 0.497786403 0.434282243
0.562428474 0.580265641 0.513598800
0.422896743 0.711701453 0.594813168
0.450473964 0.721821427 0.599873483
0.507273972 0.734598160 0.609740615
0.602023840 0.751296282 0.640480578
0.724351764 0.787602603 0.698291957
0.163693875 0.155977130 0.329665005
0.184946418 0.167362422 0.329285532
0.227830693 0.192536280 0.332953811
0.291334867 0.232511118 0.350284398
0.419101715 0.294244140 0.415686131
0.174193710 0.203668281 0.330297410
0.192409873 0.213788569 0.331562400
0.229475245 0.235041112 0.345983237
0.299557418 0.264516115 0.368248016
0.435800165 0.328020096 0.437444925
0.187602580 0.299810290 0.371916533
0.204301283 0.307653129 0.373813957
0.250727266 0.325996250 0.392409801
0.324478269 0.353826404 0.417330831
0.486148030 0.414041787 0.490322679
0.217837006 0.458191127 0.466034114
0.240606993 0.464768946 0.471600413
0.305123538 0.485009551 0.488298386
0.419102132 0.532827377 0.524984121
0.581277728 0.588108838 0.590259135
0.420746267 0.716255605 0.647058547
0.438962698 0.725110650 0.649462283
0.498418868 0.737507761 0.660341918
0.599114776 0.759392560 0.691081583
0.732574224 0.795445561 0.739278555
0.081973217 0.200126827 0.570651412
0.138646483 0.208348945 0.567994595
0.245287389 0.233523235 0.576470137
0.372043103 0.273750961 0.587982297
0.518405557 0.336242795 0.615053594
0.085515350 0.252751678 0.574952245
0.142315179 0.254395813 0.577482283
0.245920405 0.276660383 0.580518782
0.374952644 0.311701417 0.596457899
0.525237143 0.367994934 0.628462791
0.074509837 0.351170391 0.600000024
0.135357484 0.356230080 0.594181001
0.253763795 0.374066949 0.609867215
0.393927634 0.407589793 0.626438916
0.556988955 0.462492228 0.660215020
0.207463413 0.544339001 0.658697248
0.237950698 0.540417433 0.662492156
0.315749526 0.542694509 0.664642751
0.448576927 0.563187778 0.684629917
0.622643769 0.612270594 0.714737535
0.453130543 0.748386562 0.748260438
0.469829112 0.747374713 0.749651730
0.524984241 0.756230414 0.761416554
0.624667764 0.781024396 0.783934116
0.766856253 0.826818585 0.826818585
