Assets/Resources/EldamarStudio/100 Horror LUTs Pack/LUTs/cube/Hiryur LUT.cube
LUT_3D_SIZE 8
DOMAIN_MIN 0.000000 0.000000 0.000000
DOMAIN_MAX 0.903226 0.903226 0.903226
0.184313998 0.125489995 0.137254998
0.181151003 0.122327998 0.134092003
0.196078002 0.137254998 0.149020001
0.215180352 0.149020001 0.154079646
0.241365984 0.167741999 0.169260189
0.272359252 0.189879730 0.192029998
0.327387571 0.224161997 0.214041710
0.414800614 0.268184811 0.257684976
0.180012539 0.134471551 0.140796542
0.181151003 0.134851098 0.134471551
0.194433987 0.146615997 0.146615997
0.217583537 0.163440540 0.162681639
0.242631435 0.179886445 0.179886445
0.275142103 0.204553992 0.196711004
0.327767015 0.237065449 0.222643793
0.411258489 0.281594098 0.269702524
0.188994095 0.175585002 0.163061097
0.192156911 0.180266008 0.166603461
0.207084104 0.181024984 0.167741999
0.219101638 0.199873090 0.182289541
0.244528890 0.215559900 0.192789182
0.279316813 0.235041082 0.215939254
0.337634355 0.266287118 0.244528905
0.427451044 0.313598931 0.281973571
0.192157000 0.226438984 0.195572644
0.190891549 0.238709643 0.199493647
0.206198901 0.237824440 0.204933643
0.220746353 0.248829633 0.208476007
0.249968201 0.260974199 0.223782629
0.288298488 0.286780477 0.243770003
0.345351279 0.318405926 0.267931998
0.450727612 0.367615610 0.314863980
0.196964011 0.301707804 0.235926807
0.204806909 0.303225994 0.248070747
0.215559900 0.305503100 0.240607098
0.237824336 0.313725561 0.249083191
0.267299175 0.329791397 0.263377786
0.314484715 0.351549655 0.284756541
0.384440362 0.386843771 0.315749496
0.488045573 0.442251831 0.354459018
0.215559989 0.395446002 0.291840732
0.221505255 0.401391715 0.297785997
0.235800087 0.404048085 0.297153741
0.264010102 0.413029730 0.312460393
0.302340180 0.429854453 0.325110465
0.350410730 0.452371716 0.346742719
0.426186025 0.481467277 0.372169703
0.539405346 0.538266778 0.430486888
0.269196570 0.545603514 0.388488293
0.273624539 0.540543795 0.384819537
0.296521276 0.548007369 0.396078467
0.330929548 0.557368815 0.407716572
0.374572933 0.567615569 0.421252549
0.441366464 0.585705280 0.441999018
0.507020533 0.608981550 0.467172563
0.602909327 0.647817791 0.525237262
0.425426573 0.706514716 0.549651742
0.437444568 0.714231610 0.542567730
0.455787569 0.718279421 0.552940845
0.490322411 0.728652775 0.559898973
0.529284954 0.736622572 0.575964332
0.591650367 0.748766303 0.603668332
0.652118742 0.765844584 0.626439035
0.714484513 0.779632747 0.653004408
0.183934450 0.126249000 0.138393551
0.183934450 0.126249000 0.138393551
0.196837097 0.141555548 0.143453091
0.216824636 0.154459104 0.164705917
0.236812189 0.174446642 0.179127350
0.270841449 0.200252935 0.200252935
0.321821272 0.228842571 0.229095533
0.413535774 0.273370981 0.268564254
0.181151003 0.141935095 0.145857006
0.184693441 0.139152542 0.139152557
0.197596192 0.151297003 0.158001453
0.210878998 0.169386089 0.172928452
0.236685991 0.188108996 0.187729448
0.275775194 0.209993795 0.212397009
0.327008009 0.240227550 0.235547259
0.417963505 0.280455410 0.274889052
0.189373538 0.175964549 0.164958641
0.195319012 0.183428004 0.171283647
0.200759098 0.188109010 0.174825996
0.217204094 0.200632185 0.187729448
0.244149342 0.213535726 0.202150285
0.275016099 0.237444893 0.218975440
0.332447648 0.269070357 0.249462545
0.426312506 0.310436308 0.295129567
0.187350005 0.229980648 0.197470009
0.194434002 0.232764006 0.209361091
0.205819458 0.237444997 0.208855346
0.223023638 0.248323992 0.221378639
0.251613081 0.265654981 0.230739743
0.287918836 0.287159741 0.251233548
0.354458839 0.321568727 0.280455589
0.451992154 0.368880272 0.322833568
0.201897547 0.296900809 0.239848092
0.208222553 0.302340388 0.240480900
0.214800805 0.303858399 0.249968201
0.237824365 0.314104974 0.259835660
0.270841360 0.331815630 0.276280850
0.312586993 0.350790560 0.288172096
0.381277472 0.387729466 0.318405747
0.489057392 0.443896174 0.369639367
0.212397009 0.399367452 0.304617375
0.220999092 0.398987919 0.304743797
0.238583356 0.406071812 0.308539212
0.264010102 0.413029730 0.318405837
0.302340180 0.426312536 0.331688732
0.352182448 0.446299464 0.348387003
0.427830726 0.481973737 0.379379839
0.541555822 0.538519800 0.432764173
0.269450039 0.543579817 0.397849321
0.279569805 0.542062044 0.401391745
0.300442368 0.549525559 0.407843083
0.335989892 0.561669946 0.414674371
0.384819448 0.571410537 0.429474920
0.443896294 0.591650665 0.454269111
0.514484107 0.618089795 0.484123826
0.610879183 0.656293333 0.529917955
0.433143556 0.710815907 0.560404658
0.437697858 0.718658864 0.548134089
0.456672996 0.721821308 0.562428832
0.492852509 0.726881802 0.572548509
0.534345210 0.739025772 0.583175123
0.589373589 0.745730460 0.604047894
0.648323655 0.764579296 0.632257879
0.715875566 0.782036841 0.664516091
0.177229896 0.138013899 0.170145184
0.181151092 0.137254998 0.170145184
0.193674996 0.142694190 0.171663180
0.217583537 0.158001363 0.187729448
0.235926807 0.177103192 0.198229194
0.269702911 0.206578359 0.223276466
0.320303470 0.241998792 0.249083087
0.405439615 0.279949814 0.286653996
0.184693456 0.149399459 0.168247536
0.186211452 0.149778903 0.171283633
0.193674996 0.158760458 0.178368449
0.214041904 0.171663180 0.187729448
0.237571195 0.193168655 0.206199005
0.273624003 0.220240086 0.222517177
0.326375544 0.251106828 0.257052481
0.417710066 0.293485433 0.295635611
0.179506987 0.185831994 0.184187084
0.189752996 0.190132558 0.186084628
0.205440000 0.192789197 0.195952088
0.217962995 0.205312997 0.202150181
0.239848197 0.224920884 0.220999077
0.279064089 0.242884085 0.245288000
0.332194984 0.274256974 0.270335197
0.426565617 0.320303559 0.310942084
0.200506359 0.234281987 0.223023638
0.193675011 0.240607098 0.223023549
0.211258546 0.250347644 0.230739728
0.225806281 0.253510654 0.236306444
0.249209374 0.269955814 0.245667636
0.291081667 0.290954858 0.269449890
0.352055609 0.324604750 0.298418999
0.450348049 0.371157199 0.343706369
0.199240908 0.310310096 0.264136881
0.203288734 0.309044719 0.266160607
0.218721986 0.316508174 0.271220803
0.237444997 0.321947992 0.275395542
0.264895976 0.334472090 0.287539184
0.312460452 0.359519362 0.309044838
0.384440362 0.391524464 0.338267177
0.491207898 0.446679205 0.385072738
0.218342632 0.404048085 0.321948081
0.225680187 0.406071901 0.321189165
0.246046901 0.410373360 0.329791099
0.270335168 0.417836726 0.334092438
0.300696075 0.431499094 0.345351011
0.352308452 0.451486617 0.363820732
0.429728270 0.486274272 0.400885284
0.541176379 0.541429400 0.456040621
0.267805278 0.543200612 0.404554278
0.278558075 0.543326616 0.413282752
0.304364294 0.554206491 0.419481367
0.336875200 0.560531259 0.430234104
0.379253626 0.570651531 0.444655269
0.443264008 0.587476194 0.464895546
0.512460589 0.613788605 0.490575433
0.609108329 0.651739061 0.544591963
0.430992931 0.711827576 0.566856444
0.440101177 0.717393994 0.558254182
0.456672817 0.723086834 0.571536899
0.489310354 0.727893651 0.578621089
0.530297160 0.738646328 0.593295634
0.585072637 0.750031531 0.613156259
0.650600731 0.764579415 0.639721751
0.716002524 0.782542408 0.666919470
0.172548994 0.142314643 0.196711004
0.185957998 0.145098001 0.203415647
0.200379550 0.147375003 0.202529728
0.212903351 0.160278350 0.210120007
0.234788448 0.182668999 0.221884996
0.269576102 0.205312997 0.244528905
0.319544286 0.237697631 0.274130285
0.411005408 0.282353014 0.313345790
0.177988991 0.153320640 0.203795001
0.185072899 0.161163658 0.200759009
0.194434002 0.164579108 0.208475992
0.214800894 0.176723644 0.213156104
0.237950638 0.195951998 0.228462830
0.268817186 0.218595803 0.247944534
0.328146279 0.253510654 0.285641938
0.418216258 0.298418880 0.325237006
0.190639004 0.190891743 0.216318995
0.186590895 0.193548098 0.215053633
0.205819458 0.196331546 0.224541441
0.217962995 0.212017640 0.232384637
0.237065345 0.229980826 0.248829737
0.278178483 0.251612991 0.269576073
0.339279085 0.281214267 0.301960558
0.424667984 0.326628566 0.339152187
0.192157000 0.243770003 0.243770003
0.196457550 0.242504746 0.239722088
0.207463548 0.253510565 0.256293207
0.229221642 0.264010251 0.271853268
0.253890216 0.278937191 0.281593651
0.293105900 0.303984851 0.299683660
0.355471283 0.334092319 0.326755017
0.453510255 0.379885972 0.370398283
0.208729014 0.311448544 0.278937370
0.203288749 0.314484626 0.293738097
0.223529190 0.322327644 0.298165530
0.242631346 0.334092617 0.310689658
0.273877621 0.346236169 0.320429981
0.318785459 0.364579439 0.335357189
0.387349546 0.397849470 0.369259745
0.495888591 0.449209154 0.416445345
0.222517371 0.408349097 0.348260641
0.227703825 0.412397087 0.350158095
0.244528905 0.418975264 0.358001173
0.265907645 0.425933093 0.361037254
0.310942382 0.439342260 0.377482474
0.362428486 0.457305372 0.396331459
0.435673743 0.492473185 0.423908919
0.542820990 0.548513591 0.481087744
0.280455619 0.547248244 0.437950939
0.284124076 0.553194106 0.438456565
0.304743916 0.558254361 0.448197097
0.338772833 0.567488551 0.455913931
0.384566903 0.576976478 0.470461726
0.447564840 0.595825315 0.491966814
0.520430267 0.620113850 0.518658936
0.616698205 0.662492275 0.569259644
0.427450746 0.714357734 0.583428204
0.435167849 0.720303297 0.577608705
0.457937837 0.721694887 0.587729394
0.489689708 0.730044425 0.596710742
0.534851313 0.736622274 0.610120118
0.583554566 0.747627676 0.624667645
0.646173060 0.765717804 0.648956418
0.720682681 0.786464155 0.682226539
0.174952805 0.146616191 0.244402379
0.175711811 0.146236643 0.243643284
0.191271186 0.154459000 0.245920375
0.216065645 0.169765636 0.251992643
0.238329992 0.188867792 0.262492180
0.267678738 0.215053543 0.280581981
0.320303261 0.248450086 0.306261986
0.413661957 0.289436817 0.355471164
0.172801822 0.165844560 0.240986750
0.183807537 0.167235836 0.246426642
0.199240908 0.175585181 0.249588743
0.214041919 0.187729448 0.253131092
0.242252007 0.199873403 0.264136791
0.270335108 0.224541545 0.282859176
0.326628298 0.257431924 0.314484566
0.421125621 0.299177796 0.362807989
0.197722912 0.198355094 0.261859983
0.193042099 0.206957906 0.258697093
0.197596192 0.207716897 0.263251066
0.217583641 0.219860628 0.268437624
0.239847988 0.233522981 0.278937280
0.274762571 0.253510445 0.300189883
0.332068294 0.288298488 0.332194984
0.432005018 0.324983984 0.380138993
0.196963817 0.246805981 0.281341165
0.192030191 0.252751648 0.277292967
0.203795090 0.259329289 0.285136104
0.227703840 0.273877442 0.295635819
0.254649013 0.284376979 0.314610630
0.294117719 0.303985089 0.327008039
0.357874542 0.334472090 0.355091840
0.464136600 0.376597166 0.407716602
0.198481813 0.315623164 0.318026364
0.207716793 0.322074175 0.327134520
0.217963085 0.329791397 0.334472060
0.241745636 0.342694640 0.343832999
0.284503371 0.364199966 0.364199996
0.324224979 0.382669121 0.374699622
0.400759161 0.408855379 0.408728659
0.499304324 0.456926018 0.447944373
0.222137734 0.411638021 0.376217723
0.230487078 0.416951001 0.385705024
0.241366088 0.424035639 0.387602568
0.272612184 0.437824368 0.401391536
0.318405896 0.453510463 0.420493364
0.365970731 0.473750472 0.432004720
0.443390280 0.504617274 0.463504463
0.549398839 0.554206252 0.509550750
0.273118168 0.555091798 0.473750561
0.285388827 0.553067863 0.479569972
0.304490954 0.562934637 0.479822755
0.339911222 0.569512904 0.490828633
0.391144544 0.587096632 0.505755544
0.450600743 0.601264775 0.524857879
0.521695018 0.623023450 0.546995461
0.622517169 0.668184996 0.597216845
0.423276395 0.717899561 0.602023780
0.429601222 0.719164968 0.601517975
0.447438300 0.723845780 0.607336879
0.483617753 0.729285240 0.616571784
0.529538274 0.738646448 0.628842413
0.584440112 0.750157654 0.644275665
0.650094688 0.767741859 0.667552054
0.726881742 0.787982404 0.698798239
0.166729748 0.152941003 0.305376470
0.171410352 0.159519270 0.306261986
0.191777259 0.167362347 0.310562819
0.211385354 0.180645257 0.309424460
0.241745532 0.198987991 0.321188986
0.278178483 0.221378729 0.331056237
0.327008009 0.251866013 0.355850726
0.419860780 0.292220056 0.401264817
0.169892550 0.175078735 0.306261986
0.176850453 0.175964728 0.307906300
0.195825264 0.185705096 0.309044898
0.215180352 0.201391384 0.314864099
0.243010893 0.215053529 0.319923848
0.281087756 0.237824246 0.333206922
0.326122731 0.259203285 0.359645814
0.426818341 0.301454991 0.412397534
0.184060737 0.214800999 0.317646831
0.187476009 0.217457354 0.318785459
0.202024266 0.219355077 0.317900091
0.219607800 0.230739921 0.321948111
0.248576909 0.246805891 0.333712995
0.284377098 0.264769107 0.349272400
0.338772833 0.289943010 0.367995083
0.437824041 0.331562102 0.425047457
0.184819743 0.266666740 0.338772744
0.194054261 0.270335376 0.334345371
0.207337454 0.275015980 0.344718367
0.224161997 0.281214297 0.347374737
0.259456009 0.294497192 0.364705741
0.296900868 0.312080711 0.375079095
0.355850846 0.342694432 0.401644468
0.468817294 0.383681238 0.460468084
0.191650540 0.334851444 0.372042984
0.203921914 0.336748958 0.373434454
0.214041904 0.343074083 0.379000545
0.241745636 0.353320360 0.388361573
0.274636626 0.370525181 0.401264906
0.322200716 0.386970192 0.419861168
0.398861706 0.411132276 0.451739252
0.508285940 0.456166714 0.496647567
0.209740743 0.424794704 0.430613458
0.213283002 0.422390908 0.427197903
0.241366088 0.434661448 0.437697560
0.270967990 0.444781452 0.442757726
0.324098676 0.460847914 0.467046201
0.383681476 0.491334707 0.489563465
0.461353987 0.518026471 0.516761303
0.562808454 0.554459333 0.560151637
0.274636298 0.557115972 0.513219535
0.273118377 0.558633745 0.518279314
0.300948858 0.566603303 0.525110602
0.336748898 0.575838149 0.534345210
0.394813210 0.596963823 0.550790906
0.465149015 0.617077887 0.574699581
0.536875248 0.638077259 0.594180822
0.638203442 0.679569900 0.636559427
0.424288422 0.713219583 0.638203442
0.431119114 0.719923913 0.636812210
0.447564840 0.724098504 0.641619146
0.481340915 0.733206868 0.649082720
0.525110304 0.745730221 0.657178819
0.585958064 0.754838586 0.679443538
0.653637111 0.773940146 0.699430704
0.728526115 0.794939816 0.729917765
0.151676014 0.174826279 0.411005557
0.162175760 0.177482545 0.407463551
0.185958087 0.184060797 0.409361273
0.215812638 0.200126648 0.413282543
0.252245188 0.220113888 0.418848544
0.305502981 0.239721999 0.427956790
0.360025585 0.266287297 0.443010569
0.429854453 0.299177706 0.469702929
0.155344903 0.195825294 0.399367571
0.166476712 0.193927556 0.399494022
0.183934256 0.202656552 0.407969564
0.213156283 0.216698349 0.414168358
0.255913913 0.231878564 0.419987291
0.308032751 0.255787432 0.436812282
0.364452541 0.280455589 0.447944105
0.435041308 0.310436517 0.478684366
0.164073005 0.231246099 0.414800823
0.176091149 0.235547453 0.412397265
0.187476084 0.246932283 0.415053666
0.221125901 0.249462426 0.420366555
0.260847449 0.267931998 0.430613369
0.308539093 0.283111870 0.441998810
0.366223663 0.309297770 0.461859435
0.443769753 0.339405537 0.485262454
0.159013361 0.289816290 0.428969264
0.173434615 0.291840732 0.427703798
0.194433793 0.296015263 0.434787989
0.228589356 0.302719653 0.441239923
0.265907526 0.318911999 0.449335545
0.324098289 0.335610330 0.466033995
0.389247209 0.355976939 0.485009640
0.478937417 0.388488472 0.519418061
0.173940271 0.360278159 0.464136750
0.183301568 0.365085393 0.466793180
0.204680905 0.368880272 0.468943536
0.234788269 0.371284097 0.469829381
0.281973273 0.381404340 0.484630167
0.345857143 0.402530104 0.508159280
0.419228375 0.425173998 0.522833407
0.510563016 0.461100727 0.563187897
0.201011732 0.455281407 0.510562718
0.210878983 0.460341662 0.515749454
0.238203794 0.463124901 0.520683169
0.269449800 0.470208913 0.525869787
0.320936173 0.481846988 0.537001729
0.383554459 0.498039484 0.555218458
0.463757277 0.523845732 0.576344252
0.571157396 0.562428951 0.615559936
0.277039975 0.575964808 0.581530571
0.282858551 0.571916401 0.577862084
0.307273567 0.580012679 0.584693432
0.348386884 0.589879870 0.597722948
0.397216737 0.604427576 0.609234750
0.475648254 0.629474819 0.630993009
0.562555552 0.659962118 0.658317804
0.660721064 0.686274350 0.692220330
0.420240402 0.720935583 0.688551486
0.428968847 0.722200871 0.679949164
0.446299881 0.726122856 0.686274171
0.477672577 0.734345436 0.692473054
0.524351418 0.750916839 0.701201975
0.586716831 0.765085578 0.721821666
0.657052815 0.783807874 0.735989869
0.749272704 0.806451619 0.768374324
0.081973217 0.200126827 0.570651412
0.105756044 0.202150673 0.570651412
0.151296303 0.211891145 0.568753660
0.210752994 0.224794462 0.575837553
0.274383307 0.243516773 0.579759598
0.352055550 0.266666830 0.585705340
0.430613101 0.295888364 0.598102391
0.518405557 0.336242795 0.615053594
0.089310467 0.219228074 0.564705729
0.106767774 0.215686530 0.566097438
0.152688280 0.228083372 0.571916580
0.211132541 0.240101546 0.579380035
0.281087995 0.259329468 0.587729394
0.359519094 0.285009563 0.599367559
0.433269918 0.312080830 0.609487772
0.529791117 0.349146247 0.627450705
0.087033570 0.263124645 0.577988625
0.106515050 0.266160458 0.577482283
0.156483144 0.266034335 0.580012381
0.215180352 0.277545631 0.580518663
0.280961305 0.296394795 0.584060669
0.358001292 0.317014456 0.600758731
0.441619277 0.348007530 0.615180612
0.526755333 0.378620982 0.632763803
0.076281063 0.314357609 0.581024706
0.107527062 0.318785191 0.587982178
0.152941018 0.326755285 0.590006351
0.220113799 0.336369425 0.596837163
0.291208357 0.351170093 0.603668153
0.371030986 0.373813719 0.617077827
0.452751070 0.401391447 0.630486965
0.551169932 0.430107772 0.650600910
0.094876766 0.402277350 0.606704831
0.116382122 0.402909607 0.605692446
0.151549548 0.400759161 0.609993637
0.215686202 0.406072021 0.613535821
0.297406822 0.418595999 0.623655558
0.382542551 0.443137258 0.638330042
0.473624259 0.466540366 0.652751386
0.571030557 0.497406781 0.667678595
0.179632828 0.514484286 0.644275665
0.191524640 0.513092697 0.647691131
0.223782569 0.511068642 0.650347650
0.265275270 0.512080789 0.649335861
0.329538077 0.514610767 0.653763652
0.410373181 0.530297279 0.672738671
0.510436118 0.556103826 0.686148047
0.606704414 0.583934486 0.699557245
0.307779521 0.633143783 0.696015298
0.324351817 0.632764220 0.702593148
0.341682196 0.632890463 0.698039055
0.377988279 0.642251968 0.706514835
0.428210288 0.645540893 0.709677279
0.493105352 0.654901743 0.721442103
0.575458646 0.672359347 0.733333051
0.675648272 0.702340245 0.754458845
0.453130543 0.748386562 0.748260438
0.458064258 0.748386562 0.749905109
0.472359300 0.750410795 0.749145627
0.506135166 0.754965425 0.761290193
0.543706357 0.761669755 0.767741919
0.603668511 0.779000461 0.777102768
0.679949343 0.794686615 0.800252795
0.766856253 0.826818585 0.826818585
