Assets/Resources/EldamarStudio/100 Horror LUTs Pack/LUTs/cube/Ikezan LUT.cube
LUT_3D_SIZE 8
DOMAIN_MIN 0.000000 0.000000 0.000000
DOMAIN_MAX 0.903226 0.903226 0.903226
0.003922000 0.031373002 0.101961002
0.033650000 0.036052998 0.106261544
0.109677091 0.055661097 0.123086996
0.188361645 0.076787002 0.135609999
0.263124377 0.108032994 0.165338188
0.358254224 0.142947733 0.195825472
0.500189841 0.179380283 0.230360284
0.684503555 0.218468979 0.272106111
0.012523999 0.080328546 0.111321993
0.053257093 0.080708101 0.119164996
0.121442094 0.096774444 0.141555548
0.188361645 0.115622640 0.153700098
0.271853387 0.137887090 0.179127350
0.373561174 0.167235747 0.209234804
0.500189841 0.208349288 0.233902544
0.685894966 0.242883876 0.278557837
0.067299187 0.150411099 0.164706007
0.097912997 0.158633649 0.165844455
0.141809002 0.162176087 0.171663180
0.207210630 0.171537012 0.181404337
0.283491284 0.192662895 0.202150196
0.386717469 0.224035189 0.225553364
0.525110722 0.258444279 0.259329289
0.710689604 0.298292071 0.302972883
0.125616640 0.230360284 0.200632289
0.145604074 0.235420644 0.195445642
0.188361630 0.241240084 0.209614441
0.245540649 0.248324007 0.220240280
0.324984193 0.267173082 0.233902633
0.420999378 0.292473108 0.255028635
0.562428951 0.324098587 0.280834943
0.740670204 0.372549057 0.328526109
0.206704184 0.329791397 0.251613200
0.234282196 0.337508172 0.267425805
0.254396170 0.336748987 0.254649192
0.313472807 0.344592005 0.262492180
0.391397566 0.359392375 0.278178185
0.483364940 0.386084676 0.294623792
0.624667943 0.421252400 0.325110465
0.786590755 0.473118007 0.377356380
0.326755226 0.461986452 0.309551001
0.340923548 0.470082164 0.311701238
0.370145559 0.473244727 0.312966734
0.425679743 0.481973737 0.327513993
0.500063181 0.494370729 0.336495906
0.588994205 0.508918464 0.352308452
0.709297538 0.539911270 0.392283440
0.841366529 0.599620402 0.452877700
0.485135853 0.635800600 0.406451553
0.492220074 0.643263996 0.403415591
0.528146744 0.641113400 0.414927542
0.579885840 0.650980175 0.423908919
0.634787858 0.658443928 0.437571377
0.707020760 0.672738850 0.462112993
0.791018248 0.685768247 0.490701973
0.884503543 0.728146553 0.545097768
0.705249548 0.824161768 0.583554745
0.715749383 0.826818585 0.595951736
0.722580612 0.830107450 0.596963584
0.758380771 0.837191582 0.609740615
0.796204567 0.844149590 0.626818597
0.838077426 0.856672645 0.641113400
0.894876480 0.865528166 0.671979547
0.948133945 0.877672434 0.697533429
0.000000000 0.039974999 0.119923994
0.029348547 0.036432546 0.123466447
0.108918093 0.060721450 0.146615997
0.178241640 0.093611643 0.167742014
0.256166995 0.121821538 0.188488543
0.353953183 0.160530984 0.222390741
0.482732534 0.187223285 0.245793730
0.671347260 0.229222119 0.289816648
0.021505548 0.070082538 0.126122996
0.054395642 0.081467092 0.151297003
0.111954086 0.101834089 0.157115638
0.176976293 0.118279278 0.175585091
0.257685065 0.147375003 0.197975546
0.360657901 0.173434541 0.220999092
0.485135853 0.209614471 0.251360267
0.672359288 0.249335796 0.287033528
0.071600541 0.146868750 0.173181191
0.092346989 0.157495096 0.180771545
0.138646185 0.155092090 0.186590999
0.194940090 0.172296107 0.194307283
0.282732189 0.195066288 0.220240280
0.379253834 0.223276198 0.238203809
0.513345659 0.259962082 0.271094292
0.702972412 0.297912598 0.304870516
0.131056532 0.230613723 0.216192275
0.149904728 0.230234176 0.218975544
0.180771366 0.237697721 0.221758187
0.240733728 0.246679276 0.229980648
0.316255361 0.265148640 0.245667428
0.417583913 0.289816380 0.267298996
0.555597425 0.326122820 0.292473018
0.730044067 0.372296095 0.339405537
0.217330635 0.332194984 0.255534381
0.222011745 0.330423564 0.265781194
0.257558376 0.339152187 0.273118526
0.312460393 0.345351100 0.277798831
0.381277561 0.353573740 0.284756601
0.479822546 0.379000574 0.306388259
0.622770190 0.421252489 0.335610449
0.783048570 0.475015551 0.386337996
0.320429832 0.459582478 0.318659067
0.336116195 0.459203035 0.317646921
0.367741585 0.466919899 0.325489819
0.420620024 0.474383265 0.332447827
0.495002925 0.487412840 0.345730722
0.583807528 0.499810189 0.361669451
0.703352213 0.541428983 0.392156780
0.836812258 0.600759268 0.460215122
0.480455548 0.631119311 0.413409293
0.497532785 0.636432528 0.415686548
0.524225354 0.636053324 0.415559828
0.573940516 0.642251909 0.428083569
0.630866766 0.653763413 0.443769634
0.705629110 0.667552114 0.462492436
0.787602842 0.682352901 0.495762110
0.878937483 0.720176876 0.546615779
0.697533429 0.816065848 0.582921982
0.702846587 0.823023558 0.581404388
0.718785465 0.822011173 0.592789173
0.750790596 0.827577591 0.603162348
0.793295324 0.837950587 0.619481444
0.836053193 0.846679330 0.646046937
0.889563501 0.859455824 0.672359109
0.939911127 0.873498023 0.699810088
0.000000000 0.044654999 0.172422096
0.034408998 0.052498095 0.177609444
0.104997002 0.068184994 0.182669088
0.175837740 0.099936649 0.196711093
0.253763199 0.133206904 0.220999077
0.350664288 0.166097194 0.247565091
0.480455369 0.199747190 0.278937280
0.671220720 0.232890800 0.318026662
0.030866545 0.089310996 0.173181087
0.068564445 0.092852540 0.179506987
0.117520191 0.108159088 0.191650644
0.182922557 0.128146544 0.206578359
0.264769107 0.153953359 0.228462830
0.356609911 0.190512195 0.257558554
0.491207808 0.219354793 0.282479554
0.675395489 0.251992255 0.323213100
0.080708101 0.154333100 0.200632185
0.101834096 0.168121547 0.208475992
0.155091986 0.180265903 0.220240176
0.211132541 0.186084643 0.231246084
0.282732368 0.209234893 0.249209180
0.383301735 0.231878459 0.268817097
0.522833467 0.259962082 0.297786385
0.702719569 0.305376172 0.342061967
0.144085988 0.237697631 0.249715537
0.166097298 0.245667547 0.241745621
0.203288734 0.248703629 0.253131092
0.253383636 0.256546557 0.260214984
0.326122731 0.273750603 0.272612274
0.421884775 0.298798561 0.290702194
0.559899032 0.334092349 0.322707385
0.734977663 0.378874272 0.365591466
0.229475081 0.336875290 0.292473108
0.238330007 0.339531809 0.289943010
0.273371369 0.346236259 0.293864995
0.322200924 0.350158095 0.296141803
0.387602478 0.358760357 0.307906270
0.487286806 0.383681267 0.329791278
0.632510900 0.425173998 0.360278189
0.782416046 0.478684098 0.416445225
0.335483819 0.470335186 0.351170093
0.353700191 0.470588267 0.348260641
0.381151468 0.477292836 0.347374827
0.441113234 0.478810906 0.363567173
0.506388426 0.494497120 0.372548819
0.589373767 0.510183632 0.387223214
0.707273722 0.543706238 0.423908979
0.840860248 0.606072247 0.483997643
0.499177545 0.635800600 0.437697470
0.510183275 0.639721751 0.438203752
0.539911568 0.641998649 0.454902083
0.584693491 0.649968505 0.456799716
0.643516481 0.655281663 0.466413647
0.716508508 0.671474040 0.492979378
0.789626777 0.690575421 0.518153191
0.883238316 0.725743532 0.570398211
0.706261575 0.825300574 0.594813466
0.713092625 0.827830493 0.604301095
0.729917765 0.827956617 0.606577694
0.761037350 0.836938739 0.623402953
0.799240887 0.841872513 0.636811912
0.843516529 0.850600660 0.657178819
0.895129502 0.865022123 0.681973159
0.942062080 0.877166450 0.710562527
0.002276998 0.059962351 0.233143643
0.048829637 0.065401547 0.227577627
0.117394090 0.080708288 0.230360284
0.173813999 0.102592997 0.234788343
0.259202987 0.132321194 0.256926000
0.356356472 0.168374479 0.282099992
0.485641927 0.201770931 0.316128641
0.681214213 0.236811802 0.361796468
0.047058903 0.109677091 0.227197975
0.075395532 0.109677091 0.223150089
0.124478087 0.121062540 0.233523101
0.177988648 0.131941542 0.241619632
0.263124406 0.162175894 0.264895797
0.356230378 0.188741088 0.289943099
0.498545349 0.222517282 0.322327524
0.682479501 0.255154639 0.366603196
0.094750099 0.167615205 0.252372086
0.117394090 0.175078735 0.256293207
0.156989455 0.176976278 0.252624720
0.210878834 0.191145003 0.266793460
0.288045377 0.211511999 0.283238620
0.389879555 0.234914362 0.303478748
0.530423522 0.272612274 0.336748987
0.705249667 0.307779968 0.380265921
0.147501633 0.237697631 0.263503909
0.171030849 0.239215747 0.275395632
0.218469173 0.257305652 0.296142101
0.273624629 0.272486001 0.300442636
0.339278817 0.281087995 0.315243632
0.429980993 0.305123508 0.328526020
0.572042823 0.335863262 0.361669570
0.735610545 0.384060830 0.405186623
0.229348168 0.342315197 0.328399986
0.253004283 0.346110195 0.330676973
0.285388917 0.350031346 0.331056446
0.335357219 0.355850726 0.335230976
0.400632381 0.370777816 0.341935635
0.499809921 0.391144931 0.366603285
0.635294020 0.429475129 0.400632620
0.791904032 0.484503150 0.454902172
0.348513633 0.470588475 0.384819716
0.359645724 0.473244786 0.379759550
0.394813120 0.476407081 0.392789423
0.441745996 0.485009640 0.395572364
0.517647028 0.497659743 0.408728570
0.599493921 0.515243471 0.428842604
0.714484274 0.550031722 0.457179397
0.839215755 0.610626340 0.516381860
0.507147193 0.633649468 0.476027548
0.516761482 0.638836503 0.474636286
0.543453276 0.641113341 0.477925301
0.587729573 0.647058904 0.487286627
0.643769920 0.656040549 0.504111290
0.716887891 0.666287363 0.521442354
0.793801188 0.686907232 0.543326795
0.888804734 0.730929911 0.594307303
0.709171593 0.821505547 0.622770429
0.713851810 0.822137833 0.627703965
0.730044246 0.826438725 0.629095614
0.759139597 0.831625521 0.639721394
0.796078384 0.838582993 0.656420112
0.844149292 0.849335909 0.674509823
0.892093837 0.862618446 0.698924601
0.941555738 0.882605612 0.729538381
0.028083190 0.074510001 0.296267986
0.066413991 0.084250644 0.292346984
0.136243090 0.099556997 0.298545092
0.201265186 0.121062644 0.300189972
0.272486150 0.144845188 0.307147354
0.365844011 0.174319729 0.326248914
0.500822246 0.206957817 0.361037463
0.698924780 0.239342138 0.415812641
0.079949096 0.117899738 0.292979181
0.097912893 0.128020346 0.297533423
0.148007274 0.137507632 0.296141803
0.213535547 0.154079556 0.298671991
0.275268793 0.164958552 0.304870069
0.372802049 0.194181189 0.327766925
0.508412123 0.226565287 0.370145530
0.689816415 0.261227012 0.416445434
0.124478281 0.183301896 0.303099275
0.142314658 0.193168730 0.301960826
0.177735373 0.192789197 0.307274103
0.233775914 0.205692545 0.311828077
0.301581293 0.218596101 0.325996101
0.398861736 0.242504731 0.349399179
0.540796757 0.272486001 0.385199279
0.721568465 0.314357817 0.441113085
0.170271724 0.258570164 0.323592186
0.195825279 0.263630748 0.331815630
0.228968814 0.270714641 0.334598184
0.287413061 0.282352835 0.343579799
0.353826463 0.293738276 0.358507633
0.451612741 0.316382080 0.381783813
0.591650844 0.344971538 0.415812552
0.752181947 0.390891910 0.457179159
0.248956189 0.349399000 0.359392375
0.267552316 0.353320390 0.368753761
0.299936980 0.360278368 0.372802079
0.366729796 0.378747851 0.393548548
0.446299553 0.397090167 0.411258340
0.536748886 0.411637932 0.427324414
0.653004766 0.439342380 0.456672877
0.802529752 0.488425165 0.506262004
0.357748270 0.478051901 0.427830279
0.378494710 0.482732654 0.433522940
0.416571558 0.489057720 0.435167849
0.471726716 0.501960635 0.452371925
0.533965468 0.512586892 0.464389652
0.619608104 0.529791236 0.480581909
0.729285240 0.564579487 0.512460530
0.847058952 0.614674568 0.565338433
0.528273463 0.638203740 0.522327542
0.536116481 0.643390298 0.522707045
0.561290324 0.648450375 0.531056345
0.601644218 0.656672835 0.536495566
0.656925976 0.666413605 0.546616077
0.726628780 0.675142527 0.566097498
0.800505519 0.699177504 0.588741362
0.890828311 0.742188215 0.636432827
0.714610755 0.822517395 0.660341620
0.719544291 0.827703893 0.658696949
0.730550289 0.829474688 0.655028462
0.765591204 0.832637429 0.672106445
0.801517963 0.841239810 0.685894608
0.841998637 0.852118671 0.700189769
0.896900475 0.864769101 0.726881981
0.941176653 0.880328596 0.749398828
0.079949729 0.103731737 0.373813719
0.115369923 0.111574732 0.373940706
0.175205484 0.121821634 0.378368109
0.239848018 0.137381539 0.374699622
0.316129148 0.163819999 0.383427918
0.399114490 0.185958251 0.395445973
0.521568954 0.214547694 0.426185727
0.709930480 0.244655117 0.482732713
0.102213979 0.144845188 0.365464658
0.136749178 0.149272740 0.367236167
0.181909934 0.155092001 0.376343936
0.245667368 0.170398653 0.376217723
0.322454393 0.184440538 0.384187013
0.401897758 0.206324726 0.393928170
0.524351776 0.227830380 0.425806522
0.711068809 0.264136523 0.488424838
0.155344725 0.211512089 0.384440392
0.180391923 0.208349288 0.391777366
0.209740460 0.214168444 0.377356172
0.274383545 0.225173622 0.389247477
0.344844937 0.237318173 0.399873644
0.430740118 0.253004402 0.410246551
0.552434981 0.279316723 0.444402218
0.740417600 0.318152815 0.508032501
0.207210645 0.283364981 0.398735106
0.217204541 0.285388738 0.398987800
0.257432073 0.290195823 0.405186832
0.313852161 0.297153741 0.409740478
0.389374018 0.307779878 0.419987202
0.474510014 0.322580487 0.436432600
0.604174435 0.349905074 0.470335454
0.764199734 0.403036147 0.528399408
0.269196630 0.373054922 0.436432898
0.289563447 0.376597375 0.435040832
0.324477822 0.385325551 0.448703468
0.383933902 0.391524374 0.453004628
0.468184382 0.408349097 0.475015938
0.558507085 0.423276424 0.486401170
0.674003720 0.453763634 0.514863789
0.811385334 0.504111230 0.563440979
0.379380465 0.487412691 0.481467456
0.397343427 0.487666279 0.488804936
0.432890564 0.495888799 0.501201451
0.485515088 0.512839973 0.508918464
0.566224098 0.533586204 0.533586264
0.659456193 0.560025454 0.558001220
0.755091548 0.580265462 0.580392540
0.861606598 0.625553429 0.623655677
0.535736799 0.644402504 0.575458765
0.544591844 0.645920277 0.570651412
0.574193180 0.650474370 0.579380393
0.617204189 0.660720944 0.588741243
0.678557873 0.676786840 0.609993517
0.742946982 0.687792301 0.618090034
0.811891079 0.708918273 0.644149303
0.900822401 0.755344689 0.687286496
0.716887772 0.827197790 0.697153628
0.726881742 0.826438785 0.700189650
0.735989690 0.831245840 0.704237878
0.763567388 0.836305976 0.712333620
0.798861325 0.845034778 0.721821725
0.842125416 0.855154634 0.735483706
0.895256102 0.869449854 0.764073431
0.939531744 0.888045609 0.779759526
0.157115266 0.133965999 0.510309577
0.185704827 0.139911249 0.504490793
0.243390277 0.144971281 0.504870355
0.316382200 0.158633649 0.507526875
0.405186653 0.179380089 0.514231563
0.496647537 0.199873477 0.518152952
0.605692565 0.218595713 0.531562269
0.732700348 0.257305533 0.562934637
0.166476980 0.167615086 0.494244009
0.191397533 0.169892281 0.499557287
0.242378548 0.181024790 0.500062883
0.324351728 0.188741282 0.507400572
0.405692935 0.202529833 0.513725519
0.500695527 0.221758083 0.521821499
0.611385286 0.243516788 0.535989821
0.734851420 0.277799129 0.559266329
0.193295270 0.233396649 0.505629301
0.210119829 0.241745830 0.509677529
0.261227071 0.241999000 0.511068642
0.336748719 0.249462545 0.514231265
0.428842604 0.261606544 0.521315455
0.523972094 0.274889082 0.531562388
0.625806808 0.296774268 0.548639894
0.754206240 0.332700729 0.582036912
0.233902559 0.315622985 0.524857879
0.258444190 0.317520440 0.524478257
0.300189912 0.320682943 0.525616705
0.370651603 0.327387542 0.528779149
0.456672817 0.338393360 0.540543914
0.548893154 0.349525720 0.546362936
0.656672776 0.372295916 0.568627179
0.782416284 0.412523657 0.598987758
0.317520559 0.415812731 0.544085741
0.341303080 0.418595731 0.555597842
0.370145440 0.423655987 0.553320527
0.428589821 0.425300270 0.556736171
0.511827707 0.431499362 0.566856503
0.607716680 0.447817475 0.588994384
0.702972770 0.466540188 0.596710861
0.823276103 0.513219297 0.638203561
0.430360734 0.535230756 0.595066547
0.446679324 0.536875010 0.602530003
0.475901395 0.541935384 0.602150381
0.530929685 0.544591904 0.609740973
0.603668690 0.556736350 0.619860768
0.680961251 0.572422504 0.633903027
0.770777524 0.596331000 0.657432020
0.869576216 0.636812270 0.685768306
0.554079533 0.660974264 0.647564530
0.567615271 0.659582555 0.641366303
0.589373767 0.665654719 0.643769622
0.631878495 0.673877180 0.657052279
0.684503436 0.689184010 0.671094537
0.758507431 0.709550560 0.695129693
0.834155858 0.736116290 0.718153000
0.908791661 0.765591085 0.745224476
0.726375520 0.827703834 0.755850554
0.734471679 0.832510710 0.752308786
0.744844794 0.832131326 0.753826678
0.769006789 0.838709831 0.764199853
0.805060089 0.849082768 0.775585055
0.848450422 0.862492025 0.787223518
0.894370794 0.868564606 0.802276790
0.942820966 0.886780620 0.821631849
0.236938626 0.170145810 0.697406590
0.269449502 0.171790108 0.694749713
0.329538077 0.182668895 0.688930631
0.409614235 0.190638825 0.698924780
0.511954188 0.209740654 0.700189948
0.614800692 0.235420629 0.703984737
0.726755083 0.269449800 0.711068749
0.842631400 0.314231634 0.723592401
0.244402081 0.209993497 0.684250116
0.269322872 0.207337365 0.691840291
0.329411417 0.215180352 0.690954566
0.414927244 0.224541366 0.693990886
0.510562778 0.243769720 0.700063109
0.618722379 0.266286910 0.704111218
0.727134645 0.295509338 0.712207317
0.839595139 0.338013798 0.723592401
0.257432044 0.274763077 0.697659433
0.287033647 0.278684080 0.694497108
0.346742749 0.280961156 0.699430823
0.431119740 0.292852551 0.700442791
0.529032290 0.303984910 0.702087462
0.633396506 0.323086560 0.713092566
0.740417242 0.354332536 0.719291270
0.847185433 0.391144693 0.732700527
0.301581442 0.363567084 0.700442612
0.326122463 0.368374437 0.701960683
0.380391955 0.372549057 0.707147062
0.464136451 0.379000783 0.708918571
0.553067565 0.393548429 0.713725567
0.652878046 0.407969773 0.720430195
0.759013057 0.434661597 0.726628542
0.854269207 0.468437642 0.738140404
0.392030180 0.477925003 0.718658566
0.416572005 0.475901335 0.720556319
0.447058976 0.477039993 0.720176697
0.512333572 0.480961204 0.721694767
0.598608255 0.489943355 0.725237131
0.687666118 0.510056734 0.737381279
0.785705030 0.530170918 0.744465351
0.875521541 0.561796129 0.757621884
0.520936191 0.608095944 0.744465590
0.533586502 0.609108150 0.752181888
0.562934756 0.605566144 0.753447175
0.604048133 0.605313122 0.750790596
0.658823490 0.607337117 0.751549661
0.730170608 0.625047326 0.759645581
0.817710161 0.642504811 0.771663368
0.898418605 0.668943763 0.788488388
0.646932065 0.737381518 0.788361907
0.646932364 0.730550230 0.784566760
0.664895296 0.730550230 0.782922149
0.696015060 0.737887263 0.785325646
0.736369550 0.741050065 0.790512383
0.790638745 0.749272764 0.795951962
0.850980461 0.763061047 0.804680169
0.924857497 0.786084771 0.829095483
0.745730400 0.851612747 0.821378767
0.744465590 0.857431591 0.841619313
0.759645641 0.850347579 0.826312304
0.783301413 0.855281353 0.837065101
0.811511815 0.862238824 0.838330269
0.852371633 0.871220767 0.849715471
0.904743850 0.886147797 0.866919875
0.948007762 0.907779574 0.893484592
