Assets/Resources/EldamarStudio/100 Horror LUTs Pack/LUTs/cube/Ikezan LUT.cube
DOMAIN_MIN 0 0 0
DOMAIN_MAX 1 1 1
LUT_3D_SIZE 32
0.003922000 0.031373002 0.101961002
0.003922000 0.031373002 0.101961002
0.008223000 0.033523228 0.099810228
0.018090161 0.035294000 0.100569002
0.033650000 0.036052998 0.106261544
0.051865995 0.042124998 0.109297931
0.070081994 0.048197001 0.112333678
0.089942701 0.052624710 0.117014416
0.109677091 0.055661097 0.123086996
0.124857493 0.058697492 0.129158989
0.148766741 0.067552127 0.129411995
0.169006988 0.072612256 0.131435737
0.188361645 0.076787002 0.135609999
0.209108040 0.083112031 0.142188057
0.224288404 0.092220411 0.154332832
0.241871983 0.098924994 0.159266204
0.263124377 0.108032994 0.165338188
0.287412971 0.118911989 0.173813984
0.311701030 0.124984011 0.179886013
0.333206385 0.133839354 0.185957998
0.358254224 0.142947733 0.195825472
0.388615012 0.151043996 0.206957862
0.425046980 0.157368988 0.215938985
0.461479813 0.169513002 0.222011000
0.500189841 0.179380283 0.230360284
0.539658606 0.188488305 0.240859970
0.580139160 0.197596073 0.251992106
0.625680268 0.206704453 0.258064896
0.684503555 0.218468979 0.272106111
0.741682291 0.234155402 0.289057404
0.795445740 0.251486599 0.308159590
0.847059011 0.266667008 0.329412013
0.000885613 0.034408614 0.095889002
0.000885613 0.034408614 0.101961002
0.015939385 0.032258388 0.106261998
0.026439000 0.037318386 0.105882227
0.036306161 0.044781838 0.106640995
0.051865995 0.048197001 0.112333544
0.075142637 0.051739324 0.112839609
0.092726052 0.057305381 0.118658699
0.111195087 0.061733097 0.125363708
0.130929500 0.064769492 0.129158989
0.151928872 0.070715003 0.132321119
0.170018867 0.079696640 0.136495605
0.187223285 0.085895389 0.141682282
0.206578419 0.091714352 0.148007736
0.227324799 0.095256023 0.157368451
0.244908378 0.101960607 0.162302434
0.264642596 0.109550804 0.166856393
0.288045555 0.119544566 0.174446568
0.314737439 0.128020406 0.182922408
0.344592124 0.139658406 0.194560409
0.368500769 0.145224735 0.201138392
0.392662764 0.154079869 0.207969755
0.419101506 0.166223630 0.213156372
0.458444208 0.172549397 0.225047395
0.503984928 0.184693381 0.235673383
0.545730650 0.194560662 0.244148985
0.585705101 0.203162774 0.252498060
0.628715932 0.209740847 0.261100501
0.674257100 0.226818353 0.272485584
0.736622274 0.234408602 0.287286162
0.791018188 0.248070970 0.303352177
0.831878603 0.269702613 0.320303619
0.006451774 0.041745774 0.104870223
0.002150774 0.043896001 0.102340221
0.012902999 0.050347768 0.101961002
0.032890547 0.046046998 0.109297834
0.043643322 0.052118998 0.110562548
0.058823708 0.056925837 0.114863768
0.077292867 0.057811324 0.120176770
0.098292217 0.062491998 0.120176770
0.113978095 0.068564005 0.126249090
0.132447496 0.072991714 0.129285499
0.153699875 0.081087999 0.138772890
0.172928512 0.087159999 0.141809031
0.189373761 0.095003217 0.147754550
0.207590282 0.101075225 0.153573960
0.226945400 0.106008582 0.158886582
0.247944742 0.109297775 0.163187817
0.266160786 0.113851964 0.169260189
0.288678139 0.121695183 0.175332189
0.317520797 0.130803198 0.181404203
0.343326956 0.142694786 0.195446014
0.371789932 0.152941033 0.203795001
0.396331251 0.158507362 0.209867001
0.419354767 0.171283752 0.214294732
0.456799716 0.181404039 0.224415004
0.494496971 0.187729210 0.230107754
0.541682363 0.198481888 0.240860075
0.583681166 0.208602294 0.250221074
0.627830625 0.219607994 0.265907437
0.681593716 0.227703959 0.279822767
0.739531994 0.245920390 0.291966736
0.799240947 0.256167352 0.306767583
0.838203788 0.279190540 0.321947992
0.011765000 0.057178997 0.112460159
0.012017837 0.056419775 0.113978162
0.013409387 0.061226934 0.106261775
0.032384161 0.067805000 0.107020997
0.049841933 0.062112547 0.115369707
0.064136930 0.065528154 0.118406095
0.084376998 0.071600154 0.125236988
0.101328149 0.073624320 0.130549997
0.118785255 0.078937225 0.130549997
0.133965671 0.084503166 0.133080333
0.151169881 0.090955034 0.139784828
0.171663344 0.099303991 0.148387104
0.191018462 0.104237638 0.151423484
0.209867075 0.109930187 0.157115966
0.230107814 0.114990316 0.160151586
0.249462619 0.121188797 0.166982979
0.269197166 0.125490025 0.170525029
0.289310724 0.129791409 0.179633409
0.319038957 0.138899207 0.183934212
0.345098197 0.148260549 0.195572540
0.371283889 0.158507422 0.206324995
0.398608297 0.166603163 0.210372999
0.423529476 0.175711483 0.216065496
0.458823651 0.188994169 0.225173905
0.496521294 0.197849333 0.230993122
0.535863101 0.204047829 0.238077298
0.581910253 0.212144107 0.248197064
0.628210247 0.224288270 0.267931432
0.683111906 0.237823993 0.281340808
0.739784658 0.248450398 0.297279954
0.803036094 0.266666979 0.312966198
0.847059011 0.287539840 0.329285145
0.012523999 0.080328546 0.111321993
0.021631710 0.075015552 0.122327544
0.024035320 0.075015768 0.119164988
0.031625547 0.078051932 0.114610992
0.053257093 0.080708101 0.119164996
0.065401867 0.077672489 0.122201383
0.086906999 0.086527541 0.130297229
0.106261700 0.093738154 0.137001544
0.121442094 0.096774444 0.141555548
0.136622503 0.099810064 0.141555548
0.150031552 0.102846414 0.142314553
0.167868257 0.109550826 0.147627801
0.188361645 0.115622640 0.153700098
0.209614038 0.119165033 0.156989455
0.233776271 0.122454412 0.160151586
0.252877980 0.130297288 0.170398608
0.271853387 0.137887090 0.179127350
0.291967541 0.144212127 0.183048576
0.319292009 0.153320536 0.192156985
0.346236825 0.159645572 0.201265365
0.373561174 0.167235747 0.209234804
0.401265115 0.175711542 0.216444999
0.428842485 0.182036534 0.216824502
0.462238908 0.196963906 0.225932911
0.500189841 0.208349288 0.233902544
0.541429698 0.215686545 0.241239518
0.584567070 0.222011477 0.253130615
0.633143842 0.225047082 0.268310994
0.685894966 0.242883876 0.278557837
0.738772988 0.258823425 0.292978942
0.790512562 0.272738993 0.311827660
0.845161438 0.290955007 0.336116463
0.018595999 0.095508933 0.123465993
0.027704388 0.095508933 0.126502380
0.038962867 0.094496936 0.131056160
0.051106930 0.096268162 0.132826999
0.068437479 0.098924868 0.137381002
0.071473867 0.098924875 0.131309003
0.088678002 0.103478931 0.139405370
0.106261700 0.108918220 0.143579930
0.121442094 0.111954153 0.144591942
0.136622503 0.114990450 0.144591942
0.157621875 0.118026800 0.150410950
0.175331920 0.123086922 0.153447196
0.192915648 0.126249224 0.155218303
0.209614038 0.125237033 0.153953061
0.230866402 0.134345397 0.160025060
0.247817844 0.142441794 0.170398608
0.268058389 0.150031865 0.182542995
0.291967541 0.156103864 0.191903919
0.319292009 0.162428916 0.198228985
0.343833029 0.168753937 0.207337365
0.370524794 0.174825922 0.210753009
0.398861319 0.182416126 0.215306804
0.428842485 0.191144913 0.222896501
0.462238908 0.203288943 0.232004911
0.500189841 0.218216285 0.245667279
0.542441607 0.226818681 0.252371937
0.587476254 0.231372863 0.255914003
0.633143842 0.240227476 0.265275359
0.679063737 0.251233578 0.277798921
0.729664624 0.264895827 0.292978942
0.780392230 0.278810978 0.310309589
0.829981089 0.297026992 0.327008069
0.042378314 0.118279636 0.143200323
0.041366063 0.115749314 0.141176715
0.050474446 0.117900088 0.146363318
0.062238999 0.118279636 0.147248477
0.077166095 0.119671315 0.148386866
0.086654253 0.119671315 0.144465640
0.099809997 0.122200996 0.148513645
0.118026406 0.124983996 0.152688324
0.134092420 0.127134413 0.154206321
0.149272829 0.130170792 0.157748327
0.162681863 0.135736868 0.163567305
0.179886252 0.138773248 0.169639319
0.198734954 0.143200681 0.173181638
0.217204347 0.143453360 0.173434600
0.238456726 0.148007736 0.177229315
0.257305294 0.154712319 0.180898130
0.277166396 0.162175998 0.189626992
0.302087545 0.168880567 0.197849587
0.329412013 0.176850334 0.202024341
0.348893017 0.185452014 0.208349362
0.376976460 0.191524476 0.213662252
0.407969564 0.198608503 0.218342930
0.441366315 0.207716495 0.228716120
0.472359538 0.217457324 0.233016908
0.510309875 0.227324605 0.244401991
0.551170290 0.240607306 0.257937998
0.595572352 0.247565001 0.263504326
0.641112983 0.254648864 0.270588428
0.691714048 0.271473974 0.282352984
0.739025593 0.283618271 0.298038930
0.795192719 0.295762300 0.317140579
0.855281293 0.310689330 0.335610002
0.058190994 0.135989994 0.157874703
0.060088314 0.139532015 0.149905384
0.064009771 0.135863468 0.156609997
0.074383318 0.138899535 0.160152003
0.085768409 0.139658540 0.157495156
0.095382869 0.140923694 0.154459223
0.110057093 0.143453375 0.159013286
0.123592407 0.143200412 0.161796287
0.141809002 0.144718409 0.164073378
0.157874793 0.148640186 0.171030983
0.173434690 0.151296705 0.173813999
0.185958251 0.153700262 0.174952716
0.201138631 0.157875001 0.182163060
0.221885026 0.161669701 0.186464280
0.245920405 0.166097403 0.190891579
0.261480004 0.169892699 0.192283094
0.281214178 0.177482516 0.198355481
0.305376440 0.183681145 0.204553992
0.331689000 0.191777676 0.208602250
0.355597705 0.200885355 0.211132288
0.381404161 0.208095759 0.220240667
0.412776828 0.215180412 0.223276272
0.448450476 0.224288195 0.233523265
0.480329096 0.233396605 0.241113082
0.520809948 0.242504984 0.249335691
0.560278296 0.251613021 0.258696705
0.604048193 0.262998074 0.270335406
0.651865780 0.270208687 0.278684705
0.701075137 0.283617914 0.293358684
0.749272287 0.301581651 0.300821930
0.797849119 0.314611077 0.323465794
0.862365305 0.327513993 0.347754419
0.067299187 0.150411099 0.164706007
0.074130088 0.158001482 0.156356901
0.078684099 0.157875106 0.160658002
0.085768230 0.157115936 0.163946912
0.097912997 0.158633649 0.165844455
0.104744099 0.160152033 0.165085152
0.115370221 0.163187772 0.168121085
0.129664987 0.162934810 0.171663195
0.141809002 0.162176087 0.171663180
0.160025015 0.168248087 0.180771574
0.179000646 0.169260010 0.181909993
0.193927988 0.170019105 0.182163149
0.207210630 0.171537012 0.181404337
0.222897023 0.177356035 0.190006033
0.249209389 0.182922095 0.195572093
0.267552197 0.187349811 0.199114189
0.283491284 0.192662895 0.202150196
0.306008637 0.201770663 0.209993586
0.330423981 0.207969964 0.215939090
0.356736481 0.216824844 0.218722180
0.386717469 0.224035189 0.225553364
0.416572094 0.230360210 0.233902857
0.450094998 0.239468589 0.237318009
0.484124005 0.248576999 0.249462187
0.525110722 0.258444279 0.259329289
0.570904672 0.266793400 0.267805099
0.611385167 0.276407093 0.274889112
0.662492156 0.285768449 0.287033796
0.710689604 0.298292071 0.302972883
0.759013295 0.311701387 0.314610958
0.806198239 0.330550551 0.322706699
0.854775071 0.345730186 0.356103897
0.085515976 0.171663493 0.164706007
0.094623581 0.174699888 0.167741627
0.097153492 0.175838500 0.174446300
0.099936500 0.179380327 0.173560843
0.107020617 0.185958028 0.162808076
0.119165391 0.176850438 0.177988440
0.123466164 0.178368181 0.179759502
0.133586228 0.178115219 0.181657210
0.147881001 0.177356496 0.183807984
0.160025015 0.183428496 0.183807969
0.181150869 0.186590627 0.187096611
0.198228776 0.189500272 0.192029983
0.213282630 0.192409858 0.195445523
0.228969023 0.195572048 0.196078032
0.250221401 0.198608428 0.199114412
0.274130583 0.204174489 0.207084298
0.294876933 0.210120007 0.212776780
0.315117031 0.216951072 0.216065586
0.342441499 0.226059482 0.219101965
0.366856754 0.235041365 0.227830842
0.396964222 0.242251977 0.236559227
0.428210109 0.248323977 0.242757514
0.456166983 0.254648983 0.243390009
0.492599815 0.263757408 0.255534798
0.531182766 0.275142491 0.265401691
0.576470494 0.284377009 0.274509668
0.626565516 0.291587472 0.283997506
0.672105849 0.303731471 0.296141475
0.717899919 0.318405807 0.308285505
0.767109513 0.329917669 0.320682943
0.818469465 0.342947572 0.334218949
0.869955480 0.363946974 0.353067517
0.095003128 0.190006003 0.170524999
0.095382616 0.190132529 0.179380357
0.110942550 0.195319682 0.180265740
0.118026741 0.193042710 0.185831860
0.122580737 0.192662865 0.183681190
0.119544871 0.201264933 0.183680922
0.139279321 0.199746996 0.191271007
0.149525732 0.199114591 0.193674713
0.162681863 0.196837872 0.195192903
0.174825877 0.198608860 0.193042129
0.189879745 0.201770991 0.193042129
0.203036129 0.206830859 0.194054008
0.217583865 0.211890996 0.198355287
0.234788060 0.216444865 0.201897740
0.253384262 0.216824412 0.202277288
0.274636656 0.222264603 0.212523863
0.301454991 0.229854554 0.219101802
0.326502144 0.236685455 0.222770154
0.351549864 0.241239846 0.228083849
0.376090884 0.250348240 0.233902887
0.402276844 0.259456128 0.242884248
0.433649510 0.265528142 0.248955995
0.465022326 0.269829363 0.249209017
0.498671830 0.278937757 0.255787790
0.539658606 0.285768837 0.267931998
0.583934128 0.296647847 0.280455530
0.632511139 0.307779849 0.293105870
0.675648272 0.324730843 0.305249840
0.715875626 0.336875528 0.309424013
0.766223848 0.348260492 0.324351400
0.821632147 0.360025167 0.340543985
0.879316866 0.379253864 0.358759999
0.108159252 0.210246250 0.184692994
0.116255239 0.210246250 0.185705394
0.121062279 0.212523535 0.196457997
0.130423889 0.216065988 0.190132841
0.134598553 0.209993690 0.191271290
0.136749238 0.213914990 0.194813311
0.147375315 0.219987512 0.199367255
0.163693979 0.219987512 0.200505972
0.175837994 0.218090251 0.203542262
0.187982008 0.218090251 0.204301029
0.203035861 0.220999375 0.204174519
0.218216240 0.224035501 0.206198245
0.229601637 0.228968859 0.208475247
0.246932253 0.234155253 0.214294761
0.265148550 0.237697244 0.216065988
0.287792742 0.242504850 0.217583984
0.309045196 0.247059047 0.226691991
0.335357219 0.254522234 0.230233833
0.356862694 0.258949965 0.234914958
0.381151289 0.265528083 0.240987003
0.411132008 0.272739202 0.243263990
0.441745490 0.281720400 0.254016399
0.476280987 0.286906958 0.259202987
0.511575162 0.294117630 0.263377547
0.545730591 0.304997265 0.271980017
0.588235319 0.313852221 0.282732666
0.635547101 0.325490326 0.296647906
0.681087852 0.339152485 0.310309708
0.727008045 0.354079396 0.318532407
0.768247604 0.366224140 0.325110435
0.820999503 0.379127085 0.345224559
0.878305018 0.398482263 0.366856247
0.125616640 0.230360284 0.200632289
0.133206636 0.232637286 0.197596386
0.141049638 0.233649403 0.201897651
0.147880793 0.235420644 0.209487483
0.145604074 0.235420644 0.195445642
0.153194278 0.233143345 0.200758934
0.162555650 0.237697631 0.207336992
0.174699634 0.240480989 0.209614068
0.188361630 0.241240084 0.209614441
0.201264650 0.241619632 0.216065988
0.214041516 0.243390411 0.217457637
0.229221895 0.246426255 0.218343019
0.245540649 0.248324007 0.220240280
0.260974079 0.251612633 0.226059243
0.279190242 0.257684618 0.229095414
0.301075220 0.262618601 0.232005000
0.324984193 0.267173082 0.233902633
0.346869141 0.271473676 0.239974633
0.366097301 0.278051615 0.243516967
0.389879704 0.284123659 0.249335989
0.420999378 0.292473108 0.255028635
0.453383893 0.298545629 0.258064777
0.489563614 0.307526737 0.272359639
0.525996447 0.314610630 0.274383366
0.562428951 0.324098587 0.280834943
0.602276921 0.335104614 0.291081667
0.645287812 0.347754717 0.301707983
0.693232119 0.358128071 0.317520171
0.740670204 0.372549057 0.328526109
0.784566641 0.388235062 0.341049820
0.827956855 0.402150631 0.352814615
0.879064023 0.423150003 0.379379988
0.146363035 0.249589071 0.212017968
0.147122070 0.254902035 0.211258680
0.151170030 0.256926060 0.211005777
0.157748163 0.257179022 0.214041904
0.166350484 0.257432073 0.216698021
0.169386089 0.257432073 0.210626036
0.175964668 0.260973990 0.214421064
0.184820026 0.264516026 0.216951028
0.197723061 0.265528083 0.218469083
0.215939060 0.268564492 0.227577478
0.225932866 0.268438041 0.230360866
0.239089251 0.270461768 0.231625959
0.255155027 0.272359043 0.232131958
0.273624092 0.272865057 0.232384995
0.291840822 0.278937042 0.235420614
0.312207729 0.282858819 0.240606993
0.334472030 0.285895199 0.245161191
0.358760118 0.289943427 0.249335989
0.383048952 0.299051046 0.255407989
0.407590091 0.305882007 0.260974020
0.439215511 0.314990491 0.268690705
0.473877251 0.325364023 0.277546138
0.504617512 0.331562519 0.286527991
0.541176796 0.340670139 0.286781013
0.580139279 0.350031346 0.291841000
0.622770250 0.359645724 0.300442994
0.670588136 0.369513094 0.313345999
0.716129243 0.384693444 0.331561983
0.761669755 0.399114817 0.344212621
0.803668499 0.416572005 0.359645933
0.844908535 0.434788048 0.378621012
0.890449047 0.453004062 0.396837026
0.161543414 0.279949814 0.215053573
0.170651793 0.276913434 0.239342362
0.173561037 0.280076176 0.229981035
0.175964400 0.282479644 0.226186156
0.178620994 0.284882933 0.229222283
0.184566468 0.287792802 0.231878400
0.200253054 0.277672172 0.233396724
0.209361374 0.280834705 0.233776107
0.217457488 0.287286371 0.232131407
0.228083834 0.292852461 0.233649477
0.243389949 0.290069848 0.231119871
0.257305235 0.291714102 0.233396739
0.272485644 0.293611377 0.236938581
0.288804442 0.294117391 0.241492614
0.310056806 0.300189406 0.244528994
0.328272969 0.306261390 0.247564599
0.347121954 0.310183167 0.251233190
0.367868364 0.313851982 0.256166965
0.392156541 0.320303440 0.267551988
0.419228643 0.332194388 0.268058002
0.449715555 0.337381124 0.273117989
0.483744532 0.344339103 0.279822826
0.516761482 0.352814853 0.286527991
0.556229889 0.361922503 0.292599976
0.597343087 0.373307973 0.301961005
0.636432290 0.386211455 0.311448634
0.676407158 0.399620801 0.322201341
0.719164848 0.412017822 0.337633967
0.764706016 0.419228405 0.347880810
0.806704521 0.437824368 0.361163735
0.847944379 0.459076792 0.380518556
0.893485427 0.477292806 0.405945390
0.183933988 0.305502981 0.234914601
0.190639183 0.304870397 0.239974767
0.191145018 0.306135565 0.253510773
0.201264963 0.307906777 0.249209598
0.208096027 0.309424579 0.251107246
0.204047784 0.310436696 0.241998866
0.215433434 0.315243751 0.242631316
0.227071792 0.306388378 0.244022995
0.235420883 0.310183495 0.243263707
0.247818276 0.314610779 0.244907990
0.262744904 0.316761672 0.249209657
0.275901288 0.315749794 0.246173531
0.290701956 0.318405956 0.247311801
0.306388021 0.319923788 0.250600845
0.327640384 0.323845565 0.253637224
0.348892778 0.327513784 0.261480004
0.365590960 0.332067966 0.262997806
0.383554548 0.336369365 0.265148580
0.406071842 0.344212592 0.271979809
0.435547054 0.353446782 0.280202597
0.466666728 0.361796260 0.283997595
0.499051243 0.367362469 0.289057463
0.531309307 0.376470476 0.293991178
0.570777714 0.385578692 0.304617167
0.607969344 0.396963596 0.312966466
0.651612759 0.410499632 0.324983954
0.692093730 0.424161971 0.335610300
0.734598398 0.432510972 0.348893106
0.774952412 0.446552783 0.356356621
0.818722308 0.461479932 0.384946108
0.858823359 0.485136181 0.405819178
0.901328206 0.506388605 0.427071571
0.206704184 0.329791397 0.251613200
0.211258769 0.334345192 0.250095010
0.216951609 0.330423981 0.253510773
0.215180367 0.337255180 0.262618840
0.234282196 0.337508172 0.267425805
0.235420436 0.335231185 0.255661070
0.236432821 0.338772982 0.253131002
0.245288178 0.341302991 0.254649192
0.254396170 0.336748987 0.254649192
0.270335466 0.339025706 0.256925911
0.283997327 0.340543836 0.261353552
0.300189704 0.344592005 0.264389902
0.313472807 0.344592005 0.262492180
0.328905582 0.346995175 0.262998194
0.348892778 0.348766416 0.267299414
0.367109150 0.351802588 0.272106558
0.391397566 0.359392375 0.278178185
0.406577945 0.361163765 0.277545780
0.426059395 0.366730154 0.278811187
0.452624708 0.377356052 0.288931340
0.483364940 0.386084676 0.294623792
0.516761303 0.392157197 0.301707923
0.548007488 0.401011884 0.306135178
0.587476313 0.412903279 0.318279177
0.624667943 0.421252400 0.325110465
0.661100328 0.434788048 0.337001830
0.706767917 0.449462384 0.348260373
0.751296639 0.457558364 0.358380884
0.786590755 0.473118007 0.377356380
0.826312542 0.488804340 0.387982130
0.867931783 0.511827707 0.426059365
0.907400191 0.536749005 0.443769813
0.229221702 0.354712546 0.263883948
0.232890517 0.363820136 0.261480153
0.238962740 0.361290306 0.258950204
0.245540962 0.359139949 0.265148997
0.244781971 0.370145500 0.273118168
0.260973990 0.364832520 0.267552137
0.264642864 0.365717798 0.265907556
0.267805547 0.367109120 0.267552257
0.275015980 0.367741704 0.269829571
0.293231964 0.367741704 0.269829571
0.305629134 0.367741704 0.272106290
0.321821481 0.371789724 0.275142252
0.339532197 0.375584722 0.278304964
0.354712516 0.376343697 0.278557986
0.372548938 0.377482116 0.284250557
0.389626741 0.378620923 0.288551778
0.408981740 0.383681118 0.290955365
0.434408545 0.394560128 0.293358564
0.449588984 0.391524523 0.290322959
0.472485572 0.400506139 0.299304426
0.501834035 0.410752714 0.306388408
0.533206701 0.418848991 0.311448127
0.566729546 0.425173998 0.320429981
0.605692685 0.439848453 0.331561983
0.642251968 0.448829949 0.338772833
0.679317117 0.459076643 0.346742630
0.715749264 0.474257052 0.361923039
0.763819993 0.486527532 0.368374556
0.797722638 0.503352106 0.392536610
0.833396554 0.521062315 0.413662314
0.870967984 0.537887096 0.426818132
0.910436392 0.565211535 0.454142570
0.256546944 0.382037014 0.288172007
0.262618929 0.391144603 0.288172007
0.266287208 0.391650766 0.277166218
0.271094024 0.390638858 0.274889380
0.275142044 0.394433588 0.285262972
0.269070059 0.397469968 0.285262942
0.280202687 0.397217035 0.282226622
0.291081995 0.397469997 0.282732725
0.301960886 0.398229092 0.285010010
0.311448038 0.401138961 0.285010010
0.323845804 0.401138961 0.285010010
0.340037972 0.405186981 0.287286699
0.358254313 0.408981979 0.291461021
0.375964969 0.409740955 0.296774030
0.391144574 0.418848515 0.299810410
0.411384821 0.417583793 0.305502981
0.430613428 0.416571975 0.308286011
0.449589014 0.418848991 0.308539003
0.467805058 0.424921006 0.308538973
0.488551438 0.427451402 0.311068654
0.519544482 0.435041249 0.316761523
0.554459155 0.443137050 0.323592842
0.587982059 0.449462086 0.332574010
0.624414861 0.461606860 0.338646024
0.658823311 0.471726716 0.349778593
0.695256054 0.483364701 0.361163974
0.733966112 0.498545140 0.374067098
0.770398855 0.513725519 0.389247447
0.807842910 0.528652847 0.403668821
0.845540524 0.547628164 0.425426930
0.882352948 0.567489028 0.447564572
0.913472056 0.586464047 0.469323009
0.292220026 0.423276722 0.298545361
0.289943367 0.426818341 0.298545361
0.293864608 0.427324504 0.298545361
0.300695688 0.426818579 0.295382738
0.308665544 0.429474741 0.301834464
0.304996759 0.430107296 0.294623643
0.311575085 0.433143705 0.299683660
0.323466361 0.433396757 0.297406733
0.337128371 0.434914738 0.299683928
0.352308273 0.439974874 0.305755645
0.358760506 0.440101385 0.308539033
0.372928470 0.442125648 0.308539033
0.390385658 0.445161760 0.310816020
0.408602387 0.445161760 0.314231634
0.426312298 0.446679652 0.309677064
0.443896353 0.453384072 0.317520440
0.464769274 0.456040740 0.320936024
0.486148298 0.458570749 0.321568608
0.510816097 0.460341752 0.323719382
0.529032171 0.466413766 0.326501995
0.552182257 0.471347392 0.335230827
0.585072994 0.480581760 0.343074381
0.620114088 0.490195751 0.350537688
0.651233196 0.497026801 0.361922711
0.687665939 0.509171605 0.367994696
0.721568346 0.520177066 0.379126966
0.758254230 0.533965766 0.393295139
0.796964228 0.549146175 0.415306807
0.825427175 0.566982687 0.433143348
0.861480057 0.584060788 0.448450178
0.898165941 0.604301333 0.472358942
0.930423737 0.624415100 0.501201391
0.326755226 0.461986452 0.309551001
0.323719114 0.465022057 0.309551001
0.328779429 0.467552215 0.319038719
0.331815034 0.468311459 0.311448395
0.340923548 0.470082164 0.311701238
0.340923548 0.464010179 0.307147056
0.348007798 0.470335037 0.316381723
0.358760476 0.471726716 0.314231455
0.370145559 0.473244727 0.312966734
0.384946197 0.479316741 0.320935994
0.399114460 0.475774735 0.324224830
0.409361184 0.477798969 0.325236976
0.425679743 0.481973737 0.327513993
0.443896472 0.483744681 0.331056237
0.462112427 0.485388964 0.328272909
0.480328560 0.488298744 0.330423504
0.500063181 0.494370729 0.336495906
0.521948099 0.499810308 0.337507874
0.548007667 0.501075447 0.340543985
0.566982746 0.502846479 0.345477372
0.588994205 0.508918464 0.352308452
0.612270832 0.513978302 0.361417145
0.644149423 0.523339272 0.366730213
0.676280737 0.531182468 0.377103001
0.709297538 0.539911270 0.392283440
