Assets/Resources/EldamarStudio/100 Horror LUTs Pack/LUTs/cube/Ikezan LUT.cube
LUT_3D_SIZE 5
DOMAIN_MIN 0.000000 0.000000 0.000000
DOMAIN_MAX 0.903226 0.903226 0.903226
0.003922000 0.031373002 0.101961002
0.089942701 0.052624710 0.117014416
0.224288404 0.092220411 0.154332832
0.388615012 0.151043996 0.206957862
0.684503555 0.218468979 0.272106111
0.058190994 0.135989994 0.157874703
0.123592407 0.143200412 0.161796287
0.245920405 0.166097403 0.190891579
0.412776828 0.215180412 0.223276272
0.701075137 0.283617914 0.293358684
0.161543414 0.279949814 0.215053573
0.209361374 0.280834705 0.233776107
0.310056806 0.300189406 0.244528994
0.483744532 0.344339103 0.279822826
0.764706016 0.419228405 0.347880810
0.362176120 0.500442982 0.326755136
0.396205127 0.512207270 0.338519692
0.497533083 0.526248991 0.349272251
0.644655406 0.550411165 0.382669270
0.848956466 0.631246090 0.467805058
0.705249548 0.824161768 0.583554745
0.721821606 0.829095304 0.593674421
0.771157146 0.837191582 0.617078006
0.853763461 0.860720634 0.648450553
0.948133945 0.877672434 0.697533429
0.000000000 0.045414291 0.157242283
0.083744407 0.059835702 0.164452687
0.215179980 0.107905991 0.195825696
0.387603134 0.166097254 0.251106828
0.673244715 0.234408706 0.310183704
0.062491700 0.133080706 0.184693277
0.128526106 0.153700382 0.202023983
0.235800102 0.177229404 0.220999420
0.399746805 0.227577567 0.261226684
0.698165536 0.288172096 0.325110793
0.178241700 0.279569685 0.255660981
0.221758381 0.287792385 0.266160816
0.310056776 0.305123091 0.275901407
0.481467247 0.346995652 0.310942531
0.761796236 0.431119621 0.382669181
0.367109239 0.507274151 0.362049133
0.403415531 0.510942280 0.354964912
0.499557346 0.523339689 0.379379988
0.639721811 0.546869218 0.407463402
0.851233482 0.632890522 0.495888799
0.699430406 0.823782444 0.593295276
0.722580492 0.821125865 0.599999785
0.770524979 0.835926592 0.626186013
0.852118611 0.850600898 0.653384149
0.942567885 0.874130309 0.706261933
0.007843000 0.062744997 0.253636986
0.104617409 0.084376991 0.258570671
0.222390816 0.123592407 0.266160399
0.394813120 0.179506868 0.309677541
0.688298583 0.233396575 0.387222946
0.096141569 0.159519404 0.269702703
0.145856991 0.169007123 0.270714402
0.247185394 0.187349692 0.285009414
0.413788527 0.233775690 0.326628715
0.706514716 0.295003206 0.405186683
0.195572391 0.285768390 0.307273954
0.240986690 0.299177676 0.326249421
0.355850786 0.335483372 0.351802766
0.516508341 0.358760118 0.384187102
0.776470125 0.435041040 0.457937777
0.389500558 0.513093114 0.422517419
0.424288511 0.516002476 0.426818550
0.517141104 0.533080399 0.444149405
0.661227286 0.561543524 0.476154268
0.855154753 0.644655049 0.555471122
0.712460101 0.811511397 0.631119132
0.720809340 0.825047314 0.641492903
0.774319768 0.835167348 0.659962177
0.851739466 0.854522288 0.690195978
0.941555738 0.879063725 0.740543723
0.098165996 0.112840123 0.403162122
0.173687279 0.124604866 0.405439436
0.295762390 0.154332578 0.405565798
0.442631394 0.198102266 0.425806254
0.713219583 0.246932104 0.500695944
0.149778411 0.196837559 0.406451553
0.203162536 0.203288838 0.405186385
0.318026394 0.221379116 0.415306866
0.465148866 0.249462694 0.432258248
0.740923405 0.310056806 0.520682812
0.238077402 0.333206534 0.435673654
0.280455410 0.340417117 0.446679413
0.392536223 0.354838669 0.462871969
0.548893213 0.379000485 0.488551378
0.795066416 0.451360047 0.561922669
0.423909247 0.527893245 0.525996208
0.458190948 0.537634254 0.537887514
0.562175930 0.558886945 0.558507204
0.716129184 0.600506246 0.597470045
0.874509752 0.659962237 0.652498364
0.720429897 0.828968883 0.707779586
0.736496031 0.828715861 0.719164908
0.781530380 0.841746032 0.733586311
0.853763461 0.860720575 0.749651849
0.941555798 0.888551414 0.787855744
0.236938626 0.170145810 0.697406590
0.310815781 0.178620979 0.684629738
0.454016626 0.198229238 0.696774006
0.643137217 0.243769929 0.706261694
0.842631400 0.314231634 0.723592401
0.253637075 0.255787373 0.697153509
0.325743407 0.261985928 0.694876552
0.472359180 0.277419209 0.697786093
0.654902041 0.311195254 0.707526743
0.843643248 0.376723468 0.730170608
0.342315018 0.421378791 0.698544741
0.393927753 0.418722630 0.709803581
0.530044436 0.433776051 0.719670594
0.697659910 0.464895487 0.733459949
0.868058026 0.514990330 0.751043439
0.551043630 0.640480757 0.755344570
0.581910074 0.636938453 0.760025322
0.650221169 0.643769920 0.760151982
0.766856372 0.657432199 0.770777762
0.904490590 0.697027087 0.796078563
0.745730400 0.851612747 0.821378767
0.754838586 0.852877617 0.829348564
0.790639043 0.860088229 0.841871977
0.868311048 0.873750806 0.852498412
0.948007762 0.907779574 0.893484592
