Assets/Resources/EldamarStudio/100 Horror LUTs Pack/LUTs/cube/Inendre LUT.cube
LUT_3D_SIZE 8
DOMAIN_MIN 0.000000 0.000000 0.000000
DOMAIN_MAX 0.903226 0.903226 0.903226
0.031373002 0.058823999 0.121569000
0.076407544 0.067046449 0.121948451
0.152814895 0.079190098 0.127007991
0.231498629 0.102592997 0.141176000
0.306261986 0.135483995 0.148133993
0.393548727 0.166476741 0.152687997
0.493358552 0.208476007 0.164073005
0.650347590 0.253763646 0.180518821
0.071726546 0.101075098 0.122327998
0.108159088 0.111701541 0.125869542
0.165338203 0.120682992 0.133712545
0.232637286 0.143453196 0.136875361
0.308665186 0.163820192 0.146616191
0.394054294 0.191144809 0.156863004
0.499683350 0.229474992 0.166224003
0.642378449 0.267678648 0.186337963
0.137887195 0.178621188 0.139532089
0.150790542 0.182163551 0.122201093
0.197470084 0.185705096 0.150663912
0.255028546 0.197090447 0.149020001
0.327514082 0.214674100 0.157621905
0.414800763 0.237824440 0.166603252
0.516761303 0.275016069 0.170904279
0.661606669 0.319038719 0.193801329
0.195572644 0.247185647 0.147375003
0.203288749 0.258570194 0.148513645
0.241366088 0.260088265 0.153320640
0.290322632 0.269070625 0.156863004
0.356862843 0.285262287 0.169765636
0.433017373 0.305376291 0.170145392
0.541682601 0.338646650 0.182795629
0.682732403 0.386843443 0.201770633
0.257685184 0.341555983 0.163819999
0.271473736 0.343200386 0.172675610
0.293738276 0.346236289 0.167741999
0.334851444 0.356862843 0.168880641
0.395572364 0.368121386 0.175584987
0.482099742 0.394687176 0.188488260
0.585831463 0.426818281 0.200506091
0.714358091 0.480328828 0.232384354
0.338772744 0.456293732 0.189879730
0.349019557 0.459329516 0.186970264
0.370525092 0.467805207 0.188235089
0.416824877 0.472991586 0.196331546
0.475395381 0.487033278 0.210120201
0.538393199 0.505123436 0.209487721
0.642378032 0.535736740 0.241366297
0.754585743 0.585325778 0.287286580
0.439468265 0.613915265 0.244022846
0.456546277 0.617330849 0.247438267
0.478304744 0.619354844 0.252751261
0.519165277 0.625679553 0.264263272
0.568500578 0.633523226 0.272106260
0.635800242 0.643390059 0.290955275
0.710942507 0.659329534 0.317520559
0.801897228 0.698165834 0.388361514
0.603288591 0.782289624 0.411258399
0.613283038 0.788488328 0.421252280
0.634028673 0.786970496 0.427577496
0.660341442 0.792915940 0.438203752
0.705882132 0.799367249 0.459582567
0.757115602 0.807463467 0.479822665
0.816445053 0.820113599 0.520682991
0.879063725 0.830613434 0.550031543
0.039216001 0.066666998 0.137254998
0.076786995 0.070967548 0.132953539
0.157874644 0.092093550 0.142314643
0.216571644 0.121062644 0.149020001
0.297280371 0.150031656 0.154838651
0.386717349 0.182163253 0.165085450
0.493358552 0.214674279 0.174826279
0.639342010 0.255787820 0.188614547
0.072485544 0.108538538 0.134851098
0.112460539 0.116002090 0.134471551
0.162555560 0.124984443 0.142314643
0.227957070 0.145350739 0.146236643
0.300316662 0.170398638 0.154079556
0.388994575 0.198988184 0.166982800
0.497153580 0.230613545 0.177482545
0.635293901 0.272865206 0.192916006
0.134725004 0.170778111 0.147375092
0.160278454 0.181404546 0.152941093
0.197090536 0.185325652 0.160025015
0.254649103 0.197849557 0.157242462
0.323212951 0.218216449 0.161037445
0.399367452 0.240860343 0.163314342
0.510815978 0.275268644 0.181530550
0.657938004 0.320176959 0.201138347
0.190638632 0.248323992 0.153574005
0.212776646 0.254269540 0.155976996
0.239342541 0.256167114 0.157115653
0.285136074 0.268311530 0.163820103
0.348133832 0.282352746 0.171283722
0.427956820 0.305502951 0.179506898
0.536242902 0.342188299 0.188488439
0.678937316 0.385578603 0.212776840
0.262492090 0.338013828 0.166097194
0.271473736 0.338013828 0.175205633
0.298418999 0.343833119 0.176344097
0.341176629 0.353699952 0.175964549
0.389626712 0.369006991 0.183048636
0.475774914 0.387223125 0.191144988
0.586211026 0.425553530 0.206325009
0.715370059 0.476786643 0.239848301
0.337128520 0.456420243 0.195951805
0.347754270 0.460341632 0.191650733
0.369259804 0.461986274 0.194307089
0.416698277 0.468690723 0.202529728
0.472232461 0.482353002 0.212270990
0.536242485 0.495256215 0.222264469
0.637065291 0.530044436 0.247691527
0.755977035 0.585199296 0.293484867
0.443896562 0.609993815 0.244655550
0.449462265 0.612903535 0.254649013
0.476280987 0.616572022 0.257558733
0.516761482 0.625173926 0.271094203
0.566350222 0.634408474 0.281214505
0.633903027 0.645161271 0.300948620
0.711321950 0.657431841 0.334851116
0.804427326 0.696141541 0.388741046
0.595445573 0.780897915 0.415053666
0.603541672 0.780139089 0.415939569
0.623529255 0.784693241 0.428083390
0.659709096 0.786337674 0.439721644
0.699810326 0.793295383 0.454269081
0.753573477 0.803541839 0.481214225
0.811890960 0.818469286 0.513598680
0.872233033 0.831625283 0.559645534
0.054016192 0.071347095 0.148893088
0.096394897 0.082353003 0.150537997
0.159898996 0.093231991 0.155976996
0.230360284 0.123845994 0.165085360
0.300063074 0.156736106 0.168627188
0.386211276 0.190006256 0.176470995
0.487918973 0.226312369 0.184946179
0.638456762 0.263630748 0.203162819
0.101454549 0.115622640 0.152055994
0.130929992 0.124225445 0.143832654
0.172422186 0.131688997 0.161922559
0.233902648 0.156356543 0.163061097
0.303731620 0.181024909 0.169765636
0.388108909 0.208855450 0.179380178
0.498924255 0.242884293 0.199367747
0.637697577 0.280708700 0.215053633
0.148133993 0.187350005 0.155218095
0.181530550 0.181784093 0.161922559
0.208475992 0.197470084 0.166224003
0.260594636 0.208855450 0.169386089
0.328399867 0.223276183 0.176344082
0.408855170 0.249841988 0.186464086
0.512080908 0.280455291 0.196584284
0.660720587 0.324984163 0.222770333
0.215559900 0.256166995 0.166983008
0.228462741 0.261353552 0.173687637
0.257431626 0.266034544 0.179886445
0.294623911 0.275016069 0.180771545
0.363946825 0.285895169 0.184946194
0.433523029 0.310942411 0.193927824
0.543832898 0.340290606 0.203415349
0.679949164 0.389500290 0.234282091
0.272738993 0.341556191 0.188235193
0.289943099 0.342315197 0.192409724
0.304744005 0.351802200 0.195192993
0.345477194 0.354458928 0.192030087
0.397976160 0.366603196 0.202277094
0.479696631 0.394307643 0.212776735
0.587349653 0.429980993 0.226439074
0.717267394 0.481594175 0.268817127
0.347754359 0.467299104 0.218722090
0.354965180 0.464010119 0.221378624
0.376850188 0.474509478 0.216571733
0.419354916 0.475395381 0.224035367
0.474889100 0.486401081 0.234661534
0.537634075 0.502466857 0.239721894
0.646173477 0.537254512 0.271473646
0.758633792 0.589626551 0.325490147
0.445667565 0.613156557 0.268311381
0.463504255 0.614041865 0.279443353
0.484630197 0.620999336 0.280708373
0.523086548 0.624161541 0.291081458
0.573940516 0.634282351 0.303478658
0.633523345 0.642125309 0.321189433
0.709677577 0.660215139 0.353573650
0.807463586 0.696521103 0.411258936
0.610120356 0.779632747 0.443137139
0.614421308 0.786590695 0.440227866
0.632131398 0.785578728 0.452498466
0.663504004 0.789373755 0.463503957
0.706261694 0.798481882 0.479316771
0.756356716 0.805439413 0.499051303
0.811765075 0.816065550 0.532953680
0.875015616 0.834408402 0.571410120
0.093611643 0.083491646 0.178747997
0.123339541 0.088931449 0.173940182
0.175837725 0.105376452 0.171916634
0.227577642 0.128905639 0.181024984
0.308285743 0.164958641 0.191650644
0.385325372 0.192789093 0.198355287
0.488298625 0.225932926 0.213535637
0.639595389 0.264010191 0.243137315
0.132068455 0.130170986 0.178368360
0.143327191 0.130803183 0.172042638
0.183681533 0.141429454 0.176343992
0.235420540 0.157495201 0.179127440
0.305376291 0.181783900 0.189247444
0.388867825 0.209867179 0.199873388
0.498798162 0.242125198 0.219860643
0.642378211 0.282353103 0.242251694
0.165338099 0.182543099 0.177861989
0.187602639 0.192283541 0.175332099
0.218975455 0.201770738 0.191397995
0.268691003 0.212776735 0.188488454
0.330044031 0.231498823 0.197849631
0.409234762 0.252245277 0.206830993
0.517520368 0.290702194 0.224541336
0.658443809 0.327893734 0.248324081
0.218089640 0.258949637 0.187729359
0.233016834 0.261606365 0.187602744
0.266414106 0.272612214 0.198608547
0.309424251 0.280834645 0.198987991
0.364199966 0.293738216 0.208855435
0.441745460 0.316508293 0.218216538
0.549525559 0.350411206 0.237191573
0.683111727 0.396204978 0.271094471
0.277166396 0.352561384 0.210752800
0.304490626 0.350031376 0.217836902
0.323592484 0.354838371 0.216698542
0.354079366 0.359519392 0.217078000
0.408475727 0.375584841 0.224541634
0.490322351 0.395825535 0.240986541
0.588361800 0.429222107 0.259962171
0.721442223 0.485262632 0.303478748
0.349145740 0.464263469 0.237191468
0.364579618 0.467552364 0.242378429
0.387349725 0.468184471 0.246805996
0.431119651 0.476027459 0.255660743
0.483617723 0.486653745 0.261606276
0.548513710 0.504237592 0.274762988
0.642504871 0.536748827 0.303984910
0.763061225 0.591524303 0.355471194
0.448070914 0.611764908 0.306135297
0.462491930 0.610879183 0.311575294
0.481088012 0.615686178 0.312081069
0.521947920 0.625173926 0.323086560
0.575964808 0.633017182 0.339278936
0.640227854 0.644781828 0.353067905
0.709803879 0.661606848 0.379253566
0.802782834 0.704490840 0.440986842
0.602909446 0.780897915 0.456419736
0.611385405 0.778367996 0.460214853
0.628462851 0.781404018 0.465401411
0.659076631 0.787349939 0.479569912
0.703478694 0.795572340 0.496520966
0.751929224 0.801138520 0.517014325
0.811385512 0.817836821 0.544718623
0.880328536 0.832004726 0.586590350
0.129411995 0.098671801 0.210878998
0.146868750 0.106894352 0.210499555
0.195825189 0.121442087 0.211765006
0.251865625 0.141429633 0.209993988
0.310183376 0.162934989 0.208475798
0.398228914 0.198355287 0.228715986
0.502846301 0.230360284 0.249083072
0.647817969 0.266666621 0.285515815
0.161037549 0.145350829 0.211258546
0.175711721 0.151296794 0.211765006
0.206831083 0.157874644 0.206071988
0.254269630 0.171663284 0.208475798
0.312207639 0.185705185 0.209993988
0.398355633 0.215053737 0.227577537
0.509930253 0.245287791 0.249588743
0.648323596 0.285009652 0.288677961
0.198228985 0.202150375 0.213788897
0.213915184 0.208602101 0.210499540
0.233523175 0.209993988 0.218848899
0.283744186 0.220619738 0.217963189
0.335357279 0.235041171 0.217837006
0.416698277 0.256167084 0.241366088
0.526122451 0.293105900 0.264010191
0.667931676 0.325363725 0.300063103
0.240607187 0.266793638 0.218216553
0.253131002 0.267552525 0.221378833
0.277292997 0.276154429 0.226059645
0.323592484 0.291840553 0.235927001
0.376091182 0.302719831 0.236179531
0.452877909 0.324730933 0.254522383
0.557874799 0.355217934 0.280581802
0.693105459 0.393801183 0.311954290
0.293231994 0.353320390 0.241999179
0.301707983 0.358507574 0.249968380
0.331435889 0.368248105 0.252245396
0.377988815 0.377988636 0.263630539
0.436306179 0.390133202 0.269450158
0.503984749 0.408096373 0.283491403
0.604427576 0.438583285 0.305376142
0.720682919 0.486148179 0.343073785
0.366350740 0.468311280 0.286654174
0.376091003 0.472738743 0.287413180
0.401012093 0.480835080 0.290954828
0.438203752 0.486780703 0.299557626
0.491081476 0.496647447 0.306262165
0.561543286 0.511068702 0.319417983
0.657811582 0.545350909 0.354459345
0.767109156 0.593168795 0.402023941
0.458823264 0.616318882 0.356103539
0.464009821 0.620366633 0.364326090
0.489563465 0.624920726 0.363946587
0.521189034 0.627324581 0.368247867
0.577988625 0.640607357 0.381151140
0.646426260 0.648703277 0.398102671
0.711827695 0.667172551 0.423908800
0.810499549 0.705882251 0.479949176
0.591018558 0.780771434 0.499683768
0.600758970 0.784187019 0.496900439
0.621378958 0.784693420 0.506388307
0.654269159 0.790891826 0.517773390
0.695382595 0.796963751 0.525363922
0.752435207 0.806324840 0.551296592
0.813662291 0.816951454 0.579506576
0.875268936 0.838709772 0.613156021
0.172422469 0.121315472 0.256419748
0.191144809 0.131562188 0.256546736
0.230613723 0.143832833 0.262492001
0.277925372 0.159772083 0.254522473
0.340290725 0.184946194 0.260847270
0.405186713 0.205565721 0.268311232
0.510942698 0.235799998 0.292726278
0.660088539 0.272106111 0.338393271
0.186717346 0.159519553 0.247058928
0.212650537 0.164579302 0.247564733
0.238456637 0.173181280 0.252245456
0.286654115 0.186464190 0.255660743
0.343200713 0.204047918 0.262998194
0.413156211 0.222137734 0.266286969
0.515117168 0.253131002 0.294370562
0.660847306 0.286148101 0.348639995
0.224035367 0.224035189 0.263630748
0.236179724 0.221252456 0.271220803
0.262365550 0.222011447 0.260973811
0.307400525 0.233902633 0.263124377
0.363693893 0.248450279 0.264389545
0.427577376 0.263251185 0.279949725
0.535483778 0.295762450 0.312839985
0.673118472 0.330550075 0.355218470
0.263883382 0.282732368 0.268184751
0.276913524 0.286654055 0.268184811
0.296015173 0.289816380 0.273245066
0.341176659 0.298039645 0.277545810
0.396584630 0.310562819 0.286527306
0.466287106 0.327767104 0.302972972
0.568500638 0.354206204 0.331056297
0.705376506 0.400885373 0.378368080
0.314231187 0.366477191 0.299178004
0.322327435 0.370525092 0.297026932
0.351802379 0.373561054 0.306894392
0.392536163 0.385705113 0.308538973
0.448450625 0.397849172 0.324478120
0.518785894 0.413535655 0.335483909
0.616571903 0.444022477 0.365970820
0.735104322 0.488677859 0.416698188
0.373940706 0.473750472 0.334471703
0.380518496 0.475395471 0.333838999
0.407716811 0.485768706 0.344465494
0.453130752 0.497659713 0.358507454
0.512586713 0.521948159 0.377229661
0.581530690 0.530550182 0.393295228
0.669197023 0.553320885 0.410626173
0.776090741 0.590385616 0.457052469
0.459835261 0.618089795 0.420366526
0.471979827 0.618216276 0.410246730
0.497659743 0.624035597 0.421631545
0.534724772 0.637191832 0.436179727
0.584440053 0.646932304 0.448323548
0.649209499 0.659835756 0.459202826
0.721948445 0.675269008 0.481846541
0.821884573 0.712840080 0.544845223
0.598987639 0.783048689 0.562175751
0.609867036 0.783554733 0.552814662
0.623529375 0.785578549 0.566982687
0.650221348 0.788867772 0.565337956
0.687666059 0.797469974 0.576091111
0.745856881 0.807716370 0.587223291
0.807843029 0.818848729 0.616824389
0.880581737 0.835673630 0.654396057
0.220872998 0.149652004 0.348892987
0.242884293 0.153953463 0.348007560
0.278811008 0.164579287 0.349146008
0.330802917 0.179380283 0.353320926
0.393801391 0.197470084 0.354585350
0.469702750 0.212776542 0.363946557
0.547248244 0.242757693 0.370145261
0.670841277 0.275015712 0.414168090
0.240101442 0.181784004 0.342694283
0.251233250 0.185832009 0.348007560
0.284629822 0.190891549 0.348260552
0.337128341 0.203795284 0.350664079
0.397469759 0.216951177 0.356483102
0.471979558 0.236306444 0.363567114
0.553700149 0.256040275 0.372801989
0.675774753 0.294750094 0.417077661
0.250853896 0.238962784 0.349778563
0.269070238 0.242504641 0.356230259
0.304617256 0.243643090 0.354585379
0.352308661 0.250600904 0.360657543
0.414294571 0.267931998 0.365591466
0.487792552 0.278937101 0.370904356
0.571410596 0.299178064 0.381783575
0.688930809 0.337507904 0.424414754
0.282479644 0.304996938 0.363440901
0.300695539 0.308665365 0.366097361
0.327134609 0.310816079 0.362555295
0.373307616 0.320050359 0.369006902
0.435040921 0.328146547 0.377862185
0.508918345 0.342694521 0.387602895
0.593801200 0.362175643 0.402782857
0.712460399 0.407590091 0.451233268
0.329917878 0.395572186 0.383301556
0.342947453 0.395951718 0.389373899
0.364453018 0.400885284 0.392789453
0.406957537 0.404933572 0.399493903
0.468437672 0.412776560 0.405566156
0.542694330 0.426059276 0.419860780
0.632637441 0.449589163 0.439721733
0.743073881 0.495509237 0.490195990
0.390133172 0.503984690 0.437065005
0.404301167 0.504743695 0.434282452
0.422390997 0.511701405 0.437824309
0.462491900 0.516888082 0.446046770
0.523465991 0.528146982 0.460215360
0.595698953 0.544339001 0.474762738
0.680961072 0.565338433 0.500822425
0.789753258 0.603162527 0.544212341
0.473118544 0.635800600 0.495256573
0.480202317 0.624794543 0.485641837
0.502719522 0.635800540 0.493738383
0.539911151 0.645287812 0.509297550
0.593674600 0.653889537 0.524984419
0.666287243 0.676280797 0.549019516
0.741682589 0.688425303 0.569765568
0.827830613 0.719291389 0.613029540
0.605692744 0.780012369 0.605313063
0.608096182 0.786970198 0.616444945
0.623149753 0.789373755 0.615433335
0.654775441 0.792915940 0.627071202
0.693105340 0.804300666 0.640607357
0.746110022 0.815559804 0.654142678
0.804554224 0.823782325 0.675648332
0.882099569 0.843390346 0.706135035
0.273370981 0.172675818 0.532827377
0.295382679 0.178620994 0.534092546
0.334598064 0.186464086 0.535483539
0.397849262 0.201265186 0.533206582
0.474889010 0.218595788 0.535610378
0.559392750 0.238456726 0.545730531
0.652245045 0.266792953 0.552055836
0.747121751 0.299683630 0.560278356
0.286654264 0.204048216 0.532447875
0.294244230 0.209740549 0.527767181
0.334471762 0.213409245 0.528905511
0.404048264 0.223276183 0.534092546
0.478684187 0.239595070 0.539278746
0.564199805 0.259835362 0.546109915
0.658317506 0.284629852 0.548892856
0.748386562 0.318785787 0.564578950
0.289437085 0.266160667 0.532574534
0.306008637 0.269196928 0.532953739
0.349019736 0.271347344 0.538646340
0.406451732 0.278811008 0.537634075
0.484123766 0.289816469 0.541935384
0.572548807 0.309171140 0.548513412
0.662998080 0.332068175 0.561543167
0.755724311 0.364073187 0.580771625
0.297912806 0.338646412 0.543073952
0.316887826 0.339152187 0.538646281
0.359266430 0.347628057 0.543326557
0.421125650 0.354332805 0.546742558
0.495256066 0.363693625 0.552940845
0.580012381 0.379253626 0.558760166
0.670462072 0.402024090 0.575205386
0.770524979 0.432005256 0.587223053
0.335610539 0.437318027 0.554205954
0.344465554 0.439215362 0.561796248
0.376470536 0.437571377 0.561163545
0.430107176 0.438077211 0.565085411
0.514231503 0.447437972 0.571030557
0.599746764 0.465654552 0.581530690
0.693358839 0.485262215 0.594054282
0.785325646 0.511954188 0.610499620
0.406957716 0.562428713 0.594054401
0.419734538 0.562808514 0.595699012
0.441998810 0.560910702 0.594686449
0.486653805 0.559772551 0.601264834
0.542694390 0.558633804 0.600885510
0.620493293 0.568753719 0.610120296
0.716508210 0.593042433 0.625932693
0.803541720 0.616698265 0.644781590
0.500695825 0.679949343 0.641492784
0.509424508 0.686021030 0.642884314
0.525743008 0.686527371 0.643263459
0.561796069 0.688171744 0.651359916
0.612397194 0.690954804 0.652624607
0.672991812 0.699557066 0.665781140
0.750537276 0.709044755 0.686274171
0.841113091 0.734471917 0.707147181
0.603162467 0.804553747 0.701454401
0.616318882 0.801011860 0.703225613
0.630866647 0.806577682 0.706261575
0.656546235 0.806831002 0.714737177
0.695382535 0.814800918 0.718658924
0.752941310 0.824667692 0.742314816
0.815054059 0.840734005 0.762175620
0.892093599 0.858064413 0.792915523
