Assets/Resources/EldamarStudio/100 Horror LUTs Pack/LUTs/cube/Inendre LUT.cube
LUT_3D_SIZE 5
DOMAIN_MIN 0.000000 0.000000 0.000000
DOMAIN_MAX 0.903226 0.903226 0.903226
0.031373002 0.058823999 0.121569000
0.133080706 0.076154292 0.127767280
0.267425418 0.117014416 0.144465417
0.418849140 0.175585121 0.160784006
0.650347590 0.253763646 0.180518821
0.121947698 0.163440987 0.139531717
0.176217705 0.169006705 0.146109700
0.286780685 0.190259412 0.150031701
0.434535146 0.234787986 0.164072990
0.654522300 0.306135565 0.189247280
0.217077985 0.292978972 0.159519002
0.255028397 0.304743379 0.166097417
0.336115956 0.317141384 0.163441002
0.482353121 0.353447139 0.181783572
0.700569153 0.429095626 0.221758395
0.360025138 0.488678247 0.201012135
0.381656945 0.500696123 0.195572257
0.461859643 0.512460530 0.208981872
0.578874290 0.542568147 0.226692125
0.767235756 0.610625923 0.312839985
0.603288591 0.782289624 0.411258399
0.623908877 0.789753437 0.424794346
0.681593597 0.797975779 0.452498108
0.772801757 0.809740543 0.487159848
0.879063725 0.830613434 0.550031543
0.048703291 0.072865292 0.145098001
0.136369705 0.083364710 0.146109700
0.259582847 0.137634277 0.157242283
0.412018001 0.198102266 0.177482858
0.634914279 0.263883710 0.201391667
0.133712694 0.163820684 0.150664285
0.183428109 0.176217705 0.160152003
0.281846970 0.199114710 0.170651406
0.421505123 0.247817978 0.180392414
0.658443809 0.307779849 0.213156149
0.235041112 0.295888692 0.176850110
0.267805099 0.301454812 0.175837994
0.340037823 0.317140967 0.183048993
0.478431284 0.355471253 0.203036129
0.701960802 0.436306208 0.243390217
0.365212142 0.499431103 0.214420989
0.392789513 0.503605425 0.216824695
0.467046231 0.512839794 0.231878266
0.582162857 0.536369622 0.250600994
0.767236054 0.615433037 0.330803186
0.605566144 0.779379725 0.435041279
0.620240569 0.783301771 0.440354288
0.680329025 0.790765166 0.461859256
0.767488897 0.808728695 0.501834273
0.875774741 0.832637548 0.563314259
0.108538993 0.092852995 0.190891996
0.170651406 0.108538575 0.190891579
0.266792983 0.143832996 0.195445582
0.414927125 0.205692694 0.219101980
0.641746044 0.264769435 0.260341644
0.173561126 0.179126993 0.191523999
0.206957698 0.184693277 0.195193127
0.288678080 0.206957698 0.196457699
0.430360675 0.252118856 0.220999405
0.658697009 0.311954379 0.272738546
0.262871832 0.301454425 0.202656835
0.292599678 0.310562968 0.218974993
0.363566995 0.335483402 0.228842825
0.494117498 0.364579082 0.252119124
0.705123484 0.436306208 0.306894243
0.377735525 0.499684006 0.276407540
0.400506109 0.507274151 0.278305113
0.475395262 0.517014384 0.287792414
0.591524124 0.545477271 0.311701089
0.777735591 0.620746195 0.391650915
0.599367559 0.778241754 0.471853167
0.616192639 0.784313858 0.482353002
0.672359586 0.789373994 0.501961052
0.769133627 0.811005771 0.539278984
0.875775039 0.833269596 0.604174793
0.182542995 0.131435990 0.273624152
0.230866551 0.146110132 0.272106260
0.321442276 0.173940405 0.276027828
0.438583136 0.216698125 0.287539124
0.661100566 0.274636149 0.355597943
0.225553557 0.210120291 0.278051853
0.258570284 0.215433121 0.276913136
0.341049701 0.229854271 0.279949427
0.459455967 0.259961724 0.297659963
0.677672446 0.320429802 0.374193549
0.287666410 0.325996131 0.295002997
0.321062416 0.335863382 0.299557418
0.397596806 0.347880960 0.317520559
0.522201121 0.376344293 0.338140398
0.719544351 0.442504495 0.411258787
0.399241120 0.509171128 0.372928232
0.421125978 0.522201121 0.370272279
0.497659832 0.542188287 0.398734957
0.622011244 0.570019126 0.432764113
0.787476242 0.624288321 0.489437222
0.599240780 0.783554733 0.572548568
0.623276234 0.788108826 0.578620851
0.671347320 0.795319617 0.590259433
0.761290014 0.810752749 0.604680598
0.879316747 0.838203728 0.667805254
0.273370981 0.172675818 0.532827377
0.321441919 0.185704991 0.535483539
0.435673624 0.207969829 0.534724951
0.579380095 0.245035097 0.547248542
0.747121751 0.299683630 0.560278356
0.287665993 0.251486510 0.530550122
0.332574338 0.255660832 0.534092546
0.440859973 0.267805099 0.538013697
0.594054222 0.297027230 0.551043451
0.754712105 0.350411087 0.575458169
0.309803993 0.383301795 0.547754169
0.353067398 0.387222946 0.547501266
0.461100370 0.401012212 0.556356430
0.613915086 0.423909038 0.578241646
0.777735174 0.468437612 0.604048014
0.424414814 0.591777325 0.604933739
0.455154836 0.593042195 0.606578052
0.528526187 0.591650903 0.612523556
0.654649258 0.603415549 0.622264564
0.813661993 0.646552920 0.656925797
0.603162467 0.804553747 0.701454401
0.626059473 0.801264584 0.706008554
0.674383223 0.809740543 0.717140555
0.767868578 0.826691747 0.743579865
0.892093599 0.858064413 0.792915523
