Assets/Resources/EldamarStudio/100 Horror LUTs Pack/LUTs/cube/Inendre LUT.cube
DOMAIN_MIN 0 0 0
DOMAIN_MAX 1 1 1
LUT_3D_SIZE 32
0.031373002 0.058823999 0.121569000
0.034408614 0.058823999 0.121569000
0.041745774 0.058823999 0.119418226
0.055914160 0.061353996 0.118912160
0.076407544 0.067046449 0.121948451
0.091587931 0.070082061 0.124984063
0.111828320 0.073118322 0.128020316
0.133080706 0.076154292 0.127767280
0.152814895 0.079190098 0.127007991
0.167994529 0.082226492 0.133079991
0.191903740 0.088172004 0.136242867
0.212143987 0.094243996 0.139278740
0.231498629 0.102592997 0.141176000
0.252245009 0.113978028 0.141429037
0.267425418 0.117014416 0.144465417
0.285009593 0.124857798 0.145098001
0.306261986 0.135483995 0.148133993
0.329917550 0.146362990 0.152308583
0.351170003 0.152435020 0.149272963
0.369639724 0.158507019 0.146236643
0.393548727 0.166476741 0.152687997
0.418849140 0.175585121 0.160784006
0.440227956 0.184946492 0.161036998
0.464516014 0.200126916 0.167108998
0.493358552 0.208476007 0.164073005
0.527893603 0.215939313 0.162175685
0.566856086 0.226059064 0.165718004
0.603288829 0.241239429 0.171789989
0.650347590 0.253763646 0.180518821
0.695382297 0.265907943 0.191397965
0.737001777 0.279822975 0.201770991
0.776471019 0.298038989 0.207843006
0.034408614 0.058823999 0.121569000
0.025300227 0.058823999 0.124604613
0.043390159 0.063124999 0.124604613
0.060720999 0.068690836 0.123718992
0.079063706 0.075774617 0.125363603
0.091587931 0.076154061 0.131056070
0.116888314 0.074130319 0.131561995
0.134218991 0.082732700 0.130803332
0.152055800 0.090575777 0.128526390
0.174067304 0.091334872 0.130044371
0.192156777 0.094370522 0.133206502
0.216192499 0.104363993 0.140290856
0.234155774 0.112460285 0.143073753
0.249209404 0.120050743 0.140670002
0.264389813 0.123086408 0.135357022
0.281973392 0.128525987 0.138393417
0.303225994 0.135483608 0.140543804
0.327514350 0.144591749 0.145730183
0.351170003 0.155471414 0.152308583
0.369639724 0.164326042 0.149272978
0.391650975 0.170651466 0.150031656
0.416824847 0.179633394 0.155724138
0.440354466 0.190891981 0.158001378
0.467552423 0.203162536 0.164073393
0.498671681 0.213788897 0.167868093
0.532574296 0.220619977 0.166855991
0.569386482 0.228589386 0.168753743
0.603288829 0.241239429 0.174826384
0.645034552 0.253763646 0.186211362
0.687539101 0.265907943 0.188614786
0.730549991 0.281593949 0.196204811
0.776471019 0.304111004 0.210879400
0.037444774 0.069576226 0.123719223
0.041239388 0.071727000 0.122454390
0.049335547 0.069576226 0.127640769
0.068564318 0.075648546 0.126375616
0.084629998 0.083491549 0.125869542
0.098545097 0.087033547 0.130170777
0.121189319 0.088804320 0.137633994
0.143579990 0.089057706 0.132700711
0.156736195 0.099936999 0.130170897
0.175458983 0.102720000 0.131562218
0.196078777 0.107779905 0.134471893
0.214294761 0.110816032 0.137507513
0.236053213 0.121441901 0.142947227
0.250980258 0.128273249 0.141429037
0.269955635 0.131309345 0.141049773
0.287539780 0.136748761 0.140037805
0.305755764 0.142820761 0.143074185
0.328146785 0.149525344 0.145477548
0.350917041 0.160151944 0.150031745
0.373940706 0.169513196 0.154459357
0.394054741 0.178620800 0.155218259
0.415053904 0.184946224 0.156230137
0.436306477 0.194686726 0.157115996
0.467678905 0.204807013 0.163188010
0.499557287 0.214674279 0.166982710
0.532953620 0.225173980 0.170018673
0.568627357 0.233775988 0.171789765
0.603668392 0.245919988 0.177862108
0.642884314 0.258064657 0.178494960
0.685388625 0.275522143 0.190638959
0.728778720 0.288804740 0.193927750
0.778621256 0.308032781 0.209614232
0.049335998 0.084756166 0.124225155
0.053383935 0.089057386 0.128779233
0.066793092 0.087792553 0.120809682
0.081973158 0.088551320 0.128146827
0.093738377 0.093864992 0.125869542
0.107147217 0.098165996 0.128905937
0.127387479 0.102972835 0.131941676
0.147121996 0.104743704 0.137507558
0.165338203 0.108538993 0.131435931
0.178494975 0.114611000 0.134471685
0.196837872 0.120682992 0.134977698
0.214800820 0.125996098 0.138013899
0.235294119 0.129032478 0.138772517
0.253257155 0.137381196 0.138899043
0.271473378 0.140417576 0.141935423
0.291587442 0.147121996 0.145098001
0.311068982 0.151929155 0.146616191
0.329917550 0.158633739 0.149020001
0.351170003 0.167742148 0.149020016
0.373940557 0.175585359 0.154586017
0.396331578 0.184693247 0.157495424
0.417583972 0.191777125 0.159519166
0.434029311 0.197975665 0.157115996
0.467425764 0.209361076 0.163188010
0.498292118 0.219734281 0.165717870
0.530423641 0.227703974 0.171283841
0.565338135 0.238835990 0.173814163
0.603288829 0.249461979 0.178368151
0.642378449 0.264136672 0.182795838
0.683617890 0.279064149 0.183554962
0.727007747 0.300316572 0.196584597
0.777862012 0.313599139 0.209108174
0.071726546 0.101075098 0.122327998
0.069829382 0.106388092 0.135989606
0.078558221 0.106767774 0.127640322
0.093358830 0.106388547 0.118279159
0.108159088 0.111701541 0.125869542
0.117267482 0.111701541 0.128905937
0.133965552 0.116761543 0.127640679
0.150157690 0.119544543 0.128399536
0.165338203 0.120682992 0.133712545
0.183554977 0.126754984 0.136748940
0.199241325 0.132827103 0.134724677
0.215180293 0.138519540 0.135736719
0.232637286 0.143453196 0.136875361
0.256420016 0.146742553 0.134598061
0.268817008 0.149905413 0.137760967
0.288171798 0.157748297 0.142441541
0.308665186 0.163820192 0.146616191
0.329917550 0.167362586 0.149020001
0.351170003 0.176470980 0.149020016
0.372422367 0.183175445 0.154586017
0.394054294 0.191144809 0.156863004
0.416065663 0.198608130 0.157242462
0.437571019 0.201770991 0.157242462
0.470461458 0.216192365 0.162808463
0.499683350 0.229474992 0.166224003
0.528019845 0.239215538 0.168880671
0.560025156 0.246046543 0.177609444
0.602529824 0.252118528 0.177609444
0.642378449 0.267678648 0.186337963
0.683617890 0.284124166 0.191777453
0.727007747 0.301075578 0.196584597
0.772548974 0.322328001 0.211765006
0.080834940 0.125363857 0.128399998
0.086906932 0.125363857 0.131435603
0.091461003 0.128526092 0.132194772
0.101581059 0.128020152 0.128652707
0.114231095 0.126881927 0.131941542
0.126375869 0.126881927 0.128905937
0.143073931 0.131941929 0.131941676
0.158000916 0.134724930 0.130676702
0.170651197 0.135483831 0.130676836
0.183554977 0.138898998 0.133712545
0.201771006 0.144971728 0.136748925
0.221505314 0.149019614 0.138772681
0.239468575 0.152561575 0.140670061
0.256420016 0.155850932 0.140670061
0.274635971 0.161922932 0.146742836
0.294243783 0.169892788 0.147501931
0.312460184 0.175964668 0.148513943
0.329917550 0.179000586 0.149020001
0.351170003 0.182542980 0.149020016
0.372422367 0.191650659 0.154586017
0.395572454 0.200252801 0.156863004
0.420367062 0.208348930 0.157874867
0.446679413 0.213914990 0.160278067
0.474003851 0.219987005 0.160278067
0.504617512 0.234408334 0.172675341
0.533080518 0.246299669 0.176976681
0.562934995 0.255407929 0.177988932
0.602529824 0.267298937 0.186717063
0.642378449 0.276027769 0.184060901
0.683617890 0.290196180 0.187096760
0.727007747 0.307147592 0.194054261
0.772548974 0.328400016 0.211765006
0.102592997 0.147122324 0.137001678
0.103604995 0.147122324 0.137507617
0.107526772 0.144971550 0.134092003
0.117014475 0.147248492 0.134471670
0.130423635 0.147122324 0.138013542
0.142567873 0.147122324 0.134977937
0.152182326 0.149652004 0.137001678
0.168754026 0.154079720 0.138393000
0.182542741 0.155724227 0.137001678
0.196458310 0.158759832 0.138266519
0.209361315 0.159645408 0.136242867
0.225553572 0.163693935 0.139278740
0.243516952 0.167868316 0.142314643
0.259456307 0.172296032 0.143959358
0.282226294 0.176091313 0.147754833
0.298039109 0.182163313 0.151423201
0.317520291 0.189626992 0.151549682
0.334977537 0.194307312 0.152182266
0.356229991 0.199240983 0.154080018
0.377482384 0.205312967 0.159646019
0.404427469 0.214421049 0.160025269
0.427956998 0.222517312 0.160404816
0.450727195 0.228715822 0.163567320
0.478052229 0.237191647 0.168374315
0.505376637 0.243263647 0.168374315
0.539658606 0.254901975 0.178114980
0.572549045 0.265022397 0.179506734
0.607969403 0.279190630 0.184566855
0.649968147 0.293737829 0.185578838
0.691208005 0.304617405 0.189626753
0.736369014 0.320809901 0.199493587
0.785199285 0.342062324 0.219354674
0.121947698 0.163440987 0.139531717
0.121947698 0.163440987 0.139531717
0.125742763 0.169512928 0.143453419
0.128779158 0.163946867 0.129791096
0.142820999 0.165465161 0.134724542
0.157494977 0.166729987 0.144338936
0.165465027 0.165971100 0.138140395
0.176217705 0.169006705 0.146109700
0.192156985 0.173561081 0.144591704
0.208222777 0.178367928 0.142820716
0.217204273 0.178494409 0.143200576
0.233017251 0.178873956 0.142568156
0.248197645 0.181910053 0.144465417
0.263884038 0.187223032 0.146995679
0.286780685 0.190259412 0.150031701
0.305502802 0.195698991 0.153067917
0.323719174 0.201770991 0.154585719
0.342694253 0.207210571 0.156483129
0.363946706 0.212270722 0.161543250
0.385199100 0.219987422 0.162429005
0.407210469 0.224667728 0.166097254
0.434535146 0.234787986 0.164072990
0.453763187 0.242377996 0.166350290
0.481087983 0.253004611 0.169386283
0.511701584 0.259835690 0.172548994
0.541809261 0.268690675 0.172548994
0.580771804 0.278052062 0.178621069
0.616445124 0.290955424 0.183934450
0.654522300 0.306135565 0.189247280
0.695382297 0.321188688 0.192916170
0.734345138 0.335104465 0.202023789
0.780645311 0.355598003 0.220239997
0.137887195 0.178621188 0.139532089
0.138646096 0.178621188 0.138013899
0.139152184 0.182668999 0.142188579
0.146995157 0.189753264 0.142694771
0.150790542 0.182163551 0.122201093
0.167868078 0.185199156 0.146868944
0.174446538 0.183934316 0.144338995
0.186084986 0.181910381 0.141555905
0.197470084 0.185705096 0.150663912
0.215686083 0.194813490 0.144591913
0.224541172 0.195952103 0.148007870
0.237950593 0.195952103 0.149020001
0.255028546 0.197090447 0.149020001
0.270208925 0.200379089 0.149526000
0.290449291 0.203921422 0.153067678
0.310056984 0.208602086 0.155344814
0.327514082 0.214674100 0.157621905
0.350664020 0.220746085 0.158254474
0.372295976 0.223908976 0.167109132
0.393548369 0.231752247 0.165085256
0.414800763 0.237824440 0.166603252
0.436812252 0.243137091 0.167868093
0.458191067 0.255154580 0.168121085
0.484882921 0.266666800 0.169386089
0.516761303 0.275016069 0.170904279
0.550157964 0.283871055 0.174066991
0.583048999 0.296521157 0.174573049
0.621758342 0.306135535 0.183175445
0.661606669 0.319038719 0.193801329
0.701328158 0.334218800 0.200379342
0.739658237 0.351043195 0.209614560
0.770019114 0.369260013 0.218722180
0.156103969 0.202909991 0.148640484
0.159139588 0.202909991 0.142567709
0.153447270 0.198608443 0.141049519
0.155091807 0.198355332 0.140164196
0.169006541 0.203415960 0.137381479
0.178114921 0.206451565 0.143453494
0.180012494 0.206957504 0.145350993
0.191777229 0.203542024 0.143200278
0.209614098 0.200885504 0.141555518
0.218722492 0.206957504 0.141555518
0.234029353 0.210246891 0.147122249
0.248830214 0.211132497 0.149020001
0.264136821 0.212270856 0.149020001
0.279316545 0.215559497 0.149526000
0.294496924 0.221631497 0.155598000
0.314737290 0.225173816 0.156736493
0.331308991 0.229854494 0.158380806
0.347627640 0.235926479 0.161290094
0.377988458 0.241998523 0.164326489
0.399620384 0.247943997 0.162049130
0.420872748 0.254142970 0.164705500
0.443137258 0.261100829 0.167615131
0.467299461 0.270334989 0.165085480
0.491587520 0.279443383 0.171157479
0.522833288 0.288678259 0.172422484
0.556229949 0.299051434 0.175331980
0.589120984 0.311701536 0.180645049
0.619480968 0.326881915 0.183681443
0.666160822 0.336495638 0.197596803
0.712460577 0.349398673 0.205439731
0.755091667 0.366350055 0.213029727
0.791271508 0.387475997 0.230866969
0.153953135 0.215559989 0.146110132
0.162808493 0.218469128 0.137128234
0.167994872 0.218469128 0.141808778
0.169006988 0.217710033 0.145351037
0.178494424 0.221378997 0.147122324
0.187602803 0.221884936 0.155724004
0.196711197 0.219860554 0.146615997
0.202783018 0.221125722 0.148387000
0.217457101 0.221125960 0.149904877
0.230866492 0.225047737 0.149904877
0.242883980 0.225300744 0.146995738
0.256040633 0.228336617 0.153068006
0.270335644 0.229222000 0.155977368
0.285515696 0.230486900 0.157748133
0.300695419 0.233902737 0.158507124
0.318279624 0.239974737 0.162175938
0.339026034 0.248070851 0.164199799
0.357242286 0.256293446 0.165970579
0.380771816 0.260088742 0.164452970
0.399999857 0.266160756 0.167488649
0.423023462 0.274130493 0.168500736
0.446299881 0.279190868 0.170524731
0.470714599 0.282606214 0.167741641
0.497786045 0.291713893 0.171030998
0.526628554 0.305376291 0.172548994
0.562175453 0.315749645 0.179506645
0.598608315 0.326375872 0.189120874
0.631372690 0.339152426 0.189753443
0.667046309 0.356988966 0.195445985
0.712840080 0.366856068 0.209867314
0.754838586 0.380645037 0.218342856
0.789247155 0.399873734 0.228463128
0.173181504 0.229728252 0.145098001
0.176217645 0.234788120 0.140037596
0.181151003 0.233649254 0.145857021
0.184692994 0.236179247 0.147375092
0.190006092 0.239594981 0.148134291
0.200759187 0.239594981 0.157242328
0.207843304 0.239088923 0.154711992
0.218595982 0.237697244 0.149145991
0.227324247 0.239594981 0.153700098
0.238709480 0.241366208 0.154965267
0.253004253 0.243516997 0.154079884
0.267172515 0.245541245 0.153068006
0.280455649 0.248576865 0.156863004
0.295129955 0.249968246 0.159013227
0.306767553 0.254775405 0.160784006
0.328399599 0.260214984 0.165211543
0.348134190 0.263250977 0.166729733
0.367488980 0.271473587 0.168626994
0.384566724 0.274509966 0.166982695
0.403036267 0.280328989 0.167488649
0.423149973 0.286400974 0.166729748
0.448324114 0.295382857 0.169512868
0.473750740 0.298798501 0.168753505
0.501075149 0.307906598 0.171789899
0.532700539 0.319544524 0.180644989
0.564452589 0.331941903 0.177862003
0.602656186 0.342062205 0.188108742
0.639089286 0.355723977 0.194180742
0.677166343 0.367109209 0.195445731
0.713599086 0.383554459 0.205060154
0.757495165 0.395825237 0.220872968
0.794307292 0.414041728 0.231498986
0.195572644 0.247185647 0.147375003
0.196711004 0.252119005 0.146615893
0.198861510 0.255154848 0.148639902
0.202909291 0.253636628 0.156483486
0.203288749 0.258570194 0.148513645
0.213156223 0.257811278 0.155344933
0.221378997 0.258949637 0.154332682
0.228462994 0.260088265 0.151802644
0.241366088 0.260088265 0.153320640
0.248576641 0.260088265 0.156736493
0.261100501 0.264136493 0.158001363
0.275142252 0.264895916 0.159140006
0.290322632 0.269070625 0.156863004
0.305756003 0.271853268 0.157369003
0.317520201 0.276154280 0.161290228
0.336369216 0.282226294 0.164452657
0.356862843 0.285262287 0.169765636
0.378115207 0.286527276 0.169133067
0.391777307 0.290069610 0.168626994
0.410626352 0.297027290 0.170904279
0.433017373 0.305376291 0.170145392
0.454269767 0.310436159 0.169133514
0.481594115 0.319291502 0.172295630
0.510942519 0.328399897 0.176343903
0.541682601 0.338646650 0.182795629
0.576217294 0.349399298 0.191144660
0.608601868 0.359013647 0.187096640
0.645540953 0.373560846 0.197975636
0.682732403 0.386843443 0.201770633
0.723845303 0.399493814 0.211132050
0.762049139 0.417330831 0.221505627
0.804553986 0.436052918 0.238709643
0.204934001 0.268691003 0.153447002
0.208222657 0.271979630 0.155977398
0.211258814 0.275901049 0.154712230
0.215812996 0.280708015 0.154206172
0.222011521 0.279822588 0.157115966
0.225047126 0.276786953 0.157115966
0.232131317 0.278810710 0.155091718
0.240101069 0.282099694 0.152814716
0.247944087 0.284124047 0.151043996
0.263124466 0.284124047 0.157115996
0.272485852 0.289184004 0.159772128
0.284124017 0.289943248 0.162808269
0.296900630 0.290069997 0.162935004
0.311828017 0.295889020 0.157369003
0.330043972 0.295889020 0.163441002
0.348260611 0.300696015 0.164958969
0.365465194 0.303985000 0.167741999
0.381657541 0.305249989 0.172422484
0.402909964 0.311321974 0.169386104
0.424162358 0.319924384 0.174193710
0.448956728 0.330170989 0.176723957
0.474763125 0.339784950 0.177988857
0.496268481 0.343200058 0.180771515
0.529411912 0.352434933 0.186464041
0.560784459 0.361543328 0.190512285
0.593674958 0.370904654 0.194939986
0.628842175 0.380519003 0.201265037
0.656167269 0.392662972 0.207337037
0.689057767 0.409614027 0.213915020
0.729285061 0.426059246 0.225553364
0.773434162 0.443643212 0.241998985
0.815939009 0.467932016 0.248071000
0.217077985 0.292978972 0.159519002
0.223149985 0.299050987 0.156483382
0.226439178 0.293738157 0.154712230
0.232005239 0.297912657 0.154206172
0.240480542 0.306893945 0.157242462
0.249335885 0.298039317 0.160151586
0.247311473 0.300063074 0.162681907
0.255028397 0.304743379 0.166097417
0.265148729 0.307906061 0.167235985
0.275268465 0.305376381 0.163187996
0.284629852 0.302466512 0.160531133
0.299809992 0.307399988 0.162808269
0.313345611 0.310436219 0.164706007
0.323971987 0.314105004 0.163441002
0.336115956 0.317141384 0.163441002
0.354332596 0.321948379 0.167109191
0.374067158 0.326502204 0.169512764
0.393421948 0.329537958 0.173181564
0.412017584 0.335609972 0.175458863
0.433269948 0.341682702 0.175205827
0.456420034 0.346489638 0.178368255
0.482353121 0.353447139 0.181783572
0.508412480 0.361416817 0.186843514
0.535736918 0.373560816 0.183807895
0.568880320 0.382795662 0.189500421
0.601644516 0.393295348 0.194939986
0.635167837 0.404806972 0.201518074
0.665274858 0.416950971 0.210373417
0.700569153 0.429095626 0.221758395
0.739911258 0.444276005 0.225553408
0.781277597 0.461227417 0.237318158
0.818975389 0.483112395 0.260214984
0.236432791 0.317267597 0.160784006
0.237697795 0.316128790 0.169766173
0.245920569 0.320050567 0.166730016
0.249462619 0.317014635 0.166223958
0.255913794 0.325363338 0.167362690
0.262997925 0.320303708 0.160278067
0.266793281 0.321315467 0.163314328
0.268690616 0.322706789 0.164706007
0.278558075 0.326501876 0.168500900
0.287666112 0.326755255 0.167362198
0.301580846 0.328525901 0.166603118
0.308665514 0.329538047 0.163567275
0.323086619 0.331814945 0.165844351
0.334218800 0.332574069 0.167362228
0.350663781 0.337761194 0.169512987
0.365211606 0.340796977 0.169513002
0.383428395 0.346868992 0.174066797
0.403795332 0.351422757 0.176723570
0.423782617 0.357494771 0.176217973
0.447185189 0.363567501 0.181277990
0.468437523 0.373434782 0.179380253
0.492220223 0.377988458 0.184439987
0.518279791 0.384313494 0.192915514
0.547880888 0.394180775 0.189879894
0.575205266 0.404048055 0.195952281
0.609740317 0.415939420 0.202150792
0.644149363 0.429095566 0.209234804
0.676407576 0.441239566 0.220240444
0.707273602 0.455787450 0.219987169
0.750790358 0.469702959 0.235673591
0.791018128 0.486654371 0.248323977
0.824414968 0.507906795 0.277166605
0.257685184 0.341555983 0.163819999
0.257685184 0.340037793 0.169892386
0.255028576 0.342820764 0.172802031
0.266666949 0.340797156 0.171030805
0.271473736 0.343200386 0.172675610
0.278684378 0.343580127 0.162808135
0.280708492 0.344086051 0.164832130
0.285389185 0.345477372 0.167741999
0.293738276 0.346236289 0.167741999
0.304364681 0.349272490 0.170018703
0.316255301 0.352308512 0.171663374
0.325363338 0.353826463 0.169639260
0.334851444 0.356862843 0.168880641
0.347375035 0.354838580 0.171410337
0.363061368 0.358381033 0.171916410
0.378873765 0.363567591 0.174067184
0.395572364 0.368121386 0.175584987
0.413788944 0.372928381 0.181024566
0.434155792 0.377229363 0.179759964
0.456673026 0.384819895 0.182036996
0.482099742 0.394687176 0.188488260
0.505376101 0.404807180 0.187476128
0.530297339 0.408728361 0.197722703
0.559266388 0.419228077 0.197470099
0.585831463 0.426818281 0.200506091
0.617330492 0.437318325 0.211005777
0.653763294 0.452372253 0.217836872
0.688172281 0.465528369 0.228968978
0.714358091 0.480328828 0.232384354
0.753826320 0.495509148 0.238709584
0.798861206 0.511575162 0.256926149
0.830487013 0.532195210 0.284756809
0.277039975 0.366476536 0.171789557
0.278304964 0.366476536 0.170524567
0.275015742 0.369512558 0.169892147
0.270335138 0.371789694 0.167362005
0.285894990 0.364579529 0.169259548
0.295762330 0.370651543 0.164958566
0.297912955 0.370398551 0.167109147
0.301834553 0.370398551 0.170271710
0.308918506 0.370525062 0.173181579
0.324098885 0.373560667 0.173181579
0.332827270 0.376597017 0.174826294
0.341808558 0.377609134 0.175711721
0.351296186 0.378747612 0.174320057
0.365970582 0.382036984 0.177356452
0.377735794 0.382795960 0.175079152
0.392283320 0.386337996 0.177482784
0.408981353 0.391777545 0.179886371
0.426565528 0.397216976 0.181024566
0.444781572 0.397216976 0.184060961
0.465780944 0.405566335 0.185578987
0.490195870 0.415306956 0.190006256
0.516255319 0.426059544 0.197722718
0.543579698 0.432384551 0.200885579
0.570904672 0.444528550 0.204427898
0.595951974 0.452118546 0.208096281
0.625173867 0.462238878 0.212776572
0.661100626 0.474383533 0.225932583
0.697406828 0.489437401 0.235420436
0.723086774 0.504617274 0.243769556
0.755977094 0.520429730 0.254016370
0.798861206 0.535863161 0.269196928
0.835294008 0.554079950 0.287412971
0.289184034 0.393800974 0.186969951
0.295256019 0.393801033 0.180897966
0.300822020 0.393801004 0.177482739
0.298039019 0.395572186 0.170904636
0.291967034 0.397976011 0.163187578
0.310183018 0.404047996 0.178367928
0.314990401 0.400000006 0.176597297
0.321062744 0.397723019 0.174320236
0.329917908 0.397723019 0.173308104
0.339278549 0.397849530 0.176217973
0.345730811 0.400885880 0.173308119
0.358127713 0.401897997 0.176850051
0.372548640 0.403036356 0.179886013
0.387223035 0.406325042 0.180392087
0.396331400 0.412397027 0.183428451
0.410499811 0.413156062 0.188361973
0.427197933 0.415180266 0.191145018
0.444781572 0.418469429 0.190132976
0.459962010 0.421505064 0.184060991
0.480961382 0.429854423 0.189880013
0.504111469 0.437065035 0.193548277
0.527641058 0.444655150 0.198102280
0.549652457 0.453636974 0.203921974
0.576976836 0.465781003 0.209993988
0.602024019 0.473370999 0.215813011
0.630487084 0.485009342 0.218848974
0.664137125 0.501708031 0.222896978
0.697533369 0.513852060 0.241112962
0.731182754 0.528905869 0.255913824
0.763567090 0.545856953 0.270335197
0.798861206 0.562934637 0.287918985
0.835294008 0.578368068 0.311701030
0.315243363 0.426692069 0.182668984
0.315749377 0.432258099 0.184946358
0.319671154 0.430107325 0.183175355
0.325110734 0.428209901 0.182036996
0.323592752 0.427830726 0.177482724
0.327387720 0.429095715 0.180645287
0.335483700 0.432637393 0.185705036
0.342062086 0.430613369 0.184819654
0.351170272 0.432131380 0.185199007
0.360277921 0.436179399 0.190259144
0.374825746 0.436305910 0.190259144
0.384946525 0.437318027 0.187223271
0.397090435 0.437318027 0.189879715
0.408728451 0.438962460 0.191018015
0.420367122 0.445035070 0.186464056
0.436685711 0.448703289 0.199114442
0.450727344 0.452118754 0.198734820
0.465780944 0.455787390 0.196204796
0.480961353 0.456672788 0.198735371
0.498924375 0.465275109 0.195446014
0.522074521 0.470588475 0.205312997
0.546363235 0.476786941 0.211005494
0.569513321 0.486021370 0.215180486
0.594180882 0.498165369 0.218595654
0.626059294 0.508032680 0.224668220
0.654648662 0.517393708 0.233523339
0.685136139 0.531815171 0.240607426
0.711701751 0.543959737 0.251992702
0.745098114 0.558760524 0.267551839
0.778494477 0.573940456 0.286274195
0.812776566 0.591144562 0.307906181
0.849209368 0.608222723 0.335989714
0.338772744 0.456293732 0.189879730
0.340670466 0.462365717 0.185325652
0.340923488 0.463883698 0.186211258
0.343959570 0.460847288 0.186211258
0.349019557 0.459329516 0.186970264
0.350537747 0.463883698 0.190006256
0.353699982 0.462618887 0.190638676
0.361416668 0.467299223 0.185451999
0.370525092 0.467805207 0.188235089
0.379633009 0.471600235 0.197722733
0.392662585 0.471853197 0.197975740
0.405818760 0.471853197 0.195951521
0.416824877 0.472991586 0.196331546
0.426438749 0.474003494 0.199873477
0.440227836 0.478431553 0.197090477
0.457178980 0.483997673 0.204047799
0.475395381 0.487033278 0.210120201
0.488931030 0.491460711 0.204933465
0.504111469 0.491460711 0.211005926
0.518279493 0.499810070 0.208728626
0.538393199 0.505123436 0.209487721
0.564706028 0.508159578 0.221631721
0.590639234 0.515496254 0.227577493
0.613156497 0.525869489 0.234155566
0.642378032 0.535736740 0.241366297
