Assets/Resources/EldamarStudio/100 Horror LUTs Pack/LUTs/cube/Itris LUT.cube
LUT_3D_SIZE 5
DOMAIN_MIN 0.000000 0.000000 0.000000
DOMAIN_MAX 0.903226 0.903226 0.903226
0.176470995 0.062744997 0.078431003
0.222264409 0.073876999 0.101327993
0.309929967 0.103984565 0.086907417
0.463124245 0.174572989 0.110815868
0.765464544 0.215685993 0.130802989
0.173181579 0.172928706 0.094750002
0.201644704 0.175205410 0.093484998
0.295509398 0.200758979 0.106261700
0.455281228 0.259329706 0.112460420
0.773307562 0.300442874 0.137887165
0.091967605 0.342694819 0.128146991
0.151929289 0.340417504 0.125616401
0.255028814 0.355091393 0.114990167
0.446553111 0.418216527 0.116002284
0.783048868 0.467552245 0.120303839
0.008728874 0.605439365 0.100948870
0.004554003 0.613156140 0.092726424
0.209107921 0.620366991 0.089816712
0.488804251 0.629854262 0.092978880
0.826818585 0.670335233 0.109930143
0.003922000 0.902466595 0.134977624
0.000000000 0.907147467 0.145983472
0.311954379 0.910309613 0.148766369
0.633776128 0.913978279 0.161037296
0.918405533 0.910309613 0.190132588
0.174826279 0.082353003 0.178494409
0.212776706 0.087286711 0.174572989
0.276533574 0.130803406 0.184693277
0.430992842 0.179759577 0.204680562
0.748513401 0.207463890 0.226818576
0.170271710 0.164452702 0.160531700
0.200000003 0.180138692 0.173560709
0.271726698 0.201391399 0.183807805
0.426818401 0.252751291 0.211764589
0.752435386 0.296521097 0.225932851
0.094876908 0.327640384 0.180391997
0.149904877 0.331562400 0.189247280
0.242884293 0.346616238 0.192536280
0.429474950 0.405819118 0.203668267
0.774952531 0.462997973 0.220113680
0.000000000 0.601770818 0.189880118
0.004301290 0.602150559 0.190639123
0.196963802 0.612270653 0.193801284
0.475774795 0.622011244 0.193548411
0.823529124 0.666413665 0.217077821
0.002909875 0.903858542 0.241366223
0.000000000 0.902213931 0.239974663
0.328399360 0.907147169 0.254016191
0.636811912 0.908665419 0.261606306
0.921062529 0.905755758 0.277672172
0.160784006 0.089563578 0.328272969
0.203921586 0.110183284 0.314864099
0.278557986 0.136622414 0.301454395
0.429475129 0.180771708 0.339405239
0.747880995 0.194813162 0.374699384
0.150917009 0.195825279 0.302719980
0.185579002 0.199114278 0.294243962
0.259203106 0.211511701 0.301454395
0.422264546 0.247817993 0.330929816
0.752435386 0.281846792 0.374699533
0.069702610 0.334218383 0.304111391
0.125363603 0.336748809 0.307653248
0.242504582 0.368880838 0.316508830
0.427577376 0.401897669 0.333206713
0.769386411 0.461100399 0.378747374
0.002023998 0.591271639 0.340037823
0.003542291 0.592283547 0.338013560
0.175837919 0.603289127 0.333839118
0.470208973 0.617710531 0.350158274
0.821631968 0.668057919 0.396078318
0.007210577 0.893991172 0.412143916
0.011511698 0.896900475 0.411511362
0.359139383 0.899809778 0.412143767
0.649968207 0.902466714 0.426312506
0.921821833 0.906388581 0.445034593
0.100822128 0.141303003 0.532701135
0.179759562 0.148766711 0.525490165
0.316888124 0.168374121 0.515117109
0.475016266 0.191144869 0.507274151
0.771410525 0.198734835 0.546489537
0.048576765 0.239721686 0.512080967
0.152561709 0.241619527 0.514358103
0.296647668 0.251106977 0.508539140
0.467425555 0.258949995 0.506135225
0.779253602 0.290322572 0.548134208
0.005186579 0.398987800 0.503605247
0.004933708 0.401897520 0.507020831
0.248576656 0.415686548 0.504617512
0.462365508 0.417963415 0.503352106
0.788994014 0.470335215 0.554712176
0.000000000 0.596584260 0.507274151
0.000632580 0.604680419 0.514990568
0.202530175 0.617330968 0.514105201
0.527134359 0.649462283 0.541556239
0.835040867 0.686021268 0.578874052
0.050474398 0.890701950 0.599873364
0.179632917 0.894876599 0.599620581
0.447943956 0.893991172 0.615939081
0.667551875 0.898291886 0.615306795
0.917393684 0.900189638 0.633017123
0.002656833 0.215938956 0.826818585
0.006198711 0.223149955 0.823276281
0.330170393 0.233649373 0.822896719
0.584819853 0.244781628 0.814674437
0.862112582 0.240859941 0.813662589
0.004301121 0.313092679 0.826818585
0.002530012 0.315369964 0.821884751
0.321821809 0.326755106 0.818342984
0.585578620 0.336369216 0.816444933
0.865781248 0.337634206 0.811385334
0.003289416 0.509677172 0.806578040
0.002909714 0.509930491 0.813409150
0.320809603 0.514864147 0.811764777
0.593548238 0.519417763 0.814041734
0.866792977 0.518785179 0.812523365
0.003542140 0.708918214 0.817077577
0.034661643 0.713599265 0.814421177
0.377355814 0.713978291 0.811764956
0.625300348 0.714231193 0.813788414
0.877292514 0.715243280 0.817457080
0.147248551 0.915622592 0.833396435
0.267551482 0.910942435 0.830866396
0.486780614 0.907020986 0.834155798
0.707653224 0.908032835 0.836685419
0.919544578 0.915496707 0.858190536
