Assets/Resources/EldamarStudio/100 Horror LUTs Pack/LUTs/cube/Itris LUT.cube
DOMAIN_MIN 0 0 0
DOMAIN_MAX 1 1 1
LUT_3D_SIZE 32
0.176470995 0.062744997 0.078431003
0.179506615 0.065781385 0.081467390
0.182542771 0.068817228 0.084503770
0.185578838 0.069323160 0.086274996
0.189753100 0.067425996 0.087792993
0.201897874 0.073497996 0.099936999
0.211511672 0.071979679 0.099430680
0.222264409 0.073876999 0.101327993
0.232890993 0.078431003 0.105123095
0.238962993 0.078431003 0.102087483
0.245034993 0.081340872 0.099051133
0.257179260 0.084377259 0.096015260
0.273497999 0.088551998 0.092979357
0.291714013 0.094876967 0.089943029
0.309929967 0.103984565 0.086907417
0.328146607 0.110688992 0.091081992
0.343326986 0.119797379 0.094117999
0.357368559 0.131941974 0.096015409
0.378620982 0.144086018 0.105123028
0.402656734 0.150664002 0.105881996
0.430739999 0.162428737 0.107779734
0.463124245 0.174572989 0.110815868
0.499556988 0.180644989 0.113851510
0.535989821 0.186717004 0.116887905
0.576976538 0.197343573 0.122200996
0.620872974 0.205313325 0.125489995
0.666414082 0.208855003 0.125489995
0.711954415 0.214926988 0.125489995
0.765464544 0.215685993 0.130802989
0.818342566 0.217457205 0.136874974
0.871726751 0.219607994 0.143832594
0.929412007 0.219607994 0.152941003
0.173434600 0.068816997 0.081467390
0.182543010 0.056672998 0.093611389
0.185578614 0.064010382 0.090195999
0.188614786 0.071347229 0.090575770
0.192409948 0.075774617 0.092726447
0.201897874 0.076533608 0.096900612
0.211511672 0.077545613 0.096394934
0.215685993 0.081593700 0.098292388
0.225300416 0.087539390 0.101328388
0.245034993 0.087539390 0.096015483
0.251107007 0.093358383 0.098798133
0.263251275 0.096521258 0.098039001
0.278431624 0.099557355 0.094876610
0.293991357 0.103731610 0.090195999
0.303857982 0.110056564 0.089943029
0.317267597 0.119164795 0.094117604
0.334218979 0.128905386 0.094117612
0.353826523 0.141049758 0.092979178
0.384692997 0.153194413 0.102087423
0.403162718 0.162555039 0.108412385
0.428842723 0.168880463 0.110815644
0.460088640 0.177609384 0.113851741
0.496647865 0.183934376 0.116887897
0.535989821 0.195825398 0.119924292
0.579253852 0.204174682 0.120683387
0.621125996 0.211385310 0.122454390
0.664389789 0.214421049 0.123466387
0.714990795 0.217963383 0.128526390
0.763187945 0.218722388 0.133839384
0.817077637 0.222264364 0.138140157
0.870841146 0.225679994 0.142947212
0.926375628 0.225679994 0.149905384
0.168247998 0.079190545 0.082353003
0.181657389 0.077798769 0.094497003
0.182163224 0.074256770 0.082985222
0.187729165 0.079569995 0.089563541
0.192536458 0.085262321 0.097280458
0.198102385 0.087033547 0.093232058
0.211511672 0.089183778 0.097659551
0.217330709 0.092472769 0.092979230
0.222390771 0.098797999 0.097027220
0.243896216 0.098797999 0.096521229
0.255028784 0.102466770 0.097027130
0.261100799 0.110563025 0.098039001
0.275901645 0.111575134 0.094623648
0.290829003 0.113092802 0.088551767
0.301834345 0.121062540 0.092346773
0.319797605 0.133839354 0.095002994
0.334977984 0.138393551 0.096521199
0.352561563 0.148007527 0.093611762
0.376850009 0.160151944 0.101201974
0.407083958 0.169513196 0.105376229
0.429095715 0.178620800 0.105755970
0.458191127 0.185958356 0.108285643
0.493738204 0.193168998 0.111574724
0.535230935 0.201265007 0.118659131
0.574952304 0.211132288 0.123719223
0.621885121 0.216066003 0.123719223
0.665148854 0.218848765 0.124225289
0.715117276 0.223529443 0.128652990
0.764073551 0.228210002 0.134724990
0.817963481 0.231751978 0.137254998
0.872991920 0.234282017 0.138140172
0.927640796 0.231751993 0.140417457
0.167236000 0.095129833 0.083618164
0.179886386 0.095635772 0.090702161
0.182163224 0.097785994 0.088045552
0.182921991 0.097785994 0.079443164
0.192789376 0.097406544 0.100316390
0.199367225 0.098671928 0.092979223
0.208728313 0.105502836 0.096521161
0.217330709 0.107653156 0.096015163
0.224161997 0.113725156 0.090702064
0.242378011 0.114737153 0.095256001
0.249715418 0.116381861 0.092979006
0.266666859 0.120936245 0.095509000
0.272739142 0.128905997 0.095509000
0.287539959 0.127008155 0.087792866
0.300695837 0.135104403 0.092852995
0.317520618 0.142694637 0.097786352
0.337255150 0.155344844 0.100316033
0.356736124 0.157242417 0.097912833
0.373814017 0.168754026 0.102719851
0.403162390 0.179380208 0.107273646
0.430866480 0.187223583 0.107779577
0.458191127 0.196331173 0.106767967
0.491713971 0.205312997 0.109677158
0.531941831 0.211385012 0.115369901
0.575964451 0.218469441 0.120936155
0.615812302 0.225933149 0.125489995
0.663377821 0.227451086 0.124984063
0.710436523 0.234281987 0.126502454
0.764073551 0.236559153 0.134724990
0.815433145 0.242631137 0.138519838
0.874004066 0.246932164 0.137634456
0.929412007 0.241619155 0.134598166
0.171790004 0.116002090 0.087413445
0.180898383 0.113345936 0.086654447
0.181783766 0.114610776 0.085895449
0.183301538 0.116002090 0.090449385
0.188614547 0.116381548 0.096141458
0.203794941 0.113345936 0.093105845
0.212143987 0.121821538 0.098419003
0.217330709 0.127007991 0.099051453
0.223782539 0.128526092 0.093358904
0.241998538 0.134598091 0.090322509
0.243137002 0.135230541 0.084377006
0.259455800 0.137634262 0.086401001
0.279190183 0.140670553 0.089816548
0.287033916 0.146742553 0.090828545
0.302719563 0.152814552 0.094244413
0.317140788 0.155597553 0.098165996
0.334598392 0.161290079 0.102340356
0.353700519 0.172042564 0.105881996
0.377988577 0.181150973 0.105882004
0.405059934 0.192662567 0.112207100
0.430486917 0.201391473 0.113724999
0.457811683 0.208475962 0.115116678
0.491461009 0.217583567 0.118026547
0.528146803 0.223908544 0.118026547
0.573687553 0.230360568 0.119544737
0.618089616 0.236053526 0.122201316
0.658823133 0.242252037 0.125363514
0.701327860 0.251359612 0.122327909
0.758633673 0.250221401 0.131056413
0.814800620 0.252498537 0.139025763
0.866792798 0.256799549 0.141808614
0.927514434 0.256799549 0.138772994
0.165718004 0.134218872 0.096521065
0.174826384 0.134218872 0.090449065
0.177482992 0.135863155 0.085389063
0.182036936 0.136369094 0.089184225
0.191650942 0.134598315 0.099177845
0.191650927 0.137633935 0.080961071
0.204301000 0.139658317 0.090575770
0.213788703 0.140923232 0.096774295
0.223403081 0.140670180 0.096015058
0.238962933 0.146742865 0.090322509
0.242631063 0.149904996 0.084377006
0.251233518 0.154458925 0.086401001
0.264769286 0.156609640 0.089057647
0.274889171 0.155850932 0.087792933
0.302213550 0.161922932 0.099936925
0.313092798 0.172801927 0.096142009
0.330803394 0.181404129 0.095129997
0.353447556 0.189753294 0.097533345
0.374952972 0.193294972 0.105882011
0.402024299 0.202403367 0.117014714
0.427450895 0.212017670 0.116761386
0.454775453 0.220620126 0.115749255
0.488425374 0.229728341 0.121062934
0.527893841 0.238835976 0.121062934
0.573687553 0.247438222 0.118785650
0.618089616 0.253257662 0.118153065
0.659076095 0.257305920 0.119670995
0.707399845 0.263504416 0.125363514
0.757874429 0.264642864 0.124984063
0.814547539 0.267678916 0.134092033
0.866793156 0.271979928 0.143832594
0.912334085 0.271979928 0.150916994
0.172296315 0.154965326 0.098039001
0.173814386 0.154965326 0.097027004
0.178621218 0.157115549 0.093105771
0.181530669 0.158886313 0.089943320
0.190385684 0.157494992 0.097280450
0.194686681 0.158380374 0.094117455
0.197217003 0.158886313 0.086021319
0.207716703 0.160277992 0.091587678
0.216824904 0.160404503 0.092978999
0.228462860 0.166477278 0.090448998
0.249715447 0.164579436 0.099556997
0.252751559 0.167615578 0.095509261
0.265654981 0.173181638 0.096647680
0.279443353 0.175079316 0.094370671
0.297659725 0.181151316 0.101960659
0.310562521 0.189627126 0.106894478
0.328779250 0.200126439 0.104237996
0.354712546 0.208601981 0.104870409
0.379759997 0.213535368 0.110183030
0.398988038 0.224667996 0.111954078
0.426312387 0.231878638 0.114611097
0.454269379 0.240354449 0.112207189
0.487919450 0.249336302 0.116508357
0.527387917 0.256040752 0.116508357
0.571410239 0.262871623 0.121062934
0.618342638 0.270335317 0.121568635
0.662618458 0.274510086 0.124225058
0.715243101 0.278558314 0.132321313
0.769006431 0.281847000 0.130549997
0.820619524 0.283618212 0.130549997
0.875901103 0.288931310 0.140543595
0.924983978 0.292220324 0.152941003
0.173181579 0.172928706 0.094750002
0.174826279 0.174572989 0.091461010
0.176976934 0.176723644 0.092599772
0.177482545 0.177229241 0.093359001
0.183554545 0.177229241 0.094497450
0.193421721 0.178494409 0.097533062
0.203542024 0.178494409 0.099556990
0.201644704 0.175205410 0.093484998
0.210752904 0.178241402 0.094244093
0.219860524 0.186084956 0.095129706
0.240227744 0.185072824 0.100189716
0.253636837 0.186084956 0.103858262
0.258950204 0.189121053 0.101961002
0.276154369 0.194686994 0.100189708
0.295509398 0.200758979 0.106261700
0.310815901 0.207590088 0.109930091
0.322959870 0.216698483 0.111448288
0.350411415 0.224541277 0.111448288
0.378748000 0.229601428 0.113472030
0.399367720 0.241239712 0.112080708
0.424920708 0.251233697 0.113472030
0.455281228 0.259329706 0.112460420
0.489437252 0.269196987 0.115369707
0.527387917 0.278304964 0.115369707
0.571410239 0.284376979 0.121568568
0.616950929 0.289057672 0.122075006
0.664516151 0.294370621 0.124857709
0.720303535 0.297406703 0.132827446
0.773307562 0.300442874 0.137887165
0.826185524 0.303478926 0.136621997
0.876913130 0.305629700 0.138393208
0.930043995 0.310183704 0.151296720
0.167108998 0.191145092 0.093231998
0.170145392 0.192662716 0.087159999
0.174699768 0.195698872 0.087539770
0.174446732 0.196964025 0.090322994
0.173308000 0.194307193 0.096015446
0.188108936 0.196964040 0.099051058
0.201012239 0.196711004 0.103098996
0.207716912 0.195699096 0.101834103
0.206198901 0.191145077 0.098039001
0.215306520 0.203289092 0.101075388
0.230866656 0.204554006 0.101961002
0.244528830 0.206578270 0.101961002
0.254395634 0.211132556 0.102719903
0.264010012 0.214168161 0.102719903
0.286780715 0.219734088 0.107779898
0.306261867 0.225806087 0.112207189
0.323719203 0.232637390 0.114484094
0.341429532 0.241745606 0.115116671
0.371663868 0.245034978 0.115243189
0.395193279 0.256420195 0.113219447
0.422138065 0.265907854 0.112460352
0.453763247 0.276028097 0.116255127
0.490448952 0.287919104 0.119164996
0.528146803 0.298798084 0.119164996
0.570651352 0.307147175 0.123719186
0.617710054 0.311827689 0.126629010
0.664263129 0.315876067 0.123592995
0.721442163 0.319417745 0.130170986
0.776849806 0.322454035 0.136622235
0.826185524 0.324731320 0.140417099
0.879949093 0.328400075 0.144465208
0.928526044 0.328400075 0.150537997
0.161036998 0.218469471 0.105376005
0.164073408 0.215433091 0.099304006
0.171410769 0.216951266 0.099683776
0.173940659 0.218722492 0.101455003
0.170271605 0.218595982 0.102087453
0.182416379 0.218595982 0.105123065
0.189627007 0.216192171 0.105628997
0.196078509 0.216571718 0.100948721
0.203162506 0.218469501 0.095003396
0.215306506 0.218469501 0.098039009
0.224414870 0.221884623 0.101075396
0.237950772 0.224794269 0.101961009
0.251739502 0.230107650 0.103099361
0.264010012 0.238456950 0.105755523
0.279190421 0.241492569 0.105755515
0.297153503 0.247058496 0.110815510
0.315369904 0.253130883 0.115243189
0.335357547 0.259962410 0.118153058
0.362681985 0.269070059 0.121189453
0.390132874 0.280708700 0.121315971
0.419101983 0.289057970 0.119291745
0.450474590 0.297280490 0.119544476
0.484376967 0.309171468 0.125236988
0.526881814 0.315243483 0.125236988
0.569133520 0.323845774 0.125236988
0.615939438 0.330044299 0.124225207
0.667299509 0.334092081 0.123593003
0.718911827 0.343200415 0.135736972
0.781403959 0.346742809 0.137001991
0.832257807 0.348007977 0.137381479
0.880455136 0.349905491 0.141809076
0.940670013 0.355724484 0.156609997
0.157874882 0.228336871 0.111700997
0.166729525 0.231119469 0.108538866
0.154712141 0.236685634 0.102466874
0.159519419 0.238709703 0.103225842
0.167235866 0.237824008 0.104490675
0.179380000 0.242883980 0.102466941
0.186464131 0.237823993 0.105502546
0.197469831 0.239341870 0.110815704
0.205819011 0.242125094 0.110057004
0.209361017 0.239974871 0.106641389
0.221505001 0.239974856 0.109676994
0.230613381 0.243010461 0.110689126
0.244022772 0.248323634 0.111827768
0.258191019 0.256926030 0.113851830
0.273371398 0.259962320 0.105881996
0.288551778 0.270208746 0.105881996
0.313852042 0.278810918 0.112460189
0.339658558 0.285642296 0.117647000
0.362429023 0.290195912 0.118406102
0.392536730 0.302086890 0.118659131
0.421884865 0.312333882 0.120556869
0.454269350 0.320430130 0.120556869
0.489689976 0.330423862 0.122454360
0.526628792 0.336495847 0.119671002
0.571410239 0.344845146 0.117393717
0.618722081 0.352561861 0.122327462
0.670335352 0.357621729 0.126881927
0.721948266 0.364326298 0.127008110
0.776217461 0.368121713 0.133839116
0.832131505 0.371157646 0.136116341
0.879822969 0.372295976 0.139911592
0.932447851 0.374319971 0.151044011
0.146742746 0.253637224 0.111701258
0.149778634 0.254649103 0.110689387
0.155724004 0.255914003 0.107526734
0.146363169 0.262492090 0.105249897
0.158507466 0.260973781 0.108285703
0.172295749 0.262112498 0.108538665
0.177356005 0.264136255 0.110562928
0.183428004 0.261353254 0.110309541
0.198228955 0.264389336 0.114863843
0.205819279 0.261353731 0.110056996
0.217457250 0.263250977 0.110689387
0.225553244 0.267299503 0.115749255
0.239215642 0.270335108 0.116887897
0.255661041 0.277419269 0.119165190
0.267299414 0.282226384 0.111827582
0.286527783 0.288424969 0.118026502
0.304744184 0.300569355 0.116508313
0.334218979 0.308918655 0.121062577
0.356862754 0.311954319 0.119671255
0.382416487 0.323339283 0.119671255
0.416572213 0.333586007 0.115875773
0.449209243 0.343706250 0.117520489
0.486021221 0.353700012 0.117647000
0.528146803 0.359772533 0.118406095
0.571410239 0.368121266 0.119418226
0.621125579 0.375837952 0.121947818
0.672865331 0.381910086 0.131941795
0.722960293 0.387982488 0.131941795
0.777229548 0.391397834 0.130802989
0.831878304 0.394434214 0.133332998
0.881973505 0.398355514 0.137887329
0.929412007 0.400632501 0.146995738
0.132701010 0.284756631 0.113219641
0.132701010 0.284756631 0.110942349
0.137001991 0.284756631 0.111068867
0.142947525 0.284883112 0.109424159
0.147122353 0.287539274 0.111701451
0.161543071 0.285262555 0.113219060
0.166603327 0.285009325 0.112839676
0.172422349 0.288677633 0.114863940
0.180771440 0.290195823 0.114863738
0.198608696 0.288298756 0.113346122
0.209867358 0.288804412 0.110942349
0.219102010 0.291587532 0.113851994
0.229727998 0.297659993 0.118785642
0.250727445 0.300695658 0.121821970
0.262492388 0.305882245 0.118405811
0.280076146 0.310815603 0.121062607
0.302466899 0.321062386 0.125616804
0.326249421 0.332574576 0.123213001
0.352055669 0.336622328 0.120683327
0.378621072 0.346868932 0.120430358
0.407084465 0.358254015 0.117773518
0.446553111 0.366350263 0.116761126
0.483491093 0.377988279 0.117140643
0.527008116 0.384060800 0.119164899
0.573687553 0.391271353 0.121062636
0.622263968 0.401264906 0.123466298
0.676407576 0.406830847 0.130550057
0.725616813 0.412270904 0.132321462
0.779506564 0.417963445 0.133459806
0.833016932 0.420999199 0.134471640
0.885009170 0.423150003 0.136242628
0.930550337 0.428716004 0.145098001
0.119291969 0.312334061 0.122074999
0.119038939 0.312334061 0.115749255
0.123592973 0.312334061 0.116128802
0.130676955 0.312334061 0.118406028
0.136495963 0.312587023 0.117520481
0.148639962 0.312587023 0.114484094
0.154206291 0.309803754 0.109930031
0.161543325 0.311448097 0.109044701
0.171663120 0.317267179 0.112081088
0.186843529 0.323339969 0.121189475
0.195951879 0.321189195 0.116508283
0.205819219 0.320177078 0.115749255
0.218595996 0.322201014 0.118279576
0.236812055 0.327767015 0.121062942
0.255028814 0.330803424 0.124098547
0.273244977 0.334092230 0.122833781
0.293990970 0.342694223 0.120809838
0.320176721 0.356609613 0.118658997
0.353573918 0.365718007 0.118658997
0.384440035 0.375079364 0.117141001
0.413156211 0.385832012 0.116002291
0.446553111 0.396205038 0.116002098
0.491966963 0.402403533 0.124730967
0.531561971 0.408601999 0.124730967
0.578115106 0.414927065 0.124730967
0.627830625 0.423276335 0.124477997
0.679443181 0.434155941 0.124477997
0.731056213 0.437191576 0.121442392
0.784819603 0.445034862 0.126375988
0.837950528 0.451106876 0.132447973
0.889057577 0.453004062 0.138772950
0.934598029 0.453004062 0.144844964
0.091967605 0.342694819 0.128146991
0.088931225 0.342694819 0.119038604
0.095129974 0.342694819 0.119165190
0.107400604 0.342694819 0.123466417
0.120809600 0.343074262 0.126375854
0.121315598 0.345983386 0.117520481
0.135989934 0.340923369 0.122074410
0.151929289 0.340417504 0.125616401
0.167615518 0.344086140 0.127261087
0.177735910 0.347627968 0.121189483
0.184187427 0.350790858 0.124478124
0.198988006 0.350537807 0.119544409
0.216445222 0.351676166 0.116508357
0.236812055 0.355091393 0.114990167
0.255028814 0.355091393 0.114990167
0.273244977 0.360530972 0.118026398
0.291460991 0.367488593 0.122833773
0.314104736 0.377861947 0.128146812
0.347501934 0.386970371 0.130802959
0.380898356 0.398861378 0.114104971
0.411764890 0.408475727 0.114863999
0.446553111 0.418216527 0.116002284
0.491966963 0.426692277 0.115622588
0.534471810 0.435799897 0.115622588
0.583175242 0.444275677 0.115622588
0.632764280 0.451359808 0.114231266
0.682479501 0.458696991 0.112839952
0.734091878 0.464515954 0.115369625
0.783048868 0.467552245 0.120303839
0.836432695 0.475395590 0.126375988
0.892220140 0.479696602 0.133333370
0.949778378 0.477292806 0.141808584
0.033396821 0.373054981 0.122201197
0.047185231 0.373054981 0.117899813
0.050601166 0.375205755 0.110942192
0.064516582 0.375458777 0.118279554
0.083491676 0.375079244 0.126628727
0.093611412 0.374066859 0.121568866
0.111068726 0.376723588 0.120303810
0.122960106 0.373940587 0.121442102
0.141935617 0.376217693 0.124478102
0.159266695 0.379253298 0.121948488
0.179886177 0.379885852 0.126881927
0.196078435 0.378874242 0.121821545
0.213535637 0.379633129 0.117647000
0.231246039 0.382921845 0.116381831
0.243011028 0.387223393 0.118532605
0.270841151 0.389626563 0.118532605
0.290575385 0.392662585 0.120050803
0.311574548 0.399746746 0.123339847
0.341429353 0.410625964 0.121062234
0.377229571 0.422517598 0.121441975
0.414421380 0.434661567 0.116508730
0.449336112 0.445287764 0.118026547
0.492219955 0.455660969 0.113598518
0.539278805 0.462491870 0.111321807
0.581783533 0.471600056 0.113598518
0.634408414 0.480708420 0.113724999
0.686021447 0.487286508 0.112713255
0.739531994 0.491460800 0.115749344
0.786084473 0.497279793 0.121441849
0.838203490 0.500316203 0.125743404
0.893737912 0.506388605 0.135610580
0.952941000 0.506388605 0.150790602
0.000000000 0.406451374 0.119165190
0.010626200 0.403415382 0.117647000
0.017204365 0.405566156 0.109423995
0.019481657 0.411132216 0.109677158
0.036053441 0.410373181 0.123971999
0.045540702 0.403921455 0.126628727
0.068816960 0.408981681 0.121569000
0.094117522 0.410373360 0.122960284
0.108538806 0.410373360 0.120682992
0.134345427 0.412650079 0.122960292
0.155597806 0.412776560 0.122833811
0.180898055 0.413788438 0.123339742
0.205566093 0.411891162 0.118785642
0.222897008 0.414547384 0.118659124
0.235800222 0.419355005 0.117900029
0.261733174 0.419987381 0.121569000
0.287539393 0.427577555 0.121569000
0.310056746 0.428209960 0.122201413
0.337381184 0.437697411 0.118785255
0.371536762 0.449841708 0.116508357
0.409867197 0.461986363 0.114990547
0.450348228 0.473118246 0.118026681
0.490702152 0.484503180 0.113598518
0.539278984 0.490575165 0.110562898
0.589373767 0.498924464 0.110562906
0.638836145 0.506641150 0.114990190
0.692599475 0.515623033 0.115243189
0.745224714 0.520682931 0.117267445
0.794939756 0.523339391 0.121442184
0.839721322 0.527640581 0.128779009
0.895255744 0.531562388 0.132700786
0.952941000 0.535231173 0.150790617
0.000000000 0.442251533 0.118406445
0.002403811 0.438709706 0.119671434
0.003289424 0.437824309 0.116129003
0.002656840 0.442125559 0.110942148
0.000000001 0.450094700 0.117393993
0.000000001 0.438962698 0.127514035
0.017077776 0.441998839 0.123213187
0.039721742 0.446806103 0.120683298
0.073245049 0.446806103 0.124225006
0.103605069 0.446806103 0.124225006
0.125490203 0.448071092 0.119671002
0.150411099 0.449462414 0.117014423
0.182669282 0.451359689 0.118785642
0.212524012 0.451865673 0.121062934
0.231498986 0.455281526 0.114990167
0.258697003 0.453510284 0.116002463
0.285136193 0.456166923 0.119038858
0.307653546 0.465781569 0.118406445
0.334977984 0.468817204 0.121442050
0.369133353 0.478937149 0.118026428
0.405692637 0.491081417 0.112587012
0.447438657 0.501581430 0.109550871
0.489943385 0.510689080 0.112586513
0.537508190 0.517267108 0.110562898
0.590006530 0.526248813 0.109803990
0.644781947 0.534598112 0.110057011
0.701961160 0.540670156 0.116634957
0.750790834 0.549651980 0.117014423
0.801391304 0.551423132 0.119038679
0.850220919 0.553826749 0.125616759
0.893990755 0.557115912 0.135103986
0.951676011 0.563187957 0.141176000
0.000000000 0.475648016 0.103226051
0.000000000 0.481720805 0.109298036
0.000253034 0.480329186 0.119165018
0.000253035 0.480329186 0.124224946
0.000000003 0.483491957 0.123465985
0.000000003 0.483491957 0.111322008
0.000000001 0.479949653 0.108791679
0.002277032 0.481214732 0.108538769
0.016192369 0.483238995 0.112333983
0.061100975 0.483238995 0.118152983
0.094370827 0.489058018 0.118152983
0.124477983 0.490575999 0.115622729
0.161416605 0.490828961 0.116255306
0.206451967 0.491334945 0.121062919
0.230739951 0.497406930 0.114990152
0.256925792 0.496015191 0.108917996
0.282985419 0.496015191 0.106894061
0.307653546 0.499178022 0.106261656
0.334978044 0.499178022 0.103226051
0.373434424 0.504997015 0.106261656
0.410499483 0.515370011 0.104743779
0.451233327 0.525490046 0.103478856
0.499051034 0.531941533 0.106514491
0.541555882 0.541049957 0.109550878
0.591397882 0.552182019 0.109803967
0.643263936 0.562681675 0.107020989
0.695889115 0.571031034 0.104490936
0.750537813 0.577103019 0.113598533
0.799367547 0.580771863 0.113978036
0.851739228 0.585326016 0.119544268
0.901834190 0.590259373 0.129537985
0.945603967 0.593548059 0.141176015
0.000000000 0.520177066 0.110309653
0.000000000 0.520683169 0.110815652
0.002150774 0.522454381 0.112586647
0.002783357 0.521315753 0.117140636
0.002783357 0.522454381 0.117140636
0.002783357 0.522454381 0.114610642
0.000253035 0.519924045 0.110056967
0.000000000 0.518532395 0.105376363
0.000759101 0.520430148 0.104996897
0.017963737 0.522454381 0.109044634
0.057432126 0.525490046 0.106514990
0.100948751 0.529538333 0.110562988
0.142694250 0.531436026 0.110942349
0.190006301 0.533080757 0.112713635
0.221884608 0.534092724 0.106641516
0.260594219 0.537760913 0.107779533
0.288298398 0.541556001 0.107400186
0.313219547 0.544592202 0.106767789
0.340544015 0.538140416 0.099430628
0.387349755 0.546489775 0.110309653
0.430613548 0.548766792 0.103858016
0.470714837 0.557368755 0.098165773
0.513725340 0.567109227 0.097280353
0.556230187 0.576217651 0.092346892
0.605566204 0.587602675 0.090828702
0.655787587 0.595572412 0.097280279
0.706009090 0.601897717 0.103478938
0.758380473 0.610246420 0.112586536
0.813029885 0.611005425 0.116381831
0.863630414 0.613915265 0.123592317
0.915496171 0.618089974 0.136369199
0.961795986 0.621126056 0.152308717
0.005692737 0.561922729 0.108032748
0.007589993 0.561922729 0.106135011
0.000253034 0.565717697 0.108032748
0.003289421 0.564452887 0.110562749
0.003922000 0.564199924 0.109930195
0.003922000 0.565717697 0.102340013
0.005186674 0.566982865 0.103605330
0.000505999 0.565591216 0.103858300
0.000759096 0.565591216 0.101581261
0.003795495 0.567488909 0.105755515
0.015180405 0.570525050 0.102972873
0.072106503 0.569765747 0.100316256
0.126375630 0.572802126 0.102972910
0.177735329 0.575838447 0.101960979
0.212776378 0.577482700 0.097533271
0.259076327 0.577988625 0.096774198
0.295509130 0.584060669 0.096774206
0.324351847 0.591271460 0.099051431
0.358001471 0.585958183 0.095003046
0.399114490 0.584060848 0.099683762
0.438203424 0.589373708 0.106135011
0.480708510 0.590385854 0.096015006
0.519671023 0.599620461 0.092093781
0.565717816 0.606957674 0.087792993
0.615053833 0.618342698 0.089690447
