Assets/Resources/EldamarStudio/100 Horror LUTs Pack/LUTs/cube/Itris LUT.cube
LUT_3D_SIZE 8
DOMAIN_MIN 0.000000 0.000000 0.000000
DOMAIN_MAX 0.903226 0.903226 0.903226
0.176470995 0.062744997 0.078431003
0.189753100 0.067425996 0.087792993
0.232890993 0.078431003 0.105123095
0.273497999 0.088551998 0.092979357
0.343326986 0.119797379 0.094117999
0.430739999 0.162428737 0.107779734
0.576976538 0.197343573 0.122200996
0.765464544 0.215685993 0.130802989
0.171790004 0.116002090 0.087413445
0.188614547 0.116381548 0.096141458
0.223782539 0.128526092 0.093358904
0.279190183 0.140670553 0.089816548
0.334598392 0.161290079 0.102340356
0.430486917 0.201391473 0.113724999
0.573687553 0.230360568 0.119544737
0.758633673 0.250221401 0.131056413
0.167108998 0.191145092 0.093231998
0.173308000 0.194307193 0.096015446
0.206198901 0.191145077 0.098039001
0.254395634 0.211132556 0.102719903
0.323719203 0.232637390 0.114484094
0.422138065 0.265907854 0.112460352
0.570651352 0.307147175 0.123719186
0.776849806 0.322454035 0.136622235
0.132701010 0.284756631 0.113219641
0.147122353 0.287539274 0.111701451
0.180771440 0.290195823 0.114863738
0.229727998 0.297659993 0.118785642
0.302466899 0.321062386 0.125616804
0.407084465 0.358254015 0.117773518
0.573687553 0.391271353 0.121062636
0.779506564 0.417963445 0.133459806
0.000000000 0.406451374 0.119165190
0.036053441 0.410373181 0.123971999
0.108538806 0.410373360 0.120682992
0.205566093 0.411891162 0.118785642
0.287539393 0.427577555 0.121569000
0.409867197 0.461986363 0.114990547
0.589373767 0.498924464 0.110562906
0.794939756 0.523339391 0.121442184
0.005692737 0.561922729 0.108032748
0.003922000 0.564199924 0.109930195
0.000759096 0.565591216 0.101581261
0.126375630 0.572802126 0.102972910
0.295509130 0.584060669 0.096774206
0.438203424 0.589373708 0.106135011
0.615053833 0.618342698 0.089690447
0.820240259 0.642504454 0.114484094
0.007843000 0.736116230 0.079063997
0.001897740 0.743579805 0.072991975
0.002277288 0.741682529 0.071347095
0.046679471 0.747248292 0.071220994
0.326755464 0.746995628 0.072105996
0.502466917 0.748892963 0.067425996
0.671346843 0.753447592 0.070588000
0.851359963 0.767615259 0.108791798
0.003922000 0.902466595 0.134977624
0.001265167 0.909424305 0.141429633
0.001265175 0.907653451 0.148007601
0.204301298 0.909550786 0.150031567
0.423023134 0.909930408 0.154459134
0.592789292 0.912966430 0.159266338
0.763187766 0.914737821 0.173687607
0.918405533 0.910309613 0.190132588
0.183175445 0.074889451 0.123466447
0.189373553 0.070588000 0.112460546
0.229348540 0.087413445 0.129285082
0.268564343 0.115622737 0.140037552
0.318152964 0.139911443 0.144591734
0.409234732 0.168880537 0.159392744
0.557368517 0.198355287 0.165844560
0.756862521 0.214041710 0.176091164
0.180012539 0.108159088 0.123086996
0.188235000 0.116761088 0.123086996
0.213283002 0.128526092 0.134851083
0.245667636 0.148134083 0.138773009
0.309044749 0.172042727 0.144971192
0.412776679 0.199747190 0.155092001
0.554965258 0.231498837 0.163061097
0.749019504 0.246932372 0.174825996
0.167867988 0.179380193 0.148640454
0.179633096 0.185325652 0.148260906
0.211006016 0.186843634 0.132447988
0.239848077 0.205692649 0.142314643
0.303605467 0.231498927 0.146615997
0.406830907 0.265148848 0.158001453
0.558380842 0.296774089 0.163820103
0.761543214 0.322074562 0.178241536
0.140670821 0.276913643 0.139025733
0.161036909 0.276154548 0.145350650
0.183175445 0.277672559 0.150411099
0.228968993 0.283870727 0.147754639
0.293611556 0.313978285 0.151549637
0.399367362 0.350158185 0.160404742
0.563946962 0.388867915 0.162808269
0.766982853 0.408601910 0.167109296
0.019228626 0.394813180 0.160404652
0.045540638 0.403035820 0.155724347
0.108918369 0.401771277 0.156356633
0.195572540 0.407716811 0.159266010
0.284377158 0.411511719 0.156483367
0.401138723 0.450600922 0.155345008
0.580645144 0.494623929 0.153320655
0.787349761 0.522959828 0.158886984
0.000379548 0.552308917 0.137760550
0.000379548 0.557874680 0.143200547
0.000379548 0.559772432 0.140290990
0.120303638 0.564832091 0.145224810
0.285262555 0.574699461 0.143959358
0.421252221 0.579759955 0.139658093
0.609614015 0.610499740 0.141555741
0.817583680 0.641492605 0.158760265
0.002403711 0.732574284 0.131182998
0.000000000 0.732574284 0.132321090
0.004933716 0.732194662 0.119291618
0.041745830 0.737001598 0.123086825
0.311068743 0.741935194 0.135483906
0.495762020 0.746995747 0.127514347
0.669070065 0.746489584 0.134724796
0.847185552 0.756230295 0.155597627
0.005312988 0.902846158 0.172169358
0.008855440 0.902340233 0.186969876
0.005439713 0.901201546 0.183175072
0.192409754 0.900695562 0.187096700
0.416318983 0.901454508 0.194939986
0.593042493 0.907526910 0.199746996
0.761037350 0.908032894 0.214674219
0.922454357 0.906388581 0.222264454
0.173308089 0.082353003 0.196711004
0.186590999 0.081214458 0.192030102
0.221885085 0.095635995 0.192030102
0.265022010 0.112839997 0.188108996
0.314231306 0.141809195 0.207716897
0.398608357 0.172928542 0.218595996
0.543959260 0.192157000 0.232764289
0.745730519 0.203162909 0.243263930
0.184819460 0.123845994 0.186590999
0.181530535 0.129285082 0.181404546
0.211006001 0.136369094 0.182669014
0.244022727 0.154838547 0.193168640
0.302466989 0.176343992 0.202150285
0.397090346 0.203795001 0.217457443
0.544718742 0.221758097 0.233902723
0.742314875 0.240607098 0.246426255
0.171030998 0.184946194 0.182542995
0.184819564 0.192030102 0.184946090
0.200000003 0.201391101 0.185705081
0.239089087 0.210373461 0.197469994
0.295382798 0.235041186 0.211638093
0.397469729 0.259329468 0.221378833
0.546995699 0.289057374 0.231119573
0.754206300 0.315749168 0.247185260
0.139405355 0.275016069 0.205819353
0.143200457 0.276534110 0.199873209
0.182416350 0.277292997 0.203415543
0.223149538 0.284756631 0.200252742
0.288677752 0.311701179 0.210752904
0.392536104 0.347374916 0.225300550
0.559266150 0.380012274 0.228969097
0.760404587 0.405819058 0.237571299
0.014421009 0.394813269 0.210878998
0.040860444 0.392662823 0.210879207
0.112586722 0.397849262 0.211638302
0.188741371 0.397343755 0.205945387
0.269576102 0.408855379 0.213156298
0.395192653 0.447185397 0.217457354
0.575331688 0.491081476 0.225679994
0.781530619 0.516634762 0.240480900
0.002783356 0.553700387 0.220746458
0.002277191 0.553952992 0.222137824
0.002024260 0.559139609 0.215180352
0.109424345 0.557874918 0.218722194
0.283365071 0.567235887 0.215180367
0.416065842 0.576723814 0.208728731
0.605945408 0.607716560 0.221631989
0.816445172 0.638583481 0.242884099
0.003289004 0.729158640 0.209994003
0.000000000 0.733206570 0.220999196
0.004933716 0.733712792 0.216445103
0.038330290 0.740543962 0.215686545
0.313978553 0.741682410 0.212903291
0.494750053 0.744591951 0.220493451
0.663503766 0.749652267 0.220240384
0.848323941 0.760151684 0.246046901
0.003415734 0.902340353 0.262112737
0.002277284 0.902340472 0.266540319
0.003289125 0.899683714 0.268057913
0.226944759 0.907274067 0.272106349
0.429095477 0.910815895 0.278178513
0.598102450 0.908159375 0.282605886
0.761669755 0.906641245 0.293105632
0.922074556 0.906261802 0.302719861
0.163567364 0.075142287 0.276913643
0.184693456 0.085768647 0.275015980
0.210879087 0.100315996 0.269070625
0.256040663 0.119417645 0.261732996
0.307653338 0.149778992 0.277798831
0.396331370 0.173181370 0.292093396
0.542820930 0.187729344 0.313345999
0.741682172 0.192157000 0.328146666
0.160784096 0.139784738 0.263630748
0.183175445 0.138646185 0.254522264
0.203795090 0.149272546 0.259329170
0.238330096 0.156610012 0.252498746
0.297280461 0.175837830 0.271853179
0.388741136 0.198229089 0.286653876
0.543200552 0.217204183 0.316508383
0.734724939 0.228209898 0.331435978
0.156229913 0.196963742 0.261226922
0.169386089 0.200126648 0.255787641
0.194813445 0.213156193 0.261732996
0.234408900 0.215433106 0.261733115
0.289436847 0.236559287 0.269955814
0.389879644 0.258949935 0.291840732
0.547248602 0.280075759 0.311069012
0.746995151 0.306008935 0.337128341
0.128146708 0.272991627 0.252245277
0.141809374 0.280834645 0.256926090
0.173940361 0.288677633 0.269955724
0.225300640 0.298798651 0.270714641
0.283617973 0.317646831 0.275648177
0.382795542 0.344212532 0.292726249
0.547374904 0.373940647 0.304996908
0.753952980 0.399494082 0.325237095
0.005945647 0.392789632 0.279316843
0.023150012 0.398735106 0.281340986
0.097533286 0.401391655 0.284882635
0.186590895 0.399746984 0.283618003
0.264642566 0.413535357 0.277672648
0.394054025 0.444402128 0.293485254
0.571537137 0.480835080 0.311069071
0.782289565 0.518026590 0.333333433
0.000000000 0.544465184 0.290954918
0.003542452 0.547248662 0.298165649
0.001138645 0.552435100 0.295003444
0.089816347 0.555471122 0.295129657
0.273118377 0.565338492 0.296647638
0.420872748 0.572675288 0.297280520
0.601518035 0.603795350 0.310816079
0.816445231 0.637318313 0.337887526
0.003289004 0.722707510 0.313345999
0.001138644 0.727640569 0.313598722
0.005945550 0.726502359 0.309677422
0.039848190 0.729917526 0.303858250
0.306515068 0.735736787 0.309550643
0.491461188 0.739025772 0.315116912
0.659076393 0.741176188 0.318532258
0.839848101 0.763440907 0.342821270
0.002783356 0.898797929 0.358507454
0.006325098 0.896015346 0.363820165
0.026944919 0.901960790 0.368121386
0.256799102 0.903225422 0.369133413
0.441366106 0.902466595 0.369639277
0.604554117 0.906767845 0.371916175
0.764832258 0.905123413 0.383301646
0.922200978 0.904996634 0.391018420
0.152941003 0.105881996 0.373813987
0.169765547 0.110815734 0.369259745
0.211764812 0.121442087 0.365844280
0.258697212 0.139911443 0.360405207
0.309551179 0.155091986 0.348513365
0.401644439 0.174319729 0.371410191
0.557368517 0.189753190 0.399367273
0.753447235 0.192409635 0.424668163
0.153573364 0.151043281 0.363946736
0.168374553 0.158001363 0.362428635
0.202656537 0.166476741 0.366350651
0.249588832 0.179506898 0.353699863
0.308792084 0.186084732 0.351422757
0.397090286 0.205692545 0.366097420
0.549399018 0.221125901 0.399999827
0.750284553 0.229348540 0.422643811
0.126501918 0.220872998 0.354838371
0.145983726 0.232005000 0.346615821
0.185958102 0.231119379 0.348640084
0.236306354 0.237824529 0.351802379
0.292346984 0.245288000 0.342188388
0.391777098 0.261985838 0.364073277
0.551802814 0.286147922 0.404301167
0.758760214 0.305502981 0.421758443
0.075268731 0.301581293 0.354205996
0.104870722 0.306261957 0.348260522
0.146742910 0.311321735 0.349019557
0.214927077 0.317520827 0.356862843
0.284377187 0.320682824 0.356103837
0.390385449 0.347754449 0.373307914
0.557242274 0.374320060 0.392662913
0.756989062 0.406324953 0.421758533
0.001518192 0.393169194 0.339785010
0.002276998 0.397090167 0.352940857
0.073750645 0.402530372 0.359646201
0.171789899 0.428842843 0.366223752
0.285768360 0.439342141 0.375964373
0.408602268 0.455787569 0.381783605
0.584693253 0.486400992 0.401011974
0.782669067 0.515749395 0.428083360
0.003162807 0.552182436 0.380771399
0.007084097 0.549019456 0.381530464
0.006198804 0.555218339 0.384186924
0.076154195 0.564579248 0.381783724
0.269575924 0.574826419 0.382668912
0.418469459 0.580645204 0.388994455
0.612650096 0.608981788 0.404933482
0.818848610 0.640733540 0.438456655
0.001644712 0.725996554 0.409867108
0.001517999 0.721694946 0.408349216
0.003036191 0.725110710 0.408728480
0.047564838 0.728399634 0.401517838
0.314863920 0.735483825 0.407969773
0.494117737 0.735610366 0.413156003
0.664136827 0.738646567 0.417963386
0.853130817 0.760278285 0.450221360
0.005819357 0.895761907 0.461986363
0.003542452 0.896141350 0.466160953
0.087412886 0.897279918 0.462745279
0.296773851 0.901707590 0.466540337
0.459709108 0.902593434 0.480075985
0.619228244 0.903984666 0.476660341
0.771157324 0.905502796 0.486274362
0.918279350 0.905123472 0.491208196
0.120050266 0.129158989 0.495256215
0.150664002 0.133965999 0.491334736
0.201518103 0.146489471 0.488298625
0.271347553 0.155977100 0.483238459
0.350158006 0.170019180 0.481593996
0.434535474 0.184060991 0.471853197
0.567362249 0.190891743 0.489184201
0.768121421 0.195951998 0.523212910
0.109804079 0.180139273 0.493737996
0.140670717 0.177103281 0.483997285
0.191777557 0.188741088 0.478684008
0.256925881 0.193927541 0.479316980
0.337887436 0.206198916 0.473497838
0.427830696 0.214674294 0.472865462
0.565338075 0.220240280 0.490322471
0.760910511 0.230740115 0.518911958
0.059709340 0.250601172 0.478431374
0.102340005 0.254142851 0.474509567
0.167235911 0.251739532 0.472612143
0.243643194 0.259962261 0.472738922
0.328779370 0.268817186 0.471473575
0.423402727 0.273118436 0.461859375
0.562555432 0.289436817 0.485515445
0.772422493 0.308032811 0.519797504
0.001897740 0.344338745 0.469702452
0.016192531 0.341049850 0.468311161
0.115370065 0.338646531 0.467678785
0.215432987 0.341303170 0.463883698
0.309171379 0.349651903 0.465907514
0.409234524 0.355976999 0.465148568
0.573054910 0.376976728 0.486654013
0.779253542 0.409361362 0.521315515
0.001518192 0.448323727 0.468311280
0.004427552 0.443516731 0.464895457
0.003542359 0.445161015 0.466034383
0.160784289 0.451866090 0.470714569
0.295509130 0.461227357 0.471347272
0.424794436 0.469449937 0.480455548
0.590765238 0.495888650 0.498545110
0.793295145 0.529285431 0.529791236
0.000000000 0.554079711 0.467805207
0.004427552 0.560151875 0.478051901
0.001897740 0.564958811 0.474762708
0.072232828 0.576344252 0.473118275
0.296141803 0.592409790 0.490069538
0.467425734 0.606957436 0.505123436
0.635800004 0.621758282 0.514105022
0.822643578 0.653636694 0.547754705
0.003542452 0.722328007 0.512966275
0.001644712 0.723086715 0.506514728
0.002783356 0.727134943 0.508791745
0.105755739 0.730297208 0.516129076
0.346489310 0.736749053 0.528146923
0.508918703 0.742188275 0.524098754
0.668943524 0.745097995 0.528020263
0.853510439 0.769133449 0.565211535
0.036812283 0.891966760 0.571536541
0.112460345 0.896520853 0.575332046
0.214800507 0.890828192 0.580392241
0.370524585 0.894749999 0.583175302
0.481087744 0.899809778 0.578874111
0.629095316 0.899303973 0.582669258
0.775079012 0.901581228 0.590891778
0.915875554 0.901960790 0.599114358
0.018089734 0.165970996 0.646299541
0.074889094 0.169259995 0.646552980
0.180391997 0.172422275 0.643643558
0.282479346 0.178873926 0.644781888
0.385958374 0.190385804 0.641366243
0.502593458 0.192789003 0.632258117
0.634787798 0.194433704 0.631245971
0.794054389 0.197469994 0.630360305
0.000000000 0.212270796 0.639215946
0.055155251 0.208728835 0.636685729
0.165338561 0.215812832 0.637950897
0.273624390 0.215812728 0.635421038
0.377862006 0.222390994 0.633269966
0.501075447 0.229601473 0.630740047
0.631498814 0.226059541 0.625679851
0.786590874 0.231752157 0.627197802
0.001644712 0.284250379 0.632005036
0.000000000 0.285515517 0.628715634
0.125743017 0.286527693 0.631119490
0.249462560 0.292599618 0.629474759
0.367109269 0.297659874 0.631246209
0.491081923 0.300316542 0.627197623
0.631498814 0.300696105 0.624035299
0.788614511 0.312713504 0.627577245
0.004554286 0.377861917 0.625173926
0.003162710 0.381277561 0.619354963
0.022264630 0.384060919 0.622770250
0.220872998 0.385199279 0.624541163
0.349399000 0.396584719 0.624035597
0.484629989 0.396205097 0.618722141
0.629221797 0.398102641 0.617963195
0.797090411 0.417710096 0.632510900
0.001518192 0.497406662 0.622517347
0.002656546 0.497659713 0.625679493
0.003921808 0.497912556 0.623149753
0.171789825 0.504237652 0.623023331
0.336242765 0.502719581 0.619734228
0.482732356 0.506388426 0.624415040
0.634661734 0.504996657 0.620113552
0.805945516 0.535610378 0.640733600
0.000379548 0.620492995 0.623782516
0.001644712 0.617836714 0.627197564
0.001518193 0.615433455 0.627450943
0.126375630 0.621125638 0.625679851
0.343453199 0.625300169 0.626312554
0.497786254 0.630107641 0.630487323
0.658190787 0.635673940 0.627956569
0.836052895 0.665781140 0.665401697
0.004553996 0.735483825 0.628589511
0.000379548 0.739278853 0.618216276
0.006451909 0.733080268 0.626944780
0.130676672 0.740417540 0.636938930
0.365717828 0.744971573 0.632764161
0.546489477 0.752435029 0.648829818
0.713219285 0.762302220 0.660341322
0.865781307 0.780139267 0.683364868
0.080328435 0.889816344 0.683618069
0.125237018 0.899177432 0.678684115
0.253130645 0.892979145 0.683364868
0.394560218 0.897912800 0.691334486
0.536116064 0.899810076 0.703984737
0.660594285 0.901201725 0.708918214
0.780012369 0.903478980 0.712586761
0.911701560 0.904111326 0.716761112
0.002656833 0.215938956 0.826818585
0.000758999 0.220113695 0.819101572
0.058318019 0.226945058 0.824541569
0.258823633 0.230360791 0.816318750
0.404933572 0.239721596 0.823402941
0.549146175 0.243010819 0.817204297
0.706135213 0.244402081 0.812397420
0.862112582 0.240859941 0.813662589
0.000000000 0.256420195 0.817204237
0.000000000 0.258444190 0.816951573
0.047944892 0.261227041 0.823023558
0.247944340 0.266919553 0.816192150
0.400885671 0.273244888 0.818722188
0.549652457 0.278178692 0.818722367
0.699810207 0.278684348 0.816065848
0.860467851 0.280328810 0.814294577
0.006578154 0.336115897 0.822517395
0.000000000 0.334598005 0.819481373
0.008602210 0.339658141 0.819860578
0.234534830 0.345857322 0.818595946
0.395066530 0.349019647 0.815559983
0.550411344 0.354585558 0.815433323
0.702087402 0.361922801 0.811132252
0.862745166 0.361922801 0.813156307
0.001518189 0.443010628 0.816065788
0.004933825 0.446805716 0.818216383
0.001518201 0.446932524 0.810626388
0.226692274 0.454902053 0.817710400
0.395066530 0.456293464 0.814167976
0.550537467 0.458949983 0.809740603
0.706641257 0.462492168 0.807084024
0.864642620 0.458823472 0.808222413
0.005060025 0.561796069 0.811005771
0.002783356 0.562428772 0.812776566
0.013662189 0.568753839 0.817710221
0.232258081 0.573434353 0.815939307
0.405692518 0.570777833 0.807969332
0.558127344 0.571410596 0.808349192
0.713978410 0.571157217 0.811005712
0.866287231 0.570777833 0.806324899
0.002024260 0.680075705 0.817077816
0.004174729 0.682732522 0.814421177
0.043011002 0.682985544 0.818722188
0.275774688 0.682858527 0.817963183
0.444655180 0.685894608 0.811258376
0.585325599 0.685894608 0.812523603
0.733838916 0.687159777 0.815180123
0.874762475 0.687159777 0.815180421
0.002403704 0.798355043 0.822643816
0.007969631 0.797090054 0.820619643
0.139278501 0.796205044 0.819101393
0.335104108 0.796837330 0.817583561
0.481340796 0.797090411 0.825426579
0.618975580 0.795825303 0.821252286
0.755976915 0.796204805 0.823150039
0.885641575 0.797216892 0.821758389
0.147248551 0.915622592 0.833396435
0.179506123 0.908791900 0.827324271
0.298165053 0.912966430 0.829348385
0.425553143 0.907779634 0.833017230
0.541682601 0.906388581 0.825932562
0.673750341 0.907020688 0.835926533
0.796331525 0.905123413 0.844908118
0.919544578 0.915496707 0.858190536
