Assets/Resources/EldamarStudio/100 Horror LUTs Pack/LUTs/cube/Killtree LUT.cube
DOMAIN_MIN 0 0 0
DOMAIN_MAX 1 1 1
LUT_3D_SIZE 32
0.082353003 0.043136999 0.047059000
0.082353003 0.043136999 0.047059000
0.086654000 0.043136999 0.049209226
0.093991160 0.044402160 0.049715161
0.102340452 0.047438450 0.047438450
0.105376065 0.050474066 0.050474066
0.113472320 0.053510323 0.053510323
0.122580700 0.056546707 0.056546707
0.132448003 0.059582900 0.058823999
0.144592017 0.062618516 0.058824003
0.156736001 0.065654866 0.064642996
0.172928512 0.070714995 0.068690740
0.188868001 0.076787002 0.074003644
0.201517999 0.082859002 0.082606032
0.219733983 0.088930994 0.085642412
0.240353778 0.097406797 0.093485184
0.260088384 0.106514804 0.101074994
0.278304964 0.114990152 0.105249584
0.296521008 0.121062942 0.102213979
0.325869739 0.127135009 0.107527003
0.356230468 0.133206993 0.117393985
0.388615012 0.141303003 0.127513990
0.425173491 0.153320506 0.133712500
0.464642733 0.162428916 0.142820910
0.504111290 0.171537280 0.149652004
0.546362936 0.177862316 0.155723989
0.593422115 0.182415992 0.162808135
0.648070812 0.194559991 0.174952880
0.702719569 0.209360808 0.187096968
0.759139478 0.226312399 0.199240968
0.815939128 0.245414585 0.214041591
0.870588005 0.266667008 0.235293999
0.088424996 0.049209002 0.044022612
0.082353003 0.049209002 0.044022612
0.086654000 0.053510550 0.048323613
0.091461159 0.054016612 0.053510323
0.097027451 0.053889997 0.055787839
0.105376065 0.059582449 0.053510450
0.118532315 0.055028386 0.048956387
0.130296990 0.061479993 0.058696993
0.140037805 0.068690710 0.065654710
0.147628397 0.071726903 0.058824003
0.156862527 0.074762516 0.064642996
0.172928512 0.077798873 0.072738737
0.191144988 0.082858995 0.077798642
0.206831038 0.088930994 0.082859002
0.216698363 0.095002994 0.088678025
0.234914362 0.101074994 0.094117604
0.255534202 0.109550804 0.101074994
0.276533753 0.118026376 0.107146986
0.299557418 0.124098554 0.111321591
0.331688762 0.132953972 0.113851972
0.362302452 0.139278993 0.123465985
0.392663002 0.145350993 0.131561995
0.425046980 0.153446987 0.133712500
0.461606324 0.165464520 0.142820910
0.503352165 0.172296181 0.149652004
0.547754288 0.183428288 0.157115668
0.595951855 0.194054067 0.164326340
0.648070812 0.203668386 0.168880105
0.692093611 0.215812370 0.186337858
0.752308249 0.227071196 0.197470203
0.810246408 0.242378190 0.215433329
0.858444035 0.263630599 0.247437984
0.083744228 0.057431772 0.047437999
0.081973225 0.057431772 0.051739547
0.086654000 0.061732776 0.049588773
0.096521154 0.064010382 0.054395936
0.102720000 0.061733223 0.059203450
0.106514834 0.066033997 0.059709065
0.114231318 0.068437770 0.060594771
0.126122698 0.065654770 0.056167062
0.140037864 0.073497675 0.068564095
0.153067961 0.076533712 0.067805484
0.162049130 0.081720680 0.068944000
0.169133514 0.086780548 0.075015999
0.187982634 0.088804774 0.080581777
0.206957743 0.093358770 0.083112031
0.219860628 0.103225768 0.091081768
0.236179754 0.109297775 0.095002994
0.254395783 0.113851964 0.102593191
0.276280552 0.121062763 0.106767781
0.302087218 0.127134785 0.106767789
0.330423594 0.138140351 0.116508357
0.361922681 0.143453732 0.121441990
0.392283469 0.152308643 0.131055996
0.423149735 0.161669508 0.133585989
0.463630587 0.167741776 0.140670136
0.502466559 0.177482560 0.147501782
0.547754288 0.184946299 0.153573766
0.595825195 0.198608071 0.162429005
0.644149303 0.211005449 0.170398310
0.696394622 0.222770527 0.184566632
0.751296520 0.240227699 0.202782944
0.814167917 0.253510535 0.217457414
0.863503993 0.273497790 0.248829767
0.083491325 0.069070160 0.054775160
0.082226165 0.066540159 0.058317609
0.083617933 0.070841163 0.059203222
0.095255993 0.076913156 0.054901998
0.109677382 0.074256994 0.058697384
0.112333998 0.076407224 0.063504227
0.118659161 0.079443485 0.065275319
0.125110701 0.080835164 0.067552291
0.134977996 0.082353160 0.065274999
0.154712334 0.085894845 0.072865322
0.165591121 0.089310743 0.074510001
0.175205499 0.095382988 0.079823159
0.184693635 0.100316346 0.084756516
0.205440000 0.100695863 0.085642040
0.221631736 0.109803982 0.094750412
0.240480587 0.117140993 0.099051192
0.257432163 0.125490025 0.101328030
0.277545720 0.129791409 0.110436402
0.304870188 0.136496007 0.107527010
0.333459705 0.145604014 0.114358172
0.358886629 0.152055740 0.121441990
0.392283261 0.157116130 0.129538000
0.423782468 0.171536788 0.136242494
0.465148658 0.176849902 0.143453166
0.505376458 0.184440285 0.148260564
0.546489418 0.194813460 0.155597821
0.595572233 0.203921229 0.161669970
0.642631114 0.217583597 0.172296152
0.693611383 0.231372654 0.183301806
0.751043379 0.246300161 0.202782944
0.812144220 0.267552584 0.223655567
0.866793156 0.286148161 0.248323843
0.094876997 0.083112001 0.062744997
0.092599608 0.079317003 0.063883543
0.089184217 0.080708548 0.063503996
0.092979379 0.086780548 0.061733000
0.107020542 0.091713995 0.057178997
0.116128936 0.091713995 0.066287383
0.125996321 0.094244316 0.067805447
0.133080453 0.095256448 0.069070287
0.139911547 0.096015446 0.071726546
0.152055562 0.102087453 0.071726546
0.164579004 0.103478998 0.074636415
0.176343963 0.107147537 0.081341252
0.190006644 0.112460442 0.088551894
0.205186963 0.115496062 0.091334544
0.223276436 0.118532412 0.100063413
0.244275793 0.123971991 0.104743734
0.263251185 0.132700548 0.107020542
0.280202538 0.143832579 0.107779562
0.307527006 0.152940989 0.116887972
0.336496204 0.159645572 0.120809808
0.363061756 0.164199740 0.124604799
0.388868123 0.168501139 0.129538000
0.428336471 0.177735984 0.141429022
0.467804909 0.187096655 0.150284454
0.507653236 0.196204841 0.156356737
0.548893273 0.206324980 0.160657868
0.592157066 0.218342617 0.170018584
0.643769383 0.227450997 0.176091343
0.693484545 0.242251799 0.182542995
0.746615469 0.257432193 0.199240923
0.802276790 0.273624599 0.223276123
0.856926441 0.294876993 0.250600547
0.100949004 0.089184001 0.062744997
0.103984609 0.101328000 0.071853384
0.099556997 0.099683769 0.070841163
0.100316226 0.101960935 0.069575995
0.110056929 0.106894381 0.069322996
0.116128936 0.103857994 0.075395003
0.130297318 0.106388316 0.076913066
0.137887284 0.106135286 0.076913066
0.142188251 0.104364060 0.078178093
0.149019957 0.105123065 0.080834940
0.164073065 0.114104927 0.083744802
0.174699247 0.117647253 0.088804930
0.187729344 0.122327931 0.095383003
0.205186963 0.127640828 0.100442939
0.220366567 0.130676448 0.100442939
0.243263662 0.136115998 0.106767997
0.265528202 0.143706203 0.112333931
0.285768569 0.152687922 0.116128936
0.307527006 0.159012988 0.116887972
0.329285383 0.168121368 0.123213001
0.361543536 0.174825922 0.130676806
0.392410129 0.179380134 0.136748791
0.422264457 0.183807984 0.141429022
0.461732894 0.195952013 0.147501811
0.503478527 0.205313221 0.160910636
0.546868980 0.214421242 0.165717751
0.591904044 0.224541128 0.167235941
0.637697399 0.236559376 0.179126948
0.691966593 0.253636897 0.187855884
0.743832529 0.269576162 0.205312923
0.794686794 0.284756601 0.227830201
0.841746092 0.300949007 0.247564942
0.101961002 0.118026316 0.075395323
0.102466933 0.120050319 0.076913387
0.105502546 0.121442087 0.079570003
0.106894158 0.119671315 0.079443485
0.115622997 0.122833766 0.081088088
0.121694990 0.124098383 0.085009314
0.130297318 0.126122639 0.086021319
0.143832996 0.127514318 0.087666027
0.151802316 0.126881540 0.090069637
0.161416650 0.128652319 0.094876803
0.173687771 0.132321179 0.097912543
0.188867897 0.137381569 0.098924674
0.201264992 0.141556323 0.105123319
0.217583731 0.147375286 0.112080999
0.230487213 0.150410905 0.112080999
0.252877653 0.153447136 0.114484802
0.272612184 0.159392640 0.118912123
0.291840553 0.168121293 0.123339571
0.313093007 0.177988335 0.125237331
0.344465375 0.184313372 0.133332998
0.371410459 0.193421736 0.139405474
0.406578243 0.200126320 0.145857185
0.438709795 0.204933494 0.148766324
0.473371208 0.214674324 0.150031492
0.515116870 0.226818308 0.158380970
0.563187540 0.237571329 0.173054978
0.612144172 0.248323947 0.177862257
0.657685041 0.260468185 0.183933988
0.711195230 0.272865295 0.198481828
0.760531187 0.289310485 0.209360957
0.812397182 0.307147264 0.234155178
0.864516020 0.327261001 0.262239009
0.101961002 0.136621997 0.092219993
0.103605285 0.143200412 0.085641995
0.105755933 0.142694473 0.090575702
0.108791545 0.140923694 0.088045701
0.117140837 0.140923694 0.090702444
0.124477997 0.142694473 0.096268050
0.134724602 0.144086018 0.095129706
0.143832996 0.147121996 0.096773989
0.155976996 0.147121996 0.099810377
0.168121010 0.149272218 0.104997002
0.178621024 0.152308568 0.109803833
0.192789540 0.155344546 0.110815704
0.207969919 0.158380926 0.110815704
0.223655745 0.164200023 0.118152998
0.239974827 0.170018986 0.120935991
0.255154967 0.173054799 0.121695086
0.279443383 0.177608982 0.123213284
0.298165649 0.184946135 0.128019974
0.322453976 0.197090432 0.134092256
0.349905074 0.203668416 0.139405370
0.383048445 0.211638138 0.144971475
0.415433228 0.219734401 0.151043996
0.451865971 0.226185903 0.154712200
0.486780614 0.238330305 0.156230003
0.527008295 0.246426404 0.161416575
0.572295964 0.258570403 0.171916619
0.625932932 0.270209074 0.186337993
0.673750997 0.281214684 0.192789242
0.722327590 0.295002967 0.208095789
0.768374145 0.310562879 0.221505374
0.816571951 0.327514291 0.238076985
0.873497725 0.351043403 0.272232711
0.103478998 0.148007289 0.105123095
0.106514603 0.157874778 0.096773997
0.109550767 0.162176102 0.098165773
0.114863932 0.163694099 0.103984997
0.117520094 0.162935093 0.098292448
0.125489935 0.162176102 0.105882064
0.137128189 0.162176102 0.104870319
0.146868795 0.163061485 0.106641479
0.157495186 0.166097105 0.108918190
0.169639185 0.166097105 0.111954585
0.180391863 0.169006974 0.116382092
0.192030251 0.172042832 0.118406095
0.207969725 0.175078735 0.118406095
0.223403081 0.178115129 0.118912093
0.244149402 0.186211511 0.124984086
0.259708971 0.191271394 0.127007991
0.277166277 0.195825189 0.127767086
0.302087426 0.203794762 0.129664645
0.332321018 0.216066062 0.141682193
0.358633727 0.222644106 0.144718453
0.387096733 0.230613813 0.148513734
0.419987231 0.239468992 0.151802897
0.456546456 0.245667502 0.157874897
0.493611723 0.259582907 0.161543101
0.536116481 0.269449979 0.168374181
0.580645263 0.277546078 0.176470220
0.628716171 0.290196180 0.190132961
0.679823279 0.299810529 0.203035980
0.727640748 0.314231396 0.217457145
0.771916211 0.329664499 0.232890308
0.815812469 0.348766685 0.250980675
0.870462060 0.370019108 0.278305084
0.109550998 0.175332457 0.102087490
0.112586610 0.178368077 0.105123103
0.115622774 0.181783780 0.107526779
0.122453995 0.185958490 0.112081006
0.132700488 0.190259486 0.116508462
0.132700488 0.184187502 0.113472074
0.143200636 0.183428496 0.110942326
0.152055964 0.183428496 0.114484705
0.160531580 0.184313878 0.121062964
0.175711975 0.187349498 0.121062972
0.190765098 0.190259367 0.121189490
0.201644257 0.193295240 0.121442489
0.214421287 0.196331143 0.121442489
0.232511476 0.199367538 0.121948488
0.250727475 0.202403918 0.128020480
0.269069970 0.208096504 0.131688684
0.288551182 0.214041978 0.134598196
0.311195076 0.222011536 0.138773054
0.338519514 0.237191960 0.147881448
0.368753731 0.243896514 0.148766965
0.396963716 0.251866221 0.152688488
0.425553262 0.260974348 0.157621861
0.456546456 0.269955516 0.160910517
0.496014923 0.279063910 0.166982517
0.542188048 0.290701985 0.177482575
0.589120448 0.301201671 0.187982276
0.634788156 0.311448574 0.199240580
0.680329263 0.326628923 0.220492929
0.731435716 0.341556311 0.228083655
0.781024277 0.354965419 0.239974692
0.830992818 0.370019078 0.260341287
0.885642469 0.391271502 0.293485463
0.112713128 0.193928003 0.107779995
0.115749478 0.196964353 0.116635360
0.116634868 0.202150732 0.115369968
0.120177001 0.203415707 0.120682992
0.128273010 0.204933554 0.128905550
0.133332998 0.211511865 0.125869796
0.143453643 0.202909559 0.122833416
0.153953284 0.205059990 0.121441990
0.163567215 0.207589984 0.125996128
0.178747624 0.208475381 0.130297124
0.191018134 0.208601862 0.127388000
0.204174519 0.215686247 0.129411742
0.217583865 0.221631736 0.132574126
0.235547155 0.226438910 0.135610133
0.251106977 0.229475290 0.131056115
0.271726787 0.232511073 0.139531925
0.295003057 0.239595205 0.145097867
0.320935994 0.247058854 0.150157988
0.350537747 0.255407989 0.156989098
0.377862096 0.267805010 0.157748133
0.404300839 0.274130464 0.157748133
0.433649242 0.281214863 0.160784259
0.468057990 0.288551718 0.164073378
0.504743814 0.300442755 0.172928736
0.546489418 0.311827868 0.181277439
0.591018140 0.325363517 0.192789450
0.636053205 0.337507933 0.203921735
0.686401308 0.347881287 0.217963308
0.729285598 0.360404849 0.233902678
0.780138969 0.373560935 0.249589175
0.828083158 0.390132546 0.267931730
0.874636292 0.415432990 0.291208118
0.113724999 0.222264245 0.123972245
0.114737131 0.227324367 0.124984115
0.117647000 0.226439238 0.127514213
0.121442162 0.228716075 0.125742987
0.128652707 0.226059243 0.132953539
0.136368990 0.230233923 0.129917935
0.147501647 0.232258186 0.132953927
0.159645975 0.228083506 0.129917547
0.169892266 0.232637405 0.130297095
0.183807492 0.233902231 0.135104254
0.196078509 0.235926494 0.138519868
0.210246250 0.237950742 0.137507990
0.224668026 0.243643492 0.139405251
0.242631286 0.248197466 0.143453300
0.257811666 0.254775405 0.142694518
0.279822767 0.259835452 0.148639798
0.301075190 0.262871444 0.154712185
0.327387542 0.271600246 0.159645677
0.356356680 0.280455232 0.164325997
0.383934081 0.288045287 0.166856259
0.415053934 0.294496983 0.166856259
0.440733641 0.302466989 0.166856259
0.474383235 0.310815960 0.169133499
0.514611065 0.322959989 0.178241909
0.553573549 0.335104495 0.187349707
0.597469926 0.345856816 0.199240655
0.640607417 0.359772056 0.212017864
0.687666297 0.371916413 0.224162236
0.733333349 0.387729496 0.238962531
0.777609289 0.399873465 0.255914122
0.826059461 0.414674103 0.276913583
0.868564248 0.439721495 0.296268255
0.113724999 0.249968290 0.139532000
0.114863642 0.254901648 0.138772890
0.117014416 0.257937759 0.136748642
0.123719163 0.254902124 0.135609999
0.132448003 0.252624750 0.135989547
0.140796706 0.253383636 0.134471938
0.152435005 0.255913973 0.137887642
0.162302345 0.258444279 0.139025927
0.175964549 0.259962291 0.139025733
0.188867658 0.263377428 0.142821133
0.202150747 0.265275121 0.148766652
0.216319025 0.268311262 0.150790647
0.231498629 0.272485971 0.150790647
0.250221431 0.272991955 0.151043609
0.268058419 0.281214207 0.154079765
0.290448993 0.285641640 0.157368839
0.313219190 0.293611467 0.163440540
0.337001711 0.297912687 0.166476935
0.365338266 0.309550643 0.169512674
0.393801004 0.316128910 0.174825996
0.424920827 0.322580367 0.178241640
0.458317757 0.327640772 0.182289645
0.486401111 0.339531779 0.183175132
0.527893782 0.350663930 0.192283541
0.568121552 0.365085214 0.199114338
0.609234571 0.376976579 0.209866941
0.654269755 0.386590391 0.225047350
0.696774483 0.401138335 0.237824515
0.741935372 0.416698277 0.253763407
0.787476182 0.434788227 0.271853030
0.828589618 0.448703259 0.293611825
0.870082319 0.469702631 0.315623283
0.114231065 0.269450039 0.145603999
0.117267385 0.272485644 0.148640394
0.119544744 0.277925044 0.147375226
0.126628995 0.280708224 0.144591868
0.138267040 0.277925491 0.142820582
0.144339040 0.280961126 0.145856977
0.155218005 0.283491403 0.148134321
0.164072990 0.286780745 0.148134321
0.173181191 0.290070027 0.147881091
0.191397980 0.296142042 0.156989485
0.206957832 0.296901017 0.163187996
0.222391248 0.298671782 0.165212005
0.238330379 0.302593023 0.165465042
0.254269063 0.308918089 0.165971026
0.278557837 0.314990073 0.169006631
0.302340031 0.316761047 0.167488843
0.325363249 0.321821392 0.167488843
0.348892689 0.333839476 0.171283647
0.382289916 0.342947096 0.174320042
0.412903041 0.349019736 0.182416350
0.445161194 0.356989264 0.189374030
0.479064137 0.366350204 0.196710989
0.512587070 0.375711560 0.208728507
0.551928997 0.385072947 0.217836902
0.591397882 0.400252998 0.222896755
0.632005215 0.415686071 0.230360359
0.674510062 0.427830160 0.243011028
0.717014790 0.439974934 0.258191377
0.761669755 0.451866031 0.275521994
0.806704521 0.469070196 0.296521187
0.848829985 0.488931000 0.319671184
0.879190028 0.507147074 0.350032002
0.120303832 0.302846372 0.151675999
0.123339444 0.305881977 0.154712394
0.119923994 0.313219160 0.153447226
0.124604747 0.319164962 0.151675999
0.138393551 0.320177257 0.152181968
0.147375420 0.317393869 0.161037356
0.155977100 0.315370113 0.156483412
0.164072990 0.318532825 0.155598000
0.173181191 0.322454393 0.156483412
0.191397980 0.323466420 0.163061485
0.209613994 0.329538405 0.169259995
0.227198079 0.330297381 0.171283990
0.247058988 0.332068175 0.172422633
0.269449472 0.336242437 0.175079405
0.293738216 0.345350832 0.181151405
0.313219398 0.351422817 0.181783825
0.335736781 0.353193790 0.182669207
0.360657752 0.358886540 0.187602550
0.391397506 0.373307824 0.198608786
0.422011316 0.376850158 0.201644465
0.454269111 0.384313643 0.205945730
0.489689946 0.394433647 0.209614277
0.527767420 0.406072319 0.214800492
0.564200222 0.421252728 0.223908901
0.603542089 0.430613488 0.233017281
0.643010616 0.443010718 0.243643478
0.683617651 0.455155224 0.258191317
0.726122379 0.467299312 0.273370981
0.765970945 0.476787210 0.285895199
0.806704521 0.491840750 0.311701536
0.848323762 0.508918405 0.339025974
0.888298452 0.522327423 0.362176001
0.116761394 0.341049761 0.167362601
0.117393814 0.348892987 0.167995185
0.122580744 0.345477402 0.162429020
0.127640814 0.354585588 0.165211812
0.142441541 0.360657781 0.168627232
0.147501931 0.359645635 0.165591121
0.159013495 0.356609911 0.176470786
0.171410516 0.353573889 0.167109370
0.183554694 0.356609881 0.166350275
0.203415781 0.358254611 0.174066991
0.219228595 0.361669779 0.175331995
0.237444595 0.367741793 0.181403995
0.256799638 0.368500769 0.182162985
0.279316813 0.370524615 0.183934227
0.299304008 0.377482176 0.187855989
0.323592782 0.384187400 0.193927988
0.344844788 0.388741195 0.195446178
0.370398313 0.391524166 0.199114591
0.400758833 0.403162569 0.207716957
0.435926527 0.414421111 0.213915437
0.466287255 0.419354767 0.218848795
0.500189602 0.428968847 0.223402992
0.538140178 0.440860599 0.227956787
0.574572980 0.449209690 0.234787896
0.613282979 0.459835470 0.246173561
0.652751386 0.471726418 0.258191079
0.692725897 0.484882981 0.273371249
0.735230625 0.497026950 0.288551331
0.772675395 0.508918583 0.305882424
0.812144101 0.525110900 0.328652680
0.852498174 0.543074131 0.358760178
0.895003021 0.556736350 0.381530792
0.115243189 0.380518556 0.182542995
0.110688999 0.389626563 0.179506987
0.118026547 0.387982190 0.177609414
0.127893835 0.385705352 0.174826190
0.145856902 0.395572364 0.184946194
0.154585943 0.395572364 0.179253444
0.162175998 0.396078318 0.180265442
0.175964698 0.396078676 0.186843961
0.191145092 0.394560456 0.177735373
0.210879505 0.397596866 0.184566677
0.229348868 0.397596478 0.184946194
0.249588996 0.401138574 0.187475979
0.270082265 0.407210559 0.193548277
0.291714221 0.408475578 0.194813386
0.311195374 0.414547563 0.199114606
0.332700759 0.419101596 0.203035980
0.356989175 0.425174356 0.209107995
0.382542312 0.428842545 0.212776959
0.412903160 0.437065363 0.218849212
0.447311729 0.445920378 0.224921197
0.481467247 0.457305372 0.230993181
0.512840211 0.464389503 0.237065181
0.548639894 0.476028174 0.243390173
0.583681047 0.484883159 0.252245188
0.622390628 0.491714060 0.262871772
0.659076810 0.500822008 0.273624480
0.699304223 0.515243351 0.291081309
0.742820859 0.527387381 0.311321795
0.781530797 0.538013875 0.326122642
0.816698313 0.553953111 0.348387301
0.855281413 0.576091170 0.377861947
0.896521211 0.593169153 0.402783185
0.115117021 0.419987530 0.193421990
0.109803602 0.428462744 0.189879984
0.114484549 0.429348111 0.189373970
0.129158989 0.425173700 0.189373985
0.143200159 0.428210080 0.195066541
0.160404891 0.428463101 0.195319563
0.169765994 0.430360377 0.192789242
0.182036683 0.433396220 0.193042278
0.198482081 0.436432630 0.195951983
0.213662475 0.439469010 0.195951983
0.234661862 0.437950820 0.196584553
0.257938147 0.439595371 0.197975874
0.282226264 0.442505091 0.201517686
0.306008995 0.448577106 0.207337439
0.326881826 0.454649091 0.213029996
0.350031763 0.458949894 0.217963338
0.372802138 0.462238908 0.221884549
0.397722691 0.467678964 0.227324143
0.428083539 0.473750979 0.233396947
0.459961951 0.479190528 0.239469007
0.493990868 0.487792552 0.246173561
0.527387321 0.499557108 0.254143119
0.560657978 0.508665442 0.260088623
0.593548536 0.520303547 0.270714581
0.630866408 0.529158533 0.282858998
0.669449389 0.536622167 0.295509428
0.703352511 0.546742558 0.306641191
0.748513401 0.559013128 0.336622417
0.788741410 0.569133341 0.352941126
0.824668109 0.582289696 0.372169375
0.858950198 0.601011753 0.397976100
0.895383000 0.625300527 0.425300539
0.102973014 0.459456027 0.199494034
0.112080626 0.465528011 0.205566019
0.117520563 0.471852958 0.210626021
0.130424172 0.471852958 0.211132020
0.149272963 0.467678577 0.207210585
0.155344963 0.470714957 0.210246965
0.167489022 0.470968008 0.207969680
0.184060723 0.472865254 0.208222717
0.204807118 0.475901097 0.211258903
0.225806504 0.478937507 0.214168027
0.246805906 0.481973886 0.217077896
0.270082533 0.486527979 0.217836991
0.294370979 0.490069985 0.219228312
0.318153054 0.491082013 0.222517088
0.336369008 0.497153997 0.225553483
0.364452630 0.503225982 0.233649835
0.391018391 0.506008983 0.239215776
0.415939510 0.507147431 0.242504597
0.443264008 0.510183036 0.245541006
0.470841408 0.513472438 0.251613051
0.504364491 0.518658996 0.259582788
0.539532065 0.527261019 0.270462126
0.572802007 0.539025605 0.284377456
0.603162885 0.548134029 0.287413090
0.638330579 0.559772015 0.298039019
0.677798927 0.570018649 0.312966436
0.718532145 0.580139041 0.330930084
0.754964828 0.595319450 0.352182418
0.794813454 0.607589960 0.374193847
0.830740154 0.619481444 0.396457940
0.865022242 0.633902907 0.422517240
0.901455045 0.652625024 0.452625006
0.110309653 0.515623093 0.222264722
0.116635330 0.518911779 0.219987363
0.125742942 0.520682752 0.223909140
0.137507975 0.522959769 0.226818711
0.156103998 0.520682752 0.224162176
0.166983008 0.521315336 0.222390950
0.183175012 0.524351716 0.225427330
0.200758711 0.526249468 0.226186007
0.221252203 0.529285371 0.230740100
0.240480870 0.532321274 0.237824246
0.270082593 0.535357654 0.235293880
0.289310724 0.538393497 0.240354002
0.312081009 0.542568028 0.243010655
0.336622119 0.544212759 0.246552765
0.362429053 0.545224786 0.254649162
0.387855858 0.551296771 0.260088712
0.417836726 0.555850923 0.267299384
0.445920140 0.558381081 0.272232741
0.475395352 0.563567460 0.277419358
0.505503058 0.569386482 0.288804412
0.530929685 0.576217830 0.287286401
0.562808394 0.583175480 0.293991148
0.596331716 0.591524422 0.309171528
0.632004857 0.597976029 0.322833836
0.666919589 0.607084394 0.337254733
0.704743981 0.615939438 0.353194058
0.743327081 0.623656034 0.370904803
0.772928536 0.634281814 0.387603164
0.806704462 0.646806061 0.419481516
0.844149351 0.657178819 0.443010658
0.877672374 0.670082211 0.468184292
0.910309672 0.688298702 0.496647358
0.127007723 0.563820481 0.244655728
0.133080497 0.564958870 0.249209329
0.137507960 0.569639206 0.242884502
0.151675895 0.572169185 0.252245724
0.169386536 0.571916163 0.253384173
0.180012733 0.565844238 0.241239786
0.197216734 0.574066818 0.248956308
0.218722150 0.575458467 0.251992673
0.241745561 0.578241825 0.255028367
0.263377696 0.581277728 0.261859477
0.283744723 0.582416356 0.263124615
0.311701745 0.587349892 0.266160458
0.333333373 0.589247167 0.271094084
0.358127505 0.591777444 0.274130434
0.382163227 0.595066488 0.279949367
0.411385506 0.597976208 0.286653996
0.441745907 0.602530003 0.291208178
0.471220434 0.606198668 0.296900719
0.499050945 0.612270713 0.302972764
0.529411733 0.618342698 0.314610720
0.555977464 0.620619714 0.324857473
0.582289457 0.626691997 0.321821600
0.614800811 0.630993009 0.333333462
0.649462461 0.637065470 0.346742660
0.683997273 0.645414293 0.366097450
