Assets/Resources/EldamarStudio/100 Horror LUTs Pack/LUTs/cube/Killtree LUT.cube
LUT_3D_SIZE 5
DOMAIN_MIN 0.000000 0.000000 0.000000
DOMAIN_MAX 0.903226 0.903226 0.903226
0.082353003 0.043136999 0.047059000
0.122580700 0.056546707 0.056546707
0.219733983 0.088930994 0.085642412
0.388615012 0.141303003 0.127513990
0.702719569 0.209360808 0.187096968
0.101961002 0.136621997 0.092219993
0.143832996 0.147121996 0.096773989
0.239974827 0.170018986 0.120935991
0.415433228 0.219734401 0.151043996
0.722327590 0.295002967 0.208095789
0.120303832 0.302846372 0.151675999
0.164072990 0.318532825 0.155598000
0.293738216 0.345350832 0.181151405
0.489689946 0.394433647 0.209614277
0.765970945 0.476787210 0.285895199
0.151296243 0.608349264 0.264896005
0.238962650 0.622011244 0.282352686
0.404680520 0.639342129 0.309550792
0.601518095 0.663124263 0.359266251
0.815812767 0.711575270 0.466540068
0.552561522 0.891840637 0.617710412
0.599114418 0.898544908 0.632004797
0.672612429 0.898418784 0.657685041
0.791650951 0.908539116 0.696774006
0.906514704 0.918026805 0.740670443
0.086274996 0.045414291 0.092219993
0.119670987 0.062112994 0.111195400
0.215179980 0.096773997 0.137002110
0.384313673 0.137634277 0.175964400
0.699810266 0.195572242 0.238456666
0.101961002 0.127513990 0.126881406
0.137634695 0.144212678 0.145856977
0.232511103 0.171030700 0.162175983
0.407210559 0.209613964 0.192915827
0.713725448 0.281973511 0.265275329
0.103225589 0.304111391 0.194813415
0.162808403 0.317900240 0.207337394
0.286527812 0.338519692 0.219734401
0.481846899 0.391144842 0.258696675
0.764958858 0.477546215 0.338266790
0.138013959 0.605945528 0.318279535
0.237318367 0.612903059 0.326628625
0.397849411 0.627577543 0.352055639
0.592030227 0.653763354 0.400758922
0.820113599 0.712586999 0.505249619
0.557115376 0.890954912 0.630487263
0.584060192 0.896520913 0.637824237
0.665907502 0.899809957 0.665527940
0.781024635 0.904996693 0.697280109
0.904237688 0.916382015 0.752435446
0.082985587 0.058823999 0.198102415
0.124857575 0.072232708 0.206325129
0.206578001 0.101328418 0.223655984
0.387349814 0.141555712 0.290828526
0.703984737 0.172675654 0.374826044
0.095383003 0.141555697 0.229854688
0.134977698 0.147754416 0.234028995
0.228842407 0.170018986 0.254395992
0.414168239 0.205060109 0.309424371
0.721568167 0.262998372 0.393168777
0.079063587 0.311321825 0.292978972
0.143453702 0.322454393 0.309677094
0.292978972 0.349905223 0.338772804
0.490322381 0.392789096 0.374573082
0.763946772 0.472992033 0.453384042
0.107906386 0.603036284 0.438583106
0.211764976 0.613788486 0.442125380
0.396078527 0.629474938 0.458570242
0.598735094 0.654016674 0.503352106
0.819228292 0.715496659 0.600000083
0.553067803 0.886653781 0.682226181
0.584060490 0.894497216 0.687918723
0.662112474 0.895129383 0.711068988
0.780645132 0.909297943 0.739152193
0.903099179 0.918026626 0.786337614
0.043895878 0.071600132 0.409108132
0.125869706 0.082985587 0.414168239
0.253130972 0.101961002 0.427197814
0.419102103 0.133332998 0.462239116
0.705629408 0.177988812 0.555850744
0.001264999 0.154964983 0.429981142
0.111321867 0.159139857 0.434029132
0.264895797 0.172928542 0.454648793
0.447565228 0.206324697 0.489057362
0.731435716 0.271853507 0.575079203
0.000000000 0.341429383 0.491587520
0.038836159 0.345983386 0.506641507
0.290448785 0.361669391 0.525996268
0.508033097 0.396078527 0.551802337
0.770904303 0.468057930 0.620746672
0.063630491 0.614168286 0.606325269
0.210246801 0.624921143 0.608222842
0.398481667 0.637318134 0.622644305
0.608349264 0.670082092 0.656293392
0.831372440 0.713219523 0.712334037
0.555724204 0.892978907 0.766982734
0.590006232 0.891966760 0.778368056
0.665022254 0.895508945 0.785831749
0.780012906 0.904743910 0.806704760
0.907400489 0.920050800 0.833902597
0.000000000 0.062744997 0.760278404
0.035041280 0.061100710 0.760531127
0.325110376 0.067299426 0.769386530
0.544339240 0.114231110 0.789247394
0.781151235 0.222770423 0.804553747
0.002909876 0.160278395 0.772295713
0.002909876 0.165844679 0.774446607
0.304490685 0.185452104 0.777102947
0.548260272 0.223782390 0.792156756
0.794813573 0.316635162 0.816065550
0.003289416 0.370271951 0.799999952
0.002530012 0.366983235 0.797216773
0.298418790 0.391271442 0.805060148
0.568247974 0.439721793 0.814674318
0.811765015 0.511701405 0.833902299
0.160151362 0.670714974 0.833902597
0.256926149 0.675395310 0.837571144
0.421631575 0.673118532 0.834535182
0.633902371 0.692346573 0.845287800
0.844022870 0.734471619 0.863883615
0.585325539 0.899809778 0.886906743
0.606577992 0.902087331 0.897785783
0.686526895 0.903731763 0.895888746
0.793548465 0.916761637 0.900442779
0.926122725 0.925869882 0.935104430
