Assets/Resources/EldamarStudio/100 Horror LUTs Pack/LUTs/cube/Killtree LUT.cube
LUT_3D_SIZE 8
DOMAIN_MIN 0.000000 0.000000 0.000000
DOMAIN_MAX 0.903226 0.903226 0.903226
0.082353003 0.043136999 0.047059000
0.102340452 0.047438450 0.047438450
0.132448003 0.059582900 0.058823999
0.188868001 0.076787002 0.074003644
0.260088384 0.106514804 0.101074994
0.356230468 0.133206993 0.117393985
0.504111290 0.171537280 0.149652004
0.702719569 0.209360808 0.187096968
0.094876997 0.083112001 0.062744997
0.107020542 0.091713995 0.057178997
0.139911547 0.096015446 0.071726546
0.190006644 0.112460442 0.088551894
0.263251185 0.132700548 0.107020542
0.363061756 0.164199740 0.124604799
0.507653236 0.196204841 0.156356737
0.693484545 0.242251799 0.182542995
0.103478998 0.148007289 0.105123095
0.117520094 0.162935093 0.098292448
0.157495186 0.166097105 0.108918190
0.207969725 0.175078735 0.118406095
0.277166277 0.195825189 0.127767086
0.387096733 0.230613813 0.148513734
0.536116481 0.269449979 0.168374181
0.727640748 0.314231396 0.217457145
0.113724999 0.249968290 0.139532000
0.132448003 0.252624750 0.135989547
0.175964549 0.259962291 0.139025733
0.231498629 0.272485971 0.150790647
0.313219190 0.293611467 0.163440540
0.424920827 0.322580367 0.178241640
0.568121552 0.365085214 0.199114338
0.741935372 0.416698277 0.253763407
0.115243189 0.380518556 0.182542995
0.145856902 0.395572364 0.184946194
0.191145092 0.394560456 0.177735373
0.270082265 0.407210559 0.193548277
0.356989175 0.425174356 0.209107995
0.481467247 0.457305372 0.230993181
0.622390628 0.491714060 0.262871772
0.781530797 0.538013875 0.326122642
0.127007723 0.563820481 0.244655728
0.169386536 0.571916163 0.253384173
0.241745561 0.578241825 0.255028367
0.333333373 0.589247167 0.271094084
0.441745907 0.602530003 0.291208178
0.555977464 0.620619714 0.324857473
0.683997273 0.645414293 0.366097450
0.813535750 0.678684413 0.440733761
0.284123540 0.743326843 0.367488831
0.309424073 0.745351017 0.397849321
0.367235810 0.747248292 0.398102552
0.449336201 0.751170278 0.424035549
0.536116421 0.762934625 0.441113263
0.638962746 0.766223848 0.472865283
0.742314517 0.782542825 0.508285522
0.842631221 0.801391542 0.573813915
0.552561522 0.891840637 0.617710412
0.591144383 0.894876361 0.626312435
0.608222485 0.896520853 0.623655677
0.647058547 0.901074946 0.643769801
0.703858078 0.901074946 0.670461535
0.773434520 0.906767905 0.689436555
0.837444663 0.916382074 0.716761231
0.906514704 0.918026805 0.740670443
0.079190098 0.043516546 0.064642541
0.098418549 0.047438450 0.075648546
0.132827535 0.064642549 0.087413445
0.176976189 0.085768647 0.098292351
0.250221640 0.106894352 0.121821538
0.345730513 0.138646185 0.143200547
0.491840512 0.165717542 0.164579287
0.689943016 0.204047829 0.202024281
0.087413445 0.083871000 0.077546000
0.110562995 0.092472993 0.081087545
0.136748642 0.090449445 0.096394897
0.184946105 0.112080991 0.111701451
0.248703644 0.134345546 0.128526196
0.348007739 0.160151750 0.144591734
0.496521324 0.192283258 0.172422290
0.680581689 0.234408796 0.203668669
0.100316092 0.150411099 0.110815637
0.122707449 0.148007199 0.117899746
0.146109626 0.159392655 0.128146544
0.199747100 0.171916544 0.130423635
0.269323409 0.193422094 0.143327087
0.375332028 0.222390905 0.162555456
0.525110602 0.261227101 0.189500287
0.713472486 0.310309589 0.229728192
0.113724999 0.238329828 0.143579841
0.134092003 0.244655639 0.151549652
0.169639558 0.250474274 0.154712558
0.224668190 0.265021831 0.164073542
0.307273835 0.283365160 0.173055097
0.409993470 0.315875798 0.197849542
0.559772193 0.360404819 0.224161744
0.745983362 0.413282543 0.270335197
0.107273556 0.379759371 0.189626992
0.134092003 0.384313554 0.200632378
0.189626992 0.389120579 0.202909201
0.264642447 0.400126338 0.213409543
0.357115388 0.416445345 0.228336632
0.469322979 0.444275826 0.243896633
0.618848920 0.490196258 0.278684169
0.775079012 0.537887216 0.340164512
0.119544275 0.551170290 0.254522711
0.155597478 0.556862950 0.258191258
0.229981288 0.563567400 0.268816948
0.321315646 0.575079203 0.279317170
0.430107713 0.591144562 0.301328272
0.541682482 0.605313301 0.328146756
0.672612309 0.638330162 0.371663451
0.808475554 0.676533639 0.449842036
0.279949337 0.732194841 0.403921396
0.306262076 0.738519549 0.398734659
0.366223752 0.744338751 0.409740865
0.440860182 0.751043797 0.429222018
0.534345448 0.757368565 0.454649001
0.638077259 0.767995000 0.483238518
0.740290821 0.782542825 0.518532813
0.851359725 0.805945516 0.584313571
0.549272418 0.895129740 0.605186105
0.559392571 0.888804793 0.620619535
0.592283249 0.891334653 0.626059294
0.637065172 0.893484831 0.644022703
0.693485141 0.899051011 0.655534267
0.762049079 0.902972698 0.684124112
0.828589618 0.910563231 0.710056901
0.900316179 0.921315610 0.748260677
0.087033898 0.043896098 0.107400000
0.099177547 0.051359549 0.109297641
0.135610089 0.068184994 0.130929992
0.186970457 0.091334641 0.142694190
0.258570373 0.112839997 0.161416993
0.352688015 0.132827252 0.181024998
0.498545557 0.153573811 0.216192275
0.703605354 0.188741073 0.252877980
0.090575546 0.086654350 0.112840094
0.110183448 0.091714092 0.121441998
0.142314643 0.103478998 0.138772994
0.190006554 0.119544640 0.152055994
0.262618870 0.139911547 0.166097194
0.357494920 0.160278454 0.187223196
0.506514788 0.184060797 0.220366642
0.700442910 0.225806713 0.259455919
0.104997002 0.144971102 0.151170179
0.121948451 0.163061112 0.158381000
0.152814895 0.168501109 0.172422081
0.205313087 0.175458282 0.166856080
0.281973273 0.201391295 0.186464176
0.388741106 0.224035189 0.206324920
0.534471512 0.256040454 0.234788358
0.719544590 0.301454991 0.286527574
0.111068651 0.255408078 0.190385997
0.125869542 0.259329259 0.196331546
0.174319625 0.265528291 0.201011732
0.235041082 0.271727085 0.207210734
0.314357817 0.289310694 0.219734639
0.424668133 0.320556611 0.236053020
0.565844655 0.360531211 0.268057913
0.743200421 0.411258787 0.316888183
0.084756799 0.389374107 0.235167906
0.122327901 0.392283350 0.240354165
0.188108906 0.398608357 0.245920375
0.264642477 0.404427737 0.250221550
0.361037254 0.423656166 0.263883471
0.475142360 0.451359928 0.291334450
0.623276293 0.491714299 0.324857503
0.777608812 0.543706179 0.390892029
0.114737637 0.569766104 0.316508383
0.159266338 0.575205803 0.317141205
0.237065077 0.576723754 0.321821362
0.327640653 0.586590648 0.338267207
0.438077003 0.597596467 0.350664288
0.551296592 0.613282442 0.372422546
0.680076003 0.639468908 0.418975234
0.814547598 0.682985425 0.489816725
0.282352746 0.741049707 0.442125559
0.322580546 0.746742308 0.446553022
0.374446422 0.750411153 0.458317637
0.450094998 0.754332721 0.468564242
0.537507772 0.759898841 0.485894769
0.639089048 0.767615318 0.517520368
0.739278495 0.783301711 0.553067863
0.847438395 0.806325078 0.610246599
0.564705729 0.890955031 0.645161390
0.581783593 0.894117355 0.646046817
0.602276802 0.900316000 0.655787587
0.649968386 0.903099120 0.665275097
0.706514835 0.901201606 0.680708408
0.767362416 0.905502737 0.699051321
0.831372201 0.912460506 0.724225283
0.904743552 0.917647064 0.756230235
0.089057647 0.053257290 0.165970996
0.100695543 0.060341898 0.169133186
0.132321090 0.072865002 0.170651183
0.183302000 0.092473000 0.181657284
0.254522383 0.113978639 0.214168444
0.350410730 0.131941631 0.244022727
0.499177545 0.148513645 0.285388947
0.702846408 0.172675818 0.330423653
0.093358904 0.092093542 0.164326280
0.106514998 0.093611635 0.175332099
0.134724990 0.106514901 0.183554620
0.178873837 0.119797282 0.191018179
0.255660743 0.135483995 0.218469188
0.354965001 0.155091912 0.241113365
0.502340317 0.175079018 0.288045496
0.698671639 0.203921616 0.331815183
0.089310996 0.158254102 0.202783182
0.115243189 0.161669642 0.211005732
0.153194457 0.171157449 0.218469188
0.204806820 0.174952656 0.220366731
0.281088084 0.197343171 0.247058839
0.390638649 0.215686440 0.268437386
0.539911449 0.246299744 0.301454872
0.725742996 0.287666112 0.349272698
0.101834357 0.242251635 0.238836274
0.121189356 0.246173620 0.247058749
0.168121442 0.257937908 0.249715373
0.230486929 0.274762988 0.261353284
0.314484477 0.289942831 0.275015920
0.421252102 0.316634893 0.293864727
0.581024230 0.357242197 0.335989892
0.753067374 0.410120457 0.394054294
0.071347170 0.388867736 0.301328182
0.111068547 0.390259117 0.304996639
0.172296003 0.396458000 0.304111421
0.254648983 0.408602178 0.314990819
0.357368827 0.421125561 0.329664350
0.477925181 0.450980544 0.354206026
0.622011125 0.490069360 0.389753371
0.774446487 0.542820930 0.455787480
0.082099721 0.560531497 0.373814017
0.133459747 0.563946962 0.376344174
0.224415168 0.572675288 0.383807808
0.324225098 0.578874111 0.394054115
0.433269918 0.593421638 0.410499811
0.549905121 0.611258686 0.436053246
0.676154256 0.639721453 0.473371357
0.813409209 0.684503436 0.544971287
0.285388827 0.738899231 0.497406602
0.322327644 0.738899171 0.497153640
0.369765997 0.740796745 0.503099263
0.451106817 0.752308905 0.517646909
0.538520098 0.757368863 0.534471631
0.637697875 0.768247724 0.562681794
0.745730400 0.783681214 0.592156947
0.850600779 0.813156307 0.648703396
0.564073205 0.891966760 0.664136231
0.570651293 0.891587615 0.667172790
0.597722530 0.889943182 0.674130440
0.642884254 0.895888746 0.687413216
0.695509076 0.899683535 0.700695395
0.762049258 0.901834011 0.716128707
0.832510829 0.910057008 0.742567897
0.896267951 0.923339784 0.774193764
0.080834813 0.060341805 0.246806189
0.100063451 0.068564348 0.249968380
0.138772994 0.080708288 0.254648983
0.196457654 0.095635802 0.260341644
0.260088384 0.116761386 0.284250170
0.354206204 0.136748537 0.313851982
0.506261826 0.153574005 0.367109448
0.702466965 0.176976651 0.428589731
0.082353100 0.103478998 0.246805713
0.107906453 0.107526898 0.254142731
0.141809002 0.107779540 0.265275419
0.193548188 0.123466350 0.271473825
0.261733025 0.138646185 0.279569983
0.352308363 0.157874554 0.317141056
0.510562837 0.178620994 0.374193460
0.700442791 0.205312997 0.428083539
0.086400911 0.162176102 0.271727085
0.102340356 0.168247655 0.287918866
0.148893088 0.174067006 0.292346805
0.206830993 0.182542995 0.299557537
0.282732397 0.198229000 0.314737380
0.391144812 0.219734356 0.346489549
0.544718564 0.243643299 0.396205187
0.726122737 0.287665904 0.450221181
0.064263172 0.262112647 0.326248825
0.098924905 0.263630748 0.332194984
0.152055800 0.266666651 0.336749047
0.230234265 0.278431654 0.345730633
0.314231634 0.292093277 0.354712158
0.427197635 0.320556641 0.381151378
0.582289636 0.352687925 0.423023403
0.752561629 0.403794944 0.471853435
0.037317820 0.389247179 0.373561174
0.085768715 0.392789662 0.381909907
0.159013197 0.400253087 0.384566486
0.256040484 0.415053576 0.394686967
0.376597166 0.437824368 0.426059365
0.492852718 0.455787569 0.444781363
0.635041296 0.490955174 0.476027668
0.785325646 0.541555822 0.527514160
0.058823727 0.564199924 0.459076256
0.117900267 0.569639206 0.464389473
0.212017477 0.574446738 0.465654850
0.317394018 0.589373708 0.480076075
0.440480739 0.600759149 0.496521175
0.550790727 0.617204249 0.514104724
0.688425064 0.645793796 0.550790787
0.814927042 0.684629977 0.604554355
0.300315797 0.739405513 0.561163664
0.326249182 0.742061973 0.566097438
0.379000664 0.745730460 0.576344371
0.450474650 0.751423001 0.581783772
0.541556060 0.763567507 0.595698893
0.640986502 0.770651400 0.617583752
0.743832707 0.787096858 0.645920277
0.853257358 0.814168334 0.691966891
0.553953230 0.891966760 0.702086985
0.570398629 0.894497097 0.706261575
0.599746823 0.895129621 0.719164848
0.643263817 0.898671329 0.721948147
0.696394742 0.902719676 0.734598339
0.759898663 0.904364049 0.749145865
0.837950885 0.912839949 0.775458455
0.904870391 0.924604595 0.798481941
0.061100267 0.072612263 0.365591198
0.090828359 0.076280735 0.363693446
0.139025837 0.087033898 0.373181432
0.210626289 0.098418742 0.376597106
0.285388738 0.114863738 0.390765011
0.375585467 0.131309256 0.414674461
0.510563016 0.151676267 0.460215449
0.703858435 0.177229717 0.533080399
0.049462270 0.103352085 0.352434754
0.082479522 0.109677278 0.367488921
0.140291095 0.118785352 0.373561203
0.208981469 0.125363797 0.382416338
0.286021709 0.137887090 0.395951778
0.377988636 0.157874554 0.419481456
0.516508400 0.177482739 0.466160715
0.708791852 0.210752502 0.536116302
0.025300372 0.171916351 0.406451821
0.060341734 0.176091284 0.402909547
0.138140202 0.174825937 0.404933810
0.213788897 0.185199454 0.411132097
0.304870546 0.200885549 0.423402756
0.410626203 0.214927346 0.446805567
0.546109915 0.245920196 0.486527741
0.734724820 0.288298815 0.551549733
0.000759096 0.271853000 0.432637453
0.020999532 0.271600187 0.444908291
0.115749560 0.271979809 0.441113561
0.220366627 0.284503520 0.451106995
0.329031914 0.296521187 0.462365448
0.441239744 0.320682913 0.486527711
0.588235199 0.351802737 0.527640522
0.761416852 0.408855289 0.584566593
0.000000000 0.406577915 0.486400902
0.005060354 0.405692816 0.491966993
0.120050713 0.414800555 0.495382547
0.235167816 0.419987082 0.503605008
0.363820553 0.440860361 0.521821737
0.489563704 0.455155104 0.540164649
0.637191415 0.489689916 0.570777953
0.787476063 0.541303158 0.618342996
0.017077725 0.565591216 0.553700209
0.096394807 0.569513202 0.560784221
0.202150553 0.580139339 0.565970778
0.313472360 0.587223470 0.572802067
0.432258099 0.606451929 0.588361740
0.563820481 0.624541163 0.608728707
0.687539220 0.650221467 0.635041475
0.818469405 0.682605684 0.670588195
0.299683809 0.734219015 0.638077497
0.322833389 0.740164220 0.640227854
0.373054892 0.744844735 0.640860081
0.449209392 0.751929402 0.658064246
0.539152622 0.762934685 0.673244834
0.647311747 0.774319828 0.687033296
0.746616125 0.792916000 0.712966084
0.864263356 0.817710519 0.747248530
0.551423311 0.890448809 0.751043499
0.569765925 0.889690101 0.755850613
0.595066309 0.890702128 0.759898663
0.635167360 0.896647632 0.762175798
0.685135722 0.899556994 0.774193466
0.758254230 0.904996634 0.787476420
0.831372201 0.913978815 0.804300725
0.906388581 0.920809627 0.829095483
0.003289004 0.070588000 0.543326855
0.020493561 0.075901262 0.553826988
0.130929798 0.078557909 0.551676095
0.234408632 0.085136354 0.559772193
0.338013560 0.093358904 0.575711846
0.442504704 0.110689290 0.587349772
0.564199805 0.137254998 0.605692565
0.714610875 0.179253653 0.640354216
0.002277288 0.109044805 0.546110034
0.000000000 0.107400090 0.545351088
0.115369916 0.116381735 0.553193808
0.228462726 0.119544543 0.557242513
0.334851265 0.130676731 0.573687673
0.452371538 0.147754729 0.592789114
0.574699581 0.172169581 0.617836952
0.717899859 0.219481215 0.643010795
0.001644712 0.177862093 0.572295845
0.001897740 0.175837740 0.575837970
0.092093527 0.180265903 0.580012739
0.228336737 0.185958341 0.583048522
0.337254643 0.205313101 0.596457839
0.459835798 0.218089730 0.609867275
0.590765417 0.250601113 0.630992949
0.733965874 0.294497013 0.658950210
0.003415642 0.280328989 0.603921175
0.000379548 0.283997655 0.605945468
0.006451725 0.288931191 0.598861396
0.211384997 0.292725980 0.612397194
0.352182388 0.308665603 0.626692176
0.479569763 0.334597915 0.638709664
0.619734228 0.367868543 0.653890193
0.765844584 0.414800644 0.688425064
0.004680903 0.429854453 0.637950540
0.002656546 0.434282124 0.644023001
0.020872995 0.433017373 0.639595389
0.209740371 0.433902562 0.647944152
0.370018572 0.445414364 0.651360035
0.511827946 0.469196916 0.672106147
0.651233673 0.501707435 0.685894489
0.787729383 0.545098066 0.716508269
0.001897740 0.592156589 0.680961132
0.056672979 0.599241018 0.691714287
0.192283019 0.598987937 0.692599833
0.309297919 0.605439484 0.696774125
0.442631185 0.616824687 0.701075494
0.565717697 0.628589749 0.712713480
0.695762277 0.651360035 0.733712733
0.820999146 0.686274409 0.755850792
0.310183108 0.754079580 0.737381220
0.334092557 0.749778569 0.739658237
0.378367901 0.751043737 0.740670443
0.455660850 0.759139895 0.745097876
0.545983553 0.767488837 0.759645820
0.651486278 0.782416284 0.770904303
0.762555599 0.801138580 0.787729263
0.861100435 0.820872545 0.809993386
0.562302411 0.888425231 0.813662052
0.571536779 0.892346323 0.813409328
0.594180822 0.891587377 0.816192389
0.641239524 0.894370556 0.824414790
0.693485022 0.903352380 0.831752002
0.764578819 0.905882239 0.839974523
0.835041344 0.915117204 0.860720873
0.912207484 0.928146541 0.878937185
0.000000000 0.062744997 0.760278404
0.009361286 0.057432011 0.763314545
0.092473119 0.060847744 0.763820112
0.255281478 0.061227195 0.766729712
0.382795572 0.076407358 0.774952590
0.510942698 0.103098974 0.782922208
0.644528687 0.153699949 0.795445561
0.781151235 0.222770423 0.804553747
0.000000000 0.109171532 0.760531127
0.000000000 0.102972828 0.756356418
0.060088485 0.105376452 0.767615139
0.247438386 0.110436089 0.766603231
0.380518556 0.129538536 0.777482331
0.514610767 0.155218020 0.790891647
0.650221229 0.199114546 0.801264763
0.786084831 0.265654445 0.816698313
0.003162904 0.181277826 0.770524740
0.000000000 0.193042353 0.774825811
0.005692839 0.190385997 0.772422314
0.229348466 0.199999928 0.777735412
0.373687625 0.215559825 0.783554673
0.515875936 0.242757797 0.791903794
0.657052457 0.284630358 0.807969630
0.795572340 0.343959630 0.822137713
0.005566002 0.294750124 0.784566641
0.001265167 0.297533482 0.783554554
0.001265174 0.304870635 0.788868070
0.204680443 0.319671094 0.796710730
0.378747672 0.339785099 0.803415418
0.530803323 0.363440990 0.808096051
0.670967817 0.403668523 0.818469584
0.802909434 0.456799388 0.830360413
0.009108167 0.455281526 0.809993625
0.001897640 0.455281794 0.810120106
0.002403815 0.453510284 0.805818915
0.188108459 0.456546366 0.808854997
0.391650826 0.475521713 0.815433145
0.548007250 0.504743814 0.820619583
0.687033236 0.538772881 0.829854250
0.820619643 0.576470435 0.846299708
0.068310902 0.629475117 0.827324390
0.091840744 0.631499052 0.831751883
0.216951206 0.629854381 0.832005024
0.332574189 0.633776188 0.832384706
0.445667654 0.632637441 0.834788203
0.586590707 0.647817791 0.841745853
0.718406022 0.671726704 0.848323882
0.837697625 0.700822532 0.859076798
0.386970252 0.789500535 0.861733317
0.411764622 0.785325944 0.861100197
0.440480620 0.784313977 0.854522586
0.504237771 0.789879978 0.866034091
0.582036436 0.795825362 0.870461702
0.670714498 0.796963990 0.867678821
0.774319768 0.808729053 0.878431320
0.879190147 0.829474628 0.886653543
0.585325539 0.899809778 0.886906743
0.593041956 0.903731763 0.886527538
0.614674151 0.904364347 0.890701771
0.659709156 0.901327968 0.896773756
0.704490423 0.909297824 0.896267951
0.773561299 0.914737701 0.897153616
0.849715233 0.919038296 0.917393923
0.926122725 0.925869882 0.935104430
