Assets/Resources/EldamarStudio/100 Horror LUTs Pack/LUTs/cube/Ktulhu LUT.cube
DOMAIN_MIN 0 0 0
DOMAIN_MAX 1 1 1
LUT_3D_SIZE 32
0.003922000 0.031373002 0.101961002
0.003922000 0.031373002 0.101961002
0.008223000 0.031373002 0.104111224
0.015559838 0.032637838 0.104617156
0.025426548 0.035673548 0.102720000
0.040606931 0.038709935 0.108792000
0.055787317 0.044275999 0.112333678
0.074256696 0.047059000 0.113724999
0.093231998 0.048576999 0.116002090
0.105376013 0.054648999 0.125110477
0.123339735 0.054901998 0.128399864
0.143580243 0.060974251 0.133459985
0.163693994 0.068944000 0.138393357
0.181910068 0.075015999 0.141429037
0.200126827 0.081087999 0.144465417
0.215939179 0.087159999 0.149904996
0.235673368 0.096267991 0.157495201
0.258696973 0.107146986 0.165338427
0.276913017 0.113219008 0.168374032
0.295129716 0.119291715 0.171410352
0.317140967 0.129158989 0.178241730
0.342441112 0.140291125 0.188362002
0.369892001 0.149272993 0.200379506
0.400252819 0.155345008 0.209487915
0.432890266 0.163693696 0.218595698
0.467678308 0.174193323 0.227703661
0.505123138 0.185325995 0.236305997
0.547627866 0.191397995 0.242377996
0.600758553 0.202782974 0.251106828
0.655407786 0.214926958 0.265527934
0.710057139 0.227956593 0.281973213
0.764706016 0.243137002 0.294117987
0.003922000 0.031373002 0.101961002
0.000885613 0.028336613 0.104996607
0.009487612 0.034788389 0.102846384
0.018595774 0.037445001 0.104111224
0.028842384 0.039089385 0.106135160
0.046678934 0.044781934 0.114863999
0.059329644 0.047817677 0.115875997
0.077293083 0.053384032 0.120050378
0.097786382 0.056926288 0.122074485
0.114484400 0.060720999 0.122074872
0.126628384 0.063883863 0.128273383
0.146615863 0.070082121 0.133459985
0.165591255 0.078051902 0.138393357
0.181657031 0.083871350 0.141682059
0.197090432 0.087159991 0.147501811
0.212903395 0.090828806 0.150537595
0.232637361 0.099304378 0.157495201
0.256293148 0.110183373 0.165970996
0.276913017 0.116255395 0.171410426
0.303478360 0.122327387 0.177229390
0.324351370 0.130297348 0.182415992
0.346489131 0.140291125 0.190385744
0.369892001 0.149525985 0.200252995
0.400252819 0.161417007 0.206451520
0.439721555 0.167488992 0.217836604
0.476786703 0.177229375 0.227703661
0.513725400 0.188867688 0.236305997
0.553699851 0.197469994 0.242377996
0.596204579 0.208854973 0.256419808
0.656419694 0.220999405 0.268057942
0.713472545 0.231372759 0.281087607
0.761669576 0.240101382 0.291081607
0.003922000 0.042125225 0.104111224
0.009487612 0.041239612 0.107147381
0.006451773 0.040353999 0.101581000
0.018595774 0.045667227 0.104870223
0.030107545 0.045667227 0.110183001
0.050094772 0.048197225 0.113978162
0.061100643 0.056040447 0.117647000
0.076533988 0.057431772 0.120935991
0.096521221 0.062492225 0.127007991
0.114737235 0.066919520 0.128146708
0.129284993 0.072106093 0.131688997
0.145477504 0.077166736 0.135736734
0.163187772 0.085009553 0.139405221
0.177862033 0.090828970 0.141682059
0.196837410 0.093864582 0.147754833
0.216318786 0.101201802 0.153573975
0.231499180 0.104237802 0.159645572
0.253889740 0.112586804 0.167488813
0.276659995 0.117141016 0.172043011
0.301328123 0.125363782 0.178115010
0.326754749 0.135230765 0.184186995
0.349272251 0.143579990 0.190258995
0.372169256 0.151676208 0.198355243
0.404553831 0.163820237 0.208475783
0.437571317 0.175711766 0.216950998
0.477292717 0.181783751 0.224920675
0.514737368 0.192409769 0.233523071
0.555850387 0.203162447 0.244528770
0.602276623 0.214926973 0.247817814
0.653636515 0.227071404 0.270082146
0.716634929 0.237444982 0.285894752
0.767235756 0.243516997 0.298797995
0.003922000 0.056040321 0.109677158
0.013029613 0.057305161 0.112713546
0.014800613 0.057305161 0.108412221
0.023150157 0.057305161 0.104364157
0.034535158 0.057305161 0.114990160
0.051359929 0.057305161 0.114990160
0.068817481 0.063630320 0.120050482
0.079063989 0.070335321 0.122201152
0.096521094 0.070335321 0.128273159
0.114231169 0.075395323 0.134345159
0.129538029 0.080202162 0.136242867
0.146742344 0.086274356 0.139278740
0.164959133 0.092346832 0.144591644
0.177609190 0.098165862 0.145477161
0.196837574 0.101201743 0.151549667
0.216824785 0.107779801 0.156356990
0.236306027 0.115116961 0.161416799
0.253383964 0.118785158 0.171157137
0.277672201 0.122453973 0.176091135
0.300695717 0.131056353 0.181910172
0.324983984 0.140797153 0.186716989
0.350284398 0.151929021 0.193801120
0.375205636 0.158254027 0.200252667
0.408602089 0.168121323 0.211258814
0.440733850 0.177735567 0.218595698
0.474257112 0.189626977 0.228715837
0.511701286 0.196710989 0.232764095
0.554206014 0.208854988 0.246426284
0.608348906 0.219734147 0.252119005
0.657178521 0.231878251 0.264263332
0.713092744 0.245794043 0.288931161
0.770018995 0.253384173 0.307147175
0.005439999 0.068564542 0.117647000
0.014927159 0.071220703 0.120303839
0.017204095 0.072106093 0.118026547
0.026944868 0.072106093 0.114990160
0.048576996 0.072485544 0.118026547
0.054648995 0.072485544 0.118026547
0.074763089 0.077545546 0.125616774
0.091208287 0.082858868 0.130171001
0.101454549 0.087792993 0.130929992
0.116634943 0.087792993 0.137001991
0.132194862 0.090702124 0.138393551
0.149398997 0.095761992 0.140417293
0.167235747 0.100695543 0.144971192
0.185199484 0.107020579 0.153826550
0.200379863 0.110309958 0.159898549
0.219101995 0.116128989 0.163567260
0.237318084 0.122200988 0.166603357
0.255660564 0.128273085 0.171157137
0.279949427 0.134345114 0.183301955
0.301454842 0.143200353 0.189880013
0.324983984 0.151170194 0.194813356
0.349904835 0.160657957 0.199493676
0.377356440 0.169765562 0.208602026
0.410499901 0.176091254 0.217710361
0.442757994 0.182542995 0.223023251
0.475269079 0.191018537 0.229474783
0.510942638 0.203162551 0.241113484
0.553447366 0.215306535 0.250221074
0.612270832 0.224794373 0.259708822
0.666540086 0.235673517 0.272991866
0.713472188 0.249588653 0.291587979
0.765085459 0.267805457 0.309803993
0.017583998 0.083744928 0.117647000
0.029727999 0.083744928 0.117647000
0.030613709 0.084250867 0.120303839
0.038204029 0.084250867 0.119291708
0.057685383 0.084630318 0.118026547
0.060720995 0.087665930 0.121062934
0.074383318 0.092725933 0.128652617
0.089437060 0.095508933 0.134471774
0.101075001 0.097280160 0.136243001
0.113598563 0.099936999 0.137001991
0.131688803 0.102846123 0.145983875
0.149398997 0.107905991 0.149525672
0.166476637 0.110562645 0.152561575
0.182163090 0.110056967 0.156862944
0.197343469 0.119165346 0.162934944
0.222137839 0.127261117 0.166603133
0.243390381 0.134344995 0.169639245
0.260974288 0.140417159 0.173940510
0.276913047 0.146489888 0.183301955
0.298418462 0.155344531 0.189880013
0.323465794 0.158760011 0.197849736
0.349272251 0.164326325 0.204933867
0.374320060 0.175838336 0.211638421
0.404680908 0.184945971 0.220746040
0.442378283 0.193548352 0.229854345
0.480328679 0.202150673 0.236558914
0.520303309 0.212270930 0.244149134
0.568627775 0.224414915 0.253257483
0.613788724 0.233902752 0.265021920
0.667678356 0.244781896 0.274889201
0.719038129 0.258696914 0.289057672
0.768121064 0.276913077 0.309803993
0.032258321 0.103984669 0.130297318
0.034282319 0.098924674 0.127766997
0.044275548 0.101075448 0.129917771
0.046552997 0.101454996 0.132953838
0.060341999 0.101454996 0.132447541
0.069829382 0.102340378 0.131182924
0.082985640 0.102846317 0.136748999
0.098165601 0.107273608 0.140923321
0.111195192 0.108918093 0.143832996
0.123339653 0.111954488 0.147375003
0.136242747 0.117520444 0.148513556
0.154458985 0.120556571 0.157621935
0.171536639 0.126122639 0.162808329
0.186717033 0.127767280 0.166982993
0.201897413 0.132321090 0.168500990
0.219481602 0.139026284 0.172169805
0.243390501 0.148007452 0.176723629
0.263251543 0.154458910 0.180771738
0.282226712 0.158633962 0.186084658
0.302972376 0.167489290 0.194940016
0.331815213 0.172801897 0.201012000
0.359392643 0.175458312 0.208475679
0.383807480 0.184566692 0.214547664
0.411764473 0.196078748 0.221252099
0.446679235 0.205186337 0.232637569
0.485894978 0.214294657 0.240607306
0.525869787 0.223908991 0.247691318
0.570398748 0.236052990 0.258823425
0.623909056 0.248071134 0.265527993
0.669449389 0.257179081 0.281214386
0.721821368 0.271220595 0.295256287
0.773687661 0.291081309 0.314864010
0.044149287 0.118658699 0.143832996
0.045793995 0.119164698 0.135863319
0.047311936 0.119544469 0.140417472
0.060214709 0.118785694 0.145983532
0.067805380 0.118026696 0.147880703
0.077419698 0.118026696 0.141049936
0.092093602 0.119670987 0.147248700
0.100695990 0.122959986 0.146742716
0.115875803 0.125236705 0.149019614
0.128905982 0.127387479 0.155976996
0.142694712 0.131688699 0.159518987
0.157241985 0.135736957 0.162302256
0.175458282 0.139911696 0.169133633
0.190891713 0.145730659 0.174193710
0.204680413 0.148766279 0.174193710
0.225553602 0.152561605 0.176597089
0.246805996 0.158633992 0.181151271
0.268184841 0.167615280 0.187855855
0.289437264 0.172675669 0.192915753
0.305755645 0.177988648 0.199873358
0.332953483 0.186590955 0.208728701
0.364326417 0.191650823 0.213788569
0.389373481 0.198608398 0.219481006
0.416697919 0.210752800 0.228589416
0.450853556 0.218975395 0.234281853
0.490069270 0.229474664 0.245034948
0.531815469 0.238836050 0.252371997
0.577735841 0.249841690 0.264515996
0.625932813 0.260341644 0.272991717
0.676913083 0.270715147 0.282858670
0.723339379 0.283364773 0.299304247
0.776471019 0.304616988 0.316002309
0.054775096 0.129285097 0.155976996
0.056293480 0.134598196 0.143832996
0.060974188 0.139278874 0.148260757
0.064010195 0.140038103 0.152055934
0.081846647 0.133966088 0.160784110
0.089057766 0.133207098 0.150917083
0.100442678 0.135736778 0.152688324
0.109803803 0.138899088 0.155850917
0.115875997 0.145730197 0.152055994
0.131056398 0.145730197 0.161163613
0.146995857 0.147880971 0.167362094
0.162175909 0.150917172 0.170651257
0.176976278 0.155092090 0.175205633
0.195446029 0.160911053 0.178241953
0.209108084 0.163946673 0.178747892
0.228589594 0.166982904 0.180392191
0.251359999 0.171537101 0.184945986
0.275648147 0.177609086 0.192283139
0.297027081 0.186590970 0.201518074
0.312207222 0.191650838 0.207843110
0.334977567 0.198481739 0.214294642
0.362808228 0.206072122 0.222138047
0.390512079 0.215180501 0.225173667
0.419734120 0.226692095 0.235420719
0.454648644 0.235800087 0.243769795
0.493864357 0.243896171 0.249588758
0.535863101 0.255534112 0.258191109
0.586464167 0.264642417 0.269829094
0.634281814 0.274509907 0.280834913
0.683111370 0.284377187 0.291714072
0.733206451 0.295509547 0.302340060
0.781784117 0.316761196 0.314484090
0.069955491 0.144465506 0.168120995
0.066919878 0.147501886 0.155977011
0.077040263 0.152814984 0.163187772
0.085262977 0.156230509 0.166730002
0.087919429 0.155218497 0.157748505
0.103099033 0.149146497 0.163820490
0.110309511 0.150917172 0.159013510
0.116761424 0.152308494 0.158507302
0.124984391 0.154838592 0.161163628
0.140164018 0.163946986 0.164200023
0.158254266 0.163946986 0.170398504
0.174320251 0.166097224 0.172422498
0.188361973 0.170271814 0.175964653
0.201518029 0.176091462 0.184313953
0.222770393 0.179127082 0.187349573
0.238836288 0.182163313 0.187855527
0.255914003 0.186717495 0.191018000
0.275648147 0.192789495 0.198355138
0.299936980 0.198861510 0.210499942
0.321315885 0.207843378 0.216951489
0.345983684 0.216698229 0.221125737
0.371410638 0.223782137 0.225426778
0.393548459 0.227324516 0.231246442
0.429981291 0.236432925 0.234282061
0.468311220 0.247944489 0.246805802
0.509044766 0.258444160 0.258697152
0.551043510 0.267678887 0.267299503
0.590511858 0.276786506 0.273371488
0.641112924 0.288551629 0.287666291
0.694243789 0.300569415 0.300822437
0.748639822 0.313472569 0.311195493
0.803036511 0.328905970 0.317520499
0.082226738 0.162554994 0.171536863
0.082100257 0.165591389 0.162301987
0.089816868 0.166476995 0.165211767
0.100442998 0.168500990 0.172548994
0.103352450 0.169639558 0.168880552
0.103352062 0.176217869 0.172422871
0.116002642 0.170145869 0.175964549
0.124478027 0.172043025 0.174319997
0.134092227 0.174066961 0.177608967
0.149272412 0.178874359 0.184946358
0.161542863 0.179253876 0.182163000
0.177735388 0.181277618 0.184186995
0.192915767 0.184313506 0.186463997
0.207590044 0.188361958 0.193295166
0.228842407 0.191397578 0.196331456
0.242883980 0.196837604 0.199367687
0.260594308 0.204933852 0.201391548
0.280834556 0.213156283 0.205439463
0.302846104 0.216951013 0.210752964
0.329917490 0.223023713 0.217331007
0.351422876 0.233902872 0.227197990
0.377735376 0.243010730 0.234281868
0.405059993 0.247944385 0.240101129
0.435926825 0.251486778 0.240354091
0.474636286 0.260594577 0.250221550
0.515496314 0.272106349 0.263377845
0.558001161 0.283744782 0.272486001
0.599873245 0.297659427 0.273750991
0.647311449 0.304110855 0.287792802
0.703984737 0.313978314 0.302972734
0.759139836 0.325869560 0.316255331
0.809741020 0.341049999 0.326375872
0.096394733 0.186843753 0.180644989
0.094370991 0.185831636 0.171537116
0.094876997 0.186717242 0.173308030
0.105755836 0.186717242 0.181151241
0.112966284 0.186337695 0.183048710
0.116508313 0.188867658 0.186084673
0.126122370 0.193422243 0.189120933
0.138267145 0.190639243 0.188867539
0.146995500 0.193295404 0.187729090
0.158380747 0.196331486 0.191777483
0.168627515 0.198482245 0.195319384
0.182795256 0.200505987 0.190259263
0.199114293 0.202403247 0.191397622
0.214927256 0.204806983 0.196584061
0.230866402 0.209613830 0.201391682
0.255028248 0.213029593 0.210499793
0.270208627 0.219101980 0.213535786
0.290322483 0.228968978 0.216571569
0.310183257 0.233396307 0.219607964
0.334977895 0.239215434 0.223403260
0.360404491 0.245288193 0.229475245
0.384819508 0.257179260 0.238330126
0.415180236 0.265401751 0.243389994
0.445541054 0.272233158 0.247184992
0.482732534 0.279822946 0.256293595
0.523592591 0.290322214 0.265655011
0.566097438 0.302466869 0.276028067
0.608602107 0.316129029 0.280582249
0.658444107 0.325363249 0.291840822
0.707020819 0.334977657 0.305249959
0.762302518 0.346110076 0.321062237
0.809740782 0.361290514 0.335483730
0.111574635 0.209614351 0.191650644
0.109677374 0.207716599 0.185958371
0.109930634 0.207969636 0.186464638
0.113725476 0.207969636 0.191397995
0.122074187 0.207969636 0.195951998
0.129664570 0.205692336 0.196710706
0.139025643 0.207969636 0.199746966
0.152308404 0.211891636 0.200632572
0.162934989 0.213409632 0.199873284
0.169007003 0.216824800 0.197976127
0.180265859 0.218722507 0.200252995
0.191145018 0.220620021 0.200506002
0.207463294 0.222517282 0.198987991
0.225680053 0.223023281 0.202023670
0.239595279 0.229095280 0.207210824
0.260341436 0.233902454 0.214674354
0.284250379 0.237318277 0.224541441
0.303099543 0.242757708 0.226944640
0.321821660 0.248323664 0.229474962
0.345604092 0.256672651 0.237065345
0.369892597 0.262745112 0.239721999
0.394180894 0.269829512 0.245793998
0.424415112 0.281593978 0.249082625
0.455787808 0.289690256 0.255154639
0.494117916 0.301075339 0.264642566
0.534977913 0.309297591 0.272865653
0.577482760 0.321947694 0.279443562
0.619987488 0.334724903 0.288551778
0.670461774 0.345350802 0.301454991
0.719165325 0.357368410 0.313598931
0.767742157 0.371284187 0.328399599
0.813535631 0.386717647 0.346868634
0.127008066 0.225806087 0.200759038
0.127008066 0.225553066 0.201265037
0.129158765 0.227450803 0.202656776
0.133965865 0.229222029 0.205945879
0.142567545 0.229728028 0.208855033
0.145603940 0.229728028 0.202783033
0.151929036 0.229475066 0.203289285
0.162175700 0.231372744 0.205186963
0.175332025 0.234408990 0.205945998
0.181404039 0.240480989 0.212017998
0.196204901 0.240987033 0.210120171
0.207590252 0.240987033 0.208855003
0.219861031 0.240987033 0.211132050
0.237824053 0.241493031 0.216951028
0.256040812 0.247565031 0.219987407
0.274256974 0.253637046 0.223529264
0.293738216 0.258444190 0.229095191
0.314737558 0.261480451 0.236812055
0.335990012 0.264516115 0.236812070
0.360025108 0.275142044 0.249209374
0.384819478 0.283997446 0.255155027
0.409361213 0.290828943 0.256926000
0.434155941 0.300063044 0.262997985
0.467678934 0.306388050 0.269069999
0.507653594 0.318785340 0.277419299
0.550158322 0.330297053 0.284250677
0.592916131 0.337381124 0.288551956
0.635420859 0.352561504 0.297659576
0.685894787 0.365338027 0.311827838
0.733206570 0.379000247 0.325489998
0.779380143 0.395066202 0.340796590
0.827956975 0.413283020 0.362049013
0.145224825 0.253131211 0.209867418
0.145224825 0.250094831 0.215939403
0.147375047 0.249841809 0.212144405
0.149145991 0.250474393 0.213029996
0.151802421 0.251233399 0.218469411
0.157747939 0.257052392 0.224035397
0.170904309 0.254522711 0.215433076
0.179253399 0.257052809 0.217077568
0.187982082 0.260215312 0.219607666
0.196584418 0.258696973 0.218089983
0.211385280 0.261859864 0.224161997
0.224541396 0.262239397 0.222264141
0.237191632 0.262239397 0.223276272
0.253004432 0.262745410 0.229095787
0.268184811 0.268817395 0.232131407
0.286400974 0.274889410 0.239974797
0.304617375 0.280961394 0.244781628
0.323466361 0.285768569 0.249715135
0.342061996 0.288804829 0.255028814
0.366097748 0.291840434 0.252245486
0.394180834 0.302466393 0.256799728
0.422264129 0.311321825 0.259203285
0.449335545 0.318279803 0.262997985
0.485768378 0.330423832 0.269069999
0.523845792 0.339026093 0.277419299
0.565338671 0.350790799 0.286527663
0.608349442 0.361163884 0.294876993
0.653636813 0.370778263 0.306767941
0.704111397 0.385957956 0.318532377
0.746869147 0.398734808 0.333080173
0.787855983 0.413282812 0.351169944
0.834029019 0.431498975 0.377229393
0.161037177 0.278051972 0.216571987
0.158633992 0.275016189 0.220240191
0.167235985 0.274130583 0.219860971
0.169765785 0.275395423 0.220367163
0.170145333 0.276154339 0.227198258
0.174193606 0.276154608 0.231245995
0.185452119 0.281847090 0.234282270
0.195698798 0.278811067 0.226818591
0.203288794 0.281847090 0.229854599
0.214041486 0.282100081 0.231752276
0.226565674 0.282479644 0.230233997
0.239721790 0.285515517 0.236305982
0.250727445 0.285894990 0.234408438
0.263883829 0.286148012 0.236938953
0.283365190 0.290069759 0.244275570
0.298544973 0.293737978 0.247311801
0.315243155 0.298292190 0.254902005
0.334471732 0.304111362 0.258823365
0.358000994 0.310689747 0.263124913
0.379379898 0.316129237 0.260847628
0.405566394 0.322959840 0.267298996
0.436432719 0.333585918 0.271853328
0.467046082 0.341176480 0.275142312
0.505755603 0.351043791 0.283491582
0.539911091 0.363187760 0.289563596
0.580518484 0.373813957 0.299936771
0.624541402 0.385958135 0.310562968
0.673877180 0.396964222 0.322706968
0.710309625 0.408981740 0.330043972
0.758380771 0.431245744 0.347501159
0.800253153 0.443896383 0.367488772
0.847311795 0.454522580 0.394813597
0.177735373 0.302340388 0.227198184
0.179253563 0.296268374 0.233269796
0.182416379 0.299937189 0.224414766
0.188235208 0.299937189 0.230233982
0.189120740 0.302719831 0.239342347
0.194434121 0.301960915 0.242378250
0.203541994 0.301961184 0.240860313
0.212397382 0.304617673 0.240480810
0.220746279 0.303099304 0.237444803
0.233649194 0.306135476 0.243516788
0.245793924 0.306261986 0.242378116
0.256419986 0.308286101 0.245414376
0.269702613 0.311321735 0.249209374
0.280075997 0.311954200 0.246806189
0.298798382 0.314990610 0.252118945
0.315243572 0.318026394 0.259455800
0.333459556 0.321062386 0.260973990
0.349272341 0.323466182 0.265780985
0.373940170 0.329917938 0.267931789
0.397216767 0.336242974 0.271473855
0.423782408 0.347248644 0.274889171
0.453131318 0.355344385 0.285009176
0.486527652 0.364073157 0.288677990
0.523213089 0.374572873 0.296394706
0.561163485 0.384440184 0.304743975
0.595951498 0.396584153 0.310815990
0.638709366 0.409234256 0.322706997
0.688298464 0.422390878 0.334850967
0.728526115 0.434535384 0.347754389
0.764452755 0.450980335 0.361163348
0.809993744 0.476533771 0.382415771
0.857937992 0.483365178 0.408475816
0.195951983 0.327261537 0.241745993
0.202656552 0.319418132 0.250221163
0.205945760 0.321315736 0.243769541
0.208981961 0.326628953 0.237571150
0.206704587 0.327387959 0.253510147
0.215306908 0.330676615 0.256293505
0.223149821 0.328652859 0.253004551
0.231878385 0.327261537 0.248576850
0.238963038 0.328020453 0.247817561
0.254142642 0.331056058 0.253889561
0.265781313 0.330550134 0.252877563
0.277798861 0.333206803 0.257558495
0.290448755 0.336242914 0.261986375
0.305376112 0.339278549 0.262492478
0.320176959 0.342314959 0.263251543
0.334092349 0.345983326 0.268564343
0.351676166 0.348386735 0.273750573
0.372296125 0.351423115 0.272485584
0.390512168 0.351423115 0.272485584
0.414927274 0.356989115 0.280202359
0.442378432 0.366856277 0.286780596
0.473118693 0.380265534 0.294117570
0.506515026 0.386464030 0.300189555
0.539911449 0.398102134 0.306261569
0.577229440 0.407969415 0.315243274
0.617836416 0.419101685 0.322959960
0.654269218 0.430739641 0.330550045
0.699430823 0.445666969 0.342820555
0.741682529 0.459456205 0.359013230
0.782542884 0.475775063 0.377862096
0.819734514 0.494244128 0.397596151
0.865274966 0.515496552 0.418848574
0.214168042 0.354586005 0.253890038
0.223276421 0.351549625 0.259962022
0.225679994 0.350158006 0.261985987
0.229728192 0.350917041 0.261733174
0.237065420 0.351676047 0.265654981
0.240101025 0.357748032 0.265654981
0.243643358 0.355977297 0.265907973
0.252118945 0.354586005 0.263757288
0.262998104 0.355344892 0.262997985
0.272359461 0.358380497 0.269070029
0.281720847 0.355597913 0.263503999
0.297154009 0.358887017 0.268058240
0.315749615 0.363567382 0.274636358
0.335736960 0.366603017 0.277672112
0.347880960 0.369639397 0.283744872
0.357874811 0.375078976 0.284503996
0.372042984 0.377861947 0.286780775
0.390512168 0.378747582 0.287666023
0.408728987 0.381783992 0.281594008
0.435294330 0.387349993 0.287160009
0.462365717 0.393421978 0.291587740
0.490955293 0.402276993 0.297912985
0.521695495 0.413788497 0.309297979
0.555091918 0.422896892 0.315369993
0.590765595 0.432258248 0.325995982
0.633017242 0.444149613 0.335104018
0.678558052 0.458064854 0.342694104
0.714990795 0.467172474 0.357874453
0.754838705 0.484756649 0.370145679
0.798102498 0.504238188 0.388109148
0.840227902 0.524351954 0.409993917
0.877418995 0.542821050 0.434029013
0.246300086 0.381910354 0.277166724
0.247059107 0.381657332 0.277672708
0.251865953 0.382921964 0.281593949
0.253763527 0.383554369 0.279696375
0.259456396 0.383174926 0.277799010
0.264895797 0.382036716 0.277799010
0.270461738 0.385578394 0.275268674
0.280329078 0.386337698 0.278305084
0.292852640 0.388235480 0.279443711
0.301960498 0.391271591 0.281467736
0.316634893 0.394054264 0.284250379
0.325743258 0.395066649 0.280202657
0.340544015 0.396964103 0.283997715
0.358254403 0.396963745 0.287033379
0.375458360 0.402529806 0.290575832
0.390006155 0.405566186 0.299051195
0.402909577 0.409740537 0.300189674
0.420493305 0.411637962 0.302592993
0.440860331 0.414674371 0.305123001
0.461859733 0.423276752 0.310183734
0.489184111 0.427450985 0.308665246
0.516508520 0.434661627 0.311068803
0.545351028 0.446679562 0.321442008
0.581404328 0.455787271 0.332827002
0.619354606 0.464895666 0.338899583
0.657684982 0.474004030 0.351423025
0.699557424 0.486401290 0.363187462
0.733712852 0.500062943 0.378367811
0.772801757 0.522454023 0.393548191
0.814041317 0.539152563 0.411132187
0.854142785 0.558381021 0.433270216
0.886780381 0.578494728 0.457558721
0.277798980 0.414927453 0.291967243
0.279696733 0.413029730 0.288172245
0.279949695 0.417077690 0.290322959
0.282985300 0.422643602 0.294623733
0.287919104 0.422643661 0.292220175
0.300063461 0.413535655 0.293738008
0.300442725 0.421252131 0.293105423
0.309803724 0.419354439 0.291713744
0.322454184 0.422390729 0.297280222
0.330423743 0.426565468 0.299557239
0.345350593 0.429601580 0.300569117
0.360277981 0.430739969 0.301454514
0.371663362 0.432637721 0.299557239
0.387096792 0.430866480 0.302340031
0.405313194 0.435294211 0.308665395
0.419228256 0.438962549 0.310815901
0.438962430 0.443516731 0.313851923
0.455281287 0.446932048 0.315369874
0.474003732 0.449968457 0.322706729
0.499051094 0.454775333 0.324983954
0.520303428 0.460088700 0.329158992
0.544592023 0.464136451 0.326122344
0.569512963 0.474383473 0.333459496
0.604174554 0.483491570 0.343832761
0.640986741 0.494497031 0.359013319
