Assets/Resources/EldamarStudio/100 Horror LUTs Pack/LUTs/cube/Ktulhu LUT.cube
LUT_3D_SIZE 5
DOMAIN_MIN 0.000000 0.000000 0.000000
DOMAIN_MAX 0.903226 0.903226 0.903226
0.003922000 0.031373002 0.101961002
0.074256696 0.047059000 0.113724999
0.200126827 0.081087999 0.144465417
0.342441112 0.140291125 0.188362002
0.600758553 0.202782974 0.251106828
0.044149287 0.118658699 0.143832996
0.100695990 0.122959986 0.146742716
0.204680413 0.148766279 0.174193710
0.364326417 0.191650823 0.213788569
0.625932813 0.260341644 0.272991717
0.145224825 0.253131211 0.209867418
0.179253399 0.257052809 0.217077568
0.268184811 0.268817395 0.232131407
0.422264129 0.311321825 0.259203285
0.704111397 0.385957956 0.318532377
0.310183227 0.452372104 0.304111242
0.343200386 0.460847378 0.312966138
0.437697828 0.473371536 0.326628536
0.580012381 0.497533113 0.345351011
0.800000012 0.582542777 0.426185966
0.649209201 0.779759586 0.533965766
0.665275097 0.785958290 0.537381589
0.723592579 0.795445561 0.563567042
0.818216562 0.816318750 0.595825315
0.915496826 0.845161378 0.651739597
0.002277292 0.040860288 0.159518987
0.072612405 0.058190994 0.153320700
0.186717108 0.099051289 0.186970413
0.334598541 0.158254415 0.232131407
0.599746704 0.213535860 0.290069699
0.053004406 0.120303407 0.176849693
0.108918689 0.134724990 0.197469980
0.207969829 0.157621816 0.204680398
0.354585409 0.201771110 0.247817844
0.624920666 0.263883531 0.303099096
0.155344695 0.252751678 0.239595279
0.187349692 0.259962112 0.246173263
0.269196659 0.275015652 0.256293386
0.426565230 0.311954409 0.289310664
0.696521223 0.392156929 0.352561384
0.322074264 0.456925929 0.328905851
0.350790828 0.459961832 0.332068145
0.442251801 0.474636555 0.344971538
0.577103078 0.504364252 0.373813987
0.804933488 0.587729216 0.462618828
0.648576558 0.781024456 0.554965377
0.668058395 0.781657100 0.555471241
0.728399694 0.793801308 0.579759538
0.817204237 0.811385036 0.609740615
0.925110638 0.841492653 0.662492156
0.006577994 0.062112574 0.243896410
0.092219993 0.079443291 0.249462277
0.194939822 0.111827575 0.258317381
0.344465524 0.166730002 0.298798412
0.616445243 0.220366567 0.364958823
0.075521708 0.146489412 0.246805698
0.130170822 0.149398699 0.254649103
0.218722269 0.171031117 0.271979570
0.362428844 0.214168280 0.305376410
0.638962686 0.268437684 0.375711501
0.171410814 0.262239397 0.294876367
0.205312982 0.273750693 0.309297979
0.314611197 0.304743797 0.332827419
0.455028325 0.331941664 0.354206234
0.718405724 0.396457762 0.420620054
0.339911550 0.464768976 0.395066231
0.372296095 0.474256843 0.403162301
0.459582388 0.489310235 0.417583525
0.594307482 0.515496612 0.441492647
0.812397182 0.600885510 0.519417942
0.655534446 0.780391991 0.599240780
0.674509704 0.777482331 0.595825255
0.730044603 0.792789459 0.617583752
0.820493340 0.816318989 0.652624846
0.912207365 0.845793962 0.694117367
0.071727119 0.098165996 0.370904237
0.149525687 0.113092996 0.381404251
0.262112945 0.144845128 0.380392134
0.402403265 0.181404129 0.401265144
0.648450553 0.228589684 0.472359061
0.131183118 0.176217705 0.382542849
0.176976711 0.188614696 0.379000574
0.280708402 0.205312982 0.391144842
0.417077959 0.228589699 0.413029701
0.674003661 0.280581802 0.485009521
0.214168265 0.303478986 0.416065633
0.248956114 0.310942680 0.419607937
0.349651963 0.326375812 0.436053514
0.492726207 0.348260701 0.453637123
0.738266706 0.407589793 0.529917777
0.369007230 0.487666130 0.490702242
0.404301226 0.491587341 0.493864417
0.502719522 0.512207687 0.519671142
0.665275276 0.560278416 0.571031213
0.838456631 0.613535643 0.615179896
0.672232866 0.783681273 0.678683877
0.689816356 0.792789459 0.677039742
0.740417600 0.800632596 0.695003092
0.823655903 0.823529661 0.712080777
0.924351633 0.852877557 0.757495165
0.218595788 0.153067827 0.664769411
0.281467468 0.165211692 0.664769411
0.427956760 0.182542384 0.668690562
0.601644576 0.217584103 0.676913440
0.791650414 0.280202419 0.693484604
0.227071643 0.235167518 0.662618697
0.295509338 0.241113499 0.665781260
0.435167760 0.255408078 0.671979368
0.615306914 0.282732368 0.682352722
0.799240649 0.335104376 0.702719569
0.293231785 0.387349784 0.675015628
0.341555804 0.388994485 0.679190636
0.481593758 0.397722781 0.692219555
0.649082899 0.426312506 0.701960802
0.830107152 0.470588148 0.722959995
0.501328051 0.595698774 0.728526056
0.535610318 0.595825136 0.730676651
0.603162646 0.598987937 0.732700944
0.728020191 0.612649918 0.741429269
0.870588064 0.655913711 0.768374324
0.698671758 0.816445231 0.801770747
0.716634631 0.817963481 0.800632417
0.762049198 0.823529184 0.810499787
0.838456631 0.839468956 0.820872724
0.933585942 0.880328596 0.856799603
