Assets/Resources/EldamarStudio/100 Horror LUTs Pack/LUTs/cube/Ktulhu LUT.cube
LUT_3D_SIZE 8
DOMAIN_MIN 0.000000 0.000000 0.000000
DOMAIN_MAX 0.903226 0.903226 0.903226
0.003922000 0.031373002 0.101961002
0.025426548 0.035673548 0.102720000
0.093231998 0.048576999 0.116002090
0.163693994 0.068944000 0.138393357
0.235673368 0.096267991 0.157495201
0.317140967 0.129158989 0.178241730
0.432890266 0.163693696 0.218595698
0.600758553 0.202782974 0.251106828
0.005439999 0.068564542 0.117647000
0.048576996 0.072485544 0.118026547
0.101454549 0.087792993 0.130929992
0.167235747 0.100695543 0.144971192
0.237318084 0.122200988 0.166603357
0.324983984 0.151170194 0.194813356
0.442757994 0.182542995 0.223023251
0.612270832 0.224794373 0.259708822
0.054775096 0.129285097 0.155976996
0.081846647 0.133966088 0.160784110
0.115875997 0.145730197 0.152055994
0.176976278 0.155092090 0.175205633
0.251359999 0.171537101 0.184945986
0.334977567 0.198481739 0.214294642
0.454648644 0.235800087 0.243769795
0.634281814 0.274509907 0.280834913
0.111574635 0.209614351 0.191650644
0.122074187 0.207969636 0.195951998
0.162934989 0.213409632 0.199873284
0.207463294 0.222517282 0.198987991
0.284250379 0.237318277 0.224541441
0.369892597 0.262745112 0.239721999
0.494117916 0.301075339 0.264642566
0.670461774 0.345350802 0.301454991
0.177735373 0.302340388 0.227198184
0.189120740 0.302719831 0.239342347
0.220746279 0.303099304 0.237444803
0.269702613 0.311321735 0.249209374
0.333459556 0.321062386 0.260973990
0.423782408 0.347248644 0.274889171
0.561163485 0.384440184 0.304743975
0.728526115 0.434535384 0.347754389
0.277798980 0.414927453 0.291967243
0.287919104 0.422643661 0.292220175
0.322454184 0.422390729 0.297280222
0.371663362 0.432637721 0.299557239
0.438962430 0.443516731 0.313851923
0.520303428 0.460088700 0.329158992
0.640986741 0.494497031 0.359013319
0.785325468 0.550158083 0.411005557
0.432511121 0.587096870 0.370145261
0.443137288 0.592662573 0.371537000
0.475648373 0.594054401 0.378241301
0.523213208 0.605060101 0.389120847
0.582922041 0.610499740 0.404427558
0.663883805 0.624667525 0.422643542
0.748513818 0.644275546 0.449209273
0.845793903 0.680202246 0.503605068
0.649209201 0.779759586 0.533965766
0.652878165 0.786970377 0.532700598
0.674889326 0.785705328 0.547754526
0.708791733 0.790132642 0.553573787
0.749145985 0.799493790 0.567109585
0.805313230 0.812270463 0.587982297
0.856925905 0.829601109 0.626438856
0.915496826 0.845161378 0.651739597
0.000000000 0.039595451 0.118785545
0.021505546 0.039595451 0.122327998
0.092473097 0.059962451 0.143453196
0.155851081 0.085389100 0.160278350
0.223908991 0.109677091 0.176723540
0.312460452 0.142188549 0.204174548
0.428589702 0.173813999 0.238836274
0.596837521 0.213409424 0.273118526
0.016824545 0.068564542 0.140291005
0.048956547 0.076407544 0.146236554
0.095129639 0.089690447 0.151296914
0.159772292 0.106135540 0.170145184
0.229348168 0.130929992 0.190891743
0.317520529 0.158633560 0.208855465
0.436432749 0.192283258 0.238962695
0.609234452 0.225173831 0.276407361
0.062619001 0.133966103 0.170524642
0.085009545 0.137507647 0.170904085
0.121821553 0.142188549 0.165717646
0.175837725 0.155471548 0.182922438
0.247817725 0.175078735 0.204174638
0.331562221 0.205692649 0.223276377
0.457305163 0.229728118 0.257305533
0.630866230 0.275142312 0.290069789
0.115496635 0.202783182 0.202150181
0.130803093 0.205186278 0.207716897
0.164073527 0.213409543 0.210373536
0.216571748 0.224414736 0.216698542
0.280328989 0.238456622 0.231119379
0.366729707 0.262744933 0.251106828
0.496647894 0.296647578 0.273750663
0.665401399 0.339784771 0.312207550
0.178494379 0.297659904 0.242251903
0.195951894 0.299937189 0.239848182
0.222264275 0.300696105 0.251486182
0.271220833 0.308539063 0.257811397
0.335863382 0.321947992 0.269450158
0.424541384 0.343326747 0.287159741
0.559645653 0.383934200 0.313851923
0.725869596 0.437697560 0.361289978
0.281593978 0.415306896 0.295383006
0.290196061 0.420366645 0.301580995
0.320177287 0.421884686 0.302846372
0.374572992 0.429728359 0.310183465
0.440101117 0.441998810 0.325489908
0.516761363 0.458443999 0.339531749
0.640100837 0.493485183 0.367741823
0.789626718 0.551802516 0.423529536
0.432764083 0.583681285 0.383174807
0.441619098 0.587223291 0.387856007
0.473750979 0.588994324 0.387096822
0.519164979 0.595951855 0.397343725
0.584566534 0.611005843 0.409234732
0.655028582 0.620872617 0.427704036
0.744718373 0.641113579 0.455534577
0.841492772 0.677039742 0.506135464
0.642884135 0.779380023 0.531562030
0.656673014 0.777861834 0.542567730
0.669323087 0.780518651 0.543706417
0.704870343 0.786464393 0.558760405
0.748260558 0.799746990 0.572928309
0.804554164 0.806831062 0.594307184
0.857052386 0.825680017 0.626185715
0.914611101 0.838583231 0.655534267
0.000000000 0.043896094 0.170904085
0.032511450 0.045034546 0.166983098
0.090828992 0.065022089 0.167741999
0.151928991 0.086147994 0.187729448
0.225553274 0.120682992 0.208475992
0.307020962 0.151676357 0.232384637
0.419481367 0.184060797 0.264136702
0.599493742 0.215053722 0.297912717
0.024667548 0.084630094 0.167362556
0.056799546 0.078684539 0.161037445
0.099051543 0.099936545 0.180265889
0.162555546 0.113978542 0.192030191
0.229474992 0.141049996 0.217078000
0.313852072 0.171663284 0.235041082
0.434028894 0.203668296 0.266034544
0.606071830 0.234914660 0.304237634
0.069702998 0.133965984 0.192030102
0.083364643 0.144591644 0.195952088
0.134725079 0.159013197 0.217203990
0.180518731 0.164073542 0.216318995
0.250601083 0.184819907 0.227198184
0.333586365 0.208349183 0.246046990
0.457052678 0.239722088 0.285136193
0.631751776 0.276533991 0.312966347
0.129664540 0.209108278 0.229601175
0.137381539 0.217837095 0.235167891
0.176217362 0.221252635 0.233902633
0.218848735 0.231498629 0.242504731
0.284250289 0.244781718 0.253890008
0.368247896 0.269070536 0.277039737
0.497027367 0.305123448 0.299304098
0.672106266 0.345603824 0.342441469
0.186211377 0.304744184 0.268817186
0.203035831 0.305123538 0.273118466
0.231752172 0.310183167 0.271853209
0.281088084 0.318785310 0.283238530
0.341303170 0.324225247 0.292220086
0.428969294 0.348766804 0.309171349
0.564199805 0.390006483 0.333712995
0.728652775 0.438709795 0.383934110
0.286401093 0.422011375 0.321062475
0.301328301 0.422643632 0.320430189
0.333839208 0.424288452 0.325237095
0.382669270 0.430993021 0.339278996
0.441745937 0.443137378 0.340797007
0.527514338 0.460341454 0.359139830
0.645540953 0.497786343 0.390638590
0.795572460 0.556103706 0.443896353
0.436179727 0.588741362 0.403036296
0.450980306 0.592283130 0.407210559
0.483617663 0.595066369 0.413409382
0.529791415 0.600885093 0.419481367
0.591650844 0.614674389 0.427324563
0.669829249 0.625932813 0.453510195
0.741808653 0.640354574 0.478304744
0.845035076 0.682985067 0.524098635
0.655660510 0.779000521 0.559266269
0.662365556 0.782036901 0.549398780
0.674130380 0.786970496 0.560531437
0.713092685 0.794686675 0.575458169
0.754205942 0.800632417 0.591524601
0.805566072 0.809614062 0.611258626
0.859582186 0.826439023 0.641492844
0.923086762 0.843769729 0.666287422
0.000000000 0.056040641 0.219101638
0.035926897 0.063124545 0.213535637
0.102972738 0.075268902 0.221378639
0.157494992 0.096394993 0.221378639
0.228209719 0.121821634 0.239722088
0.313598812 0.155092001 0.263883382
0.430107623 0.183933988 0.296014994
0.609487593 0.214421153 0.335610628
0.038709544 0.096774347 0.220619634
0.062871538 0.100695640 0.216951191
0.105249740 0.106514998 0.224541634
0.165591642 0.121441990 0.230739728
0.236559093 0.147248387 0.246047094
0.321441740 0.175458476 0.271473706
0.442504913 0.206831202 0.305123359
0.611385107 0.235926807 0.340670466
0.078431100 0.150031552 0.232637376
0.103352085 0.151929200 0.237065449
0.140164182 0.162176102 0.232131734
0.188741282 0.168753654 0.246046990
0.256799191 0.193927735 0.261353642
0.346489549 0.216571748 0.283111840
0.467679024 0.247185439 0.314610839
0.637823761 0.281214267 0.356356651
0.125616640 0.216951281 0.245034978
0.151549652 0.219355017 0.258570284
0.186337993 0.235041082 0.271094263
0.245034993 0.253383636 0.287539274
0.301834404 0.258064657 0.293358654
0.379886121 0.279316723 0.306388259
0.508665264 0.311701268 0.339152277
0.676533878 0.348007590 0.379253477
0.198355526 0.310436636 0.306388259
0.215686545 0.314484566 0.300822258
0.245794073 0.318405747 0.308285832
0.295129478 0.327766836 0.318532616
0.356482923 0.336242706 0.324730843
0.443390101 0.361037374 0.342315197
0.577988386 0.391397625 0.372043103
0.734345436 0.444275796 0.420113593
0.298924357 0.429854363 0.357115448
0.310816199 0.427830696 0.356103748
0.344339073 0.433270127 0.362302542
0.394813180 0.441239715 0.370018840
0.457811475 0.453004539 0.381909996
0.540417194 0.468184471 0.396204978
0.657938302 0.503731847 0.426692188
0.797090471 0.562808454 0.479063630
0.447058886 0.588741541 0.443390280
0.465907812 0.588614762 0.440860182
0.485768378 0.591650546 0.441872209
0.534471512 0.601138532 0.449715197
0.591650844 0.612903237 0.468943566
0.669323444 0.624414921 0.484123886
0.746236563 0.646552503 0.505755782
0.845793605 0.686274052 0.553193867
0.651233256 0.779506266 0.585958242
0.661480129 0.780139148 0.582542300
0.682479262 0.782921970 0.595066428
0.713851810 0.787223458 0.598987758
0.753067553 0.797849357 0.609993398
0.808222592 0.809614062 0.630739987
0.860974193 0.824794471 0.657938123
0.918152869 0.842504561 0.689689696
0.012397189 0.070588000 0.276660383
0.053131189 0.073624000 0.276913643
0.121315382 0.086148091 0.278052092
0.176850200 0.108538538 0.283617973
0.241113186 0.133965790 0.289943188
0.320935994 0.160278454 0.304743975
0.443896562 0.194181085 0.341429442
0.623149872 0.222517177 0.389499992
0.061985731 0.112080991 0.280834824
0.083112001 0.115496635 0.277166337
0.131562293 0.125743449 0.283364713
0.187982291 0.138266742 0.287666112
0.254522383 0.152814999 0.291840523
0.328399718 0.180898085 0.315749377
0.451233208 0.207589999 0.344971627
0.626438916 0.241619334 0.398229003
0.107147187 0.165211901 0.280455291
0.119797282 0.174699381 0.290322542
0.154333085 0.180265903 0.291587919
0.207969636 0.183681548 0.294623882
0.267805278 0.198988080 0.302466869
0.351549447 0.222517192 0.327513993
0.476533741 0.255408078 0.364326298
0.653763294 0.281973183 0.411511809
0.145224631 0.230234087 0.300316453
0.167615190 0.235420644 0.306767821
0.202403635 0.248324096 0.312966645
0.253763169 0.258823723 0.326755196
0.309171379 0.267046273 0.334471971
0.395572186 0.292219996 0.353700012
0.521568656 0.315623105 0.384440362
0.692472875 0.352308422 0.432763815
0.217584178 0.313219368 0.340038180
0.224667996 0.320050508 0.341935664
0.262239188 0.327387393 0.353320360
0.319418192 0.342315197 0.364705831
0.399241179 0.365718156 0.391651005
0.477419376 0.377862126 0.395951897
0.593421638 0.404048353 0.420619965
0.746362925 0.449335635 0.469070166
0.312207460 0.432637721 0.399620205
0.327134460 0.433776289 0.397976160
0.360784471 0.441998750 0.408096164
0.410879374 0.458064556 0.418216258
0.476280719 0.470588267 0.432384461
0.562808514 0.482605726 0.446046710
0.677545786 0.515496731 0.481594205
0.804680347 0.566729844 0.525237143
0.470082253 0.596584558 0.486527264
0.474383265 0.599240839 0.479443282
0.502466738 0.602909327 0.492726177
0.547880769 0.610246837 0.499557465
0.608222663 0.623149574 0.513725460
0.675015748 0.638077438 0.527261019
0.756483555 0.653763294 0.548134267
0.855028212 0.699430823 0.598102212
0.658443928 0.782542646 0.618089557
0.667299092 0.782795548 0.615180075
0.680961430 0.782795668 0.619481206
0.716761410 0.793042243 0.628969014
0.756735981 0.802150249 0.638836324
0.805186450 0.814042032 0.657937706
0.863504052 0.830866277 0.684756458
0.918532789 0.846173227 0.713092566
0.058570478 0.092093736 0.348639995
0.097406730 0.102213539 0.352814525
0.153067634 0.112333827 0.354079455
0.216065988 0.126881897 0.353320390
0.281720251 0.148513541 0.358254224
0.359898478 0.170271724 0.371916473
0.464010239 0.197343573 0.396837473
0.642378211 0.226312652 0.454901963
0.094117537 0.129664734 0.348513454
0.114231274 0.139152542 0.339405715
0.159519285 0.143706545 0.350031465
0.219101980 0.155850813 0.359392583
0.287286252 0.169892281 0.363441169
0.364705473 0.194686741 0.377861738
0.470967650 0.211891353 0.395446181
0.651106715 0.242378429 0.455913782
0.135484084 0.192662999 0.360784382
0.152055725 0.192283452 0.359013110
0.185579091 0.195699081 0.356989354
0.241113260 0.204806924 0.363441080
0.312460393 0.218216449 0.376850098
0.388235390 0.231119365 0.389247358
0.495761991 0.258570373 0.418595910
0.676533878 0.291208088 0.473877192
0.182036728 0.259962291 0.379885972
0.197975740 0.255534530 0.378747553
0.225426987 0.262745112 0.378115267
0.277798980 0.276533872 0.382163256
0.344592035 0.281088084 0.396964192
0.422138095 0.294370383 0.407590002
0.542441428 0.317140967 0.437571377
0.706894159 0.359645814 0.496647686
0.242504463 0.341302991 0.415559918
0.250221521 0.344085932 0.403289080
0.283744514 0.351169914 0.417457283
0.341303259 0.359139711 0.426818281
0.415559649 0.370018691 0.442378163
0.502086878 0.384060919 0.459709346
0.614800811 0.413029939 0.485135943
0.762049258 0.453130841 0.536116362
0.328526437 0.446173459 0.450221479
0.342947394 0.449715018 0.451612920
0.377482712 0.454902083 0.466287076
0.432384610 0.465907454 0.474889100
0.513851881 0.488045901 0.493484974
0.610626459 0.516761422 0.528526425
0.706135213 0.539405286 0.543706238
0.820240319 0.578115165 0.583301485
0.474889547 0.598481834 0.538772523
0.485515118 0.607084095 0.540670097
0.517520308 0.607463717 0.543200433
0.563820422 0.616445363 0.553447366
0.626312733 0.634535015 0.574826121
0.696141481 0.648703337 0.591018260
0.774446785 0.665781319 0.611005962
0.869829237 0.709677398 0.654775500
0.669955552 0.784693360 0.657178819
0.674383461 0.788108885 0.659202814
0.691587389 0.790006459 0.668690324
0.719797313 0.796584368 0.675142109
0.758001328 0.804174542 0.679696441
0.808728695 0.817457616 0.698165834
0.862365544 0.833143473 0.724730849
0.921821773 0.852371871 0.746868610
0.135230988 0.116635285 0.478304565
0.163820535 0.124857731 0.477925122
0.213535666 0.134724900 0.473497748
0.289437264 0.148513645 0.480581850
0.363567233 0.162934810 0.483617663
0.453384012 0.182922259 0.490069568
0.556988835 0.202909291 0.504111230
0.674256802 0.230233967 0.533206940
0.138393298 0.155851007 0.472738832
0.175079018 0.159013093 0.480202317
0.222137973 0.169259906 0.476786762
0.291840374 0.173940375 0.479949266
0.368374646 0.188741088 0.485768735
0.457937986 0.208476007 0.497153550
0.557368398 0.225174025 0.507400095
0.674003422 0.249715358 0.526628613
0.169639364 0.217078105 0.477292657
0.193548724 0.219228387 0.481594086
0.237697646 0.224668100 0.476660490
0.306261927 0.231372729 0.490449041
0.385831654 0.239595190 0.492346466
0.471347183 0.253383815 0.502846181
0.578114808 0.273371369 0.518912077
0.696900487 0.296900690 0.545857072
0.203541979 0.289942920 0.495129615
0.225553289 0.294497073 0.489057571
0.265781045 0.295256197 0.494750261
0.332574248 0.301075637 0.500822246
0.412017733 0.312460274 0.512713253
0.502593279 0.324225366 0.522960246
0.602909446 0.338140279 0.537254930
0.727893591 0.372043073 0.572422445
0.277672201 0.382795453 0.514863729
0.288424909 0.384060800 0.523086429
0.329411685 0.387476176 0.526755273
0.380771607 0.388741016 0.528399706
0.458570659 0.396078467 0.536875367
0.553826928 0.410626203 0.555850565
0.657431960 0.426692188 0.569386423
0.774952531 0.467678815 0.606831431
0.373560995 0.494750470 0.567615509
0.394307286 0.496774197 0.570272028
0.419354856 0.500695944 0.569006681
0.472232997 0.501834333 0.575332046
0.548260272 0.515496612 0.586843908
0.628210068 0.529285491 0.603921235
0.724478483 0.551929176 0.620493352
0.830613196 0.593295217 0.656799495
0.507653534 0.616192579 0.617204249
0.511954069 0.616445065 0.616192579
0.538266778 0.623402536 0.616951466
0.582036614 0.629095197 0.627956569
0.639089346 0.640354574 0.637444854
0.719038427 0.666413546 0.663377762
0.803415775 0.698545516 0.685135841
0.880961061 0.725869834 0.720683038
0.678051889 0.788867772 0.710942626
0.683111787 0.793675005 0.716128707
0.700316072 0.795445561 0.721441805
0.725743234 0.800252795 0.725743413
0.769639313 0.811385334 0.739784777
0.816445351 0.825553358 0.750031471
0.867552340 0.840734005 0.770651042
0.920936227 0.859076262 0.793168604
0.218595788 0.153067827 0.664769411
0.244908050 0.157368690 0.661479712
0.296141803 0.166223809 0.664769411
0.382163286 0.172549009 0.663630784
0.478051811 0.191651165 0.666287184
0.574320018 0.210499659 0.673877597
0.681973338 0.240100950 0.682985425
0.791650414 0.280202419 0.693484604
0.223403096 0.188994512 0.655408144
0.254016608 0.190259382 0.659962177
0.302972794 0.195572346 0.660341620
0.382036805 0.209361106 0.670208633
0.472106159 0.221252248 0.668311059
0.576723695 0.238962591 0.676533699
0.681973338 0.262871355 0.681214273
0.789373696 0.298292160 0.697659671
0.234408796 0.254901916 0.663630605
0.252751440 0.258444250 0.662492037
0.319291741 0.259835660 0.667552292
0.395698786 0.270082176 0.670714676
0.484123886 0.276280880 0.672991753
0.590765417 0.294117719 0.680328727
0.694876790 0.317647338 0.689184010
0.801517606 0.351296633 0.703984737
0.259076476 0.332194805 0.674003422
0.282732487 0.339405328 0.677166402
0.335104287 0.341556013 0.672991633
0.419734269 0.347754598 0.676407218
0.514484227 0.359898448 0.682732403
0.608222485 0.374826342 0.691460788
0.712839961 0.393168896 0.700442612
0.815939248 0.425174057 0.709171593
0.342061996 0.441745996 0.687412679
0.357368648 0.442884356 0.689816236
0.396204889 0.440986902 0.691081643
0.461353898 0.441872001 0.690701902
0.547628045 0.453130841 0.697786093
0.644528687 0.467046440 0.710056663
0.743706405 0.487919092 0.716761351
0.837697566 0.514864028 0.730676949
0.465907484 0.565085530 0.721441865
0.480834603 0.562808275 0.721694887
0.508538961 0.566223681 0.723592341
0.550031543 0.565464735 0.721315324
0.610499501 0.566223681 0.724225223
0.691587329 0.578747272 0.735610306
0.783428252 0.601518273 0.753573358
0.859961689 0.624541342 0.759013295
0.590765238 0.692346334 0.753826857
0.604048193 0.692346334 0.755091608
0.620619476 0.693991184 0.758127689
0.650727272 0.698418498 0.759266317
0.699557245 0.699430823 0.763187766
0.757621884 0.708792090 0.771283925
0.818975329 0.720683098 0.779506505
0.897406459 0.743959308 0.800379574
0.698671758 0.816445231 0.801770747
0.707779527 0.817204237 0.801138103
0.717140615 0.818975568 0.802656472
0.745350599 0.822896600 0.805692375
0.783048570 0.824288309 0.807083786
0.826312602 0.835926473 0.817077816
0.876407087 0.852118611 0.835546911
0.933585942 0.880328596 0.856799603
