Assets/Resources/EldamarStudio/100 Horror LUTs Pack/LUTs/cube/Lajenes LUT.cube
LUT_3D_SIZE 5
DOMAIN_MIN 0.000000 0.000000 0.000000
DOMAIN_MAX 0.903226 0.903226 0.903226
0.003922000 0.031373002 0.109803997
0.075901404 0.047059000 0.118658699
0.193547994 0.084377408 0.144465417
0.332701117 0.135356992 0.191271126
0.587729394 0.206704661 0.252498806
0.039595284 0.118026696 0.145477697
0.096141987 0.125236705 0.146742716
0.203036115 0.150410995 0.174193710
0.355850816 0.190006122 0.204047829
0.611891210 0.254775673 0.271726847
0.137380987 0.243263826 0.209234834
0.172675818 0.252119094 0.215433285
0.260974407 0.266160399 0.235420823
0.410752803 0.308412522 0.261859536
0.684503376 0.379379958 0.323845357
0.299304128 0.448450387 0.304111242
0.334345251 0.455660969 0.303225696
0.424035221 0.468058109 0.322074562
0.564326346 0.496521235 0.348260134
0.787982047 0.574952424 0.420366943
0.629474699 0.774446607 0.530044436
0.655408144 0.781404316 0.532194376
0.713092744 0.792789459 0.552941024
0.813661993 0.808475435 0.591524422
0.907653451 0.837318420 0.643896222
0.000000000 0.043136999 0.159518987
0.072612405 0.058190994 0.158886999
0.186084688 0.098418705 0.186337993
0.328653127 0.155977130 0.232131585
0.589247286 0.209234998 0.285135806
0.047438700 0.118026696 0.172928706
0.108918689 0.137001693 0.192915976
0.205692679 0.155977115 0.205945402
0.346109807 0.200758979 0.242631391
0.607210398 0.260594696 0.301707715
0.149146408 0.249841809 0.235041127
0.183428109 0.256040663 0.242884293
0.265907675 0.270082384 0.259203136
0.411132514 0.306388110 0.288678110
0.684123755 0.384313643 0.349019498
0.307906508 0.447818100 0.321821392
0.343200713 0.456293374 0.337128669
0.427956641 0.470082521 0.342694432
0.567615390 0.495256245 0.368627369
0.795066297 0.575331986 0.450854063
0.642378092 0.777735591 0.541808605
0.652498186 0.773813665 0.548386574
0.717014074 0.786590755 0.565338612
0.808728635 0.809867144 0.605566144
0.909044743 0.834661543 0.650980413
0.003289416 0.058823999 0.240606993
0.091587409 0.077798583 0.247817561
0.191650406 0.108538993 0.255028814
0.337254703 0.163820282 0.295002967
0.602783024 0.217077985 0.357115805
0.074889287 0.146489412 0.246805698
0.121947698 0.151043415 0.251359701
0.212523818 0.168374285 0.267425805
0.352940947 0.213156253 0.304996699
0.624920547 0.261859536 0.369512826
0.164831981 0.254396379 0.281087995
0.203415826 0.265148699 0.302719951
0.304111362 0.300821960 0.325616837
0.441619217 0.325743377 0.348260701
0.698798418 0.389879793 0.410752803
0.328020543 0.464769125 0.392030120
0.358886510 0.470335275 0.395319551
0.449462205 0.481087685 0.408728361
0.580644965 0.508286238 0.433649659
0.798987925 0.588741183 0.509677231
0.641871989 0.769892156 0.588741422
0.663503945 0.776849926 0.588994145
0.720176995 0.785578966 0.610373020
0.812017739 0.807842851 0.639594913
0.906388581 0.841871977 0.689563453
0.071727119 0.099177867 0.369892120
0.147248402 0.116381839 0.373814136
0.259709388 0.145477548 0.380012661
0.388741225 0.178494990 0.387603134
0.635420382 0.222011119 0.464516073
0.119418114 0.182795689 0.378368139
0.175711527 0.183681414 0.377103120
0.272485942 0.201138541 0.381657124
0.410246223 0.223655820 0.406451553
0.657684803 0.271726936 0.478557944
0.203795269 0.297912538 0.407969534
0.246679246 0.305755675 0.415053517
0.339152128 0.319797397 0.427071244
0.479569644 0.339152545 0.443263948
0.724857569 0.400379360 0.524984300
0.355218261 0.476913273 0.484756261
0.390512407 0.487033546 0.481087983
0.485768348 0.506009102 0.509550869
0.652498424 0.556356430 0.563188255
0.823529422 0.608981669 0.604048133
0.662618577 0.785578609 0.667551935
0.676533997 0.786970437 0.667045891
0.730296910 0.796710610 0.685515165
0.815812826 0.815686584 0.706767738
0.913219512 0.844402552 0.749778450
0.214673787 0.151802659 0.655534446
0.275901496 0.160657838 0.653004408
0.419481158 0.175331980 0.659582615
0.593421638 0.213662103 0.671979547
0.781151235 0.269702613 0.682985425
0.219481096 0.234155402 0.656672657
0.288045466 0.237444818 0.653004408
0.427324623 0.250853688 0.660467863
0.603288889 0.276154220 0.671220720
0.788108706 0.327261329 0.694876552
0.270967782 0.378114790 0.673750699
0.330170870 0.381404191 0.672612429
0.471220583 0.392536610 0.678431153
0.638962746 0.416192174 0.690575242
0.817077816 0.460720748 0.711827636
0.482099891 0.592409909 0.722074687
0.517394006 0.586590946 0.724857807
0.587855756 0.593422055 0.726501882
0.714358151 0.606072128 0.733586252
0.867045939 0.645414174 0.760531306
0.689563572 0.809867442 0.791397810
0.704364300 0.812776566 0.793168783
0.750916779 0.813030005 0.799999952
0.832131505 0.831372619 0.817583621
0.923212945 0.872485578 0.847691476
