Assets/Resources/EldamarStudio/100 Horror LUTs Pack/LUTs/cube/Lajenes LUT.cube
LUT_3D_SIZE 8
DOMAIN_MIN 0.000000 0.000000 0.000000
DOMAIN_MAX 0.903226 0.903226 0.903226
0.003922000 0.031373002 0.109803997
0.025806095 0.036052998 0.110183448
0.095636003 0.047817905 0.124731094
0.160910636 0.066160642 0.135609999
0.234155178 0.094750188 0.155976996
0.311448723 0.125236988 0.184186995
0.426691979 0.162048995 0.214674279
0.587729394 0.206704661 0.252498806
0.015686000 0.064642541 0.118026547
0.045034546 0.068943992 0.115243092
0.101454549 0.088551894 0.131309539
0.161290184 0.100316092 0.150158450
0.233396381 0.118279383 0.168247744
0.315243751 0.148513734 0.185705096
0.432258278 0.186337993 0.221378550
0.594686687 0.224414825 0.259962261
0.054775096 0.132448003 0.159139901
0.071600541 0.131941646 0.148893088
0.115875997 0.144971102 0.153573990
0.175837636 0.153953448 0.167741999
0.241872281 0.171537101 0.182542995
0.331562132 0.196584195 0.206830993
0.451612651 0.227957100 0.238330185
0.617710412 0.266919762 0.276280940
0.106514998 0.206830993 0.187729344
0.116635084 0.213915184 0.197975740
0.154585734 0.212650537 0.195951998
0.203542277 0.220872998 0.196204633
0.275268734 0.233396366 0.220619828
0.359645724 0.258823633 0.236559078
0.477798909 0.294370562 0.264010280
0.650727212 0.341302991 0.300062984
0.171410188 0.296015203 0.223908991
0.178494379 0.301201731 0.235167891
0.215307087 0.303099275 0.236685902
0.263377815 0.307400644 0.247564986
0.324098378 0.321947992 0.262492180
0.415053636 0.343326747 0.278178185
0.542314947 0.374193400 0.297659874
0.708285570 0.426945001 0.338393182
0.269955456 0.413029730 0.289942980
0.279063821 0.416824907 0.293485433
0.316634715 0.418469191 0.293358713
0.362049103 0.427830607 0.301580995
0.433017105 0.437571466 0.307147175
0.508665442 0.456040710 0.327007741
0.624794304 0.488930702 0.349146008
0.772295892 0.542820692 0.399873435
0.423023254 0.587096870 0.372422546
0.436179996 0.581910074 0.365338743
0.459202617 0.583934367 0.371157557
0.510942578 0.594939590 0.387981921
0.569639683 0.604301035 0.399873555
0.644275784 0.619987607 0.415180087
0.731815577 0.638709843 0.438456535
0.829095483 0.674003661 0.491713792
0.629474699 0.774446607 0.530044436
0.645920396 0.780392170 0.527640700
0.663757443 0.784946442 0.541302681
0.701201737 0.790006399 0.549398780
0.741555929 0.794307232 0.564452767
0.796963692 0.806451499 0.582163095
0.853004336 0.818596005 0.619734466
0.907653451 0.837318420 0.643896222
0.000000000 0.043136999 0.122327998
0.021505546 0.039216001 0.122707449
0.087286547 0.054016192 0.136748537
0.155092001 0.084629998 0.159519449
0.221252546 0.109297544 0.175205633
0.310436726 0.139405280 0.204806745
0.420113832 0.170272037 0.229222015
0.585957944 0.208855450 0.271094263
0.020746548 0.065781087 0.139532000
0.045793548 0.080328546 0.146615997
0.094750091 0.089690439 0.152055889
0.151929185 0.106135540 0.166603446
0.225553378 0.130550444 0.183428198
0.311575174 0.159772292 0.206451729
0.420872808 0.188361838 0.235167697
0.584819734 0.224794373 0.271094263
0.058317546 0.130423650 0.173687547
0.084630094 0.140291005 0.174826086
0.121821545 0.139025643 0.172042638
0.169512630 0.153953448 0.187349990
0.243517071 0.171536908 0.200632274
0.326122642 0.203288928 0.223276272
0.442884266 0.230993271 0.247817829
0.616951168 0.271220803 0.289690256
0.108791992 0.205186278 0.207337350
0.124478184 0.207210541 0.207716897
0.157748446 0.211511999 0.208855450
0.203921735 0.217330739 0.210373446
0.272865534 0.237697721 0.227956980
0.357242078 0.260467827 0.247944534
0.482099652 0.295635760 0.269829363
0.647311568 0.337128639 0.307400525
0.177735284 0.295762420 0.247818008
0.187602729 0.294496983 0.242631361
0.216066003 0.303099304 0.250727385
0.266160458 0.308665305 0.257431835
0.326375365 0.318785399 0.268311501
0.412776709 0.335863173 0.286400825
0.542820930 0.378115386 0.308285803
0.709677517 0.427071542 0.356482953
0.268690735 0.411005467 0.289057255
0.281214744 0.411385030 0.292599738
0.309550911 0.416824698 0.298039436
0.362302363 0.423529476 0.303478658
0.426059186 0.436053276 0.318026364
0.505123019 0.450473994 0.335231155
0.621632159 0.481846809 0.359772205
0.775078893 0.546362817 0.414168358
0.417330980 0.572548807 0.378241390
0.424288392 0.578874290 0.375331849
0.457178891 0.582289517 0.377229571
0.506135345 0.590132535 0.388741225
0.564073563 0.603162408 0.402782828
0.644528866 0.614547729 0.419481456
0.729917824 0.634535313 0.441872299
0.829348326 0.668184638 0.493864447
0.635799944 0.777735412 0.520430028
0.640480697 0.772675574 0.534218609
0.660214901 0.773055017 0.539658308
0.690954864 0.781657219 0.549778581
0.735736787 0.792030215 0.562934875
0.796710908 0.801391423 0.584693193
0.844023049 0.814674139 0.615180254
0.909930170 0.834661603 0.645414233
0.000000000 0.043896094 0.169386089
0.030107545 0.048197452 0.165844455
0.090828992 0.065022096 0.175584987
0.149145633 0.089690350 0.188108996
0.221632093 0.117520288 0.203795090
0.310183376 0.149652094 0.230107635
0.413156360 0.183301702 0.257685006
0.588741422 0.209993899 0.293231815
0.021884998 0.081467189 0.170524642
0.050474450 0.081087641 0.170145094
0.095129639 0.096774444 0.176723525
0.156989545 0.116761282 0.192030177
0.227577642 0.139911354 0.214041799
0.310183465 0.170019090 0.232764170
0.424288273 0.201391578 0.262112528
0.596584439 0.229601666 0.303352416
0.063377999 0.133207083 0.190385982
0.089310892 0.141809002 0.202277094
0.133965984 0.157495186 0.217203990
0.179759637 0.163314447 0.215560094
0.246679276 0.180898294 0.224035278
0.324098468 0.204047829 0.251486182
0.449968368 0.234914467 0.278937280
0.619354725 0.274509907 0.314610928
0.125363901 0.211891636 0.223276272
0.138646290 0.214674294 0.234408900
0.168374285 0.224035278 0.233143538
0.213789001 0.228336543 0.239721999
0.277166277 0.246805996 0.252751529
0.359266341 0.264263004 0.273750842
0.481214553 0.298292279 0.294244349
0.653637111 0.340290695 0.331941724
0.182289377 0.302466899 0.255281210
0.205565736 0.296015173 0.274383187
0.226312369 0.303858191 0.271979898
0.271979749 0.311321735 0.277293086
0.332068264 0.319544196 0.286780268
0.416065812 0.343326747 0.305123359
0.544592023 0.382922381 0.329032093
0.718405783 0.433017164 0.381404281
0.279063791 0.418216377 0.318026364
0.291840255 0.417710006 0.319164902
0.324731469 0.421631813 0.327767044
0.374067366 0.428715914 0.334218621
0.431119531 0.438836128 0.335231096
0.517014682 0.453004628 0.348387003
0.630360305 0.491208017 0.384060740
0.779380202 0.549272716 0.434914917
0.427956730 0.581657410 0.395446271
0.441366374 0.580898464 0.400885373
0.470967829 0.587223411 0.408855200
0.513725162 0.593801320 0.413788736
0.575964689 0.603668451 0.426692158
0.652877927 0.615686178 0.445414245
0.732194841 0.635673642 0.468943536
0.830992699 0.677292645 0.512081087
0.643896222 0.775458395 0.541555703
0.644655228 0.775837600 0.554838419
0.663630545 0.778367579 0.554458857
0.702340066 0.787729561 0.568121493
0.745983601 0.794686675 0.584566712
0.794813395 0.808854997 0.602529705
0.854775190 0.817077816 0.632131696
0.909550726 0.835926414 0.655787587
0.000000000 0.056040641 0.219101638
0.031625543 0.060341898 0.210752994
0.097912997 0.072485544 0.217837095
0.154712349 0.093611643 0.224161997
0.225932732 0.121821634 0.244149446
0.308412373 0.151676357 0.262618989
0.420619905 0.184946001 0.292599618
0.591397762 0.215812817 0.330423445
0.035547350 0.099936642 0.213156089
0.058317542 0.104237899 0.211891636
0.110815734 0.110056639 0.222137734
0.159266636 0.119038180 0.226439089
0.226312265 0.144086108 0.247311547
0.310815960 0.169512928 0.266413897
0.431625605 0.204933643 0.298924625
0.588994205 0.233522996 0.340290725
0.079190195 0.146489292 0.237824529
0.099430993 0.151929095 0.227957100
0.135863453 0.166223988 0.238962993
0.185958639 0.171536997 0.246046990
0.249715269 0.189120740 0.257305652
0.333965838 0.212650448 0.283238649
0.454648644 0.247565091 0.313345879
0.626818657 0.275775015 0.351802588
0.125616640 0.214674279 0.249462634
0.144844994 0.216951281 0.255408108
0.180898190 0.232257724 0.268311530
0.238329932 0.246679276 0.280834645
0.296774179 0.255281299 0.287033528
0.370525092 0.273371279 0.303478628
0.492979258 0.301581293 0.336875260
0.662365437 0.340796888 0.369765788
0.191397831 0.308285743 0.298924625
0.214168444 0.311321735 0.305249721
0.243517086 0.316887856 0.307147175
0.291208178 0.323845834 0.314610630
0.350664198 0.331182361 0.319671154
0.431372464 0.355471373 0.340038180
0.557621837 0.386843771 0.367489100
0.721315384 0.437318027 0.414547890
0.289563358 0.420746207 0.353573710
0.299683362 0.423149824 0.349399090
0.336875081 0.427956820 0.359898716
0.382669270 0.436053365 0.362934738
0.445287764 0.448323935 0.375964344
0.522707462 0.462239206 0.390385747
0.644908369 0.494750470 0.416445345
0.781024337 0.554838419 0.473497540
0.433143526 0.583175540 0.437317908
0.451359659 0.583934426 0.433902472
0.470461875 0.585452259 0.434408456
0.518785536 0.596078157 0.448576540
0.579506338 0.605818987 0.460341454
0.657179177 0.617204249 0.475774646
0.736748517 0.639215887 0.500189543
0.834028900 0.679949284 0.548639894
0.645034611 0.775584996 0.582036555
0.653131008 0.775078893 0.575078845
0.671853065 0.778620958 0.584566534
0.703478754 0.781783223 0.594560385
0.744718254 0.791903734 0.607716441
0.797722578 0.804174602 0.624035299
0.852624714 0.820113778 0.648576558
0.913472414 0.840101063 0.677672327
0.009993995 0.068184800 0.274257183
0.051992543 0.074003547 0.272738993
0.115875997 0.083744287 0.273371190
0.175331995 0.107779644 0.280581981
0.237191558 0.130044192 0.286021173
0.315369964 0.156230450 0.300316423
0.432005078 0.187982187 0.333586454
0.609234393 0.217077985 0.384313822
0.056672737 0.110942356 0.277419388
0.077166542 0.113092825 0.266413808
0.128779545 0.122960083 0.280581981
0.186464190 0.136748552 0.281720608
0.243137524 0.152814999 0.284882843
0.318279505 0.177355722 0.308412522
0.441872209 0.206831187 0.340290844
0.607843041 0.233016819 0.391018212
0.103352092 0.169260010 0.281341076
0.119291633 0.172042638 0.287286639
0.151170179 0.176344097 0.292346805
0.205186367 0.185705289 0.292726338
0.260721177 0.198988080 0.305629164
0.340164512 0.220493346 0.319671184
0.463251352 0.248450279 0.357242167
0.636938632 0.278811067 0.403668582
0.146616012 0.229095429 0.298419058
0.164832443 0.238203987 0.307147264
0.198861271 0.240480989 0.313472301
0.245920181 0.251359999 0.320050627
0.305755824 0.265148818 0.331815422
0.386590540 0.285135984 0.348513454
0.509677410 0.311321706 0.383301616
0.676407456 0.345224559 0.424035341
0.202783182 0.314105004 0.332827359
0.215812534 0.312966645 0.342061818
0.252119094 0.321062386 0.345477372
0.307653189 0.338393182 0.356862813
0.385958344 0.360278368 0.382289559
0.465401709 0.366856635 0.392536372
0.579253733 0.395446092 0.418342888
0.734724760 0.438836217 0.462239385
0.299810290 0.428842723 0.388235629
0.319165170 0.429601640 0.391777366
0.350284606 0.436432809 0.399494201
0.402656823 0.450600713 0.411132276
0.466540337 0.462745160 0.427577347
0.543959439 0.478051901 0.437824368
0.666160703 0.507779837 0.468943536
0.795192957 0.560531497 0.517394125
0.441239566 0.590259314 0.479317278
0.457305193 0.590259254 0.474509478
0.489816546 0.595066309 0.485642076
0.534471512 0.602782845 0.491714060
0.589247227 0.616951227 0.503478467
0.665528476 0.625553250 0.519544542
0.743832767 0.644402444 0.537887275
0.841366053 0.692093492 0.585958183
0.646552384 0.778494418 0.611132264
0.657305241 0.777355790 0.610499561
0.671473563 0.779885948 0.611891031
0.704617321 0.785831988 0.626185775
0.747627795 0.794307232 0.630992591
0.795825660 0.807969689 0.652877808
0.851486504 0.821758270 0.679064035
0.915622532 0.839848399 0.709424198
0.056546733 0.092093736 0.348639995
0.093105793 0.098671995 0.346615732
0.151043370 0.110310085 0.352055758
0.210879013 0.129538253 0.350917011
0.277799159 0.146868736 0.360278457
0.348260462 0.168374479 0.362302721
0.450727552 0.194307283 0.394687176
0.631119311 0.218468979 0.444781572
0.091081537 0.133206800 0.344465464
0.108285531 0.133206800 0.337507993
0.158507347 0.146489471 0.353573710
0.217584088 0.156609908 0.355217844
0.284123987 0.168247983 0.360278368
0.358001202 0.188741088 0.371536940
0.458950102 0.211511806 0.391144723
0.636052847 0.237697706 0.450347662
0.123466171 0.189120740 0.349525720
0.151043460 0.187096909 0.358760178
0.179506838 0.194560438 0.356356472
0.232511267 0.204047933 0.360278070
0.302593440 0.216192186 0.371663630
0.378115088 0.225932717 0.378115267
0.478431195 0.255408078 0.408602268
0.656925917 0.286654174 0.465654612
0.173434630 0.255660743 0.364959061
0.188615084 0.256799400 0.370398253
0.220240623 0.260088265 0.372675389
0.274383515 0.269449979 0.383048475
0.333965778 0.278431654 0.384313434
0.411511451 0.292093366 0.402530104
0.526628554 0.311574996 0.432131439
0.688045263 0.353447199 0.491334707
0.232004911 0.335357100 0.404301167
0.242378548 0.340037912 0.399241179
0.276027828 0.346869200 0.413156122
0.330297351 0.353194386 0.419354737
0.405818909 0.366477191 0.432131469
0.487919092 0.378115177 0.452624977
0.599873424 0.406831145 0.477292985
0.747881174 0.447058737 0.524984002
0.318785697 0.438456476 0.446299464
0.330170482 0.441113025 0.449082732
0.365464449 0.446299464 0.462871552
0.419481426 0.459203094 0.467046112
0.495762110 0.481846690 0.488298535
0.594813466 0.510815740 0.518659174
0.692220449 0.529285491 0.537254512
0.805060089 0.573308289 0.574699461
0.454269737 0.585578501 0.527893603
0.469449729 0.594054341 0.531435847
0.497533441 0.602023840 0.537887335
0.544465542 0.608222604 0.546489358
0.612903357 0.625553250 0.564579248
0.681087494 0.640860319 0.578242004
0.760278463 0.656040549 0.597723067
0.859961867 0.700949013 0.642631173
0.658064604 0.786084652 0.644781768
0.664010227 0.779506445 0.658317566
0.679063797 0.780898213 0.653889954
0.709297717 0.792789459 0.670461774
0.747880697 0.797849596 0.679822981
0.796331584 0.810373187 0.689057648
0.857432067 0.825680077 0.718532622
0.913472533 0.847691417 0.736875296
0.122833565 0.122200996 0.470461547
0.155597568 0.126122996 0.468564272
0.206451580 0.137128279 0.471979558
0.278810918 0.148513645 0.472738564
0.355977476 0.164579093 0.472738832
0.443263739 0.180265993 0.480581850
0.537381232 0.203542277 0.495256573
0.661732852 0.227198273 0.521694839
0.140164524 0.156356737 0.460341275
0.165338293 0.157115847 0.464642793
0.212270811 0.165464818 0.466920018
0.280455530 0.174699560 0.471220821
0.357368737 0.186843827 0.476027846
0.445540905 0.203288838 0.486907244
0.540543854 0.223655835 0.503731847
0.658191323 0.243896514 0.520556509
0.158886895 0.213156104 0.470335275
0.182668909 0.216571644 0.478810817
0.230866566 0.222390801 0.471347570
0.295762181 0.228716195 0.478304565
0.374067277 0.238077179 0.486907065
0.459962010 0.249335736 0.493485004
0.560025036 0.269449800 0.511068642
0.678937197 0.291714102 0.539911568
0.196837336 0.285515577 0.486653924
0.218089730 0.292220086 0.482858866
0.259835571 0.290828824 0.487286627
0.324098587 0.296015263 0.494623542
0.404680461 0.302972972 0.502213836
0.491334528 0.317520499 0.513345897
0.586084545 0.330803186 0.528273582
0.714105248 0.362934649 0.562428653
0.259709269 0.379000545 0.507147253
0.273624450 0.379759669 0.515875936
0.316129088 0.379633188 0.516635180
0.370524824 0.383301735 0.521695137
0.446046740 0.389247358 0.530676484
0.539278746 0.404807389 0.545603812
0.637064934 0.419607669 0.558127820
0.761416733 0.457938254 0.594433844
0.354459465 0.489184201 0.556230009
0.378241718 0.489689797 0.559645534
0.406831443 0.488804609 0.560404539
0.458570451 0.498418748 0.569133341
0.529032171 0.505755544 0.578874052
0.615812898 0.521442413 0.599493742
0.710942268 0.543706238 0.610626519
0.822011173 0.585072577 0.645540774
0.486400843 0.610626280 0.608981550
0.490195781 0.607463837 0.599620342
0.521695018 0.611511827 0.610626280
0.564705968 0.622896910 0.619481564
0.626438737 0.635673642 0.632890284
0.703857958 0.656925917 0.652371883
0.788741589 0.689057291 0.678304493
0.876027703 0.716381609 0.710816085
0.663630426 0.785325885 0.703478992
0.670335174 0.787096858 0.707779586
0.685515404 0.785705328 0.715496719
0.712586582 0.792789161 0.716761172
0.758380949 0.805692494 0.735230684
0.807084084 0.816572011 0.742441297
0.861986041 0.835167468 0.764705896
0.920050800 0.852877557 0.781657338
0.214673787 0.151802659 0.655534446
0.239721790 0.153826833 0.653004408
0.291587710 0.162934899 0.655787587
0.371663451 0.171030819 0.658190548
0.464642823 0.188614771 0.660847425
0.567109406 0.207842827 0.667425513
0.673750877 0.231878519 0.675521851
0.781151235 0.269702613 0.682985425
0.210119814 0.187349796 0.650221288
0.243263334 0.186337680 0.651233435
0.299050987 0.191650674 0.655660510
0.375838161 0.202403739 0.656166852
0.465021968 0.214927331 0.661226988
0.567235589 0.234029084 0.669955552
0.674130321 0.254269242 0.672991931
0.780265808 0.289184213 0.688930750
0.222770333 0.252371907 0.654395700
0.242631152 0.254775524 0.658317566
0.313345790 0.253889918 0.657811522
0.388487995 0.264136910 0.660341620
0.476786762 0.272485882 0.663124502
0.578494549 0.291587710 0.672232687
0.682732224 0.312586814 0.680328965
0.787349701 0.342188478 0.696141422
0.247058630 0.332194805 0.663630366
0.269323111 0.334218532 0.657431901
0.327387810 0.336495459 0.667931736
0.405186623 0.346362919 0.669829011
0.501454830 0.354079813 0.674509883
0.596458077 0.365338355 0.678051829
0.698671877 0.389247000 0.692599356
0.803035855 0.414547443 0.700822234
0.323719144 0.433649361 0.675901413
0.344338953 0.433902681 0.684250593
0.377609015 0.433143616 0.682352781
0.444275618 0.435294449 0.680075824
0.530802965 0.444149196 0.686021447
0.629980922 0.460088521 0.698545218
0.728273094 0.475774646 0.708412409
0.827071190 0.505502820 0.723845780
0.449462384 0.561037481 0.713472307
0.462492049 0.556356430 0.714357913
0.491840512 0.558507144 0.714231193
0.533333540 0.559645534 0.711068809
0.595193028 0.561543286 0.716761410
0.676660240 0.572169423 0.727767289
0.769259810 0.591144800 0.742061615
0.856672585 0.614041746 0.751170337
0.577735662 0.683111787 0.740290761
0.590512156 0.682859063 0.748892844
0.606578171 0.684376955 0.750284553
0.637444377 0.690322518 0.754459321
0.683871090 0.691207826 0.756483376
0.746615946 0.700949013 0.767235756
0.810120225 0.716381669 0.775458634
0.888298333 0.737381518 0.790386021
0.689563572 0.809867442 0.791397810
0.699557066 0.809487820 0.797216535
0.710689604 0.813788414 0.795951843
0.733712792 0.813535810 0.795192897
0.769765794 0.818722248 0.801897585
0.816951454 0.827577472 0.815559864
0.870082378 0.846932411 0.829980612
0.923212945 0.872485578 0.847691476
