Assets/Resources/EldamarStudio/100 Horror LUTs Pack/LUTs/cube/Lajenes LUT.cube
DOMAIN_MIN 0 0 0
DOMAIN_MAX 1 1 1
LUT_3D_SIZE 32
0.003922000 0.031373002 0.109803997
0.006957613 0.028336613 0.103732005
0.007843000 0.027450999 0.101961002
0.012902999 0.029980998 0.104491003
0.025806095 0.036052998 0.110183448
0.044022866 0.042124998 0.113219060
0.057178997 0.045667320 0.113724999
0.075901404 0.047059000 0.118658699
0.095636003 0.047817905 0.124731094
0.101708017 0.050853521 0.121695481
0.122327864 0.056799740 0.121569000
0.141555995 0.060847737 0.127640739
0.160910636 0.066160642 0.135609999
0.181403995 0.075269029 0.141429037
0.193547994 0.084377408 0.144465417
0.212902784 0.088678189 0.149904996
0.234155178 0.094750188 0.155976996
0.255407542 0.103858411 0.162048995
0.276659995 0.112966038 0.168121010
0.295129716 0.116508357 0.176976353
0.311448723 0.125236988 0.184186995
0.332701117 0.135356992 0.191271126
0.365970999 0.141555503 0.200252995
0.396331817 0.150663912 0.206325009
0.426691979 0.162048995 0.214674279
0.461226970 0.172801659 0.223782659
0.499684066 0.182415992 0.232384995
0.533080399 0.194559991 0.238456994
0.587729394 0.206704661 0.252498806
0.643643320 0.218848959 0.267678738
0.698292136 0.230107591 0.278430998
0.752941012 0.239216000 0.278430998
0.000885613 0.031373002 0.109803997
0.000885613 0.028336613 0.109804004
0.008222774 0.033902772 0.103732005
0.017204547 0.037824225 0.104491003
0.030360775 0.041366000 0.110183448
0.037950866 0.042124998 0.113219060
0.056166995 0.050727319 0.111195318
0.074256696 0.053130999 0.115623094
0.094876707 0.053890098 0.123213291
0.107780010 0.056926295 0.124731094
0.119670995 0.065780900 0.133333474
0.142568111 0.069955871 0.135736734
0.161670029 0.074130386 0.140543640
0.178874373 0.081087999 0.144465432
0.196584389 0.087413020 0.147501811
0.213535383 0.094117604 0.152941391
0.235673368 0.099303991 0.159013391
0.257178962 0.106261611 0.165717959
0.273624390 0.112966046 0.174193770
0.294876784 0.124857716 0.177482411
0.317140967 0.128652647 0.186084732
0.338772833 0.135356992 0.193295389
0.365844488 0.141682014 0.200252995
0.393295437 0.153700307 0.206325009
0.428210169 0.165085390 0.216950998
0.461480021 0.175838053 0.226818278
0.497659653 0.185452387 0.234408617
0.536116064 0.197596386 0.235420600
0.577482224 0.209740371 0.246805578
0.633269727 0.220113814 0.263377607
0.690069377 0.230992973 0.279822975
0.746869028 0.242251620 0.290575773
0.006451774 0.039974999 0.107653223
0.006451774 0.039089385 0.107653223
0.006451774 0.038203772 0.111954227
0.018090161 0.046046998 0.109677389
0.033270452 0.049968321 0.113346003
0.044655226 0.051739547 0.111068830
0.058696996 0.055028319 0.113345549
0.076913409 0.062491998 0.116887927
0.096141674 0.063503996 0.125237226
0.111321718 0.065148719 0.129664510
0.125742987 0.071853131 0.134218872
0.139911249 0.076913260 0.137254998
0.160404861 0.081087999 0.142441422
0.175838217 0.086654000 0.147248775
0.194054216 0.088930994 0.148387417
0.214420989 0.097153768 0.155977219
0.231119186 0.103225768 0.160531417
0.252877772 0.109930344 0.165970996
0.271094233 0.117520563 0.173561200
0.291840613 0.127007946 0.179253638
0.314990699 0.137254953 0.182289734
0.339278758 0.141808763 0.191903993
0.363946736 0.147880763 0.200126514
0.395319700 0.155977041 0.204174787
0.423023552 0.168121770 0.212650001
0.460847616 0.178874075 0.223402664
0.497280121 0.188488349 0.233523071
0.538393199 0.200632766 0.241745770
0.586970150 0.214926973 0.245919973
0.636558831 0.227071404 0.259835184
0.694749951 0.236559138 0.279443413
0.753699958 0.247437999 0.298418999
0.013029839 0.052118998 0.109677158
0.010499839 0.054648999 0.110942319
0.016824998 0.053384159 0.107652999
0.021884998 0.053384159 0.113724999
0.037065387 0.059076611 0.117140934
0.052245222 0.062112771 0.114611164
0.067425482 0.067678839 0.114863999
0.081720248 0.071094319 0.119923860
0.098418839 0.076407224 0.126755163
0.113092527 0.076913163 0.131815150
0.128272861 0.081467323 0.136242867
0.143453255 0.085515253 0.141050160
0.160910636 0.088551641 0.141050160
0.176344022 0.094244130 0.149526000
0.193548143 0.095255993 0.151549995
0.212902784 0.101201631 0.158760190
0.232384354 0.108792156 0.162302196
0.248829722 0.115496568 0.165970996
0.270082176 0.124604814 0.172043011
0.291334540 0.133712813 0.178115010
0.313219458 0.140290901 0.183554575
0.339532018 0.149399042 0.190638959
0.364705503 0.155977011 0.202782989
0.398102731 0.164326325 0.206957743
0.426945269 0.174952582 0.213282689
0.458570778 0.183175296 0.222390652
0.497533143 0.193295062 0.231499061
0.538519681 0.206198722 0.245161444
0.592789412 0.218469292 0.254775465
0.644908488 0.231878251 0.263630331
0.697786331 0.245794043 0.277925134
0.756989121 0.256040305 0.300695837
0.015686000 0.064642541 0.118026547
0.011511547 0.069955543 0.120303839
0.018975319 0.070335314 0.114484541
0.034029096 0.068564542 0.108791545
0.045034546 0.068943992 0.115243092
0.060214929 0.071979605 0.121315867
0.075395323 0.079696320 0.122707449
0.088930994 0.085136160 0.125616997
0.101454549 0.088551894 0.131309539
0.113598555 0.091587514 0.131309539
0.128652409 0.094244316 0.136369541
0.143832803 0.097280286 0.143327251
0.161290184 0.100316092 0.150158450
0.181783542 0.103605516 0.150411487
0.196837410 0.106767669 0.156357005
0.215559542 0.111827537 0.164452732
0.233396381 0.118279383 0.168247744
0.251486570 0.124604955 0.166730002
0.272738993 0.133712605 0.172802016
0.293991387 0.142820910 0.179633006
0.315243751 0.148513734 0.185705096
0.339532018 0.153194427 0.193295121
0.369765520 0.162175551 0.208095998
0.402656734 0.173814267 0.214167997
0.432258278 0.186337993 0.221378550
0.464516312 0.194686875 0.227703661
0.501708090 0.199367076 0.237571076
0.538140059 0.214547440 0.246679455
0.594686687 0.224414825 0.259962261
0.649715543 0.235293955 0.273371398
0.700063586 0.248829663 0.286653996
0.748640418 0.267046452 0.298797995
0.015686000 0.079822935 0.121062934
0.024794385 0.079822935 0.118026547
0.027071707 0.082985707 0.120303839
0.039722096 0.083744928 0.118279710
0.057179317 0.084124379 0.118279479
0.060214929 0.087159991 0.127387866
0.075395323 0.092725933 0.130929679
0.088930994 0.096014999 0.133459777
0.101834096 0.098039061 0.138520092
0.116634943 0.103731513 0.146489933
0.131688803 0.103857994 0.146489933
0.146869197 0.106388316 0.147501931
0.164326578 0.109424286 0.152435347
0.184819937 0.112713128 0.159519106
0.196963936 0.118785895 0.162555486
0.221631780 0.121948056 0.168501005
0.241366118 0.128526121 0.173561126
0.257052541 0.136495993 0.175585344
0.272738993 0.142820984 0.178874016
0.293991387 0.151929289 0.190512016
0.315243751 0.159139931 0.197849482
0.339532018 0.164705992 0.202909738
0.369765520 0.171283916 0.208095998
0.397090703 0.177355930 0.214167997
0.429981261 0.191271335 0.227071270
0.466540277 0.201770991 0.233775929
0.508033097 0.208348930 0.237824067
0.550284863 0.220619440 0.252751440
0.599999607 0.230486825 0.259202957
0.651359856 0.241365954 0.270335019
0.699557543 0.254395574 0.285135657
0.745604038 0.270082086 0.304870009
0.025806643 0.100063317 0.131688997
0.032384709 0.102592997 0.131182939
0.039342321 0.102592997 0.132447541
0.045288160 0.105249837 0.135483831
0.060341999 0.106514990 0.134977773
0.069829382 0.107400380 0.135483608
0.077925637 0.105375998 0.139532000
0.096394598 0.108158998 0.140923321
0.110436097 0.109677188 0.142315000
0.122074492 0.115749642 0.146110162
0.137254864 0.118532315 0.151549682
0.154458985 0.120556571 0.155597687
0.170145318 0.124731317 0.160025328
0.187855735 0.129411638 0.168374315
0.200000316 0.135483831 0.169133410
0.219355106 0.139152795 0.172169805
0.243390501 0.145224452 0.178115308
0.261227280 0.153699994 0.182163417
0.278305024 0.159771994 0.185199052
0.299051374 0.163567349 0.194054335
0.324098706 0.170777991 0.196710587
0.348640114 0.176849991 0.202909619
0.377355784 0.183048502 0.210752800
0.404680401 0.191524327 0.219227999
0.436559528 0.199873611 0.232131273
0.472738951 0.213156298 0.243136987
0.513599038 0.222011387 0.246426120
0.554079533 0.232131630 0.255534738
0.607084334 0.244149148 0.265275002
0.658696711 0.251486301 0.274889410
0.709803820 0.263883501 0.290575594
0.760277987 0.280708641 0.313472331
0.039595284 0.118026696 0.145477697
0.044022992 0.117773309 0.135610282
0.051739700 0.121947698 0.147627920
0.055281699 0.119417697 0.144338697
0.064389996 0.121694990 0.144718453
0.079063989 0.124224991 0.141682059
0.093611598 0.121695086 0.151929021
0.096141987 0.125236705 0.146742716
0.117393799 0.125236705 0.148260713
0.130044192 0.129538253 0.150031701
0.141682580 0.134345531 0.152561709
0.157241985 0.135736957 0.158633724
0.174319640 0.138773054 0.162428722
0.189500034 0.144338995 0.170019031
0.203036115 0.150410995 0.174193710
0.219102070 0.154079810 0.174952805
0.241872653 0.158633992 0.179506987
0.263251543 0.166982695 0.186843976
0.282479733 0.173054710 0.192915753
0.303478658 0.177988350 0.196584359
0.328526407 0.182921991 0.203035966
0.355850816 0.190006122 0.204047829
0.383301646 0.196837202 0.215559989
0.412143886 0.205945611 0.226185799
0.445667118 0.213409275 0.233269989
0.480455577 0.221125975 0.242884040
0.520177126 0.232763991 0.249715120
0.560784101 0.243010730 0.258064896
0.611891210 0.254775673 0.271726847
0.666413784 0.265021980 0.279316694
0.716255248 0.275521576 0.292346865
0.768626988 0.294497281 0.314357996
0.054775096 0.132448003 0.159139901
0.056293480 0.130929798 0.145477325
0.063630678 0.135104090 0.149145871
0.070462093 0.137634099 0.157242000
0.071600541 0.131941646 0.148893088
0.088677995 0.136875197 0.148513347
0.105375998 0.136116415 0.156356648
0.115116708 0.137381479 0.161164016
0.115875997 0.144971102 0.153573990
0.137128383 0.144971102 0.159645990
0.148260772 0.150031745 0.159898996
0.160657912 0.152814895 0.163946986
0.175837636 0.153953448 0.167741999
0.191271052 0.157242090 0.167995036
0.206957504 0.163314089 0.176091403
0.223655879 0.166982904 0.180265903
0.241872281 0.171537101 0.182542995
0.264896035 0.177609086 0.188614994
0.286022007 0.183681116 0.200506002
0.308032751 0.189753100 0.203035995
0.331562132 0.196584195 0.206830993
0.358128130 0.202909216 0.212397128
0.385705471 0.212017596 0.221505493
0.416698098 0.221126005 0.233017102
0.451612651 0.227957100 0.238330185
0.489563376 0.235547066 0.243643507
0.526502192 0.242125154 0.248197183
0.568753839 0.254016161 0.260341883
0.617710412 0.266919762 0.276280940
0.674130321 0.275774837 0.289690077
0.725363612 0.290701777 0.296900690
0.770904064 0.311954200 0.312081099
0.069955483 0.144592017 0.168247506
0.066919878 0.147628412 0.168247506
0.072738715 0.154712215 0.165338248
0.080581844 0.159898505 0.160784334
0.086780943 0.159266055 0.154965103
0.095888555 0.156230435 0.173181862
0.107906006 0.156103984 0.167742133
0.118658707 0.155977502 0.164706022
0.128019989 0.157115892 0.165718019
0.140164018 0.160151511 0.171790004
0.155597389 0.163061380 0.172043011
0.168501019 0.166223750 0.176091000
0.181910306 0.169133171 0.179885998
0.197343051 0.172422498 0.180139035
0.215559810 0.178494498 0.183175415
0.236053273 0.182163313 0.191271186
0.255534470 0.186717495 0.196963727
0.274003685 0.192789495 0.200759009
0.292220473 0.198861510 0.206831023
0.316129029 0.204933494 0.213156000
0.338393241 0.212903231 0.218974993
0.360910773 0.220872968 0.224035129
0.385705471 0.227198005 0.227577493
0.419101924 0.236306414 0.236685902
0.454649061 0.243137509 0.241366193
0.493864775 0.251992464 0.248576850
0.535610557 0.263377547 0.260341942
0.575078905 0.272485942 0.272485942
0.619987428 0.287033767 0.284629971
0.678178251 0.295003235 0.298798174
0.737381160 0.306261659 0.311828077
0.780012488 0.336242974 0.321189493
0.073497869 0.165464863 0.162808001
0.076280512 0.165591389 0.177355871
0.086147904 0.168627769 0.173054874
0.096774034 0.169892415 0.173054993
0.103352450 0.168121099 0.172928408
0.102340057 0.177735806 0.173434868
0.113978639 0.172169864 0.184060678
0.126122728 0.173055157 0.182163000
0.137254879 0.175079092 0.182922095
0.149398893 0.178115264 0.186843872
0.161542863 0.178241745 0.184186995
0.176723257 0.181277618 0.184186995
0.190891773 0.184313506 0.186210990
0.206071913 0.187349826 0.186210990
0.221631825 0.190764993 0.186590537
0.235040992 0.196837604 0.194433928
0.259329498 0.200379670 0.205059856
0.282479435 0.205059990 0.212902993
0.298418969 0.211132020 0.218975008
0.319418401 0.219987363 0.219480991
0.343579829 0.228083611 0.225300461
0.368880242 0.236179858 0.230360597
0.396964014 0.242251858 0.233522981
0.422011793 0.248576909 0.239848033
0.459962159 0.257685304 0.246679112
0.499810278 0.267172843 0.254522324
0.542315125 0.279316872 0.265655011
0.584187269 0.290828407 0.272991985
0.631625414 0.302592963 0.282479823
0.684503496 0.313978314 0.296141624
0.741682410 0.322833449 0.310436338
0.786211014 0.343073994 0.321568996
0.088678248 0.186717242 0.172928512
0.087665863 0.184692994 0.175964385
0.091208033 0.186843768 0.184186995
0.102593258 0.191144988 0.183174983
0.111321993 0.188108489 0.188108534
0.116508313 0.190385863 0.185072929
0.124098629 0.191397995 0.184060678
0.132953987 0.190259710 0.189879715
0.145098090 0.193295404 0.190259263
0.158507273 0.196331486 0.192030489
0.166603267 0.196457997 0.193295121
0.180771515 0.198482245 0.188235000
0.197090253 0.202656507 0.191650644
0.213156030 0.206578210 0.194560289
0.228336394 0.209613830 0.196331516
0.247185230 0.211005330 0.203541785
0.262365639 0.217078120 0.209614187
0.288172245 0.221252501 0.218342677
0.304744005 0.227324516 0.223022997
0.325490385 0.234155610 0.225553259
0.346742749 0.241366252 0.231245995
0.371916384 0.249335989 0.235421002
0.401517987 0.255660981 0.237824246
0.433396816 0.265527964 0.247691259
0.462998539 0.275901526 0.255787522
0.502466857 0.286401212 0.259076506
0.544845045 0.298039317 0.269703001
0.588867545 0.308665484 0.281847000
0.640733838 0.320809484 0.288551539
0.692852557 0.332953453 0.297659904
0.746742547 0.344085842 0.313219249
0.792282999 0.359266251 0.327640712
0.106514998 0.206830993 0.187729344
0.105755895 0.206071883 0.186970249
0.107020766 0.205059767 0.188108638
0.110183641 0.208222628 0.193042278
0.116635084 0.213915184 0.197975740
0.128019989 0.210120276 0.194939941
0.137634322 0.207969636 0.194180965
0.146236643 0.209614351 0.192156717
0.154585734 0.212650537 0.195951998
0.169766128 0.215686157 0.196711004
0.176217645 0.215812638 0.197343409
0.189500242 0.216698259 0.198861301
0.203542277 0.220872998 0.196204633
0.221252277 0.226692021 0.204553992
0.235547051 0.229727864 0.206704766
0.256672800 0.231498629 0.212270826
0.275268734 0.233396366 0.220619828
0.294750482 0.239468977 0.223656058
0.313978672 0.245541006 0.226691678
0.333839387 0.252751648 0.232005000
0.359645724 0.258823633 0.236559078
0.381910235 0.265907764 0.244655609
0.409108132 0.272232741 0.245161623
0.442504823 0.283364654 0.255281657
0.477798909 0.294370562 0.264010280
0.513472617 0.306514949 0.273497999
0.552941203 0.318659127 0.274509996
0.597216666 0.328400075 0.290195972
0.650727212 0.341302991 0.300062984
0.703099310 0.353447229 0.311321825
0.756862760 0.366476864 0.323086619
0.802909315 0.381657273 0.341302633
0.119164996 0.225047067 0.197090060
0.121948354 0.228589460 0.200379431
0.124731220 0.227071255 0.200253040
0.128779158 0.226312160 0.202277169
0.132321477 0.229095504 0.205060452
0.141429096 0.232131898 0.202024058
0.150284380 0.230613708 0.203036323
0.158633739 0.230866745 0.203795284
0.169513091 0.233902931 0.202277035
0.184693485 0.236938551 0.208349034
0.191398039 0.237065032 0.206198841
0.205060020 0.237318069 0.209235027
0.221252277 0.239342034 0.213915408
0.233650029 0.244908035 0.217204064
0.245794028 0.247944415 0.217204064
0.267046005 0.251233220 0.219607800
0.287033170 0.254269212 0.224921152
0.303605139 0.257685065 0.233270451
0.327893972 0.263757050 0.236306086
0.347122014 0.272612363 0.243896320
0.374319792 0.280076027 0.249715284
0.404680252 0.287160158 0.253510267
0.429348469 0.296268493 0.259456486
0.456925929 0.305376142 0.265401959
0.493611276 0.314231306 0.271726996
0.534218371 0.324478000 0.280075967
0.576723218 0.336875141 0.291967034
0.616192281 0.349019915 0.298039019
0.668690562 0.363567144 0.309929997
0.719038308 0.377735406 0.324604362
0.768500745 0.390512615 0.342567980
0.820113957 0.405693024 0.360783994
0.137380987 0.243263826 0.209234834
0.137380987 0.252372205 0.215306818
0.138013572 0.249462262 0.207843408
0.144971147 0.246552393 0.208349422
0.156482980 0.247184977 0.217457443
0.162681460 0.247311503 0.220240042
0.169260040 0.250347883 0.212144315
0.172675818 0.252119094 0.215433285
0.179127410 0.255155295 0.218975082
0.196837485 0.258190900 0.217457399
0.206198871 0.258317381 0.220619529
0.216698393 0.260341644 0.224415079
0.231246054 0.262745172 0.228210405
0.245794028 0.266160399 0.229348823
0.260974407 0.266160399 0.235420823
0.277925372 0.271599978 0.237824023
0.297406375 0.275521576 0.239341974
0.314990133 0.278557986 0.243137151
0.333965957 0.281973809 0.251486450
0.358254015 0.290828466 0.248956040
0.383175194 0.299936712 0.256040305
0.410752803 0.308412522 0.261859536
0.435420454 0.317520857 0.265528470
0.468816876 0.326628476 0.268564075
0.507779539 0.333459377 0.276786864
0.548260331 0.341555625 0.283870965
0.589373887 0.352308482 0.292726070
0.634408236 0.367235869 0.307147384
0.684503376 0.379379958 0.323845357
0.729664445 0.397469580 0.333712369
0.774572730 0.414168209 0.344971150
0.826186001 0.426945388 0.360783994
0.153193802 0.268690795 0.211765006
0.155597597 0.272992164 0.215433180
0.162049368 0.271347225 0.227956966
0.160278082 0.271599919 0.221885145
0.166350096 0.274636149 0.226818800
0.172422603 0.272612393 0.227830663
0.178494632 0.275142103 0.227957115
0.189500690 0.276533782 0.223782793
0.196331784 0.278051972 0.227577507
0.211258784 0.279443294 0.224541470
0.220746666 0.284376770 0.229727924
0.231878787 0.282353044 0.232764065
0.245161444 0.284630150 0.236179993
0.260341823 0.287665814 0.236685991
0.275522202 0.289816588 0.242757991
0.290701985 0.294623584 0.248830006
0.305882365 0.296141386 0.251865983
0.324857563 0.298038989 0.252751589
0.350157946 0.302846164 0.256546766
0.376343817 0.311448425 0.264136463
0.396837264 0.320556521 0.262997806
0.423656225 0.328652769 0.270588130
0.451233566 0.336242974 0.276407510
0.486906707 0.343073905 0.279443681
0.522580385 0.354458809 0.287033290
0.566223741 0.364958435 0.297532976
0.607716858 0.376090854 0.306135058
0.649462163 0.387476206 0.317520410
0.697912395 0.402403563 0.325742960
0.749525547 0.419860750 0.351043344
0.791524172 0.439342171 0.362175584
0.837064981 0.453004777 0.372801781
0.171410188 0.296015203 0.223908991
0.172928393 0.294497371 0.223908991
0.175711587 0.297153831 0.226438776
0.182289973 0.293611377 0.235293999
0.178494379 0.301201731 0.235167891
0.184566855 0.300443113 0.241999179
0.192157179 0.299430877 0.235926807
0.201644689 0.303858191 0.235926807
0.215307087 0.303099275 0.236685902
0.226692185 0.302340388 0.235167697
0.237444863 0.305123389 0.239341974
0.250095159 0.308159262 0.243390262
0.263377815 0.307400644 0.247564986
0.278558135 0.310183376 0.248323992
0.293738186 0.311954618 0.251865983
0.307400584 0.315875977 0.254902005
0.324098378 0.321947992 0.262492180
0.338140547 0.320176780 0.265528381
0.365844190 0.325363398 0.266413808
0.388867736 0.332700551 0.270208657
0.415053636 0.343326747 0.278178185
0.439342409 0.351423264 0.279190302
0.470841646 0.357621849 0.287160188
0.505882382 0.365085185 0.291587889
0.542314947 0.374193400 0.297659874
0.580138981 0.386337370 0.306767821
0.626945138 0.400885314 0.319291294
0.671473563 0.411005825 0.330423415
0.708285570 0.426945001 0.338393182
0.754079342 0.442631364 0.352561533
0.805692554 0.463883787 0.381151140
0.847691238 0.480329186 0.391018182
0.192030147 0.322707146 0.245034575
0.193927541 0.317900121 0.243263945
0.193927541 0.319165140 0.242125362
0.194560140 0.322707146 0.239089131
0.197596520 0.323086590 0.239468589
0.203415558 0.326122880 0.256420255
0.212017879 0.324731231 0.252498507
0.222770542 0.325363547 0.246932149
0.234788060 0.330423623 0.248323649
0.243896469 0.327388018 0.251360059
0.255281568 0.327893943 0.251865685
0.270082206 0.328652859 0.256799221
0.285262585 0.332321197 0.258443981
0.299936980 0.335357517 0.264515966
0.314357698 0.335736960 0.265274972
0.328399569 0.338772893 0.265907556
0.342947543 0.342694104 0.269196749
0.361163706 0.347501129 0.276407570
0.382416129 0.350537509 0.279443204
0.402783245 0.355091542 0.280328572
0.426059663 0.364326149 0.284756333
0.454522640 0.375711232 0.291840553
0.491081893 0.381783962 0.295256376
0.525490463 0.390385658 0.302340388
0.559266508 0.400126427 0.308412552
0.600253165 0.411258519 0.317141056
0.638709605 0.423402667 0.326755524
0.692472816 0.435547441 0.341808677
0.725110352 0.453004509 0.352940977
0.761289895 0.470082134 0.367362380
0.803288758 0.486401141 0.386084944
0.854902029 0.507653534 0.410372972
0.210246980 0.346995980 0.254143000
0.219354570 0.346995980 0.257179379
0.221251994 0.346489966 0.261860013
0.221251994 0.346995980 0.262112975
0.221884593 0.347375423 0.257685423
0.224920988 0.350411057 0.260721028
0.233270332 0.350917041 0.265022397
0.244022995 0.350664020 0.265148968
0.256166995 0.351929098 0.266666979
0.268184513 0.354712486 0.272612482
0.277292907 0.357495129 0.264010131
0.292725980 0.356230289 0.270081967
0.309550673 0.357115984 0.274636000
0.324225068 0.362681985 0.270588011
0.333333433 0.365717590 0.276659995
0.350157946 0.370904654 0.279822826
0.366350204 0.375205755 0.282606184
0.382416129 0.377861947 0.285515994
0.400632948 0.377861977 0.285515994
0.427451313 0.378114998 0.288551599
0.452118993 0.384313732 0.291334718
0.477672160 0.394686937 0.294876873
0.506261587 0.406072021 0.298292041
0.545730770 0.412144065 0.310436070
0.575585306 0.423023611 0.317520618
0.616192281 0.436306298 0.327767283
0.666034043 0.450727105 0.341935188
0.699430406 0.462871909 0.354079962
0.737254679 0.480328977 0.369133800
0.776470363 0.498544931 0.385578901
0.817204177 0.516508222 0.403795004
0.854902029 0.534978032 0.422517031
0.239595026 0.379633367 0.274383396
0.243137345 0.376850009 0.274636418
0.247944489 0.379000783 0.277672797
0.249841914 0.379633367 0.280582368
0.252118737 0.379253834 0.278305382
0.257558316 0.377482444 0.278937787
0.263124377 0.380518675 0.276913404
0.275268734 0.382416010 0.277799010
0.287792474 0.384313464 0.279317021
0.297912717 0.387349874 0.285389006
0.307147592 0.390386194 0.279696524
0.320303470 0.391398072 0.280708373
0.335483640 0.391398102 0.286780357
0.349019736 0.395572394 0.284503371
0.363188148 0.398608655 0.285515368
0.379506737 0.399241090 0.291587353
0.397722721 0.404554367 0.295003206
0.414800525 0.409487724 0.298672020
0.433017343 0.413788736 0.302973002
0.454016745 0.416572094 0.305755645
0.477546096 0.418469340 0.308791757
0.502972722 0.426818371 0.312840015
0.532194376 0.438835889 0.317646891
0.563693762 0.447564751 0.321821749
0.600885570 0.458190739 0.329411745
0.638077319 0.470335364 0.342441678
0.685009778 0.483618081 0.358886719
0.718406141 0.495762289 0.366476893
0.759772301 0.513219357 0.383933961
0.800000072 0.529664576 0.404554039
0.838077307 0.548639953 0.423908979
0.868817389 0.570651710 0.440227717
0.269955456 0.413029730 0.289942980
0.274889112 0.413788795 0.289942980
0.274130493 0.415053487 0.290196031
0.274636537 0.418089867 0.293232411
0.279063821 0.416824907 0.293485433
0.294244200 0.407716542 0.291967243
0.294623464 0.415433019 0.287539691
0.303984433 0.415180415 0.291081727
0.316634715 0.418469191 0.293358713
0.324604481 0.422643960 0.299430728
0.333712846 0.423782617 0.299556971
0.346869200 0.426691979 0.297785997
0.362049103 0.427830607 0.301580995
0.375458717 0.430613458 0.301834017
0.392283410 0.432005137 0.303478748
0.411764711 0.434535474 0.302592993
0.433017105 0.437571466 0.307147175
0.451359779 0.443643451 0.310815990
0.468311429 0.449715465 0.316887975
0.485515356 0.451107115 0.322074354
0.508665442 0.456040710 0.327007741
0.530929923 0.458064467 0.327008009
0.559392691 0.466539979 0.329664499
0.587982297 0.475648373 0.336242914
0.624794304 0.488930702 0.349146008
