Assets/Resources/EldamarStudio/100 Horror LUTs Pack/LUTs/cube/Madcog LUT.cube
LUT_3D_SIZE 8
DOMAIN_MIN 0.000000 0.000000 0.000000
DOMAIN_MAX 0.903226 0.903226 0.903226
0.050980002 0.050980002 0.050980002
0.076786995 0.071726546 0.064262994
0.161417007 0.094876900 0.094117999
0.254522294 0.107020639 0.100315996
0.353320390 0.139405385 0.116761386
0.469955474 0.182163253 0.150790736
0.624035597 0.232637569 0.191144705
0.813662589 0.300948799 0.243389949
0.076407544 0.096394993 0.070588000
0.104237996 0.092852540 0.063503996
0.186084643 0.107400090 0.080328643
0.263630748 0.120683096 0.095256455
0.358001173 0.152435452 0.121569000
0.474889189 0.192283541 0.158507243
0.625932813 0.243516788 0.193168551
0.806451559 0.303984523 0.236811802
0.131688893 0.170019090 0.089437097
0.157495096 0.170019016 0.084250547
0.185705096 0.176344097 0.087792993
0.267172992 0.176723450 0.095129542
0.372042984 0.177735180 0.125363901
0.494496912 0.220872983 0.156989247
0.651359856 0.269450009 0.191144705
0.832384586 0.330550075 0.251106828
0.184440643 0.244402289 0.110436283
0.207590088 0.245667532 0.111574635
0.233396277 0.243263632 0.116381742
0.271347612 0.248324007 0.117140643
0.371284157 0.266666830 0.129664630
0.519418001 0.273244888 0.153826639
0.689183891 0.308412254 0.185578987
0.854522407 0.373054802 0.243896425
0.264642566 0.339152187 0.140290990
0.287918717 0.345856816 0.144971386
0.311701357 0.343833119 0.139531896
0.345603824 0.349652022 0.142947555
0.401012182 0.355471373 0.150284395
0.528019965 0.391017914 0.161669731
0.713345706 0.418089449 0.181783900
0.897786140 0.439974844 0.234408602
0.383681476 0.495256215 0.168374479
0.402150542 0.501454711 0.172801733
0.440986812 0.494370729 0.171537086
0.479443133 0.506135106 0.171157539
0.528020084 0.515496910 0.169386089
0.595066428 0.524478495 0.172548994
0.735736728 0.569259524 0.200253025
0.911195338 0.593548536 0.255787551
0.535483837 0.686780572 0.197343573
0.549652040 0.688804746 0.203794822
0.580771685 0.688171625 0.208096266
0.629601538 0.697533250 0.214800626
0.675774634 0.698418617 0.218216568
0.736116469 0.705755532 0.225300565
0.811258852 0.713219285 0.232258275
0.920176625 0.739405274 0.300822526
0.699936628 0.865907729 0.362934560
0.715116739 0.875142455 0.370271862
0.744718552 0.876407623 0.371157467
0.791018605 0.876280785 0.378241390
0.823655605 0.879316747 0.384060740
0.875901282 0.886780620 0.397975743
0.929412067 0.893990815 0.420619696
0.983554721 0.898544908 0.432258397
0.070588000 0.068184994 0.088551991
0.088931441 0.067425996 0.085009545
0.157115549 0.091334544 0.105755992
0.209234998 0.128526092 0.131309360
0.294497192 0.164579093 0.159013197
0.419481605 0.201264992 0.189247549
0.580139399 0.251739711 0.220872790
0.780898333 0.317393780 0.274256825
0.083491549 0.092093542 0.089690536
0.100695543 0.092852540 0.103858545
0.139025658 0.116381645 0.105756000
0.204047829 0.138772994 0.127767101
0.301960826 0.165212199 0.155218095
0.418469012 0.204806924 0.184060797
0.583554983 0.251360267 0.219734251
0.778747857 0.317773342 0.269323349
0.116761193 0.146868646 0.112839989
0.146236554 0.149652004 0.115622647
0.161037549 0.149651989 0.120303541
0.231878191 0.161796555 0.132827446
0.328905582 0.187602744 0.151549652
0.445920199 0.227198184 0.185199440
0.613156080 0.277166367 0.222770646
0.806831062 0.340543956 0.275142491
0.169892281 0.221632093 0.139405280
0.191144973 0.224414736 0.138266638
0.211385176 0.222011536 0.136243090
0.250980616 0.230993077 0.139405280
0.344085842 0.249842077 0.157368898
0.487286717 0.263124555 0.187223092
0.655154705 0.312333852 0.209108293
0.832890570 0.378747523 0.266034067
0.257685184 0.323466182 0.165970996
0.268311530 0.328146368 0.172169551
0.296015173 0.329664469 0.168753833
0.332827181 0.332447857 0.173560828
0.375838161 0.337508172 0.175078839
0.500189543 0.376217812 0.195572361
0.695256531 0.410752743 0.220240191
0.882226229 0.439215660 0.268564194
0.360025465 0.477166027 0.194054544
0.377356082 0.474636018 0.196963921
0.419860989 0.479063451 0.191271096
0.459456176 0.486907154 0.195825279
0.500063479 0.496268451 0.198988199
0.573813736 0.504870474 0.201644540
0.715496600 0.553826928 0.223909169
0.901581287 0.591271460 0.287160248
0.515496671 0.673371255 0.227198094
0.533965588 0.672485530 0.233522817
0.566982925 0.674003839 0.232764021
0.612903595 0.678684294 0.235547170
0.659835696 0.685388863 0.252498716
0.726122737 0.695003152 0.246932447
0.793674946 0.701454878 0.261986256
0.911827922 0.732447982 0.319671243
0.693105102 0.863630474 0.371410578
0.709550917 0.868564546 0.379253209
0.728779256 0.863883376 0.380644649
0.772042811 0.866540194 0.384060502
0.818216383 0.869323611 0.389500290
0.862239003 0.878304839 0.408096224
0.921189070 0.885894895 0.428083271
0.981909990 0.887919068 0.447817951
0.075268902 0.082353003 0.173181191
0.112839989 0.079949193 0.164958656
0.175584987 0.091713995 0.165464908
0.232384548 0.111321904 0.161796451
0.304111183 0.155218109 0.187349990
0.383427829 0.217457652 0.223276466
0.526122510 0.282732576 0.273498088
0.733080328 0.358886808 0.324477911
0.097912997 0.114484094 0.135483995
0.122327901 0.118785545 0.143832654
0.152435437 0.122707449 0.149778903
0.206451535 0.136748642 0.160278454
0.282352746 0.180266008 0.190385997
0.377229542 0.238583446 0.230360284
0.528779209 0.287792712 0.268184632
0.733586490 0.359392643 0.328399509
0.126249090 0.153573990 0.144212201
0.153700113 0.162302107 0.145730183
0.177102983 0.173181176 0.165338203
0.217078090 0.177482635 0.172422275
0.292978972 0.213915184 0.198228985
0.401644439 0.252245486 0.229475081
0.562681794 0.302340209 0.272485793
0.771030605 0.376597047 0.329917908
0.175585002 0.224161997 0.181910098
0.186464101 0.225300536 0.186590910
0.215053633 0.220113993 0.184566647
0.241619632 0.222896740 0.184946090
0.323339581 0.244402185 0.202909291
0.445034891 0.275648177 0.234282181
0.612776637 0.330423653 0.273624331
0.803035676 0.405819297 0.332953691
0.237318277 0.314990163 0.212397188
0.252624840 0.312839717 0.207969636
0.288298279 0.310942262 0.211511999
0.310057163 0.314864099 0.215433195
0.351676285 0.322707266 0.213156089
0.474383354 0.361669570 0.237318277
0.666160822 0.402403474 0.270208895
0.862112701 0.457558811 0.329538167
0.350284725 0.467931628 0.249968097
0.365338743 0.466666579 0.249841899
0.402909726 0.467678815 0.252118975
0.444275796 0.473244846 0.246299639
0.492346466 0.478304446 0.251865745
0.550157845 0.490069479 0.258317739
0.707653522 0.545098126 0.287286490
0.893738031 0.590006113 0.354585737
0.499051422 0.667931855 0.299683541
0.521442175 0.666413665 0.302466661
0.560657561 0.668690503 0.307779759
0.607210696 0.672991872 0.306135088
0.658317447 0.678051710 0.309171259
0.714104950 0.683617830 0.316129059
0.780645072 0.697533250 0.322454304
0.903731585 0.734218895 0.382795632
0.697533488 0.865781248 0.440733850
0.699430943 0.866666973 0.440480530
0.728399575 0.867046416 0.442504585
0.780771315 0.869070232 0.453889847
0.820493221 0.874130547 0.460341334
0.865907669 0.876913369 0.471094400
0.917899609 0.883744240 0.481847018
0.970018685 0.890575588 0.501707792
0.088045642 0.082985289 0.255660921
0.127640992 0.088045642 0.241492629
0.187602744 0.103352092 0.230993271
0.237697631 0.113219641 0.219734639
0.317141175 0.136243090 0.230613619
0.416192085 0.180518642 0.258444101
0.559139907 0.236052915 0.291587621
0.728779435 0.352434933 0.368627608
0.122580640 0.131941646 0.220872998
0.145350724 0.139405280 0.203415275
0.175711632 0.136243090 0.213409543
0.219987288 0.142568097 0.201644540
0.301455081 0.161669731 0.222264186
0.403921366 0.206072092 0.253763288
0.533586442 0.267805278 0.299051076
0.705629051 0.378747493 0.376091003
0.142947540 0.173814088 0.201897368
0.167615294 0.180139184 0.208349079
0.194181085 0.180898100 0.213915184
0.228716075 0.184820086 0.209487632
0.295508921 0.212650448 0.229854628
0.387096941 0.256926000 0.265907645
0.524351656 0.335104287 0.323718905
0.720050514 0.428083628 0.401391715
0.171536997 0.215812653 0.196837634
0.190765649 0.219228283 0.215053737
0.228336647 0.237318173 0.223655641
0.275268644 0.258444279 0.245540649
0.316255391 0.267046273 0.252878070
0.404174715 0.301075548 0.284124076
0.556989133 0.363946587 0.327513933
0.756989062 0.447059065 0.397217095
0.237444997 0.306641638 0.252245188
0.239088923 0.309298158 0.250221640
0.279696286 0.316761613 0.260467827
0.310436547 0.317520618 0.263883382
0.349525809 0.322201043 0.263883352
0.464642912 0.355091721 0.295256197
0.635546684 0.402656913 0.335863262
0.819734335 0.494497120 0.413915128
0.327134490 0.442504704 0.297912747
0.341303051 0.443769544 0.305376351
0.373814017 0.448830009 0.305123508
0.423782200 0.451612830 0.305376291
0.470714897 0.458570659 0.314737260
0.524857700 0.474636108 0.319544375
0.683997631 0.534977794 0.358507365
0.872232676 0.589500308 0.432764232
0.474509895 0.646046877 0.366729885
0.490575433 0.648070693 0.371663362
0.522201061 0.643769920 0.367994905
0.581530511 0.650474250 0.372422546
0.638962448 0.657431901 0.379380375
0.696774304 0.668564439 0.389753282
0.758127451 0.680202186 0.395951837
0.892472923 0.726881981 0.463504255
0.676660240 0.854395807 0.505629241
0.687539458 0.855028391 0.504870236
0.710942507 0.857052386 0.506767869
0.758254230 0.858064353 0.509930193
0.810626149 0.863251209 0.520050585
0.857558608 0.868943870 0.530803144
0.907020748 0.879443407 0.547628105
0.970777929 0.886906743 0.562934756
0.137887195 0.114358187 0.360531181
0.176723540 0.123845801 0.350284398
0.232005194 0.127640799 0.332195193
0.289943010 0.139025837 0.328652740
0.343074203 0.153573796 0.307147384
0.442125261 0.174446732 0.324478120
0.605692744 0.200506076 0.371790200
0.784440041 0.297659785 0.421758145
0.154712364 0.166224003 0.315243632
0.180518538 0.166603550 0.319291621
0.227198094 0.169259995 0.318026274
0.278557748 0.174066991 0.306008637
0.327766836 0.177482635 0.294750214
0.430613548 0.195066288 0.318279535
0.585199118 0.229854628 0.361669570
0.763693988 0.317773312 0.416824996
0.185705096 0.213915199 0.296141863
0.202656448 0.215939552 0.296521455
0.228715986 0.220240176 0.295383006
0.269070625 0.215053722 0.287159741
0.319544375 0.218596101 0.285136193
0.424794555 0.242758080 0.318532437
0.576849878 0.292852312 0.367235988
0.757495224 0.391271442 0.432005227
0.207210541 0.261226803 0.286274612
0.227198198 0.263630658 0.291840523
0.255281359 0.265528202 0.287413180
0.296142071 0.277293086 0.301201642
0.335483760 0.281973273 0.300696075
0.430866808 0.321948290 0.333206922
0.563693941 0.378874272 0.384693027
0.729791164 0.490955025 0.474635988
0.235673383 0.310183376 0.294496983
0.247817844 0.318153173 0.301328450
0.287539363 0.325110257 0.306261986
0.353699803 0.361416817 0.339152366
0.419101954 0.383807391 0.361164004
0.475648016 0.397343636 0.372675389
0.609993517 0.454775542 0.419734180
0.781404018 0.547122002 0.500063300
0.302466989 0.452118725 0.348892719
0.319797516 0.451739460 0.355471253
0.359771937 0.459203094 0.367236078
0.426059276 0.468564004 0.383807659
0.477925181 0.472865462 0.382795662
0.524351418 0.486653745 0.383554667
0.683491528 0.537381053 0.438709885
0.859961867 0.604680538 0.519417822
0.446932346 0.640227675 0.434661478
0.473877281 0.641998827 0.445540756
0.506514668 0.643516600 0.448576868
0.558507264 0.645161510 0.453257352
0.626312375 0.652118504 0.461859465
0.684250355 0.660594523 0.466919899
0.742947280 0.674889266 0.477419376
0.887412608 0.731182754 0.549651980
0.664263070 0.850474417 0.591777205
0.670208454 0.854648888 0.582289815
0.697280169 0.854901969 0.586084664
0.739152372 0.854395628 0.590512097
0.796837211 0.859455764 0.599367797
0.853763640 0.867046416 0.605313063
0.898038924 0.873624265 0.615686059
0.960278332 0.885262430 0.635926664
0.199493974 0.154712260 0.498924702
0.229348466 0.156609997 0.488678008
0.291587830 0.161290079 0.482226342
0.362428367 0.167235836 0.470208824
0.432890445 0.176343992 0.447438002
0.498924732 0.184060991 0.432511210
0.629095554 0.198355287 0.460467994
0.824667811 0.249589041 0.524478316
0.203162730 0.201264992 0.459582478
0.231878534 0.197343469 0.460974455
0.286148041 0.198608547 0.459076911
0.349019438 0.198481828 0.444907993
0.415180087 0.202024177 0.430360466
0.480834901 0.205186471 0.415306896
0.613788366 0.222896636 0.451612532
0.811511397 0.278431565 0.515749335
0.231246084 0.257811815 0.430993021
0.252877980 0.252371818 0.431119651
0.286527485 0.258444101 0.426059097
0.341302991 0.254522383 0.417963356
0.406198531 0.258823633 0.412017733
0.470714808 0.255281478 0.405439436
0.611511528 0.286148012 0.448450357
0.803668380 0.355470955 0.525490284
0.254395992 0.310563087 0.404427469
0.267931849 0.321062386 0.412144125
0.301707834 0.312586814 0.402656943
0.349399000 0.315370381 0.402277350
0.401391447 0.322201014 0.402656615
0.464263201 0.319671094 0.401012093
0.614547491 0.361163735 0.455407828
0.792915702 0.456799507 0.533712626
0.281467527 0.378115356 0.412523657
0.296900868 0.382416010 0.406704813
0.326375365 0.386337817 0.409740806
0.381910264 0.391776919 0.414421022
0.448197097 0.409487665 0.429095447
0.512334108 0.418468893 0.434408635
0.639595330 0.473624170 0.483238101
0.787982225 0.569765806 0.561922729
0.320809454 0.457811475 0.420619726
0.328020275 0.458950192 0.420366555
0.371536821 0.465654463 0.430233926
0.432511091 0.485768765 0.448576450
0.522580683 0.531941712 0.486148149
0.610499501 0.555850506 0.506894171
0.696141481 0.587223232 0.543706238
0.823655546 0.666919470 0.615939498
0.434914559 0.637191534 0.511448026
0.442251831 0.641872346 0.506894231
0.476280838 0.645414233 0.515243351
0.538646281 0.649715245 0.526376009
0.623529375 0.663883805 0.554585695
0.689690053 0.670082390 0.555218041
0.739784837 0.683364511 0.567362428
0.886021435 0.740164101 0.635800302
0.629095614 0.847691417 0.640480578
0.644908369 0.847818017 0.641492665
0.669196546 0.846299589 0.647438228
0.726628363 0.850221574 0.669070065
0.770651281 0.852751613 0.671094120
0.838836551 0.860088348 0.679949582
0.887539327 0.869196653 0.693611383
0.942314684 0.881720603 0.710056722
0.269576281 0.205186576 0.675015569
0.301075518 0.204933554 0.666793108
0.361037284 0.207463279 0.662492275
0.446299553 0.209740564 0.657052517
0.537887216 0.215306699 0.642125368
0.635167241 0.217583984 0.632511139
0.723339558 0.223782271 0.608981550
0.841745555 0.263124764 0.630487084
0.278304815 0.235926539 0.645414472
0.308539003 0.241872549 0.651992261
0.357494920 0.244022831 0.639342070
0.442757696 0.246679187 0.637697816
0.528526306 0.246552989 0.628715754
0.620366812 0.250474572 0.619734108
0.716635287 0.249841809 0.608855069
0.833649695 0.293738186 0.621125758
0.292726159 0.313978285 0.630234063
0.322580576 0.314990699 0.629727960
0.367868572 0.314737380 0.624161661
0.442631006 0.316634834 0.618722200
0.525996149 0.315496475 0.614421368
0.612524033 0.316761553 0.607337117
0.701328397 0.323086441 0.597216547
0.825679958 0.364958823 0.622517169
0.326375574 0.398735195 0.600759089
0.348639995 0.394307554 0.594813466
0.393674672 0.398734927 0.597216547
0.453130543 0.397090197 0.597216845
0.525996268 0.397090197 0.593801141
0.606451631 0.399873555 0.591018260
0.691461146 0.400505841 0.584439874
0.825173795 0.457684934 0.626691878
0.364326537 0.478937566 0.594054461
0.380518377 0.480961084 0.598355293
0.416318655 0.482858747 0.586211503
0.473750770 0.488045901 0.586464286
0.538519681 0.484376758 0.586211205
0.613535762 0.489184380 0.583428264
0.691967070 0.494497448 0.586084545
0.829221845 0.558760405 0.647438407
0.408475757 0.570651472 0.602277279
0.427071601 0.576090872 0.598102331
0.455913901 0.573813915 0.597343504
0.516255856 0.577735662 0.596584558
0.586716950 0.591397822 0.605566144
0.657052517 0.603541732 0.612270594
0.730676770 0.613282979 0.622264087
0.850980163 0.679569602 0.685009480
0.455407560 0.659962118 0.604680836
0.459456265 0.656673133 0.603162408
0.499177754 0.659203053 0.603541911
0.551802576 0.665022135 0.606198490
0.624035597 0.674130499 0.619987428
0.717394173 0.716761529 0.662365556
0.793295503 0.738393486 0.695256591
0.877419531 0.782542348 0.734851301
0.629348636 0.850727141 0.720682740
0.644655228 0.850095034 0.723845780
0.662365556 0.849336028 0.723972082
0.707273960 0.851612747 0.732068300
0.761037111 0.857178748 0.744212091
0.824035227 0.865148664 0.760784030
0.880834699 0.870841384 0.775205553
0.930423856 0.880328596 0.793168426
0.361163795 0.299809754 0.854142725
0.392410070 0.303098857 0.852877617
0.449335635 0.310436636 0.847311676
0.529917419 0.314104795 0.845161378
0.628463209 0.327767134 0.839848459
0.727008164 0.343706489 0.839089394
0.830487132 0.364326119 0.829474688
0.928779602 0.385072559 0.824161768
0.377735585 0.343073964 0.841618955
0.402023703 0.340037674 0.829474688
0.452751487 0.345350683 0.839468956
0.531941950 0.350916892 0.833143532
0.620619774 0.365717769 0.832257807
0.724351704 0.377482355 0.824541390
0.825426936 0.389120668 0.818596005
0.925363719 0.412270695 0.819354773
0.416698575 0.424161851 0.828209519
0.448197305 0.427071393 0.832131147
0.486274451 0.427577496 0.825426757
0.556356430 0.431246132 0.827324390
0.638330042 0.439468592 0.818469286
0.733206749 0.447565019 0.824541509
0.823908687 0.458190680 0.815939546
0.920050681 0.480834603 0.814168155
0.480834752 0.520683050 0.817710400
0.494623244 0.527893662 0.815180540
0.531815171 0.523971975 0.811385334
0.585325897 0.529791236 0.813788414
0.658570409 0.532194734 0.817710102
0.737381458 0.535230994 0.808602214
0.821758270 0.542441487 0.808475792
0.908285618 0.549778461 0.804680586
0.529538274 0.611005604 0.807210565
0.541935444 0.621125698 0.809234560
0.575331926 0.619607687 0.804174483
0.618469238 0.622390985 0.801011920
0.675015748 0.622896791 0.803415418
0.747501493 0.626312494 0.803415179
0.826185584 0.627071381 0.801391304
0.903858542 0.633396626 0.803288579
0.567235708 0.699430704 0.816318631
0.581277728 0.702466905 0.810752511
0.609614074 0.707526505 0.814294696
0.654016376 0.708285570 0.810626268
0.716002524 0.713092506 0.808222651
0.767994463 0.717014492 0.801517665
0.834788203 0.717647076 0.806830883
0.900442481 0.725490093 0.808475614
0.606831014 0.791271150 0.818342447
0.624920845 0.790512383 0.823402882
0.642631292 0.787223339 0.815939128
0.684377074 0.791524172 0.813282788
0.734218776 0.793421924 0.808222651
0.793168783 0.796963632 0.812397242
0.847691119 0.802909255 0.818342447
0.905882418 0.813662171 0.826059580
0.667552412 0.872485638 0.819101453
0.669576108 0.876154304 0.834408879
0.688424766 0.873244703 0.825679541
0.720556378 0.871473789 0.826944709
0.768374443 0.871473789 0.828083396
0.826944709 0.877039671 0.835294187
0.879696190 0.890955031 0.858444035
0.945603669 0.914231539 0.893611372
