Assets/Resources/EldamarStudio/100 Horror LUTs Pack/LUTs/cube/Madcog LUT.cube
DOMAIN_MIN 0 0 0
DOMAIN_MAX 1 1 1
LUT_3D_SIZE 32
0.050980002 0.050980002 0.050980002
0.050980002 0.050980002 0.050980002
0.055281550 0.055281550 0.055281550
0.063883997 0.062618837 0.060088836
0.076786995 0.071726546 0.064262994
0.095002994 0.080834940 0.076407000
0.118279636 0.087412998 0.083491646
0.140923694 0.091840707 0.089563996
0.161417007 0.094876900 0.094117999
0.179633006 0.097912528 0.094117999
0.200758874 0.106767870 0.094117999
0.226059243 0.107779741 0.096141741
0.254522294 0.107020639 0.100315996
0.284124047 0.110563032 0.105881996
0.305376381 0.119671412 0.105881996
0.329031974 0.128779188 0.110688992
0.353320390 0.139405385 0.116761386
0.378874123 0.151549980 0.124098986
0.409234971 0.163694024 0.136243016
0.439595014 0.173055366 0.142821014
0.469955474 0.182163253 0.150790736
0.501328111 0.192283258 0.160910994
0.535230517 0.204554468 0.172928497
0.580771744 0.219734102 0.182036906
0.624035597 0.232637569 0.191144705
0.670714617 0.246173650 0.203035653
0.721821249 0.261859983 0.217204064
0.770398736 0.280075997 0.226312444
0.813662589 0.300948799 0.243389949
0.856167316 0.323971927 0.265148371
0.897786558 0.349145800 0.287665993
0.937255025 0.376471013 0.305882007
0.050980002 0.047944386 0.041872390
0.050980002 0.050980002 0.057052772
0.059582546 0.057431772 0.054901998
0.072485998 0.065654770 0.060847610
0.087412998 0.073624387 0.069955543
0.095002994 0.074762940 0.079443388
0.120809317 0.086401001 0.081467390
0.147248313 0.090195999 0.088172317
0.170524806 0.092599608 0.093358904
0.188741401 0.097912520 0.091081612
0.209867254 0.100948870 0.093991481
0.231119633 0.107779995 0.094117999
0.257558674 0.110056736 0.097280391
0.287160367 0.113345675 0.103099361
0.308411986 0.119671412 0.105881996
0.329664379 0.128779188 0.108285800
0.353320390 0.139405385 0.115243576
0.378874123 0.151549980 0.124098986
0.409234971 0.163694024 0.136243016
0.439595014 0.178621367 0.145604357
0.471853197 0.186337993 0.153826654
0.504364491 0.195319399 0.160910755
0.538266838 0.207590118 0.167235985
0.583807349 0.222770497 0.185072526
0.627071202 0.235673383 0.194180906
0.670967579 0.249209270 0.206072047
0.717773497 0.264389664 0.219228327
0.761290371 0.280075997 0.223276049
0.809867203 0.298291981 0.240354240
0.853130937 0.322706759 0.258570343
0.895635784 0.349145800 0.282985181
0.937255025 0.376471013 0.311953992
0.053130776 0.062112771 0.049968772
0.066033773 0.056546386 0.058697388
0.063883550 0.066033773 0.058823999
0.077293165 0.070082158 0.058317609
0.094623767 0.076027997 0.066666543
0.107779779 0.083112001 0.072232939
0.120809317 0.084629998 0.082353003
0.148133695 0.090195999 0.083997712
0.173940092 0.092473097 0.091334991
0.193548203 0.099936783 0.092473291
0.218975633 0.105249867 0.095256098
0.240228012 0.106261998 0.096268229
0.261480391 0.112080999 0.095129877
0.287793010 0.116381772 0.097912967
0.307147324 0.122454055 0.100948580
0.334851325 0.133080184 0.112586804
0.353067338 0.143706381 0.117140993
0.377355933 0.154585987 0.125616789
0.409234971 0.163694024 0.136243016
0.441745788 0.176470593 0.147754580
0.472106248 0.187855959 0.154965222
0.505250096 0.196204990 0.162808001
0.539152443 0.208475500 0.167488724
0.584692895 0.223655909 0.183681011
0.625806272 0.238709763 0.195066288
0.669702351 0.250853747 0.202782989
0.715749323 0.265275061 0.216698289
0.761543095 0.280455440 0.229601309
0.809361339 0.304743767 0.239468634
0.856166899 0.324730933 0.268311322
0.899051189 0.351296335 0.286147922
0.941555977 0.378621221 0.309424013
0.061227158 0.080835164 0.062618837
0.074383162 0.072991937 0.064895995
0.081340767 0.076407321 0.067425996
0.083365165 0.082226157 0.060088836
0.098924994 0.080328993 0.063124545
0.117141001 0.090701997 0.066160932
0.135357320 0.092726000 0.072991841
0.151928857 0.095255993 0.081467390
0.177735254 0.096015088 0.086021766
0.198987663 0.104111485 0.092599839
0.222264603 0.107779995 0.094497129
0.244276091 0.112333998 0.096774161
0.266667098 0.115749642 0.099051163
0.288298994 0.121695131 0.096648000
0.308538973 0.126754984 0.098671742
0.332574427 0.137634307 0.111321956
0.360404968 0.147248387 0.119418152
0.378747284 0.159392983 0.128020123
0.411511958 0.166730016 0.139025971
0.441113204 0.177103177 0.147122175
0.476407468 0.188614726 0.159265995
0.507780135 0.198734984 0.165338263
0.541302979 0.210879013 0.171536788
0.583428085 0.224921077 0.184439898
0.626944661 0.240101114 0.193801120
0.667931616 0.253890157 0.204048157
0.713472188 0.266034156 0.210626110
0.761290014 0.280455440 0.228842273
0.809867084 0.304996610 0.241998658
0.857938111 0.330044150 0.265781313
0.902593195 0.352182180 0.298671931
0.945097983 0.379127145 0.309677154
0.076407544 0.096394993 0.070588000
0.082858995 0.091461547 0.067552388
0.088551544 0.093232550 0.071347453
0.096647702 0.095888935 0.071853384
0.104237996 0.092852540 0.063503996
0.122453995 0.098924547 0.066540383
0.145351097 0.100316092 0.069955677
0.167109534 0.102466539 0.073876999
0.186084643 0.107400090 0.080328643
0.207337052 0.110436477 0.089437030
0.226059750 0.110942543 0.090195999
0.244655550 0.114231542 0.091840707
0.263630748 0.120683096 0.095256455
0.287919462 0.130044445 0.101834454
0.312207431 0.133459583 0.102340452
0.334851354 0.143327057 0.113599248
0.358001173 0.152435452 0.121569000
0.386337578 0.160151988 0.124984428
0.416698426 0.172296017 0.143200457
0.442251563 0.181657359 0.148640364
0.474889189 0.192283541 0.158507243
0.512713552 0.204427540 0.170271710
0.546236455 0.216698036 0.176217958
0.582669258 0.229095817 0.184819654
0.625932813 0.243516788 0.193168551
0.670081854 0.257305324 0.202023774
0.712713182 0.270209014 0.213662490
0.758254290 0.282352984 0.222770080
0.806451559 0.303984523 0.236811802
0.855407894 0.327893376 0.260721028
0.901075184 0.351423085 0.291461408
0.943579972 0.375711918 0.315749466
0.091587931 0.114611000 0.070588000
0.100695543 0.117647380 0.067552388
0.104996771 0.117014930 0.073118225
0.113599084 0.118026935 0.076660223
0.125490382 0.117141321 0.072612390
0.122453995 0.114104934 0.069575995
0.143200323 0.117647253 0.075142063
0.166603461 0.116888158 0.077418998
0.189121038 0.116128936 0.079949193
0.210373446 0.116508484 0.086401418
0.231625810 0.119544864 0.089690067
0.252372235 0.120050937 0.090195999
0.269702941 0.122201286 0.090702064
0.284883082 0.127008051 0.092726059
0.309171051 0.139152050 0.104870044
0.335863471 0.147374809 0.112586863
0.357621908 0.155471057 0.119671255
0.380518526 0.163440630 0.124731399
0.413662046 0.178368017 0.140164077
0.444022804 0.187729359 0.152814776
0.473371387 0.196837738 0.161543250
0.507273972 0.207463935 0.169639125
0.543200076 0.219734430 0.173181564
0.579632878 0.234914839 0.176217958
0.622896910 0.249589279 0.191650927
0.667046189 0.263377845 0.205059916
0.709551036 0.276533991 0.216698125
0.752182305 0.294496983 0.225806475
0.800379574 0.309297830 0.237570912
0.850727558 0.329538077 0.253763407
0.896521509 0.350410968 0.276281029
0.931436002 0.369639128 0.300569057
0.116888314 0.135357320 0.075648002
0.118406251 0.135863379 0.075142063
0.125363648 0.138899773 0.076407447
0.130044311 0.139279321 0.082226485
0.140291005 0.139279321 0.081341222
0.143706381 0.138393700 0.076154068
0.148260325 0.137887642 0.078178324
0.167868406 0.139279321 0.080961324
0.188868001 0.139405638 0.081720419
0.208349183 0.142947644 0.086021967
0.232131869 0.138267189 0.089184128
0.257432252 0.135230809 0.092220254
0.278557986 0.136495963 0.093864672
0.294750005 0.140670642 0.096015029
0.321315289 0.143706635 0.105882302
0.340796918 0.158253819 0.115623116
0.366223991 0.166097373 0.123213314
0.387729138 0.173434615 0.129158989
0.415433347 0.186717302 0.142441377
0.451107055 0.198861361 0.154838398
0.485262275 0.206072003 0.161290422
0.517900050 0.215559930 0.169133455
0.552941144 0.227704301 0.175458789
0.591777146 0.240480915 0.183301583
0.632763922 0.255661279 0.193169251
0.679443240 0.272232980 0.206704631
0.724225104 0.286653996 0.217710122
0.766729832 0.300821990 0.228842765
0.812017858 0.316381812 0.240607291
0.864136577 0.336875379 0.261606485
0.912081182 0.360657871 0.284756571
0.947122335 0.383807629 0.310689330
0.129411995 0.153320700 0.083364703
0.132700995 0.154964983 0.078431003
0.137001991 0.158760473 0.085515477
0.143073991 0.156736538 0.083491541
0.149146006 0.156736553 0.084630288
0.155218005 0.160531700 0.081087843
0.158001006 0.155598000 0.085895024
0.169006690 0.158886984 0.083997712
0.186464384 0.158127889 0.083997712
0.203795016 0.161543280 0.086148478
0.227830738 0.160910994 0.089184128
0.250854254 0.158127889 0.090575546
0.279316992 0.153193757 0.098165929
0.300063044 0.156989321 0.102972701
0.325996101 0.155598000 0.107906409
0.347754598 0.161037177 0.117014796
0.372042984 0.176217183 0.126122802
0.398481697 0.182669267 0.132953852
0.425806701 0.192789301 0.144086018
0.454649031 0.204933733 0.151296735
0.489436954 0.216571704 0.164326027
0.527893245 0.224667683 0.167362422
0.563314319 0.236812294 0.175205782
0.601264894 0.248956710 0.184313819
0.644655228 0.261733264 0.194054157
0.689942956 0.276913643 0.210373223
0.737507820 0.294876695 0.221505061
0.780012548 0.309297711 0.234788164
0.823529422 0.322453797 0.245287970
0.867805302 0.342947394 0.254775465
0.918026567 0.369007170 0.283870876
0.955218256 0.397090703 0.312713295
0.131688893 0.170019090 0.089437097
0.138519987 0.172295809 0.082605809
0.143833086 0.175205439 0.087792449
0.151423082 0.178747833 0.091081932
0.157495096 0.170019016 0.084250547
0.163567096 0.177229822 0.085389003
0.166097090 0.173434690 0.089943320
0.171283796 0.170272097 0.090829000
0.185705096 0.176344097 0.087792993
0.200885490 0.173307702 0.087792993
0.223276734 0.175331965 0.089943223
0.244782150 0.176344097 0.090955094
0.267172992 0.176723450 0.095129542
0.297533065 0.173687130 0.109803930
0.322833806 0.170651525 0.111321993
0.349272788 0.171663389 0.118532792
0.372042984 0.177735180 0.125363901
0.403035700 0.191650569 0.133839086
0.436432928 0.197849110 0.142820969
0.464516222 0.209487617 0.149399355
0.494496912 0.220872983 0.156989247
0.529411435 0.233776078 0.169639125
0.571916163 0.245920077 0.173054978
0.609614015 0.258064687 0.182795808
0.651359856 0.269450009 0.191144705
0.697533131 0.282985657 0.204300642
0.745097995 0.298671991 0.225047126
0.787602723 0.316887975 0.240480527
0.832384586 0.330550075 0.251106828
0.874130249 0.351296455 0.261479974
0.915749669 0.374320090 0.275521755
0.955218077 0.404680908 0.308918208
0.140796527 0.191271484 0.086401485
0.149904907 0.191271499 0.086401477
0.154585794 0.189247206 0.092473194
0.161543489 0.190385520 0.094117686
0.172675490 0.194307014 0.087286934
0.178747490 0.188235015 0.096394546
0.184819490 0.187855527 0.095003329
0.188994199 0.185831726 0.090829015
0.194813490 0.185452491 0.087793007
0.206957489 0.191524491 0.093865000
0.225047737 0.191397980 0.093865000
0.243516997 0.191524506 0.093991488
0.262998164 0.192662865 0.097406834
0.285389066 0.194939539 0.106767543
0.315749824 0.191903919 0.115875922
0.353067756 0.191271499 0.124604791
0.381150961 0.192915782 0.129158989
0.403035700 0.197722584 0.130803466
0.436432958 0.206830978 0.136875495
0.472612739 0.218595490 0.151423365
0.506641686 0.228842258 0.158507258
0.541050196 0.240101129 0.164073139
0.577988923 0.255028486 0.173054978
0.620493770 0.267172515 0.185199007
0.660468221 0.277039826 0.192662522
0.702972591 0.289057672 0.203035653
0.748133659 0.304744005 0.218975127
0.790638387 0.322959989 0.237191871
0.841112912 0.338519812 0.249968454
0.885262132 0.362428844 0.265527934
0.924857318 0.388994455 0.287665784
0.964326501 0.407716513 0.321062952
0.161542863 0.197975993 0.097912997
0.159013271 0.203795001 0.089184128
0.170271873 0.208095998 0.095635906
0.175585166 0.206071869 0.099683709
0.181657329 0.205186427 0.095382676
0.185198992 0.206704736 0.099430934
0.191271007 0.203162432 0.100948870
0.200632423 0.204427585 0.103225991
0.208222866 0.205439776 0.102972902
0.216065869 0.209360987 0.102593116
0.225300744 0.206704870 0.097027130
0.243516997 0.208728597 0.103099383
0.264010280 0.210752636 0.105756000
0.287286878 0.213535741 0.108791865
0.312333941 0.213156283 0.109930411
0.340290904 0.217330858 0.123845786
0.377735704 0.218342870 0.132447988
0.409487695 0.219987303 0.135863423
0.445161074 0.224541709 0.139658138
0.478558213 0.228083387 0.145730838
0.511069000 0.239847854 0.154839009
0.544465363 0.250980258 0.160910740
0.581151068 0.264263362 0.169892147
0.623655915 0.279190749 0.176470876
0.666160643 0.286780745 0.184060872
0.710436285 0.299430847 0.197090521
0.756989002 0.316635013 0.214294806
0.799493730 0.334850967 0.225300133
0.836685479 0.350410819 0.235547081
0.885262311 0.369133174 0.256293267
0.925490022 0.395192683 0.280581564
0.958886981 0.419480979 0.309930265
0.172675505 0.218216240 0.103984736
0.173687369 0.224288240 0.098924868
0.181403995 0.224288508 0.102719508
0.189753160 0.227830499 0.105502732
0.193548545 0.224035501 0.102466539
0.199873567 0.225427195 0.105502933
0.205439508 0.225427181 0.108032733
0.209866792 0.222390786 0.108032733
0.219354928 0.223908991 0.111068837
0.225427240 0.225679770 0.108032770
0.234408602 0.226945117 0.110183246
0.245541245 0.225933239 0.106134996
0.263757259 0.228968859 0.111827739
0.286021769 0.232257992 0.112839803
0.308538973 0.235799968 0.119924247
0.341303051 0.238583237 0.119797535
0.371663451 0.243137434 0.130423725
0.408855259 0.243643492 0.136495724
0.443896055 0.245288208 0.140923038
0.479569823 0.246300146 0.144718453
0.516761422 0.249335766 0.154585734
0.550537348 0.260088384 0.160910740
0.588235259 0.271220982 0.168880016
0.630740106 0.284503639 0.174952805
0.675268590 0.298924983 0.189120993
0.717773259 0.307779968 0.196584657
0.763061106 0.325237066 0.214295074
0.802529871 0.344971240 0.226439044
0.845793843 0.360531062 0.235546827
0.885768592 0.377482176 0.249968410
0.930297196 0.398481578 0.276533842
0.962934732 0.423528999 0.303858280
0.184440643 0.244402289 0.110436283
0.185199261 0.247058630 0.107400380
0.192409649 0.247817770 0.110689513
0.204174161 0.246046990 0.116887636
0.207590088 0.245667532 0.111574635
0.215939566 0.244908631 0.113851927
0.220240638 0.244908631 0.115749322
0.228083566 0.245540917 0.117140643
0.233396277 0.243263632 0.116381742
0.240227953 0.243263632 0.113346130
0.249209404 0.245034859 0.117899992
0.258064508 0.247185647 0.117900029
0.271347612 0.248324007 0.117140643
0.288804621 0.251865685 0.117393672
0.306514740 0.258823276 0.126881823
0.339784950 0.261353463 0.130423829
0.371284157 0.266666830 0.129664630
0.406578094 0.268438041 0.136369213
0.441492677 0.267931998 0.142947301
0.478810757 0.271347642 0.149652004
0.519418001 0.273244888 0.153826639
0.558886409 0.277292639 0.162934512
0.599114478 0.286148012 0.169006497
0.646679461 0.296268284 0.176091164
0.689183891 0.308412254 0.185578987
0.733332932 0.322201252 0.201897666
0.774825752 0.335357279 0.212017938
0.811258495 0.355977058 0.227198154
0.854522407 0.373054802 0.243896425
0.896015346 0.391144574 0.258317411
0.940291166 0.412017435 0.280961573
0.977735281 0.433775932 0.308791995
0.205440000 0.268438041 0.121569000
0.203162640 0.265654653 0.119544610
0.206831068 0.264516026 0.120050743
0.214168042 0.264516026 0.123339839
0.225553051 0.265148580 0.125995994
0.231625825 0.262112945 0.125995994
0.233396992 0.261353999 0.125237033
0.239468992 0.262745291 0.125489995
0.250854045 0.264769047 0.125490054
0.262998015 0.264769047 0.122454450
0.272485852 0.265275061 0.124984123
0.280076027 0.266793251 0.124984257
0.288804621 0.269829422 0.123213351
0.304238051 0.272612065 0.126501992
0.313345641 0.281720430 0.129538372
0.342567593 0.284124047 0.133965954
0.373687416 0.288678229 0.137760997
0.400759071 0.296268433 0.139152572
0.443263978 0.293232054 0.148260981
0.483744413 0.300569355 0.159646019
0.526249170 0.306135267 0.164958969
0.570525110 0.310183108 0.165970907
0.610499442 0.316255093 0.169259533
0.667931736 0.322327822 0.178367943
0.712460220 0.330170721 0.182669282
0.753320277 0.340417325 0.191018611
0.795319080 0.353321016 0.206451938
0.831751823 0.371537000 0.221631527
0.872991621 0.389500022 0.246679410
0.912207365 0.409234196 0.269702971
0.951170146 0.432004809 0.291081578
0.999746978 0.459330022 0.324478000
0.223655984 0.289690375 0.121569000
0.229727983 0.289690375 0.130676612
0.236053169 0.286907017 0.126501977
0.239468634 0.285768390 0.127387568
0.240733400 0.286906928 0.132067993
0.246805429 0.295509309 0.132067993
0.255407870 0.292473048 0.124478318
0.260973960 0.291713953 0.123845704
0.267552078 0.291587472 0.127007991
0.272106379 0.289057791 0.131562054
0.284250408 0.294876814 0.131435573
0.295762002 0.293611556 0.138140246
0.304363966 0.294117630 0.137887344
0.313345641 0.296900809 0.132573992
0.331562400 0.296900809 0.138645992
0.347880810 0.303605407 0.134471580
0.377482563 0.309930563 0.138519779
0.408349365 0.319038779 0.144465581
0.440227568 0.326628387 0.148260981
0.488298327 0.326375365 0.154586017
0.527387500 0.332067966 0.163820252
0.569765866 0.337507665 0.169006705
0.616571486 0.343580216 0.172295913
0.668184757 0.349652231 0.181404322
0.716508269 0.353447109 0.183681414
0.759392321 0.360531032 0.189879984
0.801897168 0.371284038 0.203668579
0.843895793 0.386717379 0.221631527
0.880328536 0.402277231 0.239468634
0.919797599 0.419860750 0.266666949
0.957748413 0.440480590 0.290955395
0.996710598 0.465402007 0.312334001
0.241871983 0.313345969 0.131182984
0.247944593 0.318152964 0.137887418
0.256166816 0.311701745 0.138393030
0.264009982 0.313219428 0.135103986
0.265148342 0.316255331 0.138899088
0.269196600 0.317267716 0.142947599
0.277798891 0.321062446 0.135357320
0.283617854 0.318026483 0.131182984
0.288930804 0.317267597 0.133459702
0.293611467 0.315876275 0.137886986
0.302972794 0.319164991 0.135736808
0.311068773 0.321188986 0.135736808
0.322453797 0.319670767 0.141429365
0.331814796 0.321442008 0.138139993
0.347880810 0.323592782 0.139910996
0.366097599 0.323592782 0.141176000
0.384313583 0.329664767 0.142694190
0.412650317 0.339152545 0.149272576
0.443010867 0.351802617 0.148766965
0.482858777 0.354964793 0.152182207
0.529538214 0.360657513 0.160151929
0.570524931 0.369259566 0.168247804
0.617709994 0.377861977 0.172675505
0.667045891 0.379379988 0.177229911
0.716381729 0.383175254 0.186337709
0.764831960 0.388994247 0.193674847
0.809360921 0.397090524 0.206325054
0.848070681 0.404680401 0.218848780
0.892472565 0.417457610 0.234661639
0.928905308 0.432637513 0.256419927
0.963314414 0.453763157 0.286400974
0.993674815 0.481087983 0.312207192
0.264642566 0.339152187 0.140290990
0.269196779 0.346742362 0.146362990
0.272865415 0.346615940 0.147501424
0.280708194 0.338773161 0.144465357
0.287918717 0.345856816 0.144971386
0.295509130 0.345097929 0.151043862
0.297533095 0.344086051 0.144465670
0.307906657 0.345350891 0.138772801
0.311701357 0.343833119 0.139531896
0.317773402 0.344592005 0.142567709
0.328273058 0.344465494 0.139784679
0.338393182 0.348513365 0.141809195
0.345603824 0.349652022 0.142947555
0.357115418 0.349778533 0.145224199
0.369765788 0.350284606 0.142694190
0.382795781 0.353953183 0.145730197
0.401012182 0.355471373 0.150284395
0.419228166 0.360910803 0.156230211
0.446046799 0.372548997 0.152308971
0.484756589 0.382669032 0.156356841
0.528019965 0.391017914 0.161669731
0.574573040 0.400126308 0.168754131
0.620492995 0.411637872 0.174193665
0.666286826 0.415812552 0.177229702
0.713345706 0.418089449 0.181783900
0.764705479 0.422517538 0.195066169
0.815433204 0.429981381 0.210373074
0.854902029 0.432005137 0.221505433
0.897786140 0.439974844 0.234408602
0.939531565 0.446300119 0.253383934
0.971536815 0.465021938 0.275901198
0.995193005 0.494750172 0.306135178
0.291967541 0.367109120 0.147627980
0.295635730 0.376849920 0.152434990
0.296521127 0.378874123 0.153573588
0.299683541 0.379506499 0.154838562
0.304996520 0.373814076 0.150284946
0.318911910 0.376343787 0.154586017
0.320809394 0.374319851 0.149905264
0.325995952 0.372296125 0.145350859
0.337887526 0.373055041 0.143200085
0.343959540 0.376090646 0.146236479
0.355218112 0.374572992 0.144718274
0.367362142 0.376344115 0.145856932
0.378367782 0.381277621 0.151423350
0.387729108 0.384060979 0.154205993
0.397216916 0.381404102 0.148892984
0.406957746 0.383681118 0.152434975
0.418722540 0.388867706 0.158760190
0.436306119 0.391904116 0.164706007
0.454522192 0.394939780 0.158634007
0.488425076 0.407210499 0.161164016
0.529791296 0.420493126 0.166603431
0.575711250 0.432890266 0.173561126
0.624035001 0.441998631 0.176597476
0.666539788 0.451107025 0.179633096
0.710689247 0.456293434 0.183301702
0.762302279 0.461353332 0.192662969
0.814421237 0.467425972 0.209867001
0.859709322 0.467678964 0.224920869
0.903225958 0.471726954 0.238076970
0.943327129 0.474889547 0.256166756
0.978747606 0.479064107 0.277166188
1.000000000 0.506388545 0.295382977
0.319292009 0.397469997 0.159772009
0.325363994 0.409613997 0.159772009
0.326882005 0.410752803 0.158127785
0.330676824 0.413029850 0.160404816
0.338393003 0.419354588 0.165464580
0.338393033 0.416318953 0.150284991
0.344718695 0.413788646 0.149526015
0.353320956 0.410752743 0.150411263
0.365465015 0.409487903 0.152181983
0.377355993 0.412523508 0.152308509
0.386337847 0.415559888 0.155344889
0.397722960 0.416065991 0.153826684
0.408728600 0.417710364 0.154965058
0.418089956 0.420493066 0.160278022
0.430233985 0.420493066 0.160278007
0.442125022 0.417836815 0.164579004
0.452498257 0.420113981 0.169133186
0.463630587 0.425300628 0.170778006
0.478811026 0.428337008 0.164706007
0.499810398 0.434155971 0.158634022
0.532068491 0.444781989 0.159266278
0.572296083 0.457938135 0.165591314
0.617962956 0.472359508 0.176597491
0.660467863 0.481467903 0.179633111
0.702972591 0.488298982 0.184946015
0.755470991 0.495509297 0.194939703
0.814421237 0.503858089 0.209867001
0.853890300 0.509930015 0.222011000
0.899177730 0.510183036 0.237064853
0.939152360 0.512460291 0.257305384
0.973181546 0.517014623 0.280455559
1.000000000 0.527640998 0.301455021
0.352182388 0.450094759 0.160784006
0.352688372 0.451106727 0.160784006
0.360911161 0.454648733 0.162934780
0.365338773 0.454775572 0.163693845
0.372169524 0.459329545 0.168626994
0.374572754 0.456293315 0.165464580
0.379632741 0.455787390 0.157874659
0.388994455 0.453004450 0.159013376
0.400379658 0.452245742 0.161290362
0.410499394 0.457305640 0.161290362
0.419734240 0.460341275 0.164199516
0.430866361 0.461353362 0.163187921
0.441872030 0.462492049 0.162428707
0.451486409 0.465022087 0.166097045
0.466160744 0.462491721 0.163567364
0.478304744 0.467299342 0.165970549
0.493485153 0.468437880 0.170145184
0.506388545 0.471979737 0.171916425
0.517267406 0.472865343 0.167994648
0.540797174 0.475901753 0.170272008
0.558254480 0.483871013 0.166097268
0.590512633 0.495129645 0.170398265
0.634408712 0.508539200 0.182416469
0.682226539 0.522959948 0.190765113
0.724731266 0.534345627 0.193801299
0.768627346 0.538646758 0.200759023
0.820493162 0.543074131 0.213662356
0.862238944 0.549146116 0.230360344
0.909677207 0.557874918 0.250474155
0.951802611 0.560025215 0.265907526
0.982163370 0.563946724 0.290702164
1.000000000 0.571157396 0.321442395
0.383681476 0.495256215 0.168374479
0.385578722 0.499051183 0.160784006
0.388235509 0.500948429 0.164832026
0.394813567 0.500948429 0.170398414
0.402150542 0.501454711 0.172801733
0.414294541 0.493864536 0.166729748
0.414168179 0.499051183 0.169259742
0.430107176 0.494117498 0.169765741
0.440986812 0.494370729 0.171537086
0.447817743 0.502719760 0.170398742
0.458823323 0.502087295 0.173307866
0.466160476 0.504996479 0.168500513
0.479443133 0.506135106 0.171157539
0.490322471 0.508918464 0.175458431
0.503858149 0.507526755 0.169133425
0.512839735 0.507906318 0.170904666
0.528020084 0.515496910 0.169386089
0.546869278 0.519291580 0.171283826
0.561037302 0.520556450 0.170777768
0.576470494 0.525237024 0.173308089
0.595066428 0.524478495 0.172548994
0.612270832 0.531562090 0.171536863
0.648450494 0.541176498 0.180898473
0.691714108 0.556356549 0.190006107
0.735736728 0.569259524 0.200253025
