Assets/Resources/EldamarStudio/100 Horror LUTs Pack/LUTs/cube/Madcog LUT.cube
LUT_3D_SIZE 5
DOMAIN_MIN 0.000000 0.000000 0.000000
DOMAIN_MAX 0.903226 0.903226 0.903226
0.050980002 0.050980002 0.050980002
0.140923694 0.091840707 0.089563996
0.305376381 0.119671412 0.105881996
0.501328111 0.192283258 0.160910994
0.813662589 0.300948799 0.243389949
0.129411995 0.153320700 0.083364703
0.169006690 0.158886984 0.083997712
0.325996101 0.155598000 0.107906409
0.527893245 0.224667683 0.167362422
0.823529422 0.322453797 0.245287970
0.223655984 0.289690375 0.121569000
0.260973960 0.291713953 0.123845704
0.331562400 0.296900809 0.138645992
0.569765866 0.337507665 0.169006705
0.880328536 0.402277231 0.239468634
0.417078108 0.537761271 0.173434868
0.462492228 0.543706656 0.177861989
0.540923238 0.553447247 0.177482709
0.644655406 0.574067116 0.177609116
0.912713408 0.630487084 0.263377696
0.699936628 0.865907729 0.362934560
0.727767289 0.877419472 0.370398432
0.803795159 0.878937423 0.379886210
0.890069783 0.886780620 0.403035879
0.983554721 0.898544908 0.432258397
0.074510001 0.082353003 0.148133695
0.149778396 0.085642003 0.139658689
0.253130823 0.132447690 0.161543399
0.412776679 0.234155580 0.234155580
0.744465411 0.344465494 0.313345939
0.111827992 0.135357410 0.132067993
0.154332399 0.152687684 0.149398699
0.244275689 0.179506689 0.172295690
0.440607131 0.252751261 0.226944819
0.776849687 0.360151470 0.313978523
0.204680830 0.257684976 0.182795689
0.238709390 0.260974377 0.187729388
0.294623703 0.273370951 0.190639108
0.516761303 0.320556551 0.233775854
0.843770027 0.422517389 0.314610988
0.388235122 0.511954546 0.238330275
0.428968966 0.518532336 0.240986526
0.506135523 0.525743365 0.247311816
0.613662183 0.542441666 0.252498567
0.901075304 0.623402834 0.340164483
0.696015120 0.865275145 0.422517449
0.718279600 0.863757312 0.425553381
0.797976017 0.871220946 0.434029162
0.876786888 0.877419472 0.452878088
0.972801745 0.893358767 0.483744591
0.111827567 0.100695997 0.306008965
0.190639108 0.111448288 0.284124106
0.285768390 0.131435573 0.262239397
0.471347511 0.179506704 0.301201701
0.752941132 0.313472360 0.379379809
0.155598000 0.186337993 0.254016697
0.195825696 0.181783408 0.241619110
0.266160816 0.188993990 0.240986675
0.439595222 0.247817844 0.292346567
0.734345078 0.398102075 0.409487337
0.194812998 0.264895380 0.257052392
0.238962695 0.275648534 0.266160846
0.335483372 0.315876395 0.300189406
0.462112546 0.356483370 0.334471703
0.767994583 0.501201749 0.450854033
0.333965987 0.487033367 0.339152545
0.388235092 0.489310414 0.350664228
0.477166563 0.497153848 0.355471104
0.574699521 0.522706866 0.368880242
0.872485638 0.627703905 0.477293074
0.672485709 0.846932173 0.537760794
0.691461027 0.848576903 0.541050076
0.776976645 0.858064532 0.554838598
0.862618566 0.867931843 0.568247855
0.958633602 0.887539208 0.600126028
0.218722120 0.165844128 0.545477271
0.295635849 0.171663120 0.530803561
0.424161524 0.176850274 0.502087533
0.550537407 0.193168864 0.475016266
0.832763851 0.251359969 0.552814782
0.238076985 0.255028397 0.487666130
0.293358713 0.253383696 0.489057392
0.411132365 0.253130972 0.472359270
0.532953799 0.253763407 0.456293523
0.816065848 0.338266760 0.548260748
0.277925402 0.367994964 0.442630976
0.323845804 0.372169375 0.448956251
0.417710125 0.374825954 0.448829800
0.528020263 0.384946525 0.453636944
0.805945635 0.507020772 0.567488730
0.349146008 0.504364252 0.465148270
0.385958225 0.512207270 0.460847527
0.502340376 0.542947173 0.498418629
0.664136350 0.605439425 0.553447247
0.837570906 0.697027087 0.645287931
0.630107582 0.848956585 0.654648721
0.657305241 0.849335670 0.669702888
0.743326902 0.853510439 0.692472935
0.848703504 0.863124728 0.703984737
0.936495602 0.879696608 0.727514148
0.361163795 0.299809754 0.854142725
0.429854453 0.307653457 0.844781816
0.574319780 0.322833329 0.843769729
0.754079759 0.347754419 0.833776236
0.928779602 0.385072559 0.824161768
0.411385298 0.402909458 0.837570846
0.464263171 0.402277291 0.836305737
0.590765417 0.416951150 0.830992877
0.755218029 0.432384461 0.823529184
0.924098551 0.461859286 0.816192269
0.509297729 0.575837731 0.807843029
0.548387170 0.571916401 0.812144101
0.635926545 0.579759598 0.809867203
0.763060868 0.585072577 0.809360981
0.907906532 0.596204817 0.810625970
0.577608943 0.724225044 0.820619881
0.609107971 0.727766871 0.813788414
0.689563334 0.729791284 0.806704402
0.788235068 0.737001657 0.800505877
0.904996872 0.747754574 0.812270522
0.667552412 0.872485638 0.819101453
0.686653674 0.870967686 0.833775640
0.745098054 0.873245001 0.832890809
0.843643010 0.878051877 0.840860307
0.945603669 0.914231539 0.893611372
