Assets/Resources/EldamarStudio/100 Horror LUTs Pack/LUTs/cube/Malthor LUT.cube
DOMAIN_MIN 0 0 0
DOMAIN_MAX 1 1 1
LUT_3D_SIZE 32
0.023529001 0.054901998 0.133332998
0.026565386 0.054901998 0.127260998
0.033902772 0.057052772 0.129790992
0.043010838 0.060088836 0.132068157
0.052877549 0.063124545 0.129411995
0.068057932 0.066160932 0.129411995
0.080708638 0.071727000 0.137001678
0.089563996 0.076154292 0.139531717
0.097153999 0.079190098 0.138772994
0.109298006 0.082226485 0.144844994
0.124351867 0.085262865 0.148007870
0.137507990 0.092346735 0.151043743
0.149652004 0.100315996 0.154079646
0.162049040 0.106641032 0.157115966
0.177229404 0.115749411 0.160151586
0.187602803 0.122453995 0.163187817
0.201264992 0.130044192 0.170777991
0.218848556 0.139784977 0.181656986
0.234028980 0.151929006 0.187729001
0.243643358 0.155724362 0.188235000
0.258443981 0.164452985 0.188235000
0.275648147 0.176596999 0.191271126
0.291207999 0.188741013 0.200379506
0.315496802 0.200885817 0.209487915
0.335230976 0.213029996 0.218595698
0.354838639 0.226565644 0.227703661
0.377103060 0.241746068 0.236812070
0.404427409 0.256926417 0.245920449
0.429095626 0.277419806 0.255028814
0.455155134 0.300442934 0.269449949
0.486021549 0.324731201 0.291208178
0.525489986 0.349020004 0.321568996
0.038709387 0.054901998 0.130297378
0.029601775 0.051865615 0.127260998
0.036938611 0.060468163 0.127640769
0.049841933 0.063630834 0.129032210
0.064642772 0.063503996 0.127514154
0.077166319 0.069196545 0.135483995
0.079696387 0.074762613 0.132953674
0.093105607 0.082479313 0.140037701
0.106261805 0.087539390 0.144086093
0.118406393 0.088298485 0.147881389
0.124731384 0.094243996 0.148134395
0.137507990 0.097406872 0.153068006
0.149652004 0.104490742 0.157115757
0.161796063 0.112713024 0.160151660
0.174193785 0.121821404 0.163187981
0.184566572 0.123718992 0.163820401
0.196710795 0.131561995 0.167741999
0.213409141 0.142188191 0.176849976
0.230993375 0.151929021 0.187729001
0.248956412 0.164073005 0.188235000
0.262618750 0.169766083 0.190132737
0.278684527 0.179633394 0.194307521
0.294244349 0.191777378 0.203415871
0.318532407 0.203921437 0.212523520
0.338267177 0.216065615 0.221631899
0.359266341 0.229601264 0.229348376
0.382669121 0.244781688 0.237317994
0.407463819 0.259962022 0.248956054
0.432131350 0.280455410 0.263377428
0.461733162 0.301707774 0.275016010
0.492473334 0.326502174 0.293358952
0.525489986 0.355091989 0.321568996
0.047437999 0.059202999 0.125110999
0.049083158 0.062618390 0.132827371
0.046426773 0.061732773 0.131941766
0.056799546 0.072612390 0.134977832
0.072106548 0.073497772 0.134471551
0.082479775 0.076027773 0.140037924
0.088804774 0.079949550 0.136875451
0.093738057 0.084376842 0.138772771
0.108918190 0.091714002 0.146615997
0.121062979 0.094497010 0.151043713
0.131688997 0.100315996 0.153320998
0.141808987 0.104364254 0.157369003
0.153952986 0.109677643 0.162302345
0.165844038 0.118532546 0.165085003
0.176091045 0.125743181 0.166223645
0.190132961 0.131941766 0.171157777
0.199240968 0.134977758 0.171157777
0.214421332 0.145224348 0.175964758
0.234155953 0.154332757 0.185072780
0.248071015 0.164073005 0.188235000
0.264389724 0.172422469 0.190132737
0.280581981 0.181530863 0.196204990
0.297153711 0.194686726 0.206325218
0.319418013 0.204807013 0.213409096
0.339152575 0.216950998 0.222517282
0.360151947 0.230486646 0.230233982
0.384946048 0.246173128 0.238836065
0.410879135 0.262998194 0.255913764
0.437317967 0.283491552 0.262112588
0.463377595 0.311827898 0.282605678
0.494244576 0.334598362 0.298924804
0.523339748 0.361164004 0.323719233
0.058570322 0.069070160 0.125363842
0.060847610 0.072612159 0.134977832
0.065148838 0.078178324 0.138519838
0.066413999 0.076913163 0.138519838
0.078557998 0.085262552 0.142694101
0.088551775 0.086148165 0.148387104
0.095129833 0.088678159 0.143833160
0.101581283 0.092979282 0.144339159
0.110689096 0.096773989 0.148893163
0.122327819 0.102846004 0.153953165
0.134471834 0.107653156 0.155850872
0.145350993 0.111701414 0.160910994
0.159772292 0.115876153 0.165844351
0.171916276 0.124605000 0.168880031
0.181024402 0.130676985 0.169892162
0.194939792 0.136748984 0.175964594
0.207084194 0.142820984 0.176470995
0.217457563 0.149525568 0.177103415
0.237444982 0.158633977 0.182542846
0.251613170 0.169006810 0.187096640
0.266919732 0.176217303 0.191397578
0.282100141 0.183301955 0.195446104
0.300063133 0.197849154 0.206831157
0.320176899 0.208095908 0.212903157
0.340417415 0.219481319 0.221252114
0.360151947 0.231751814 0.232763976
0.384440124 0.247944236 0.239848122
0.411005586 0.266919911 0.258823574
0.439594805 0.286527634 0.266666681
0.468184441 0.312333941 0.279570073
0.494624019 0.344845027 0.304743737
0.521569014 0.367236018 0.326755166
0.076027997 0.084250547 0.133712545
0.073371157 0.084629998 0.140164092
0.076407097 0.089563772 0.142314553
0.081973158 0.094370835 0.142314553
0.085009545 0.092093542 0.141935095
0.097153544 0.095129929 0.154079869
0.104617089 0.098924771 0.152941450
0.110309541 0.102466539 0.152688459
0.116761096 0.108159088 0.156863004
0.125869498 0.114231095 0.156863004
0.138266549 0.117773414 0.158001453
0.149145797 0.120809704 0.161290437
0.160151750 0.124225445 0.166223899
0.177609488 0.130297452 0.169259578
0.186717123 0.136369452 0.172295958
0.200252801 0.143200547 0.179759800
0.213156193 0.149651989 0.183175460
0.222770557 0.155597568 0.178621411
0.237950981 0.164705992 0.181657046
0.253890365 0.176597014 0.186717004
0.270208985 0.184946001 0.192789093
0.287792593 0.192409679 0.198861271
0.302846462 0.201391548 0.204807490
0.320556551 0.213029549 0.210626453
0.341808826 0.226312563 0.220493242
0.363440633 0.237697989 0.230866194
0.384819567 0.250980496 0.244781584
0.409108341 0.272232860 0.256926358
0.438329935 0.291207969 0.266413689
0.468310922 0.314357698 0.280455381
0.497280180 0.342567742 0.300569475
0.521569014 0.372928560 0.327893913
0.088171996 0.099430934 0.136748940
0.088171996 0.102466546 0.145857334
0.089816704 0.100695774 0.150158092
0.095888704 0.102213845 0.151422933
0.103225544 0.104237542 0.151043475
0.106261931 0.107273929 0.148007870
0.115876257 0.115370318 0.157621682
0.121189155 0.116888158 0.159266070
0.125489935 0.116888031 0.159519166
0.131941497 0.120303877 0.156863004
0.146868870 0.126375869 0.165591121
0.161543176 0.129917666 0.167109057
0.172295928 0.131815061 0.169259697
0.180645093 0.133333057 0.172295973
0.189753473 0.139405057 0.175332353
0.201264933 0.150284663 0.180771932
0.215433195 0.159898728 0.188867807
0.228336573 0.167235583 0.193548068
0.237950996 0.170777977 0.193801045
0.258697361 0.182669014 0.194054008
0.273245007 0.191018000 0.198861480
0.288424999 0.199114263 0.204933867
0.305882096 0.210499927 0.210879490
0.318026870 0.216571927 0.213915095
0.342568189 0.235041216 0.231119335
0.367488891 0.247817993 0.241998613
0.390765071 0.256926000 0.247564942
0.412143975 0.275268495 0.253889978
0.439088851 0.296520859 0.263377905
0.466919601 0.319038391 0.276028097
0.494750500 0.345604122 0.293485343
0.521569014 0.375964940 0.315749139
0.102846317 0.119671315 0.147375003
0.102846317 0.117646925 0.153953075
0.107147321 0.120683089 0.158760458
0.111827999 0.118406154 0.160531327
0.118911862 0.118911862 0.160910770
0.121948250 0.121948250 0.162175611
0.127514318 0.124983996 0.159140006
0.136622697 0.130803376 0.166603312
0.143706635 0.131056219 0.169892311
0.153320640 0.134092152 0.172169477
0.158000857 0.137508005 0.175711766
0.167109504 0.141556263 0.176723376
0.180771664 0.145730644 0.178494319
0.191271037 0.149019644 0.182668999
0.200379416 0.155091643 0.183428094
0.209487796 0.161163628 0.184060678
0.223023504 0.170018986 0.188361868
0.238836303 0.177482307 0.194180742
0.253636986 0.182415977 0.196078017
0.266287059 0.191271335 0.201138645
0.281847149 0.201518059 0.203035906
0.296015322 0.209234506 0.208475679
0.314231306 0.219987169 0.214674175
0.331182480 0.233270004 0.222517416
0.352435231 0.243896559 0.232384309
0.375331968 0.260215312 0.247311667
0.397343129 0.270588309 0.254143000
0.420619756 0.288804293 0.264263004
0.449715436 0.307147443 0.272991836
0.478810549 0.331941783 0.290954918
0.507779837 0.359645873 0.309297860
0.536749005 0.391651005 0.328905642
0.114737704 0.134345278 0.154585719
0.113092996 0.134598300 0.165591419
0.117393993 0.132574052 0.167868480
0.125995994 0.135610446 0.165844545
0.132827088 0.134471700 0.165464997
0.137128636 0.138772935 0.169765770
0.142694697 0.140164375 0.174320027
0.145477697 0.141555712 0.169639722
0.155344993 0.146110088 0.174193710
0.167488992 0.150916934 0.178494707
0.174193546 0.152308568 0.181657150
0.179253504 0.155344546 0.183934450
0.187602997 0.158380926 0.182036713
0.201770738 0.163694024 0.187096715
0.210879117 0.168374702 0.189879715
0.219987497 0.174446687 0.189879715
0.233649686 0.183554694 0.192915708
0.247691572 0.189247280 0.196710989
0.262871712 0.194307432 0.200758755
0.277166456 0.203162342 0.203289002
0.290954769 0.212270722 0.212397248
0.305123538 0.220366985 0.215433121
0.323339701 0.229095191 0.220999196
0.341555715 0.244275615 0.230107605
0.361037254 0.255534589 0.239847988
0.383934319 0.270461977 0.251992345
0.402909487 0.284123987 0.260847718
0.426059574 0.302339971 0.270714700
0.455660909 0.323845625 0.285135806
0.487665892 0.340797156 0.299810350
0.516255200 0.369007170 0.323213011
0.545098007 0.401644707 0.342188716
0.126882091 0.144971102 0.161416993
0.123086609 0.147248402 0.172043383
0.126502186 0.147501424 0.174952805
0.132827088 0.146995172 0.175711825
0.144971088 0.150031552 0.168500990
0.151802763 0.155724093 0.174572989
0.155598000 0.155976996 0.180139318
0.159898996 0.156736091 0.181783900
0.162176087 0.157495186 0.177229896
0.174320087 0.166603580 0.177229896
0.185072958 0.169259995 0.181657210
0.192157090 0.170524836 0.184693158
0.199746996 0.173560739 0.185831994
0.211638033 0.176597059 0.186337993
0.220746413 0.179633319 0.192409992
0.229854807 0.184313998 0.193674996
0.242758080 0.192663088 0.197470084
0.259709090 0.203542084 0.203542084
0.268943995 0.206704974 0.209614098
0.282859266 0.216824844 0.211638093
0.298039347 0.225173831 0.216951177
0.312713146 0.234029174 0.226059124
0.330803394 0.240354165 0.229348496
0.348387003 0.254902005 0.238456905
0.368121564 0.267805278 0.246805787
0.389247626 0.279569983 0.257305235
0.409488052 0.297786146 0.268943995
0.430234432 0.316002160 0.275269002
0.459455907 0.338772714 0.291208059
0.491587311 0.359266281 0.310942292
0.523086250 0.379633158 0.329285562
0.547375083 0.409993976 0.350538015
0.148134500 0.160151511 0.179632992
0.142061725 0.160151511 0.176597372
0.144718558 0.162428796 0.172169447
0.149525821 0.165211827 0.172675207
0.154079497 0.168247551 0.180645004
0.166223481 0.171283945 0.186717004
0.165464848 0.169386178 0.185199335
0.167741999 0.169765726 0.182669297
0.174320102 0.172675595 0.180265531
0.183428496 0.175711960 0.180265516
0.198482350 0.184819609 0.188994393
0.207337499 0.187476009 0.193801224
0.214547843 0.188741148 0.194560155
0.223782033 0.191777468 0.192409992
0.232890427 0.194813073 0.198481992
0.241998821 0.197849348 0.199746996
0.254143208 0.204048216 0.204301193
0.268817484 0.212650493 0.212650478
0.280961543 0.218722507 0.218722492
0.292979002 0.233017385 0.224794492
0.307147264 0.242251977 0.228716224
0.321315497 0.249462634 0.232131824
0.333838999 0.258570939 0.235420495
0.349019438 0.270714968 0.244528905
0.371157557 0.287539452 0.251359999
0.396584630 0.302592963 0.260341465
0.421632051 0.316002131 0.271979600
0.436812401 0.334218889 0.281087965
0.465527922 0.355091780 0.295382828
0.497659594 0.376470625 0.316002399
0.529285550 0.401012033 0.338266701
0.556483507 0.434282005 0.356610000
0.163567126 0.178241745 0.186210990
0.163314089 0.178241745 0.180265501
0.161542863 0.178241745 0.187982127
0.167362288 0.179253876 0.190259039
0.172928408 0.181024745 0.193801314
0.172422737 0.186590806 0.187223002
0.184566736 0.187096864 0.195825323
0.186717153 0.187729031 0.194307283
0.191524193 0.190006003 0.192789093
0.198482350 0.190891609 0.194939867
0.207589984 0.193928003 0.192029998
0.216698110 0.201011881 0.195066124
0.223908767 0.205059856 0.197216645
0.233269870 0.209867030 0.198482007
0.245034397 0.212903321 0.204553992
0.254142791 0.218342736 0.205819011
0.266287208 0.224921063 0.211890996
0.280834973 0.233396858 0.220493123
0.292979002 0.239468887 0.222011134
0.302340358 0.248324230 0.225300491
0.320050597 0.259456128 0.233143732
0.336242855 0.267552137 0.238203853
0.348386854 0.276533991 0.241239518
0.360783935 0.283111989 0.244781911
0.375964284 0.297533274 0.258444279
0.398355424 0.315116823 0.269196838
0.424668133 0.331308991 0.281846941
0.451866299 0.349525750 0.295762300
0.469702840 0.367741823 0.310183674
0.499051213 0.392283142 0.321821600
0.529538572 0.415812582 0.342188179
0.556863010 0.441112995 0.368501008
0.178747252 0.196457997 0.190259263
0.178747252 0.194434255 0.192283258
0.178747252 0.196457997 0.186970264
0.181277245 0.198987991 0.196584255
0.188487992 0.200505972 0.200000003
0.187096670 0.203288987 0.195825323
0.194686994 0.204300985 0.197849587
0.201897711 0.205945700 0.200379550
0.205692515 0.208981410 0.198861361
0.211764961 0.210246250 0.201897755
0.220746636 0.213156119 0.203162387
0.227830499 0.220240504 0.202150255
0.236179516 0.225173861 0.204427242
0.246173292 0.230107278 0.208601981
0.256546497 0.233143657 0.214673996
0.270335287 0.236558974 0.215938985
0.277925491 0.244149178 0.215938985
0.290322691 0.251992583 0.224794149
0.301075011 0.256673276 0.227577522
0.314484358 0.263504326 0.232384607
0.325489998 0.272612751 0.235420510
0.345350981 0.282732517 0.243263736
0.359645754 0.292852730 0.247691005
0.373687536 0.300821960 0.256420165
0.390132517 0.313725233 0.264515996
0.409487545 0.328905642 0.278305054
0.433776230 0.346995324 0.291967332
0.461100608 0.366729856 0.310183674
0.482858956 0.386970222 0.327387810
0.506388128 0.406957418 0.339026153
0.535610318 0.433775812 0.353447050
0.562934756 0.457305253 0.382669240
0.193927646 0.213535637 0.195572644
0.193927646 0.211638376 0.199367642
0.196204633 0.214041859 0.201391652
0.196457624 0.216065645 0.198102638
0.202150181 0.221758187 0.203415647
0.202909291 0.222517282 0.203415647
0.209360957 0.222517282 0.204807326
0.215180352 0.224161699 0.206831276
0.218975633 0.227956980 0.204553992
0.225047633 0.231372148 0.207210839
0.235167861 0.235547140 0.212523758
0.242251992 0.240354240 0.212396994
0.250600994 0.247185647 0.214674279
0.262239069 0.250727236 0.220240280
0.270462036 0.255534410 0.224541277
0.283238798 0.259709120 0.229221642
0.296141982 0.263503820 0.231498629
0.302846551 0.271979630 0.232763782
0.311954349 0.275521964 0.238836586
0.325489998 0.281341016 0.244908661
0.338772625 0.290449381 0.250221550
0.351928771 0.299557507 0.253257155
0.370019019 0.311701477 0.259329140
0.386211544 0.322833389 0.270461798
0.403668642 0.334218532 0.279190332
0.423529297 0.350537270 0.290828317
0.447818130 0.366729707 0.303479046
0.472106248 0.387982041 0.323466420
0.496015072 0.408096045 0.340923607
0.520809412 0.432763785 0.358380824
0.547248244 0.454901814 0.371916592
0.574319661 0.481973290 0.398987979
0.209361061 0.229728028 0.204428002
0.209614038 0.229222029 0.205440000
0.213409036 0.233776063 0.208475962
0.217204064 0.237571031 0.212271005
0.217583537 0.237950578 0.212523967
0.220619932 0.240986973 0.212523967
0.226185992 0.240733996 0.212271005
0.230613708 0.243137315 0.214927360
0.234156027 0.246679068 0.216951028
0.240228042 0.252751052 0.216951028
0.251866013 0.258317739 0.225173905
0.260215014 0.262618750 0.226438791
0.268058032 0.265907645 0.226818278
0.279949069 0.269197017 0.232637957
0.286021829 0.278304607 0.232637957
0.297154009 0.285009593 0.239342228
0.309044987 0.289816856 0.246932030
0.320809603 0.293232024 0.252498090
0.329918027 0.299304008 0.258570880
0.342062026 0.305882007 0.265148968
0.353953004 0.315496475 0.271474004
0.366856128 0.326375902 0.276533931
0.382289469 0.335736513 0.279822528
0.400632769 0.350916952 0.288930893
0.418595999 0.362049311 0.296268046
0.438203633 0.375331998 0.305755675
0.459962130 0.393801123 0.320683062
0.484250873 0.415053487 0.335863411
0.510689795 0.433396667 0.351296782
0.537508130 0.458190918 0.370778173
0.564199984 0.487286210 0.392662972
0.588488042 0.511575043 0.416951030
0.227577820 0.257052392 0.210500002
0.230613440 0.250980407 0.222644001
0.230866402 0.256926179 0.217204213
0.233396575 0.262871653 0.216318741
0.235800281 0.265274942 0.218722448
0.238835931 0.268311322 0.221631572
0.244401962 0.261227071 0.219101891
0.248829693 0.265527964 0.226565689
0.251866072 0.273497492 0.234661728
0.255408406 0.277039826 0.232131407
0.264389545 0.277292818 0.235041276
0.274130255 0.282605976 0.237318411
0.281467408 0.288045377 0.238962829
0.289057434 0.293484986 0.244781956
0.298165828 0.299556971 0.247817561
0.311448783 0.306261390 0.250221372
0.322960198 0.312333941 0.256040394
0.333333135 0.317141205 0.260847390
0.345098406 0.320556402 0.261606514
0.359772086 0.332194388 0.273244590
0.370524704 0.341176152 0.282226324
0.381277382 0.349904984 0.288678110
0.394433469 0.356988877 0.291967273
0.415685892 0.372169286 0.301074922
0.431751817 0.387349665 0.312460572
0.450347632 0.402656376 0.320556819
0.472106129 0.420872539 0.329538405
0.496394873 0.439342231 0.341935396
0.518026769 0.455281615 0.359771967
0.540544152 0.476407319 0.384439945
0.564832568 0.503731549 0.410246551
0.591524422 0.532827377 0.432131410
0.248197779 0.286780596 0.226185992
0.246426418 0.283111781 0.228715986
0.253763556 0.281340778 0.238709763
0.251992583 0.287160158 0.234914601
0.251992792 0.289437026 0.235673785
0.257052660 0.288424909 0.232637659
0.257811606 0.295762271 0.235420302
0.263883591 0.289942890 0.235673696
0.267678708 0.296014875 0.244781896
0.270714670 0.299051285 0.245034501
0.279569924 0.303984791 0.247817859
0.284630060 0.306009054 0.250854254
0.294117808 0.310562938 0.251233786
0.302719802 0.315369785 0.254775792
0.309677392 0.321441770 0.259962171
0.321188986 0.329917580 0.262997806
0.334851593 0.337507755 0.266034186
0.345477581 0.343833208 0.271220773
0.357621968 0.346868843 0.274762809
0.372549266 0.358254403 0.281087816
0.389626592 0.368500650 0.293231785
0.400252908 0.377608925 0.301833987
0.411005586 0.385199100 0.306514680
0.425426692 0.395825505 0.315622896
0.444402367 0.413282573 0.327007800
0.462492228 0.429981112 0.339152515
0.484250575 0.447691321 0.349272788
0.508538902 0.464009881 0.365211755
0.520556748 0.484376818 0.387476355
0.552435100 0.506641150 0.405692339
0.575711608 0.531561971 0.430866361
0.596964002 0.558886766 0.452118784
0.264895976 0.311068982 0.244402379
0.264895588 0.314104974 0.245920181
0.265907586 0.310183376 0.246299952
0.271220803 0.312713385 0.252878040
0.267552316 0.316002637 0.254269540
0.274762988 0.315243244 0.253890187
0.274257183 0.316255510 0.250854075
0.277546167 0.321821481 0.250853717
0.283618182 0.321062386 0.254648983
0.287412912 0.324857861 0.258443713
0.293231845 0.329285204 0.261480033
0.302846462 0.333333462 0.266034275
0.307021201 0.337508202 0.267931998
0.317900211 0.340923339 0.268185019
0.323972166 0.345730156 0.272992164
0.333333373 0.354205966 0.276660383
0.346995175 0.361796170 0.282732397
0.358507395 0.370271981 0.285136193
0.369766027 0.374193221 0.289437175
0.383175164 0.382542908 0.297026992
0.398734987 0.395825446 0.306894392
0.415939122 0.404933333 0.318026274
0.426312476 0.414041698 0.324857205
0.439848185 0.423150092 0.335357279
0.455028564 0.437571377 0.345224202
0.476027966 0.455787361 0.360151529
0.496900916 0.474003971 0.372549176
0.519165158 0.490195721 0.388741165
0.536243021 0.509171188 0.406198412
0.555471122 0.530929506 0.433017135
0.589626610 0.558253944 0.451233387
0.606072009 0.583175182 0.471853375
0.280202538 0.332447529 0.264516532
0.280708164 0.340290934 0.265654743
0.280961156 0.339911550 0.263124734
0.281593561 0.338267148 0.261353821
0.283111572 0.343200564 0.265148520
0.292472899 0.345730215 0.274256915
0.292093724 0.344338864 0.271979988
0.293991536 0.345224410 0.269449860
0.299430966 0.348386735 0.268058151
0.305502981 0.354459524 0.274130166
0.309297681 0.357621670 0.277292848
0.317140937 0.361290246 0.281087995
0.327640980 0.366097540 0.286780566
0.333966017 0.371916562 0.287286580
0.340417564 0.374952286 0.290702373
0.347628206 0.382162929 0.292473167
0.359139979 0.389120519 0.297280163
0.373054564 0.395825118 0.306388557
0.382162958 0.401897132 0.306388557
0.394686580 0.409234673 0.315369785
0.408728302 0.419101954 0.325743020
0.423276126 0.432890266 0.336243033
0.438329995 0.441872120 0.345350653
0.453004479 0.450474441 0.356989354
0.468184859 0.464769244 0.366856277
0.486906976 0.481973499 0.379506320
0.510689080 0.499683589 0.397723109
0.529032230 0.517773092 0.410120130
0.551170349 0.535989761 0.425426692
0.574193478 0.555977285 0.446299493
0.598228753 0.577735722 0.475648165
0.619481146 0.605060160 0.493864954
0.307526946 0.365844041 0.291840971
0.298418581 0.368880421 0.285768986
0.294623762 0.370272011 0.278305173
0.294370800 0.371031195 0.272232860
0.298292011 0.373561442 0.271220565
0.310436010 0.370525062 0.280328959
0.312207013 0.370525002 0.281847030
0.315243483 0.373560995 0.284630030
0.320556909 0.378621072 0.289184093
0.323719025 0.381783992 0.292346954
0.329791009 0.384946138 0.295509070
0.335610002 0.390006006 0.296521008
0.343326718 0.396963686 0.300442666
0.352182060 0.405313015 0.308539003
0.361290425 0.408349454 0.314610988
0.365338206 0.413788974 0.313219219
0.373434454 0.418595791 0.313725203
0.385199368 0.423149586 0.318532616
0.394307017 0.432258010 0.327641040
0.408981413 0.443895996 0.338773012
0.423908710 0.451739550 0.348766714
0.438077003 0.460594952 0.357115984
0.450474054 0.472232997 0.363567472
0.462618828 0.478304982 0.372675866
0.477293253 0.493738025 0.382036686
0.495256275 0.513092697 0.393927664
0.516761124 0.533080101 0.409867167
0.538013458 0.548260450 0.428083926
0.564326525 0.566350579 0.453763753
0.589373827 0.586338162 0.476281106
0.613662124 0.607590616 0.500948906
0.637697935 0.629348993 0.530297041
0.318153352 0.404807091 0.302466661
0.320176989 0.407842785 0.304744005
0.317520380 0.408728391 0.302973002
0.317647189 0.409993559 0.300822198
0.320303738 0.412650406 0.301201373
0.322833747 0.412017822 0.303098947
0.324857742 0.411511749 0.304617018
0.329791009 0.413156450 0.307906449
0.336242765 0.417331010 0.313219637
0.339278877 0.420366883 0.316255510
0.350790381 0.423403203 0.316508502
0.354838639 0.426438808 0.319544643
0.361290365 0.431751758 0.321442097
0.370145708 0.438962460 0.327008009
0.376723766 0.444529176 0.333079994
0.390639156 0.449968755 0.341555804
0.396711081 0.456040740 0.344591737
0.405692816 0.460974097 0.348260373
0.414800435 0.467931718 0.350917011
0.429474741 0.477040082 0.362808764
0.442757845 0.491081327 0.371157736
0.457052588 0.499810278 0.379380256
0.471220374 0.508412719 0.387602508
0.488678157 0.519797742 0.402023911
0.500822365 0.530423760 0.413409591
0.518279672 0.546236396 0.425806373
0.539025784 0.563693762 0.442504525
0.558000803 0.578874171 0.465275258
0.579253137 0.596710682 0.478178382
0.602782786 0.613156199 0.499557436
0.626059175 0.634155631 0.525110960
0.650348008 0.659203053 0.561163723
0.334851742 0.442378461 0.319164723
0.343580067 0.441619068 0.327893853
0.334977716 0.444402218 0.321188986
0.337507725 0.446932197 0.323718995
0.341176540 0.449841917 0.327387273
0.342694730 0.448323727 0.328905463
0.346489727 0.452118725 0.332700461
0.346489727 0.452118725 0.332700461
0.355597466 0.455661148 0.337508082
0.362049192 0.459835708 0.340543985
0.368121475 0.462871581 0.342567712
0.377988219 0.465907931 0.346489251
0.381024629 0.468943566 0.349525630
0.388362020 0.474256486 0.352814466
0.394434005 0.480328828 0.358886451
0.405819029 0.488298744 0.367362261
0.417963415 0.495888889 0.376470655
0.425679982 0.501707852 0.382922173
0.436052769 0.506514728 0.385452211
0.445034832 0.513472319 0.388994455
0.460214704 0.524478436 0.397343725
0.473371387 0.536622167 0.404427856
0.488551229 0.542821229 0.413915187
0.504996836 0.553194463 0.430866390
0.522453964 0.565338433 0.445667326
