Assets/Resources/EldamarStudio/100 Horror LUTs Pack/LUTs/cube/Malthor LUT.cube
LUT_3D_SIZE 8
DOMAIN_MIN 0.000000 0.000000 0.000000
DOMAIN_MAX 0.903226 0.903226 0.903226
0.023529001 0.054901998 0.133332998
0.052877549 0.063124545 0.129411995
0.097153999 0.079190098 0.138772994
0.149652004 0.100315996 0.154079646
0.201264992 0.130044192 0.170777991
0.258443981 0.164452985 0.188235000
0.335230976 0.213029996 0.218595698
0.429095626 0.277419806 0.255028814
0.076027997 0.084250547 0.133712545
0.085009545 0.092093542 0.141935095
0.116761096 0.108159088 0.156863004
0.160151750 0.124225445 0.166223899
0.213156193 0.149651989 0.183175460
0.270208985 0.184946001 0.192789093
0.341808826 0.226312563 0.220493242
0.438329935 0.291207969 0.266413689
0.126882091 0.144971102 0.161416993
0.144971088 0.150031552 0.168500990
0.162176087 0.157495186 0.177229896
0.199746996 0.173560739 0.185831994
0.242758080 0.192663088 0.197470084
0.298039347 0.225173831 0.216951177
0.368121564 0.267805278 0.246805787
0.459455907 0.338772714 0.291208059
0.193927646 0.213535637 0.195572644
0.202150181 0.221758187 0.203415647
0.218975633 0.227956980 0.204553992
0.250600994 0.247185647 0.214674279
0.296141982 0.263503820 0.231498629
0.338772625 0.290449381 0.250221550
0.403668642 0.334218532 0.279190332
0.496015072 0.408096045 0.340923607
0.264895976 0.311068982 0.244402379
0.267552316 0.316002637 0.254269540
0.283618182 0.321062386 0.254648983
0.307021201 0.337508202 0.267931998
0.346995175 0.361796170 0.282732397
0.398734987 0.395825446 0.306894392
0.455028564 0.437571377 0.345224202
0.536243021 0.509171188 0.406198412
0.334851742 0.442378461 0.319164723
0.341176540 0.449841917 0.327387273
0.355597466 0.455661148 0.337508082
0.381024629 0.468943566 0.349525630
0.417963415 0.495888889 0.376470655
0.460214704 0.524478436 0.397343725
0.522453964 0.565338433 0.445667326
0.594813228 0.623276412 0.510056734
0.428336263 0.611638546 0.453130841
0.451486737 0.610752821 0.458317816
0.452498466 0.616951466 0.471853465
0.476533890 0.632384598 0.488424987
0.508918464 0.646046579 0.508032799
0.549146295 0.662239015 0.527261257
0.598861277 0.695256531 0.569765508
0.667299032 0.733080268 0.618849039
0.586211562 0.774319768 0.645034552
0.598102391 0.780518472 0.653131008
0.606577635 0.781656981 0.645920277
0.626438737 0.788741589 0.660594344
0.654648721 0.799367249 0.673624277
0.693864346 0.815939248 0.701075256
0.737760723 0.829854488 0.726375878
0.774446607 0.850221395 0.755091548
0.042757548 0.063503996 0.145477548
0.064642541 0.067805447 0.145477548
0.104617544 0.087793000 0.154838547
0.150790647 0.116002284 0.173687637
0.200506181 0.143453196 0.181910187
0.260847270 0.176217467 0.197975546
0.335610539 0.219607830 0.230739832
0.434029043 0.286527634 0.271473825
0.080328546 0.092473000 0.149779007
0.097153991 0.103478998 0.161542997
0.121821642 0.113219537 0.162681565
0.166097209 0.132447913 0.173307911
0.212650359 0.156356737 0.189753100
0.275395542 0.191903800 0.207337260
0.343327016 0.233776033 0.235041291
0.433775961 0.299810082 0.277925372
0.130044103 0.145730108 0.178368449
0.142567992 0.160278544 0.182289541
0.170398563 0.159392640 0.184566632
0.204047829 0.178241640 0.193168640
0.248703644 0.199367538 0.206451654
0.296394825 0.229475170 0.227198169
0.368501008 0.275268644 0.253384054
0.462998062 0.340796888 0.304111511
0.197343275 0.219734639 0.213662356
0.209614545 0.218089730 0.216824546
0.224794179 0.233016729 0.217078000
0.249842092 0.247058734 0.222517192
0.289310694 0.267425805 0.237824455
0.338646531 0.294876665 0.254648983
0.407969654 0.341302872 0.292599738
0.496394634 0.415812880 0.346362889
0.264895976 0.315243512 0.253890187
0.268691003 0.314737171 0.259835631
0.286400825 0.327766925 0.258823723
0.309424281 0.341049850 0.273371190
0.351802170 0.362934709 0.293738186
0.393169016 0.393421739 0.315622985
0.455787569 0.439974666 0.351928920
0.538140416 0.512080967 0.420113534
0.335610747 0.439595014 0.330803007
0.344465464 0.444276005 0.335104287
0.353194088 0.452877998 0.336622477
0.379886180 0.469323099 0.355091721
0.412776649 0.495256096 0.378874332
0.455787480 0.521062911 0.402782828
0.517393887 0.564073145 0.447311789
0.595192671 0.626692116 0.513851881
0.432637721 0.605692565 0.467046082
0.442757994 0.612017989 0.466919988
0.453636825 0.618469357 0.476154089
0.478304833 0.632511139 0.491840631
0.511195421 0.649082780 0.516128838
0.555091560 0.666287541 0.538772821
0.602782845 0.700063229 0.577229559
0.674383044 0.736748576 0.626059234
0.577482283 0.774446607 0.633776128
0.592915773 0.776470423 0.645540833
0.603415608 0.780391812 0.647185445
0.626818299 0.785325885 0.659202933
0.654901803 0.799241006 0.677672565
0.693358600 0.812903523 0.701834321
0.732321143 0.824415028 0.726249099
0.788235307 0.850853741 0.762175560
0.054016192 0.068185002 0.166224003
0.076786995 0.079569645 0.166224003
0.116002090 0.096394897 0.174826086
0.156230539 0.119923994 0.179886445
0.209107995 0.148893103 0.196837097
0.271473646 0.187981993 0.217203990
0.341429293 0.232637569 0.243643284
0.440353900 0.296394736 0.293231815
0.094750091 0.102719903 0.162681654
0.115243100 0.104996994 0.170145094
0.137128189 0.119544543 0.178368449
0.180645451 0.137507647 0.190512091
0.221758381 0.167741910 0.205439806
0.282479525 0.204933554 0.226185739
0.353194207 0.246679187 0.256167173
0.444655538 0.312460274 0.299683511
0.144971102 0.155976996 0.193548083
0.159898996 0.159519449 0.190891638
0.181024998 0.175585002 0.206198901
0.214674085 0.186843738 0.212397084
0.256166995 0.210753098 0.224921092
0.313851863 0.241619438 0.247944430
0.379127085 0.284250557 0.278937310
0.469322890 0.351802915 0.330170631
0.215180352 0.227577627 0.220240280
0.217078090 0.233902529 0.232131913
0.246047094 0.248324081 0.238583431
0.272612184 0.268691093 0.252624631
0.305123448 0.286274523 0.266793519
0.351169825 0.307653368 0.279949427
0.418595910 0.354206204 0.316382170
0.500316262 0.424668103 0.364832252
0.278937280 0.323466182 0.276533902
0.285768539 0.328905463 0.279696286
0.304870069 0.343074203 0.293105900
0.327893734 0.357115388 0.302846521
0.362049371 0.379000574 0.318785280
0.402530074 0.408728570 0.339152306
0.465148449 0.454902053 0.377356261
0.542947352 0.521189153 0.440100998
0.354585737 0.460088730 0.359898746
0.356483072 0.463124692 0.364326090
0.366603374 0.471347481 0.375964463
0.390006483 0.483491510 0.380897909
0.422137976 0.505123377 0.404807180
0.466793388 0.534471750 0.429095596
0.527514100 0.573561072 0.471600175
0.602782786 0.632384598 0.530044317
0.437697470 0.617077589 0.486907274
0.452625185 0.618722379 0.496647835
0.465148449 0.631119430 0.500063539
0.484756559 0.635800242 0.514358163
0.513725281 0.654522479 0.530929685
0.555091739 0.673371375 0.552435040
0.607463717 0.701707840 0.588741541
0.674762607 0.741176069 0.640354574
0.596078336 0.773687541 0.658949673
0.603162408 0.783428252 0.657431662
0.612776637 0.781657040 0.665021956
0.630360425 0.791397750 0.674889386
0.660973907 0.800632417 0.689689755
0.695509255 0.815433502 0.710815728
0.737887323 0.829980850 0.735863388
0.779126704 0.849588811 0.767488778
0.084629998 0.084629998 0.188868001
0.101834096 0.092473000 0.189247549
0.129664645 0.107779540 0.201138645
0.177102983 0.128905639 0.207337350
0.223655835 0.155471340 0.217457637
0.276154727 0.189120635 0.236685902
0.344212651 0.234914571 0.266793340
0.444402069 0.303352326 0.324983984
0.119924091 0.115496539 0.198229089
0.131182551 0.117899731 0.188361645
0.148386732 0.126881987 0.204933643
0.185579091 0.146109641 0.211638093
0.227830380 0.169892281 0.224921003
0.285895079 0.204806924 0.242378637
0.357874662 0.253384024 0.278431356
0.453510642 0.318911880 0.329664648
0.159898907 0.159772202 0.216445088
0.169133306 0.165591642 0.223402992
0.194686636 0.179000735 0.231625631
0.224794179 0.193422005 0.234282091
0.263124377 0.215812743 0.241999090
0.315243542 0.247438177 0.269829631
0.384945929 0.297912836 0.307021022
0.471853077 0.364705503 0.358127892
0.216951281 0.229854628 0.252751648
0.221252531 0.234155387 0.257052183
0.247185543 0.249462634 0.256926090
0.271347642 0.264642268 0.265148640
0.307780057 0.286527455 0.283111811
0.357874483 0.319038540 0.307779878
0.424414992 0.367868274 0.344844937
0.509171069 0.440986603 0.406578273
0.280202538 0.327261358 0.300063193
0.288298249 0.337887526 0.307526618
0.302719742 0.346869171 0.310183287
0.333713055 0.368754268 0.331309259
0.367362171 0.396205187 0.353953242
0.417204440 0.425553739 0.375079274
0.475015819 0.472106457 0.417330682
0.552055299 0.538013756 0.475268751
0.355977118 0.455534369 0.387223125
0.361922890 0.461480111 0.392409891
0.375205368 0.477545649 0.400126457
0.397469789 0.497153372 0.414927363
0.437950581 0.523466110 0.442378372
0.475015819 0.548893273 0.469829381
0.530929446 0.587602973 0.508791685
0.605313301 0.642125547 0.561290443
0.442378253 0.620113552 0.514231265
0.450600922 0.626059294 0.517394066
0.464895666 0.636179984 0.527134895
0.491207927 0.644781947 0.541682243
0.524478376 0.660088599 0.560910881
0.567236006 0.686021566 0.585958004
0.614547789 0.711954296 0.618469536
0.685515285 0.751549602 0.664263308
0.597343385 0.782289624 0.670967758
0.603668511 0.778747499 0.672359467
0.615939260 0.787476420 0.677545905
0.635420382 0.793801248 0.688930750
0.663883388 0.802276790 0.705629468
0.699683547 0.816065788 0.723845661
0.740670264 0.833902538 0.747248411
0.789626718 0.854522526 0.776217401
0.115875989 0.099557191 0.228715986
0.129284993 0.108917996 0.231119186
0.156736091 0.121442087 0.235167891
0.194686636 0.144971192 0.244022831
0.247438371 0.170778006 0.258570164
0.296521425 0.206704468 0.280202448
0.356356382 0.249842182 0.304617256
0.449715465 0.313092947 0.363061130
0.148134187 0.127640888 0.231119379
0.156356737 0.144718364 0.233523190
0.175205439 0.145350739 0.238583446
0.213535637 0.164579093 0.251613200
0.250221640 0.186084732 0.266539991
0.306641608 0.218975350 0.281593710
0.369260013 0.261986107 0.313346088
0.457431793 0.326249152 0.370777816
0.185705274 0.183301896 0.255408078
0.193548083 0.185705289 0.263504177
0.217204183 0.193548083 0.263377994
0.241366282 0.209234998 0.270335168
0.285262287 0.231878281 0.286654174
0.329791307 0.258444071 0.305123359
0.390765399 0.305376351 0.339152396
0.474509746 0.371916652 0.394813180
0.233143643 0.246679276 0.289563566
0.239722088 0.255028635 0.290322632
0.261226803 0.262365371 0.294117749
0.287918836 0.278431445 0.307780087
0.318026185 0.301075429 0.324225157
0.367362201 0.333965838 0.352435052
0.429222077 0.374699712 0.378874272
0.509930193 0.442631274 0.441112995
0.282100171 0.343074203 0.345477372
0.300189972 0.353320390 0.346236169
0.311069191 0.361164212 0.356356561
0.338393182 0.380645186 0.375205368
0.373813987 0.402530372 0.383807361
0.423023164 0.433017194 0.411891371
0.477672368 0.475268573 0.454143167
0.558127999 0.541303158 0.509424567
0.359645993 0.474509656 0.429854661
0.365085274 0.479190290 0.431119621
0.376470625 0.488678068 0.439468473
0.403794736 0.505502760 0.452245504
0.442504644 0.533712745 0.481973708
0.489563465 0.568121016 0.513219714
0.547501266 0.605819225 0.550031662
0.617077649 0.659456015 0.600505829
0.447817743 0.625553548 0.541808665
0.460341632 0.628462851 0.544085741
0.468943536 0.637444615 0.556736350
0.492219895 0.652371645 0.568500757
0.535483718 0.675015688 0.594307244
0.576217771 0.700189531 0.621631742
0.627830505 0.724351466 0.649082541
0.697533190 0.758127630 0.689436793
0.597849369 0.779253602 0.681846797
0.600379407 0.786337793 0.685135782
0.615559816 0.790638804 0.694370508
0.640607297 0.798481762 0.708918214
0.670461953 0.808475435 0.722453773
0.704996943 0.824288368 0.739278615
0.748513281 0.836685359 0.764579415
0.799620211 0.855028391 0.794180810
0.150790736 0.125363991 0.285768479
0.164073348 0.130043998 0.290195912
0.190765351 0.147754639 0.294497102
0.228716075 0.161669627 0.303352714
0.272612363 0.190638930 0.316761553
0.326881737 0.226944983 0.340670466
0.386464030 0.269702762 0.363946736
0.466413707 0.329537958 0.419987381
0.174952745 0.150790542 0.286274552
0.183301806 0.162175998 0.297153533
0.207969740 0.170019001 0.299178004
0.241239890 0.187223092 0.311321735
0.281088084 0.205439731 0.322327554
0.333206922 0.242378339 0.342441738
0.394686997 0.281467527 0.376597255
0.471853077 0.348007828 0.427703887
0.213155985 0.206704468 0.319418073
0.221758187 0.209108278 0.313598722
0.236938819 0.215812743 0.322454184
0.265528291 0.228589460 0.328399718
0.306262076 0.255281299 0.343200713
0.355976939 0.285135984 0.368754059
0.414421260 0.326502085 0.400505841
0.489436954 0.388867646 0.452245444
0.248576626 0.273750722 0.355977118
0.254522383 0.276407391 0.352055728
0.278557748 0.282985538 0.357748181
0.304743975 0.299430728 0.366856724
0.337508172 0.321062356 0.384313554
0.386464030 0.355091631 0.410246462
0.443769634 0.396964103 0.440354317
0.519544661 0.457938254 0.497533262
0.302466780 0.367236167 0.404048175
0.312460154 0.371031284 0.407336980
0.330297321 0.380898029 0.414294541
0.352181822 0.396964103 0.425553590
0.390133202 0.419607639 0.444655150
0.427704185 0.447058469 0.465148479
0.485642076 0.490575820 0.501834154
0.561163664 0.543326795 0.551549852
0.375711471 0.495129704 0.489184469
0.372422516 0.496015221 0.491966903
0.392410100 0.505755544 0.496268362
0.411638021 0.521821797 0.504237533
0.448829949 0.545351148 0.526122689
0.493485004 0.567615449 0.555850446
0.546615958 0.608475447 0.579127252
0.616318524 0.655154705 0.623782396
0.466666758 0.635547101 0.590132833
0.463630259 0.636180043 0.593042254
0.478431463 0.644402444 0.595951617
0.501201510 0.659709156 0.609108448
0.533586323 0.679316878 0.625173986
0.587223470 0.707273841 0.657938004
0.644023001 0.736242831 0.690954983
0.716129005 0.778115094 0.733459890
0.602023721 0.777735472 0.728146613
0.602150261 0.790512443 0.709297597
0.615812659 0.791397929 0.728273392
0.634282053 0.798861563 0.729538023
0.668058157 0.811131954 0.740796566
0.710815668 0.829221785 0.769006610
0.757622063 0.846046567 0.792283356
0.814294636 0.867931664 0.821125805
0.195066288 0.157495007 0.386843562
0.203288838 0.159898713 0.387476563
0.230360478 0.174699560 0.396205008
0.265148640 0.194560632 0.402023911
0.313219398 0.223149896 0.418722451
0.364959002 0.257178724 0.440227747
0.424415261 0.304490983 0.467172563
0.487159967 0.363314241 0.503099084
0.209867001 0.181784004 0.394307286
0.216318816 0.186464101 0.389626861
0.243643284 0.195445642 0.393295109
0.276280642 0.215812549 0.408981651
0.321189106 0.239215538 0.422643542
0.371536821 0.278052211 0.448450357
0.430993021 0.321568549 0.477419287
0.496774077 0.380771786 0.515749335
0.234029084 0.233396277 0.418089867
0.246299639 0.234155372 0.415306985
0.267931819 0.245034993 0.418089658
0.298545003 0.261480182 0.428969383
0.339278877 0.285009474 0.447817534
0.388867855 0.321821570 0.472106457
0.443263561 0.365464777 0.497153431
0.507021010 0.417963237 0.533839345
0.276280642 0.304996610 0.445287555
0.283618003 0.308918625 0.442504615
0.298165649 0.317899972 0.456420273
0.326249212 0.335863292 0.466540247
0.366729975 0.357748181 0.486653924
0.411511749 0.392536014 0.504237652
0.470841259 0.434028894 0.531562567
0.536495924 0.486527801 0.579000890
0.321062565 0.413282454 0.494623542
0.329917699 0.415686458 0.504237711
0.345477372 0.422011256 0.502466559
0.367868543 0.429854661 0.513092875
0.404300958 0.449335754 0.529285431
0.446299553 0.480961204 0.547501266
0.502719581 0.517394483 0.576217711
0.568500698 0.569765925 0.616698146
0.392409980 0.531688750 0.570018530
0.396837443 0.538013518 0.567615449
0.406830847 0.544212341 0.578747630
0.432384372 0.554712057 0.589879751
0.463883609 0.574320197 0.601011992
0.494623512 0.593927741 0.612017751
0.555218458 0.626565218 0.643390298
0.627577066 0.666793227 0.679949403
0.484503299 0.663251519 0.648197532
0.485895008 0.656420112 0.651865959
0.497912586 0.669449806 0.656040549
0.518153250 0.681214571 0.670082510
0.551043570 0.694497466 0.682605505
0.599620581 0.724857986 0.702719986
0.649841785 0.747880816 0.728905797
0.717773497 0.781657517 0.760025382
0.612903476 0.791018307 0.758254051
0.618722320 0.792156756 0.762049317
0.626312494 0.798481762 0.766856074
0.645793796 0.802909374 0.770904243
0.676027775 0.817710400 0.780771613
0.715875745 0.832005262 0.797975838
0.767109513 0.854269147 0.816065609
0.826944888 0.878178596 0.862112820
0.234029159 0.196204826 0.543200433
0.238709837 0.200885832 0.542567730
0.265780985 0.219228074 0.554838598
0.300442815 0.237823963 0.557495415
0.350158185 0.268817008 0.566729784
0.403035730 0.311068803 0.582289577
0.464262933 0.368500918 0.608095884
0.528525949 0.431878597 0.630739570
0.238076970 0.230107352 0.548007309
0.248323679 0.228842512 0.551675677
0.270335108 0.235547245 0.554838598
0.305249631 0.262239128 0.560025156
0.353194177 0.295003057 0.572675288
0.415812850 0.338646531 0.596078277
0.467299342 0.390638739 0.616318762
0.541935384 0.449462175 0.646046996
0.258444279 0.278684080 0.556483150
0.272106111 0.280328810 0.561669767
0.286907017 0.290449083 0.567994714
0.325869381 0.310689151 0.576849878
0.369259924 0.338013738 0.588108957
0.422896862 0.380265713 0.606451511
0.484124184 0.430107772 0.630992949
0.549019575 0.487918884 0.653510511
0.288931161 0.355471462 0.581783235
0.297912866 0.360278189 0.593801200
0.318532437 0.373308152 0.593674958
0.352182001 0.389500290 0.605186403
0.396584392 0.418469012 0.616192341
0.446046919 0.452751279 0.629854381
0.507147610 0.496268243 0.656166852
0.573054612 0.547880590 0.677672446
0.347628176 0.468437493 0.621378958
0.353953272 0.474003732 0.626312315
0.360278279 0.468690753 0.630233824
0.388235331 0.478810728 0.630739987
0.428842515 0.505629301 0.650600612
0.481973439 0.537254810 0.664642513
0.540037811 0.575837910 0.687160075
0.606324971 0.616445184 0.704743803
0.433649451 0.593295455 0.679822743
0.440354109 0.598861337 0.681214631
0.451359719 0.604807258 0.682732522
0.464895636 0.608602047 0.689689636
0.486906886 0.613788426 0.691081762
0.528905630 0.631499231 0.710309505
0.589879692 0.663251162 0.725996256
0.655660808 0.702340543 0.748513639
0.538393199 0.711827636 0.747248113
0.535610557 0.717394233 0.752055585
0.545350671 0.716887951 0.747374833
0.570904374 0.727767169 0.755977273
0.596711099 0.740923524 0.765464842
0.639595449 0.758127570 0.780392289
0.677672386 0.770777822 0.791524351
0.748387039 0.802403092 0.823403120
0.646426558 0.814927399 0.805818558
0.654016197 0.812650144 0.809108019
0.664136529 0.816951454 0.819481432
0.683238387 0.823908865 0.820113599
0.706894636 0.831878603 0.824161828
0.746236265 0.851359665 0.842378438
0.796584368 0.872991800 0.870082200
0.847817540 0.894623637 0.893484592
