Assets/Resources/EldamarStudio/100 Horror LUTs Pack/LUTs/cube/Malthor LUT.cube
LUT_3D_SIZE 5
DOMAIN_MIN 0.000000 0.000000 0.000000
DOMAIN_MAX 0.903226 0.903226 0.903226
0.023529001 0.054901998 0.133332998
0.089563996 0.076154292 0.139531717
0.177229404 0.115749411 0.160151586
0.275648147 0.176596999 0.191271126
0.429095626 0.277419806 0.255028814
0.114737704 0.134345278 0.154585719
0.145477697 0.141555712 0.169639722
0.210879117 0.168374702 0.189879715
0.305123538 0.220366985 0.215433121
0.455660909 0.323845625 0.285135806
0.227577820 0.257052392 0.210500002
0.248829693 0.265527964 0.226565689
0.298165828 0.299556971 0.247817561
0.381277382 0.349904984 0.288678110
0.518026769 0.455281615 0.359771967
0.356104136 0.478810966 0.345477223
0.374826252 0.491587371 0.361037254
0.414674252 0.517773390 0.390259087
0.490575254 0.570019126 0.434788108
0.611258805 0.651107132 0.533080101
0.586211562 0.774319768 0.645034552
0.605059862 0.778367639 0.646173239
0.636559010 0.792030215 0.666666865
0.703984618 0.819734514 0.707147419
0.774446607 0.850221395 0.755091548
0.050980002 0.068943709 0.160152003
0.102340281 0.087286703 0.163440987
0.175585106 0.129158691 0.184060693
0.287413150 0.198102266 0.216698125
0.438582927 0.292093664 0.287413090
0.125236705 0.139278978 0.179126993
0.158254415 0.152055681 0.190259412
0.219101816 0.183428109 0.209234819
0.313599139 0.233775705 0.241619527
0.460215062 0.336622477 0.314990520
0.233396828 0.269449383 0.238962695
0.259582400 0.280581802 0.252751261
0.311575115 0.316255510 0.272359520
0.390132964 0.362049103 0.310689241
0.519038498 0.467425466 0.395193219
0.363946706 0.488677830 0.373813957
0.375458390 0.498165518 0.392157137
0.422517389 0.525996268 0.412143826
0.498418987 0.567109644 0.455661148
0.611890912 0.656167030 0.548260748
0.588235438 0.779253602 0.651106596
0.605186641 0.780897915 0.659708679
0.645414293 0.795952022 0.680075884
0.705882311 0.817204475 0.712334037
0.783681035 0.848576725 0.763693869
0.096773997 0.096773997 0.206578001
0.134724975 0.107526705 0.209867001
0.207969829 0.150410995 0.232131407
0.298924983 0.203036129 0.262238979
0.446173608 0.306134969 0.337507784
0.162808403 0.158886567 0.226185992
0.185705408 0.166730002 0.231752113
0.242251694 0.199114695 0.249082997
0.328273445 0.248197541 0.284756690
0.470335215 0.353573531 0.366983205
0.252371997 0.284503400 0.283112407
0.272991687 0.295256078 0.297153682
0.328272939 0.327640355 0.319797397
0.402150422 0.384566396 0.365970492
0.527134597 0.484756202 0.451359808
0.370398313 0.496774137 0.427451134
0.387476265 0.513092995 0.441872537
0.436179817 0.547754526 0.473877102
0.513725102 0.598734975 0.521947801
0.627577662 0.676660359 0.603415489
0.598608136 0.780265331 0.677040040
0.613029599 0.784819603 0.683870792
0.649589062 0.801138163 0.701834142
0.710815966 0.821379006 0.734218895
0.800758600 0.860720754 0.801517963
0.161923125 0.132447869 0.308032990
0.194560125 0.148766711 0.309677541
0.260341823 0.182163119 0.331941694
0.351170003 0.248197123 0.365971118
0.469702780 0.337887287 0.439721644
0.208855286 0.198102415 0.327261150
0.229854688 0.206957698 0.334092230
0.288045675 0.231498823 0.349905252
0.372422546 0.289436698 0.389500529
0.488931090 0.382036775 0.467425793
0.280202150 0.321821809 0.399999678
0.300063163 0.336495966 0.400000125
0.348513395 0.361669809 0.424541205
0.425427139 0.415053934 0.463124633
0.540923655 0.497153819 0.534724653
0.405060112 0.536622107 0.533712983
0.407083958 0.546489418 0.529158831
0.449335843 0.567362547 0.552055240
0.525869191 0.615180433 0.602403283
0.640354276 0.685515225 0.655155122
0.603541851 0.779000580 0.736748695
0.614295006 0.794939935 0.736369371
0.649335861 0.804047942 0.741302848
0.721947908 0.833523095 0.778368056
0.814800560 0.869449914 0.827703893
0.234029159 0.196204826 0.543200433
0.255660981 0.212649807 0.550284624
0.323719412 0.254522383 0.562681735
0.416951299 0.322960109 0.589120924
0.528525949 0.431878597 0.630739570
0.250094712 0.262997806 0.553193867
0.274003834 0.272485524 0.558380663
0.340670586 0.309803903 0.577735186
0.433270097 0.377482384 0.605439305
0.545477808 0.473750591 0.649209380
0.316508651 0.410246193 0.600505769
0.331562400 0.415433347 0.605692625
0.382542551 0.443516791 0.618848741
0.472232819 0.500189483 0.649209440
0.590765119 0.579632699 0.697406590
0.463757068 0.625680089 0.699556947
0.469322950 0.630613506 0.696141779
0.502719522 0.645667195 0.709297657
0.562555194 0.667172790 0.727261245
0.675142050 0.727387607 0.761669755
0.646426558 0.814927399 0.805818558
0.657305300 0.815180480 0.811385334
0.695509017 0.827324212 0.824668050
0.758886576 0.858950078 0.849462509
0.847817540 0.894623637 0.893484592
