Assets/Resources/EldamarStudio/100 Horror LUTs Pack/LUTs/cube/Max LUT.cube
LUT_3D_SIZE 5
DOMAIN_MIN 0.000000 0.000000 0.000000
DOMAIN_MAX 0.903226 0.903226 0.903226
0.031373002 0.039216001 0.035294000
0.106261700 0.052624710 0.052624710
0.231498986 0.085009828 0.081087999
0.460215122 0.132447869 0.115749255
0.766603589 0.206704661 0.180518821
0.080075711 0.125869706 0.079443701
0.133712694 0.125869706 0.077166416
0.255408078 0.157621816 0.102972701
0.474636555 0.214547977 0.134724587
0.781277478 0.287159979 0.200885803
0.168121397 0.274762809 0.130802989
0.207336977 0.279949367 0.136622414
0.319924235 0.303478807 0.150410995
0.545224547 0.378114790 0.187349707
0.803162575 0.453889817 0.275522053
0.310183227 0.559266269 0.224668115
0.358886659 0.567109287 0.242125422
0.479190528 0.578241706 0.265022397
0.639721572 0.601391435 0.300442994
0.836685658 0.656293511 0.421378791
0.579632759 0.830613434 0.528779566
0.611005723 0.838456750 0.544465601
0.677040040 0.844908595 0.556230247
0.788361907 0.852751434 0.597469568
0.907653391 0.860594749 0.651865363
0.040860288 0.040860288 0.075521708
0.104616992 0.058190994 0.086653702
0.217836812 0.099051289 0.115116984
0.446805835 0.142567843 0.166476712
0.754838586 0.208981693 0.229601562
0.088930994 0.117393695 0.100062989
0.130803406 0.129158705 0.121315695
0.243010700 0.159266114 0.140290692
0.467425704 0.208981544 0.172675401
0.769512653 0.287539512 0.245667502
0.169386402 0.266792983 0.164452702
0.215559676 0.279949814 0.163187698
0.318912059 0.305123091 0.183807403
0.536749005 0.370904386 0.221379101
0.801517904 0.459203064 0.316381931
0.317014396 0.560531378 0.271600246
0.360151947 0.555091500 0.267045796
0.478178233 0.572043121 0.294497252
0.632763982 0.596204996 0.334092379
0.833776176 0.659962237 0.441998661
0.579632759 0.830613434 0.528020144
0.606198311 0.833775938 0.549652159
0.677925289 0.838709950 0.569639266
0.787096500 0.849841893 0.607210636
0.909297764 0.863503933 0.659835279
0.058191415 0.058191415 0.158886582
0.112460412 0.073876999 0.159898713
0.211258397 0.100695997 0.176596984
0.444276065 0.133712709 0.248956084
0.750916779 0.201012209 0.325237215
0.102972701 0.132067993 0.170018986
0.138267130 0.137634695 0.171030685
0.244908124 0.160151988 0.202656418
0.470967829 0.199493825 0.253130972
0.767235994 0.290828496 0.347501189
0.167361990 0.283870816 0.224920988
0.217457116 0.290069640 0.237697691
0.336242795 0.313978791 0.260341823
0.540291250 0.374826223 0.307779938
0.795319438 0.459202796 0.400379628
0.324098706 0.555597544 0.349651963
0.367235959 0.556989133 0.361416519
0.480708241 0.568374276 0.371916533
0.640607119 0.598102510 0.415812939
0.833143651 0.661859632 0.517393947
0.570398569 0.826565623 0.593421996
0.592915416 0.830233872 0.593422055
0.667045712 0.835041225 0.611005604
0.786843777 0.845540643 0.647438288
0.907779753 0.864515781 0.697533250
0.087286867 0.087286867 0.301328123
0.154712126 0.098039001 0.301581413
0.262997955 0.114104711 0.307526797
0.453384250 0.138266861 0.360152125
0.760784566 0.211511612 0.467046231
0.116381839 0.155977115 0.308791816
0.173687294 0.163440838 0.309677124
0.283238411 0.178494409 0.323592514
0.485136122 0.207336828 0.386970580
0.770777881 0.302719772 0.479569614
0.179127410 0.308412522 0.361543506
0.238330111 0.317900240 0.373561233
0.369260073 0.344085813 0.395192802
0.564832509 0.389879793 0.453637123
0.791271448 0.480834782 0.535483479
0.350284398 0.570019126 0.480835229
0.389500111 0.578114867 0.488298535
0.498671949 0.589627147 0.513852119
0.644529104 0.614168286 0.537761271
0.835040987 0.663504124 0.609614253
0.602403581 0.827324450 0.688298643
0.619101882 0.834155679 0.686906576
0.670461774 0.840354323 0.693105519
0.771789670 0.852498412 0.710815907
0.905376434 0.870461762 0.758507311
0.112460151 0.098165818 0.632131577
0.224794507 0.095382847 0.631751657
0.399747223 0.103984572 0.624920964
0.604174912 0.134851247 0.637697697
0.820240438 0.246299759 0.660720587
0.088930994 0.193295687 0.629348516
0.218722701 0.193295687 0.628842413
0.408222616 0.203794837 0.635041237
0.611764669 0.235926673 0.637571156
0.822896600 0.332194626 0.671094596
0.085135981 0.382162780 0.644402206
0.225553408 0.381403774 0.642377973
0.425173789 0.395825356 0.650980234
0.627071500 0.428210080 0.662745178
0.831246078 0.502466738 0.701961040
0.346995294 0.631625354 0.696394920
0.391777396 0.626818240 0.698798418
0.506894231 0.633523107 0.700569212
0.669576287 0.645920336 0.722074807
0.847185433 0.700821936 0.750917077
0.612397373 0.847564638 0.775458813
0.639089346 0.846552670 0.792030454
0.699303985 0.851486564 0.796710551
0.800252795 0.864136577 0.823402762
0.908918619 0.892093599 0.868690431
