Assets/Resources/EldamarStudio/100 Horror LUTs Pack/LUTs/cube/Max LUT.cube
LUT_3D_SIZE 8
DOMAIN_MIN 0.000000 0.000000 0.000000
DOMAIN_MAX 0.903226 0.903226 0.903226
0.031373002 0.039216001 0.035294000
0.064262994 0.039974999 0.039974999
0.120682999 0.054901998 0.055661097
0.192283630 0.070082352 0.068944000
0.282732397 0.094750188 0.090195999
0.418722451 0.125363991 0.111701258
0.588741541 0.157495007 0.137887001
0.766603589 0.206704661 0.180518821
0.054901998 0.076786995 0.046679452
0.072485551 0.083112001 0.055281546
0.126122996 0.088931441 0.061100900
0.196963727 0.101834089 0.079569645
0.286274642 0.124604799 0.096394800
0.420872718 0.156230360 0.117899932
0.588994086 0.190765545 0.142947555
0.766476750 0.237065062 0.183554515
0.086148098 0.141050100 0.087033898
0.103352092 0.135104552 0.077039637
0.150411099 0.143326998 0.088551894
0.215812728 0.161796451 0.096394904
0.307653278 0.186337903 0.113472186
0.440733582 0.221631989 0.128905728
0.614547670 0.262365639 0.157368705
0.785072744 0.306135088 0.208475798
0.125616640 0.218595996 0.117647000
0.153953448 0.218089640 0.120683096
0.188361645 0.230234176 0.121821545
0.242757991 0.239974633 0.123339638
0.348639995 0.275648177 0.140164196
0.479443133 0.309297979 0.160531372
0.634155512 0.353194267 0.183933988
0.789626956 0.399620622 0.241998792
0.191018179 0.347628385 0.147881180
0.216571748 0.351169914 0.149525374
0.252878189 0.350664377 0.153573811
0.311827838 0.359645724 0.159646183
0.401644349 0.382922381 0.176470995
0.536748707 0.426312834 0.199493930
0.675142288 0.465907753 0.238583460
0.803288937 0.509044945 0.303478628
0.283870727 0.518785715 0.205439731
0.305755734 0.520303905 0.209108189
0.342947453 0.521315575 0.212523729
0.417710215 0.532447457 0.226059377
0.499051124 0.541935265 0.245667472
0.595192432 0.557874739 0.268058181
0.716888011 0.590891778 0.315875977
0.832384706 0.626944780 0.396584541
0.413282841 0.685135841 0.322707534
0.429728270 0.686147988 0.332194835
0.462492049 0.690069556 0.338646561
0.521442294 0.696268260 0.359645545
0.592662692 0.697153449 0.376850039
0.672991991 0.710942745 0.400000036
0.762934804 0.715876281 0.433523268
0.855534315 0.738899052 0.496268362
0.579632759 0.830613434 0.528779566
0.598734617 0.839342058 0.532700598
0.615306616 0.839721620 0.544971347
0.651612639 0.840607226 0.549146116
0.710183263 0.847438455 0.566603541
0.771410644 0.850727499 0.592662752
0.840987086 0.860215187 0.616698086
0.907653391 0.860594749 0.651865363
0.035673548 0.039595451 0.055281546
0.063883543 0.040354449 0.056040544
0.115116991 0.063883543 0.072865099
0.175837740 0.085009545 0.092473090
0.267805398 0.108917996 0.108918183
0.399873465 0.135483801 0.131055996
0.571663260 0.165717542 0.159772292
0.762681603 0.207084104 0.203541964
0.063503996 0.072865091 0.060721450
0.083871000 0.080328546 0.065401539
0.125364006 0.092852540 0.085009545
0.182922557 0.106135540 0.090069890
0.270082206 0.129159003 0.116761185
0.410246670 0.160657823 0.141935095
0.575205684 0.193042248 0.158507258
0.753194213 0.236053199 0.200379670
0.086527549 0.133586556 0.093611546
0.105376445 0.137507647 0.093611546
0.146109641 0.135863543 0.104996994
0.202783182 0.159013197 0.117140636
0.294370294 0.184820086 0.126881897
0.434408665 0.218089640 0.149145931
0.604680598 0.259582818 0.171916544
0.771536887 0.305755645 0.223023057
0.134345546 0.211764738 0.120935731
0.154332995 0.215306997 0.120935731
0.182795629 0.219987288 0.130803093
0.242251724 0.233270273 0.135863543
0.339658380 0.266919464 0.155471548
0.466287374 0.304996639 0.169259891
0.625047386 0.349905282 0.202403545
0.781783402 0.397596538 0.253383845
0.192663193 0.348892927 0.154712349
0.214547992 0.344085932 0.160151541
0.250094712 0.352308452 0.173560828
0.315496475 0.359771907 0.178241640
0.396078557 0.378115386 0.180898190
0.524984121 0.419987112 0.213789001
0.666034043 0.462365746 0.249589175
0.805945337 0.509424508 0.317140698
0.283238292 0.508159280 0.218343183
0.299304038 0.510815740 0.216698468
0.344085902 0.518279493 0.224161923
0.411005467 0.524098814 0.236432284
0.495255917 0.537887275 0.253510386
0.587602913 0.550411284 0.279316992
0.709171057 0.584946513 0.331182897
0.828715801 0.626185894 0.400885165
0.411764562 0.677292824 0.333586395
0.423276365 0.677419305 0.341302812
0.458317637 0.677798748 0.344085664
0.513472557 0.684376597 0.363567442
0.585705221 0.691208124 0.380771846
0.672358990 0.699810326 0.404680610
0.753194094 0.713978589 0.434661806
0.850347996 0.733080268 0.500948787
0.575458348 0.832510591 0.525489807
0.591904044 0.827704072 0.531941891
0.605945230 0.829980791 0.537002027
0.649462402 0.832764149 0.551802278
0.701834142 0.838709831 0.564705968
0.770904183 0.845287919 0.591777146
0.835546911 0.851739347 0.616824687
0.910056829 0.860594749 0.654269338
0.044654999 0.044654999 0.085389003
0.064642541 0.051739097 0.088931449
0.117520094 0.064262994 0.101075001
0.179759532 0.085009553 0.116761185
0.277293175 0.108918183 0.139531896
0.402277380 0.131688997 0.164958835
0.573687553 0.165211901 0.197469890
0.754838586 0.209487826 0.240986630
0.063883543 0.079569645 0.092093550
0.084250547 0.087413348 0.106261544
0.124605000 0.099936545 0.108918190
0.190006539 0.112460449 0.121441998
0.277672529 0.136748642 0.141049981
0.409866899 0.164958656 0.163314551
0.578494430 0.194180995 0.199241027
0.758633733 0.240354061 0.240860537
0.098798104 0.137128100 0.114484094
0.122327909 0.144212112 0.121442102
0.152055994 0.149652004 0.138773009
0.209108084 0.162935093 0.143832639
0.303858370 0.191144913 0.161416993
0.441619366 0.218089744 0.178494364
0.602023780 0.258444071 0.209108204
0.772295713 0.311321914 0.260594726
0.139784738 0.223276287 0.153194442
0.164199650 0.226818532 0.151170000
0.195066184 0.233775720 0.162935093
0.253763199 0.242378548 0.168880537
0.344844937 0.268943638 0.177735284
0.469955802 0.309677452 0.202024087
0.626818478 0.352308482 0.238456830
0.784819603 0.401517957 0.297027111
0.204427287 0.346995354 0.185578987
0.215559840 0.352814734 0.189500183
0.259203196 0.353067338 0.194939986
0.317520738 0.360530913 0.203668192
0.400126338 0.381277442 0.214547992
0.529411674 0.422011286 0.245035082
0.670461714 0.464389533 0.280075997
0.807210743 0.514484167 0.355470985
0.293231726 0.516508639 0.255913973
0.316382200 0.518785834 0.257052630
0.356609792 0.519924402 0.263757169
0.418216288 0.528146803 0.274256915
0.496900916 0.538772702 0.288551658
0.598355412 0.552435160 0.310309738
0.711322129 0.588867545 0.358254343
0.829728127 0.632890403 0.435926557
0.414041579 0.682858586 0.367615372
0.430233985 0.688551545 0.373813659
0.467299461 0.688551545 0.384060651
0.524983943 0.689689875 0.399493933
0.592789292 0.693232059 0.412270725
0.669196725 0.703858018 0.431499004
0.757621765 0.715243280 0.465022355
0.858570695 0.738646507 0.526375771
0.583427906 0.833649576 0.539405644
0.595825553 0.833016753 0.555724025
0.619354665 0.837064743 0.561796427
0.658190846 0.838709414 0.574952185
0.708159029 0.844149411 0.584186971
0.770651579 0.846805692 0.606198549
0.837824047 0.856166840 0.638456702
0.909550726 0.865274847 0.664895415
0.054901998 0.052118644 0.129538640
0.070082545 0.057558544 0.128399998
0.117899641 0.072485544 0.130803093
0.174319640 0.088551998 0.148513645
0.277672619 0.110056639 0.177355722
0.398734897 0.127387732 0.203162640
0.570271850 0.144086286 0.237191573
0.752561629 0.205439806 0.285262614
0.081973456 0.090069897 0.117646828
0.094750091 0.092852637 0.132068455
0.123719089 0.101075090 0.132321283
0.181657180 0.114358082 0.155471444
0.274256736 0.134345353 0.177862003
0.405439436 0.151170090 0.203921720
0.579127133 0.179759532 0.241492912
0.749145746 0.233902544 0.293105632
0.109044999 0.137761101 0.158254191
0.114990279 0.144086093 0.155344740
0.151802287 0.161037460 0.162428722
0.213282630 0.168374091 0.173434541
0.307273835 0.185579002 0.194560438
0.434029013 0.216571659 0.219101876
0.601897597 0.255660951 0.262365282
0.770271957 0.307147235 0.325237006
0.144085988 0.225932628 0.189500272
0.163694084 0.227071285 0.195445731
0.201265082 0.232890725 0.199999824
0.248450637 0.243896633 0.202403635
0.347881019 0.270461649 0.220746279
0.471473992 0.301707715 0.252624720
0.623529434 0.349904984 0.293864638
0.775964618 0.402277052 0.346869111
0.202909201 0.341303289 0.233143553
0.219102189 0.351549447 0.237318277
0.266666710 0.353446901 0.238836184
0.318911821 0.359266162 0.245414630
0.409740806 0.380392373 0.259455830
0.531562209 0.422011375 0.289563566
0.665654421 0.465907753 0.334977746
0.800758958 0.515622795 0.395698726
0.295256138 0.510056853 0.301581115
0.313472629 0.511574984 0.301960558
0.356230289 0.516255617 0.306388557
0.413662106 0.526881456 0.317773372
0.499177724 0.533586085 0.329032123
0.593548477 0.554332435 0.359139472
0.710436583 0.588488102 0.405692726
0.824541390 0.633902490 0.476154268
0.414421201 0.679443181 0.411132187
0.432384521 0.679443181 0.413282990
0.459329665 0.677672207 0.414927155
0.519797564 0.685641885 0.430233836
0.590765119 0.690448999 0.440860063
0.669576347 0.701455057 0.465022296
0.755091548 0.715369940 0.498038888
0.851739407 0.738266766 0.552814305
0.576596737 0.831878603 0.576470256
0.590259492 0.832384586 0.572675467
0.610879004 0.831372440 0.575332224
0.649335980 0.835420728 0.591903925
0.699051380 0.840986729 0.604554057
0.765970647 0.846805692 0.623023510
0.836179793 0.855028152 0.649082959
0.910183430 0.866033971 0.681973159
0.065780997 0.061859995 0.187982187
0.089690447 0.072485641 0.185199440
0.128399894 0.083112098 0.188867986
0.185704991 0.096774444 0.192283630
0.265528202 0.120682999 0.219355196
0.408602268 0.128399983 0.266540110
0.578367829 0.146489486 0.312460244
0.757495463 0.204427600 0.365970582
0.084629998 0.097026989 0.185705200
0.103352189 0.107273899 0.183175176
0.137381449 0.113725193 0.187602639
0.190386102 0.122201182 0.198229104
0.270461828 0.135863528 0.224668175
0.409361362 0.155091792 0.267298907
0.584566891 0.175837934 0.316634893
0.752561569 0.233396694 0.368880183
0.119165003 0.155091986 0.199747190
0.131941736 0.160658017 0.202150181
0.167615086 0.162175894 0.214800805
0.221252546 0.170778006 0.219734445
0.309297979 0.191904008 0.245035172
0.438330382 0.215053648 0.281467438
0.607590497 0.248956174 0.322454274
0.766729593 0.313852042 0.386717170
0.148766190 0.227956980 0.233775839
0.170398459 0.233396471 0.244402170
0.216192201 0.250221640 0.260467917
0.284250289 0.265907735 0.270588636
0.367109358 0.275901407 0.280328989
0.482099652 0.310436606 0.311954618
0.633017063 0.351549566 0.354079813
0.781657100 0.404300988 0.412776709
0.209993988 0.356989175 0.292726368
0.225047544 0.362175703 0.295635641
0.272486001 0.369639188 0.303858161
0.336242825 0.378620923 0.311321735
0.422770560 0.393801361 0.320177376
0.536748707 0.424794644 0.351802826
0.671220839 0.465148658 0.391397744
0.802277148 0.515243292 0.456420153
0.297406465 0.519165277 0.365844011
0.324477911 0.518406212 0.369259626
0.356609613 0.521442354 0.371790141
0.421252280 0.531435847 0.375332028
0.501455188 0.542314708 0.393042356
0.600379527 0.554332614 0.416445255
0.711954474 0.595572054 0.465274990
0.831625819 0.632890344 0.524351716
0.422770560 0.679063618 0.473497719
0.435167581 0.680708349 0.471726835
0.464263260 0.683997333 0.479190350
0.515370190 0.687033534 0.483364820
0.586717248 0.691714287 0.500442684
0.669702470 0.701834559 0.512713432
0.757495284 0.716635168 0.544971347
0.854648650 0.743832767 0.592156768
0.565211594 0.827956617 0.612903118
0.579506278 0.831625581 0.614674151
0.600505769 0.832890451 0.613662601
0.645287693 0.839215636 0.625173926
0.696900785 0.842251658 0.638962865
0.764832258 0.848197401 0.656419814
0.831751645 0.857431829 0.680202425
0.904996634 0.868690789 0.712966561
0.084250741 0.082226478 0.265907466
0.108791798 0.085009739 0.264769197
0.155217916 0.096015260 0.269955456
0.216445535 0.104996897 0.273877472
0.283744544 0.119165190 0.285388917
0.404807210 0.135230735 0.324731469
0.579126835 0.155471265 0.391018331
0.756736338 0.210246518 0.446805626
0.104996800 0.111068986 0.256546259
0.124225251 0.117646806 0.260088742
0.165591449 0.122327805 0.264010191
0.220619991 0.132068455 0.270588458
0.284756452 0.143832743 0.279822916
0.411511451 0.157495007 0.329158902
0.586337745 0.179253563 0.385452002
0.754459023 0.238076866 0.446679085
0.122707263 0.165591449 0.288804471
0.148766473 0.175078839 0.295256197
0.185579091 0.174066842 0.285388976
0.240227357 0.184440449 0.292599469
0.317773372 0.194686741 0.307527065
0.448450536 0.215686455 0.349778444
0.612650216 0.250474185 0.408602268
0.765464902 0.320683241 0.464389682
0.157115743 0.246426269 0.305882365
0.179759622 0.250474274 0.316129088
0.224667981 0.256420046 0.321442276
0.290069520 0.266160458 0.327893466
0.377735615 0.286527455 0.347375333
0.492979348 0.311448276 0.386844009
0.638583243 0.355977267 0.431625813
0.780392230 0.420493305 0.493738115
0.211385190 0.362049133 0.363566995
0.230613545 0.370145351 0.360025167
0.284756452 0.381277382 0.376470566
0.362555146 0.403668731 0.402024090
0.451360106 0.419607639 0.417457074
0.557874918 0.442378372 0.435547173
0.673118055 0.476280928 0.475774735
0.798735082 0.525743008 0.534598291
0.312839985 0.524478436 0.440354198
0.325616270 0.531055987 0.443769634
0.379633069 0.537128329 0.455914199
0.437444448 0.546869099 0.462492347
0.516002715 0.553573608 0.479063660
0.603036404 0.569639206 0.497280478
0.711195290 0.595192790 0.528020203
0.829728067 0.634155750 0.578747511
0.444275796 0.678558052 0.533839226
0.456925839 0.680834830 0.540923238
0.485768527 0.684882879 0.544339120
0.526502132 0.691587269 0.552182138
0.589753151 0.698671758 0.562934756
0.665781200 0.704616964 0.574573100
0.758633792 0.719417810 0.600632310
0.854648709 0.750031412 0.645540476
0.590259314 0.826565623 0.666540265
0.598102152 0.832257867 0.662745178
0.616571486 0.833143771 0.671220839
0.643010795 0.835040987 0.669196606
0.687412798 0.844908059 0.669829190
0.753573358 0.849968612 0.692346334
0.831878245 0.855028152 0.717773557
0.906388581 0.869702637 0.747881234
0.098039001 0.098039001 0.420113534
0.133839279 0.096394710 0.418722272
0.199620292 0.101201713 0.420240462
0.279822916 0.107020639 0.425173908
0.363693535 0.113724999 0.426312268
0.455913812 0.129032448 0.439342082
0.607336879 0.149652004 0.482858568
0.766224027 0.218722612 0.529538393
0.109044731 0.123086996 0.404933542
0.135610089 0.130550444 0.421378821
0.198861197 0.131309450 0.414674371
0.278937638 0.136369184 0.420872748
0.366097540 0.143832639 0.426438540
0.463251233 0.162934795 0.441113263
0.609614134 0.183175087 0.485009253
0.756483138 0.248323798 0.533839405
0.110815912 0.187223285 0.423023641
0.149145842 0.192409649 0.422643781
0.215306893 0.193422005 0.433017194
0.291840643 0.198987901 0.434535205
0.382542640 0.209235102 0.442631423
0.488678098 0.219228387 0.453889847
0.636432528 0.260594457 0.504870594
0.772675335 0.324983895 0.543959498
0.137128368 0.277039975 0.447438180
0.167362362 0.276407272 0.443263888
0.230234087 0.281467348 0.451359868
0.314610988 0.285388947 0.454902172
0.413915545 0.301328301 0.467552066
0.518912137 0.318152994 0.483238190
0.655534208 0.365085214 0.522707283
0.781657100 0.426818281 0.568374217
0.201644719 0.398355365 0.476407468
0.224035278 0.406704843 0.489184380
0.281214207 0.407843262 0.489816755
0.358001173 0.416571647 0.499430716
0.460341662 0.426692367 0.513598979
0.572043121 0.444655180 0.532700777
0.692346454 0.487033367 0.563061535
0.798102379 0.538013875 0.607590318
0.301708013 0.546616197 0.542188764
0.322959810 0.547121763 0.543326735
0.366603464 0.555597782 0.545351028
0.440986454 0.566602945 0.562555194
0.536495388 0.586210966 0.585452080
0.630613446 0.598481834 0.601517975
0.725869715 0.616318524 0.620366871
0.827324390 0.653889656 0.662997961
0.447564542 0.683871269 0.603794992
0.459076524 0.691334665 0.608855069
0.488425076 0.686907053 0.612397432
0.539911211 0.701201558 0.627324283
0.604047954 0.708032846 0.643769622
0.676154435 0.717141032 0.649082839
0.756103516 0.730929852 0.668184817
0.855281770 0.753067613 0.707273602
0.599999726 0.829854488 0.709804237
0.608728886 0.837571084 0.719038129
0.635294080 0.832131386 0.720935941
0.671347022 0.838456750 0.735230684
0.710942507 0.846426249 0.746868849
0.756230354 0.852624893 0.753700256
0.822138071 0.861226737 0.762176037
0.911701560 0.872359455 0.794939876
0.112460151 0.098165818 0.632131577
0.164453000 0.096774153 0.632131577
0.249335825 0.097659744 0.633522928
0.350158095 0.101834185 0.625300348
0.457305193 0.107400186 0.630866408
0.573561072 0.128020138 0.638203502
0.695382714 0.159645796 0.648323774
0.820240438 0.246299759 0.660720587
0.100948557 0.138519689 0.622770250
0.161416709 0.136622548 0.628462970
0.246299639 0.137001991 0.620746136
0.349778533 0.141809002 0.625047445
0.458190918 0.151170194 0.632131517
0.570904255 0.169766068 0.634534836
0.692473054 0.200759247 0.643137157
0.819860876 0.276533604 0.666540325
0.085135929 0.210752904 0.626312137
0.147248268 0.214674100 0.635926425
0.242757991 0.215306997 0.630360663
0.352435201 0.221631795 0.632258415
0.462745160 0.232764006 0.634788394
0.583934247 0.252625078 0.639848232
0.697786331 0.281720400 0.655913711
0.822896600 0.353447020 0.669323444
0.070335366 0.314611077 0.634914637
0.141935199 0.316888183 0.638583243
0.246932328 0.318406254 0.636432469
0.359139442 0.328905821 0.639468610
0.472991765 0.340796918 0.640354395
0.588867784 0.358760089 0.646299779
0.706641078 0.383301467 0.658949792
0.824920952 0.447059035 0.686527550
0.166224018 0.448323816 0.646805763
0.198861301 0.450853825 0.663883567
0.269829273 0.448323816 0.657431722
0.377356052 0.452498347 0.660341144
0.493991166 0.462618560 0.661353827
0.602656424 0.479063839 0.672738910
0.720429957 0.501960874 0.679949164
0.832257748 0.555091798 0.707779765
0.313598871 0.595698655 0.690069318
0.331309289 0.594939530 0.683617830
0.373307973 0.593927741 0.682605565
0.442378372 0.597469509 0.688930690
0.530929446 0.600126565 0.696015120
0.630107701 0.610499680 0.708159328
0.743706346 0.628462970 0.720429897
0.844402552 0.670208633 0.743326664
0.436053365 0.731688976 0.724857867
0.453384101 0.728779316 0.716255605
0.487539381 0.727008224 0.723339558
0.540290773 0.732068539 0.729032397
0.607336998 0.733712792 0.741935372
0.692473173 0.741808653 0.752435148
0.776723385 0.753194094 0.771157026
0.866793036 0.782036960 0.793421924
0.612397373 0.847564638 0.775458813
0.623149872 0.843137443 0.790638745
0.643390477 0.848070860 0.780898213
0.674383461 0.853004336 0.792536438
0.721694946 0.854269266 0.806198418
0.782542348 0.861859620 0.816065609
0.839341879 0.874256670 0.840100884
0.908918619 0.892093599 0.868690431
