Assets/Resources/EldamarStudio/100 Horror LUTs Pack/LUTs/cube/Max LUT.cube
DOMAIN_MIN 0 0 0
DOMAIN_MAX 1 1 1
LUT_3D_SIZE 32
0.031373002 0.039216001 0.035294000
0.034408614 0.036179613 0.035294000
0.041745774 0.039595000 0.035294000
0.052118998 0.041872162 0.036559161
0.064262994 0.039974999 0.039974999
0.076407000 0.046046998 0.046046998
0.091081321 0.049588677 0.049588677
0.106261700 0.052624710 0.052624710
0.120682999 0.054901998 0.055661097
0.132827014 0.054902002 0.058697488
0.150790751 0.060720995 0.061733127
0.171031252 0.064769253 0.064769253
0.192283630 0.070082352 0.068944000
0.213283002 0.078937069 0.075015999
0.231498986 0.085009828 0.081087999
0.256925792 0.088678189 0.087159999
0.282732397 0.094750188 0.090195999
0.308918536 0.103858411 0.091460995
0.342315018 0.112966038 0.097533017
0.378494740 0.119291715 0.106388360
0.418722451 0.125363991 0.111701258
0.460215122 0.132447869 0.115749255
0.499936491 0.141555503 0.121948473
0.545477748 0.150663912 0.131056100
0.588741541 0.157495007 0.137887001
0.634029269 0.166350335 0.145350665
0.681594133 0.179000929 0.155471072
0.724098861 0.194180533 0.170651436
0.766603589 0.206704661 0.180518821
0.810879111 0.220620185 0.196711168
0.856419802 0.236685976 0.217963591
0.901961029 0.254902005 0.239216000
0.031373002 0.039216001 0.023150001
0.028336614 0.042251613 0.038330387
0.046426550 0.041366000 0.042631388
0.059962224 0.045667000 0.041872390
0.069575995 0.049082711 0.039974999
0.076407000 0.055155385 0.046046998
0.093611643 0.053637065 0.052118998
0.109298088 0.058950089 0.054016385
0.124478288 0.063251287 0.055661097
0.138899013 0.060973998 0.058697488
0.159771860 0.063883871 0.061733127
0.176090866 0.071853124 0.068817250
0.191903904 0.076913260 0.072738998
0.207970038 0.081973389 0.075269029
0.234535381 0.088045441 0.084124379
0.257558376 0.094117604 0.085389383
0.281214178 0.099303991 0.088678189
0.306514710 0.107526749 0.092093572
0.342315018 0.119038813 0.100569405
0.384060740 0.125363782 0.112207398
0.420999467 0.131435990 0.117773734
0.459203243 0.137507990 0.121821769
0.496900856 0.144718379 0.127893984
0.542441368 0.156735912 0.134092495
0.590259135 0.165844277 0.143200681
0.635673583 0.175458372 0.150031760
0.681594133 0.187602744 0.157495335
0.724098861 0.200253308 0.167615041
0.766603589 0.212776750 0.182795405
0.810879111 0.223150194 0.194434032
0.857305169 0.237571582 0.214547962
0.904996634 0.257938385 0.242251620
0.033523228 0.047817998 0.030360773
0.039089385 0.048703387 0.036938611
0.046805773 0.051739547 0.045667227
0.062239386 0.053004384 0.046679225
0.070335314 0.057811320 0.042504773
0.081720546 0.062112872 0.050347999
0.095761865 0.064895675 0.049968224
0.107400224 0.063503996 0.054395933
0.123339638 0.069576323 0.055661097
0.142694309 0.069323294 0.058697492
0.159392640 0.074256867 0.066034131
0.176597014 0.077293254 0.067046002
0.195192769 0.085009553 0.076913513
0.211891294 0.089310773 0.080961771
0.233523399 0.095382772 0.084377408
0.258443981 0.101454765 0.090576001
0.285768390 0.107526772 0.093612000
0.311448306 0.112966351 0.097280189
0.346363008 0.120556951 0.103352197
0.384060740 0.131436005 0.110942237
0.422770470 0.137507990 0.119291708
0.458191127 0.145603999 0.123592995
0.494117707 0.154079512 0.129664987
0.543706715 0.164199784 0.135737002
0.587223291 0.171916276 0.141935512
0.635800004 0.182415977 0.152435213
0.681594133 0.194560125 0.160531282
0.724098861 0.206704885 0.169639304
0.766603589 0.218848974 0.181909800
0.810879111 0.236306161 0.205945358
0.856419802 0.248703584 0.220366970
0.903731763 0.267425984 0.243137002
0.041619159 0.061227158 0.041745998
0.045667227 0.062491998 0.044781614
0.056926157 0.063377611 0.047437999
0.065274999 0.066413999 0.052245162
0.070588388 0.068690613 0.046932161
0.087539770 0.069955774 0.053383932
0.098924674 0.074257001 0.056166835
0.111701317 0.075648323 0.053889871
0.120809317 0.077166319 0.058444060
0.144085988 0.080708645 0.062492326
0.160910711 0.084124163 0.067552127
0.176091090 0.088172100 0.073118001
0.194687113 0.092346832 0.074256644
0.218722194 0.098165862 0.085262865
0.237950817 0.103225999 0.086274996
0.259709150 0.110563159 0.091081992
0.283238381 0.115369998 0.095888838
0.315496504 0.122706987 0.102593407
0.350158036 0.127640814 0.106894195
0.386337757 0.136496171 0.111448005
0.421505302 0.146109998 0.117520481
0.458950222 0.153194129 0.123592995
0.493358612 0.164958671 0.129664987
0.542694569 0.174067065 0.135737002
0.590006351 0.180898160 0.141809002
0.634029269 0.189753145 0.150663987
0.682606101 0.201391220 0.162302062
0.726628840 0.212776884 0.171410441
0.765338421 0.227450982 0.183174968
0.810879111 0.242378160 0.202150196
0.857305169 0.261859596 0.233396620
0.903225839 0.277040005 0.248197317
0.054901998 0.076786995 0.046679452
0.053763162 0.078684159 0.051233161
0.060720999 0.079569548 0.052118547
0.068690836 0.080455162 0.052245162
0.072485551 0.083112001 0.055281546
0.093737938 0.080075614 0.055281546
0.103857994 0.085009642 0.060341544
0.113219410 0.087792993 0.062239163
0.126122996 0.088931441 0.061100900
0.144339010 0.095003448 0.070208520
0.162175551 0.095635995 0.070967548
0.178747252 0.098039284 0.074635997
0.196963727 0.101834089 0.079569645
0.220999479 0.107653059 0.082606032
0.242251858 0.110689409 0.085642412
0.264642805 0.118532792 0.092220441
0.286274642 0.124604799 0.096394800
0.309804082 0.129158527 0.099936567
0.349272579 0.141302571 0.109044969
0.385958195 0.148640171 0.113345742
0.420872718 0.156230360 0.117899932
0.456293374 0.164958686 0.123213448
0.496141970 0.174067020 0.129411951
0.541935503 0.183175355 0.135737002
0.588994086 0.190765545 0.142947555
0.636558950 0.198861539 0.150663987
0.681088090 0.211258605 0.162681609
0.729664803 0.220366985 0.171789989
0.766476750 0.237065062 0.183554515
0.807969332 0.253130704 0.200252712
0.855787158 0.268690586 0.223149687
0.904363990 0.283870995 0.256546885
0.054901998 0.095002994 0.043643065
0.067046002 0.088930994 0.058823451
0.072358936 0.088677935 0.061226934
0.076913066 0.088677935 0.058696933
0.078557551 0.089184001 0.055281546
0.087665930 0.089184001 0.058317933
0.106388003 0.096268259 0.063377932
0.119291410 0.099936999 0.067805223
0.131435990 0.100695901 0.069070064
0.144339010 0.104111061 0.070208520
0.159645870 0.107273929 0.073497869
0.177355930 0.111827992 0.076027676
0.196204633 0.116255574 0.079569645
0.217963085 0.119797841 0.082606032
0.239215463 0.122833446 0.085642412
0.267678648 0.130676791 0.098292179
0.293484986 0.136748806 0.104364060
0.317899793 0.141049564 0.105502576
0.346236944 0.150410950 0.109044977
0.382921964 0.162554935 0.118153363
0.419354528 0.169892535 0.122454122
0.456293374 0.176470861 0.124984063
0.496141970 0.183175400 0.126375556
0.544718802 0.192283034 0.135483965
0.588235497 0.203668639 0.148640275
0.634535193 0.212017924 0.156736255
0.680582106 0.220619991 0.162808135
0.717520833 0.235547379 0.174826384
0.763440728 0.249968737 0.186590910
0.805186331 0.263883829 0.200506121
0.848703206 0.278304905 0.217583910
0.892220020 0.296014994 0.238330126
0.070081994 0.110689320 0.063377641
0.069576323 0.107147001 0.063377388
0.079570092 0.107526772 0.069955774
0.087286487 0.105376318 0.067805320
0.091840319 0.103225768 0.062871769
0.098797932 0.105375998 0.065907612
0.112966314 0.107906319 0.066413678
0.131182730 0.113725707 0.074130386
0.145098329 0.115370221 0.078937419
0.157242343 0.118405834 0.080708645
0.169765860 0.121442184 0.086148188
0.184946254 0.124478057 0.087160319
0.203794956 0.130043998 0.089689992
0.225300387 0.134724736 0.092473000
0.248830020 0.140038222 0.093232088
0.270082414 0.143073842 0.098671667
0.298545510 0.153446987 0.107400186
0.325743169 0.160783887 0.109677315
0.356862962 0.169892296 0.114610977
0.392536670 0.176723331 0.123213358
0.428969115 0.188867792 0.128526255
0.466413766 0.197217181 0.132573992
0.506008983 0.204933494 0.135736510
0.549778819 0.214041740 0.140037909
0.596078277 0.223149925 0.149146289
0.641619325 0.233649626 0.162428975
0.689690351 0.241872117 0.169892386
0.732194841 0.255028754 0.180012882
0.771536767 0.267678827 0.194687292
0.815306306 0.281087965 0.212144479
0.857811153 0.296774179 0.231499285
0.900316000 0.318279654 0.253004313
0.080075711 0.125869706 0.079443701
0.081973381 0.122833312 0.074762613
0.085895061 0.124098472 0.080961473
0.091208287 0.123339698 0.075142376
0.099177547 0.119165145 0.070208833
0.106514707 0.124730758 0.078304760
0.125110313 0.121189021 0.080455408
0.133712694 0.125869706 0.077166416
0.150411293 0.130424097 0.084756613
0.162555307 0.135230929 0.087792769
0.176344007 0.138266861 0.090449288
0.193801254 0.141303152 0.094117999
0.208981633 0.144338772 0.094117999
0.229728028 0.150157735 0.097406708
0.255408078 0.157621816 0.102972701
0.277293056 0.161290601 0.102845997
0.304617465 0.167362213 0.110436186
0.332194805 0.178747267 0.114357986
0.363567322 0.187855676 0.120430008
0.399747044 0.195825413 0.124351643
0.436179757 0.202403456 0.129664972
0.474636555 0.214547977 0.134724587
0.515116990 0.224414676 0.141429022
0.560657799 0.235040888 0.145983621
0.603794992 0.242504984 0.153573573
0.649335682 0.253004670 0.162681952
0.696648121 0.262871385 0.175079063
0.741050124 0.275015891 0.186464444
0.781277478 0.287159979 0.200885803
0.817583323 0.300948679 0.219608158
0.857431769 0.315749288 0.240860581
0.897659719 0.339278996 0.264389694
0.086148098 0.141050100 0.087033898
0.092220090 0.139531702 0.083238423
0.096014999 0.140037775 0.087033547
0.101075001 0.140038103 0.092599861
0.103352092 0.135104552 0.077039637
0.113599025 0.143453166 0.090701930
0.128526002 0.138899416 0.094244316
0.143579811 0.137254998 0.092347004
0.150411099 0.143326998 0.088551894
0.162555113 0.152435392 0.091587514
0.178367868 0.156483322 0.092473097
0.195319340 0.159519270 0.093738258
0.215812728 0.161796451 0.096394904
0.231499121 0.165591091 0.096647933
0.257811487 0.175205410 0.107273981
0.281846881 0.180265903 0.109677292
0.307653278 0.186337903 0.113472186
0.341682196 0.195445672 0.119418010
0.369386196 0.204554081 0.124983996
0.404300869 0.214421362 0.128525987
0.440733582 0.221631989 0.128905728
0.478431255 0.229728192 0.132447869
0.521189034 0.241492674 0.141555503
0.569765806 0.251739115 0.148260713
0.614547670 0.262365639 0.157368705
0.657684982 0.270461947 0.167994663
0.702214122 0.282100052 0.177609116
0.744465709 0.293991089 0.192536518
0.785072744 0.306135088 0.208475798
0.820999146 0.320050269 0.225680158
0.855913818 0.338519663 0.247691482
0.889311016 0.359772086 0.268943906
0.101328485 0.156230509 0.090069525
0.107400477 0.159266114 0.093105905
0.107020706 0.159898505 0.093611978
0.108159006 0.158760175 0.096648008
0.115496099 0.156356961 0.101328418
0.133712873 0.159392565 0.104364038
0.133839175 0.157621831 0.102846324
0.140164435 0.157621786 0.098419011
0.153447494 0.161543012 0.094623908
0.171663493 0.167615011 0.097659521
0.189626485 0.173814267 0.100695871
0.203668520 0.177735716 0.101581492
0.219608128 0.179633006 0.102846362
0.240607515 0.180771500 0.105755553
0.261859894 0.192915499 0.108791940
0.288172275 0.200126618 0.114611000
0.315243691 0.207590297 0.123339482
0.344718605 0.216698065 0.131562009
0.381151468 0.225806475 0.125490010
0.414421350 0.237697512 0.136622012
0.449841976 0.245920002 0.138772741
0.487286627 0.254016250 0.138013855
0.527260959 0.265781462 0.141555503
0.575837791 0.268817097 0.150663927
0.622137845 0.283618063 0.161922514
0.666160762 0.297153801 0.175331652
0.708286047 0.306388080 0.189753130
0.747754395 0.315496475 0.201897889
0.790006161 0.327387482 0.219481438
0.827071130 0.341302663 0.235800177
0.862238765 0.360025048 0.253889978
0.901455045 0.387096494 0.278051525
0.104870126 0.168500990 0.098924875
0.110942133 0.177356362 0.090322517
0.119164899 0.173940748 0.099810131
0.122959867 0.176217571 0.100316122
0.128652409 0.179759532 0.099810131
0.134218872 0.177735806 0.105376065
0.147375003 0.178241745 0.103352323
0.152814567 0.177229866 0.103605285
0.163693994 0.179000646 0.102846123
0.177608997 0.182921857 0.103731513
0.192915872 0.186084732 0.103857994
0.211131856 0.192157000 0.108918123
0.228462756 0.197216868 0.112966411
0.249715149 0.201264873 0.117267713
0.270967513 0.208095863 0.114990413
0.292219907 0.217836678 0.122833796
0.324604690 0.225933194 0.129411861
0.358127832 0.235041142 0.137507856
0.390006125 0.244148955 0.140543863
0.426438868 0.250474721 0.137254506
0.459962189 0.260468006 0.144971475
0.497406870 0.270588011 0.146995738
0.538772523 0.284756482 0.150410861
0.579000652 0.298924834 0.162301898
0.623023450 0.304237753 0.169133574
0.663757324 0.317140967 0.180012718
0.703732073 0.328778923 0.193674937
0.748007417 0.342694312 0.208222896
0.790132642 0.351802707 0.228336781
0.827324152 0.363693684 0.243263841
0.862491786 0.376849830 0.259076566
0.901961029 0.394053996 0.281340867
0.111954249 0.192789495 0.110056996
0.122074246 0.193801388 0.109045118
0.124224767 0.196204990 0.106894508
0.134598315 0.192662984 0.112713344
0.141808972 0.198734805 0.108538799
0.144844934 0.198988184 0.112966508
0.155470997 0.200505972 0.113472573
0.165970683 0.202150702 0.110436544
0.175837994 0.202530235 0.111954249
0.187981993 0.204301015 0.111954249
0.198987871 0.203288853 0.113978505
0.216192499 0.210373238 0.111954249
0.236685500 0.216445252 0.118026249
0.258823276 0.222770289 0.124351770
0.280075639 0.230613500 0.128399834
0.305376023 0.241113037 0.126881540
0.331182629 0.247185439 0.135989934
0.367868543 0.255281657 0.141935557
0.399620295 0.264389277 0.146616265
0.433522761 0.274762958 0.148386896
0.469955474 0.280835241 0.149145991
0.504490972 0.290828496 0.156103849
0.544971228 0.304996759 0.161163509
0.586337745 0.320177168 0.167615265
0.626059294 0.328526229 0.179253295
0.667172670 0.337381214 0.186717391
0.704238117 0.349525392 0.198735058
0.745224655 0.363187939 0.213915437
0.788108885 0.375079066 0.230360791
0.828842402 0.385958195 0.251613170
0.861859441 0.399873435 0.267172843
0.897913039 0.414294749 0.288425267
0.125616640 0.218595996 0.117647000
0.133206636 0.218975246 0.120683387
0.139025643 0.218089640 0.122707352
0.142947316 0.218089640 0.123719484
0.153953448 0.218089640 0.120683096
0.156989053 0.220366940 0.122201286
0.167615280 0.223402962 0.124984354
0.176976338 0.226438701 0.123339936
0.188361645 0.230234176 0.121821545
0.201264650 0.230993271 0.122200996
0.211638168 0.229222044 0.125110865
0.224541515 0.230866522 0.125237390
0.242757991 0.239974633 0.123339638
0.267552078 0.246046633 0.128905639
0.291461021 0.254269391 0.135357410
0.319797426 0.264642626 0.139405474
0.348639995 0.275648177 0.140164196
0.379000753 0.279949576 0.148639992
0.411891282 0.289057314 0.152182326
0.445287675 0.298671722 0.157495275
0.479443133 0.309297979 0.160531372
0.515875936 0.318406135 0.162555635
0.552435160 0.330550134 0.171283752
0.593927801 0.343706548 0.176343903
0.634155512 0.353194267 0.183933988
0.674762607 0.362049252 0.196963653
0.713219702 0.374699354 0.208096057
0.749019861 0.387476534 0.224541426
0.789626956 0.399620622 0.241998792
0.829222083 0.411764592 0.260721147
0.869576156 0.424794227 0.282859176
0.900949001 0.442757994 0.304364622
0.146869034 0.238330066 0.118658997
0.147122070 0.243896067 0.120683387
0.150917053 0.245667070 0.123466253
0.158254161 0.245667070 0.127514124
0.166097507 0.245920092 0.130044445
0.169133112 0.245920092 0.127008051
0.179759637 0.247691318 0.130297035
0.189626992 0.251486391 0.132700711
0.197470039 0.254522175 0.130929932
0.215686038 0.260594964 0.133965552
0.228842735 0.261101007 0.137001902
0.241240025 0.261353999 0.138014033
0.255661041 0.264516354 0.138014033
0.274383098 0.273118079 0.138266996
0.304743826 0.279190063 0.138266996
0.337254792 0.287918806 0.144971803
0.368880421 0.298292041 0.151296839
0.399241090 0.309803635 0.154711992
0.429601938 0.318912029 0.160784021
0.462998390 0.325743079 0.169639364
0.496647775 0.335610062 0.175205693
0.530803323 0.348513156 0.177482992
0.567362547 0.363693506 0.177862495
0.606831014 0.373054922 0.186970159
0.646046758 0.381657302 0.194054037
0.686148286 0.392156988 0.204300687
0.727641046 0.404554069 0.220493093
0.761037409 0.419734418 0.241745457
0.799493790 0.432005018 0.262744874
0.836938322 0.444402009 0.284250170
0.874383152 0.457684636 0.306388199
0.916887999 0.472865045 0.330677032
0.168121397 0.274762809 0.130802989
0.171157792 0.274762809 0.121695369
0.171410814 0.276027828 0.121569000
0.176470652 0.276027828 0.128526270
0.184060529 0.276407361 0.139278576
0.181277886 0.279317230 0.139152050
0.191903830 0.274256587 0.131056309
0.207336977 0.279949367 0.136622414
0.219228059 0.286401123 0.142567992
0.224794418 0.284882963 0.143073931
0.245920286 0.288045853 0.146110281
0.261227220 0.290449113 0.147122413
0.276913404 0.293990970 0.147122413
0.295635432 0.300442427 0.147375375
0.319924235 0.303478807 0.150410995
0.350284398 0.314357787 0.152814806
0.379759550 0.324351579 0.158633992
0.408349365 0.334092379 0.163440838
0.438709557 0.343200803 0.166856006
0.474636316 0.355091810 0.175711349
0.510436416 0.365970820 0.182921991
0.545224547 0.378114790 0.187349707
0.579506516 0.391017884 0.190006495
0.618975759 0.406198323 0.199114904
0.656166792 0.411005676 0.208222523
0.691840529 0.419481367 0.219481051
0.728147030 0.431625396 0.235673472
0.767109394 0.444022417 0.256925821
0.803162575 0.453889817 0.275522053
0.838456511 0.467172563 0.297912776
0.872485578 0.482605785 0.321568608
0.907779574 0.500189424 0.345857412
0.177355990 0.311195612 0.135736808
0.177988589 0.303984791 0.141050175
0.191777751 0.310436577 0.129791245
0.194560632 0.312460452 0.131309181
0.201011792 0.312839776 0.140796542
0.204047918 0.309803903 0.138772801
0.211258784 0.317267746 0.145604119
0.221758485 0.311195403 0.141429797
0.237697586 0.315749794 0.148260713
0.248956278 0.314358115 0.149904996
0.262238860 0.321947843 0.152814865
0.275395244 0.320936233 0.149778992
0.293232262 0.324351579 0.151297003
0.313725561 0.330170602 0.153826997
0.331562012 0.333207011 0.154712394
0.360657781 0.343453586 0.167362601
0.387982190 0.352561593 0.170398593
0.416319102 0.362049341 0.175584987
0.450221658 0.374699742 0.180391848
0.488551557 0.384187579 0.186590344
0.523086488 0.394433856 0.191903725
0.558001101 0.406072050 0.196457937
0.591650486 0.418089867 0.199873790
0.631119728 0.428715706 0.211258903
0.666034222 0.441619366 0.224921271
0.700948417 0.447817892 0.235673577
0.733839333 0.458949894 0.250347793
0.767615378 0.471094370 0.269702405
0.802023768 0.482985407 0.288298637
0.847311735 0.495635778 0.308286160
0.879190385 0.510815978 0.338140339
0.903478801 0.527513802 0.373054981
0.191018179 0.347628385 0.147881180
0.197090179 0.343074173 0.153953195
0.197849348 0.340796977 0.152561843
0.212270960 0.348640203 0.145477384
0.216571748 0.351169914 0.149525374
0.223782375 0.346236557 0.145351127
0.232384309 0.349778503 0.147881314
0.241492689 0.355218381 0.153573811
0.252878189 0.350664377 0.153573811
0.271094382 0.350664377 0.155850515
0.285009205 0.356356502 0.158886865
0.298165441 0.360404640 0.163441196
0.311827838 0.359645724 0.159646183
0.335231066 0.364832163 0.164453194
0.351676136 0.366603404 0.164453194
0.375837773 0.373814374 0.171916783
0.401644349 0.382922381 0.176470995
0.428463101 0.389626771 0.181404173
0.464895993 0.403035969 0.189247206
0.501075387 0.415686339 0.193801016
0.536748707 0.426312834 0.199493930
0.571157277 0.434408575 0.205566183
0.604933143 0.445414662 0.210373491
0.640227675 0.454522282 0.221126199
0.675142288 0.465907753 0.238583460
0.707147300 0.478052169 0.250980496
0.741935313 0.487286448 0.264516056
0.776344001 0.498419076 0.283744156
0.803288937 0.509044945 0.303478628
0.842757523 0.519924164 0.326502144
0.888171971 0.537761211 0.348640174
0.906514823 0.554838598 0.389753193
0.211638153 0.384060979 0.165338427
0.222517148 0.385326117 0.167109206
0.224920541 0.383175343 0.166476771
0.223908707 0.383301705 0.166603580
0.233017102 0.388614684 0.166224033
0.242125481 0.385832042 0.160404980
0.250600815 0.387855768 0.160025567
0.260341257 0.390259206 0.160404861
0.271726578 0.393169105 0.164579138
0.289943367 0.393169105 0.164579138
0.303984702 0.395445824 0.166223854
0.321062386 0.398481786 0.172675669
0.338519782 0.401518047 0.179000989
0.359519154 0.404806674 0.179253951
0.377735794 0.405565679 0.179633394
0.399494141 0.409740716 0.183175400
0.423529327 0.415180504 0.185705557
0.445414096 0.421252549 0.180898547
0.481846958 0.430360168 0.193042576
0.514863968 0.443136901 0.198102206
0.547627866 0.456420004 0.204301029
0.581403852 0.467172980 0.212397546
0.617583573 0.473497987 0.224288538
0.647944391 0.483111799 0.232890889
0.680581868 0.493864536 0.248577267
0.713219285 0.505376518 0.267425865
0.744592071 0.517014623 0.278051704
0.786843836 0.526122987 0.299177557
0.812650323 0.535230696 0.321062326
0.843137324 0.545603752 0.345224291
0.882099986 0.555977166 0.371030748
0.912460029 0.580265939 0.395319551
0.229854971 0.420493066 0.168374062
0.235926956 0.426565856 0.165338457
0.244655177 0.425680220 0.164958999
0.249968156 0.425174177 0.168501198
0.254269540 0.428083956 0.175332442
0.263377935 0.428083956 0.172296047
0.269955993 0.430360675 0.174067348
0.279569954 0.431751996 0.173561275
0.292979002 0.432764113 0.174067080
0.311195016 0.435673982 0.182795957
0.320682943 0.435673982 0.179886088
0.340417504 0.437950671 0.183428019
0.362808615 0.440986663 0.188614696
0.383807987 0.444275945 0.191397995
0.402023941 0.450347930 0.194433615
0.420240641 0.453510791 0.194813058
0.443517148 0.456799805 0.198355436
0.469702929 0.460721016 0.202151000
0.493991017 0.466793031 0.202151015
0.524857759 0.473118007 0.211511642
0.555471420 0.483744472 0.222011462
0.587097108 0.494876891 0.233649984
0.620620012 0.503858089 0.245540991
0.650980890 0.516002893 0.251613021
0.683618307 0.525616646 0.260215342
0.717014670 0.534977734 0.277292997
0.750664175 0.544339120 0.299304128
0.787096858 0.553447485 0.317520887
0.818722606 0.562555194 0.341302902
0.846553087 0.575205207 0.365338385
0.876027942 0.588108599 0.388994545
0.906387985 0.598482072 0.410499990
0.259203017 0.473624468 0.185325727
0.262492359 0.476913184 0.187855408
0.266413599 0.474383384 0.184819803
0.274256527 0.473244905 0.186717361
0.280708373 0.475142747 0.192789465
0.287412941 0.470335722 0.189753070
0.299051017 0.475395739 0.191777334
0.307273716 0.475395411 0.193169013
0.320556462 0.476533830 0.193548366
0.340796739 0.483618230 0.200632498
0.358633965 0.483744740 0.200885504
0.371789813 0.485768497 0.199873373
0.391524285 0.489942729 0.204427361
0.410879374 0.494370371 0.209361017
0.429095328 0.495382369 0.214926943
0.449715137 0.499051213 0.217963174
0.469829202 0.502087593 0.219860911
0.493358582 0.505123496 0.224035785
0.515496433 0.509044707 0.226186037
0.548133731 0.512334108 0.237318024
0.578494430 0.520303369 0.248323858
0.609867096 0.531562328 0.260468394
0.643263578 0.542315125 0.272232890
0.676281214 0.549146235 0.275648713
0.706641376 0.561290443 0.295382708
0.739531994 0.569512725 0.309804052
0.770904839 0.577229500 0.329411805
0.795952201 0.586337864 0.349905282
0.827071309 0.595446229 0.370778173
0.859203219 0.608096302 0.393168896
0.885895312 0.623276472 0.417330921
0.908665359 0.636179388 0.442378372
0.283870727 0.518785715 0.205439731
0.288804382 0.519924045 0.212270826
0.289942980 0.520303488 0.212903246
0.295508891 0.518026650 0.207337305
0.305755734 0.520303905 0.209108189
0.317899734 0.515749693 0.206071794
0.323339462 0.519797742 0.217583790
0.330550164 0.522580743 0.210752770
0.342947453 0.521315575 0.212523729
0.365338206 0.528146982 0.220872730
0.381783754 0.526628733 0.221125737
0.403668940 0.530550182 0.224920735
0.417710215 0.532447457 0.226059377
0.434661776 0.536748469 0.231625497
0.454522431 0.538393199 0.239342198
0.473244518 0.538899302 0.241113275
0.499051124 0.541935265 0.245667472
0.521441996 0.545604169 0.249715716
0.542694449 0.549905241 0.254016519
0.567488909 0.552941084 0.259708732
0.595192432 0.557874739 0.268058181
0.625553250 0.564958632 0.278178722
0.657811224 0.574320257 0.288678199
0.687665939 0.582163453 0.298798144
0.716888011 0.590891778 0.315875977
