Assets/Resources/EldamarStudio/100 Horror LUTs Pack/LUTs/cube/Mechablow LUT.cube
DOMAIN_MIN 0 0 0
DOMAIN_MAX 1 1 1
LUT_3D_SIZE 32
0.000000000 0.000000000 0.086274996
0.000000000 0.003036387 0.089310609
0.000000000 0.006072226 0.092346773
0.000000000 0.011638161 0.096648000
0.000000000 0.020367000 0.102340452
0.000000000 0.026438998 0.105376065
0.002530322 0.035041321 0.105881996
0.015433699 0.040860288 0.107526705
0.038962997 0.046173193 0.114357993
0.069323018 0.058317974 0.132573992
0.108412609 0.070461996 0.130423874
0.137760982 0.082605988 0.135483727
0.164326280 0.092473000 0.143453285
0.194434032 0.098798029 0.149020001
0.221758395 0.107906409 0.149020001
0.249082774 0.117014796 0.156230196
0.277925372 0.129158795 0.165338188
0.307653546 0.143073574 0.173181579
0.334977984 0.152181983 0.176217973
0.359519035 0.164073005 0.184819654
0.383807480 0.176217467 0.195825472
0.408096254 0.188362002 0.206957862
0.432511479 0.200758979 0.216065496
0.459835917 0.218975008 0.225173905
0.489436984 0.232637569 0.234282285
0.517014325 0.246173650 0.243390307
0.542315125 0.261859983 0.252498060
0.572675824 0.280075997 0.261606425
0.608348906 0.298291981 0.281340778
0.643010557 0.321821153 0.299051166
0.677292943 0.349145800 0.315116972
0.713724971 0.376471013 0.333332986
0.003036387 0.000000000 0.086274996
0.000000000 0.006072000 0.095382608
0.000000000 0.013409386 0.098418772
0.001265161 0.022011386 0.092599675
0.002656839 0.031751998 0.087159775
0.000000000 0.032511000 0.111448064
0.002530322 0.046173319 0.119544312
0.018722696 0.054648995 0.121062383
0.046553191 0.059835386 0.121947996
0.081467792 0.067425586 0.126501992
0.111827768 0.076660484 0.135989875
0.144845113 0.086654253 0.137507737
0.174573034 0.096647739 0.145730287
0.206325069 0.104617000 0.155092001
0.230866790 0.110942021 0.155092001
0.255787373 0.124857403 0.157495201
0.282479197 0.135230795 0.166856378
0.310056746 0.146742374 0.176217809
0.334977984 0.158253983 0.179253593
0.365085751 0.170145720 0.190638632
0.384187043 0.182289764 0.199999735
0.408095986 0.194434002 0.208981618
0.438456953 0.206704497 0.216192007
0.462871522 0.222011402 0.228210300
0.492473155 0.235673383 0.235041395
0.520050347 0.249209270 0.244781986
0.545856833 0.263883591 0.255028397
0.578747809 0.277039587 0.261606425
0.606451750 0.300569236 0.281340778
0.645287693 0.316002339 0.299051166
0.678937554 0.338772565 0.318659186
0.704617381 0.370398223 0.345477760
0.003922000 0.017204547 0.094876997
0.000885613 0.027577547 0.101834387
0.000000000 0.029348545 0.095888771
0.000000000 0.035926610 0.103984833
0.001771226 0.045034546 0.096647322
0.000506065 0.050347771 0.102719702
0.008981547 0.056546319 0.119165093
0.028463336 0.065148704 0.123339772
0.057558771 0.072232775 0.125616670
0.091208212 0.081087783 0.129790992
0.121821769 0.087918870 0.136369094
0.148133740 0.092979260 0.139405221
0.178241506 0.102972999 0.145730287
0.210120037 0.112839773 0.156863004
0.236306041 0.118911766 0.156863004
0.262744963 0.130043790 0.161416978
0.285515189 0.142188191 0.165970773
0.312207133 0.151928976 0.175585210
0.339531958 0.164073020 0.180139050
0.360784203 0.178367957 0.191524014
0.389247656 0.188614964 0.201770738
0.408475518 0.200505987 0.210879132
0.438330203 0.212776497 0.218089759
0.466666788 0.227956906 0.226186037
0.491207778 0.240859985 0.238077223
0.520176888 0.251612663 0.245540887
0.546236157 0.266793132 0.257937998
0.577988505 0.285515517 0.270587981
0.610373020 0.301833868 0.283491552
0.646552503 0.326122612 0.306514710
0.687286437 0.344212323 0.322833568
0.714863956 0.375078768 0.346869230
0.002656839 0.044023000 0.109550998
0.000885613 0.053636998 0.104237840
0.000000000 0.054648999 0.111321993
0.003795161 0.059709318 0.100442834
0.003795161 0.061985932 0.115243092
0.003795161 0.067552097 0.112334095
0.026565477 0.075395323 0.118406154
0.042631269 0.078557864 0.127893835
0.073751152 0.083112061 0.127893835
0.103099182 0.094750002 0.135483503
0.132194743 0.101074994 0.140417159
0.159772128 0.106388420 0.144971162
0.184060425 0.111701518 0.144971162
0.214168236 0.123466030 0.156356871
0.242504716 0.130550146 0.159392998
0.269829094 0.140164316 0.166730002
0.294117510 0.150790200 0.170271993
0.315369874 0.160531148 0.176976562
0.343833119 0.172675341 0.183681175
0.364326358 0.185072362 0.194054335
0.386970043 0.195192903 0.203035906
0.414294958 0.207337171 0.211132169
0.439089000 0.219987139 0.220113978
0.469449848 0.234028891 0.228462994
0.495255977 0.246932313 0.239088982
0.520936012 0.260214627 0.251106828
0.547754347 0.269829094 0.259203076
0.576596856 0.291081876 0.273623973
0.612144113 0.309930444 0.289057642
0.647058487 0.329158545 0.305755913
0.687792361 0.354332715 0.328272969
0.724225163 0.381657153 0.343832821
0.000000000 0.072865091 0.125489995
0.000379548 0.078557543 0.107273713
0.000000000 0.077166095 0.113472320
0.004554160 0.077925317 0.123592377
0.016319092 0.088551991 0.115622543
0.016319092 0.085515611 0.127767324
0.049462635 0.092979319 0.133080229
0.078305244 0.097153999 0.137001544
0.095383093 0.098671995 0.142314553
0.119671114 0.107779615 0.142314553
0.145730406 0.113978088 0.145224422
0.172295794 0.119670957 0.149145991
0.199240819 0.126881897 0.154079556
0.223529533 0.135483578 0.154585555
0.253637254 0.144338965 0.163567424
0.281594217 0.153447255 0.174699545
0.305123627 0.162934899 0.181530550
0.326755553 0.171916142 0.183048576
0.348008007 0.184060961 0.192156985
0.369639844 0.193801209 0.200885817
0.392409980 0.201391473 0.208096445
0.417710125 0.210752994 0.214548007
0.444907993 0.228589505 0.220746502
0.474762797 0.240480557 0.232637554
0.500568986 0.252625018 0.244781539
0.526628435 0.266160846 0.256166756
0.553447545 0.281973124 0.268311471
0.577735543 0.294117898 0.271347106
0.614547849 0.313093245 0.286527634
0.650095105 0.334345609 0.303984940
0.683997631 0.356610000 0.322580546
0.720430434 0.383934438 0.340796560
0.000000000 0.091081865 0.125489995
0.003036387 0.094117478 0.128526390
0.001265161 0.097659707 0.125363857
0.006325160 0.100442871 0.130170777
0.022391092 0.106767997 0.130802929
0.052751865 0.106767997 0.130802929
0.072991863 0.116381928 0.140417382
0.100316405 0.121441990 0.143579930
0.122328028 0.122201085 0.146109939
0.143959880 0.125996381 0.151422933
0.162428871 0.132194862 0.154332802
0.184187174 0.136242613 0.153320670
0.209867209 0.142061710 0.156356648
0.238709927 0.150663972 0.163693935
0.262997925 0.153700352 0.169765919
0.290701836 0.162555113 0.178747803
0.311954230 0.173181444 0.186843932
0.330044210 0.183554858 0.191903919
0.354079992 0.190132961 0.198228985
0.378115028 0.202277020 0.204554006
0.399999827 0.212017670 0.211132064
0.423782140 0.221631989 0.218216181
0.450980008 0.234661505 0.226818502
0.475268811 0.243769914 0.235926911
0.500568986 0.255660921 0.247817934
0.527640283 0.269196719 0.257178903
0.556483209 0.285389006 0.265781134
0.580771923 0.306261897 0.280455500
0.613029718 0.318405986 0.288804740
0.645667374 0.337381244 0.301201940
0.677419603 0.358633667 0.317014575
0.711322069 0.380898058 0.337760925
0.035420638 0.121948317 0.140670642
0.038457025 0.124983929 0.143706396
0.047944635 0.128020093 0.144592002
0.054396115 0.131056473 0.147121996
0.069576405 0.135484084 0.151043326
0.089183860 0.137634322 0.151043326
0.111954316 0.140164644 0.151043326
0.134598017 0.147374928 0.156862721
0.157242075 0.149019420 0.157748327
0.178494498 0.152055815 0.160278320
0.196837634 0.152941316 0.160910875
0.211005628 0.159013316 0.165970996
0.231878608 0.164832279 0.167868316
0.258950323 0.173434600 0.175079033
0.283238292 0.176470414 0.178874314
0.300316125 0.179506809 0.187349513
0.324098498 0.188361838 0.194940060
0.343200445 0.199494302 0.202277303
0.367489308 0.209361330 0.212144330
0.389247656 0.218469650 0.218216330
0.413535625 0.228715897 0.220493317
0.434408575 0.238836259 0.226312444
0.457305610 0.250980616 0.235294312
0.486400813 0.262492239 0.241998911
0.512966216 0.271600604 0.251107275
0.538898945 0.284882933 0.262998283
0.568121135 0.300063074 0.271853387
0.596457839 0.317267418 0.282985747
0.626186073 0.333080292 0.297912508
0.657811642 0.350537479 0.312334090
0.689943254 0.374446511 0.330423892
0.724983990 0.400632650 0.354965329
0.069702692 0.147121996 0.153953284
0.082606070 0.150158033 0.156989321
0.088804685 0.154838473 0.157874703
0.097153850 0.157874867 0.156609535
0.111954689 0.161290705 0.162302107
0.130929455 0.165591463 0.167362422
0.141302735 0.166983023 0.164072990
0.167488813 0.168374687 0.164073005
0.187223017 0.172169402 0.168627381
0.206704199 0.176091194 0.171283990
0.221758440 0.177861989 0.171283990
0.240860403 0.178620994 0.172042996
0.254143029 0.184693277 0.176976636
0.276407719 0.193042696 0.182795674
0.297912687 0.197469994 0.188614696
0.316634774 0.202150509 0.194813609
0.336369395 0.206704691 0.202403411
0.357115656 0.216318965 0.208475992
0.379380256 0.228463009 0.218596011
0.402530372 0.236179635 0.225174010
0.424035698 0.245287955 0.230739996
0.447311848 0.255407691 0.234787986
0.466413975 0.267552286 0.244275793
0.493738025 0.279696703 0.248830006
0.521821260 0.289563566 0.257179290
0.549145937 0.301454931 0.269070655
0.575964391 0.316128701 0.280961633
0.604047835 0.330170423 0.290069699
0.634408653 0.346995503 0.304490864
0.664769351 0.364073157 0.318152696
0.695129931 0.387096554 0.335483879
0.730044007 0.416698277 0.359772295
0.103099279 0.168374196 0.163820192
0.120556578 0.172169492 0.167615488
0.131056190 0.176597193 0.167741999
0.137381345 0.179127261 0.167235926
0.140797183 0.182543099 0.166097090
0.162808195 0.188615099 0.178241760
0.171663418 0.188109100 0.174446553
0.184946299 0.189627096 0.171663195
0.213030010 0.191903993 0.173181176
0.228209630 0.197975993 0.182289571
0.240480840 0.200379223 0.184187084
0.257179350 0.202150196 0.184187099
0.276913643 0.204427287 0.186084643
0.292094022 0.210247040 0.189374000
0.309804052 0.215813100 0.197975665
0.329538077 0.221885085 0.204680502
0.347754478 0.228716180 0.209993988
0.373308063 0.233523190 0.215433583
0.392030120 0.245161206 0.221379101
0.414294809 0.252498090 0.227451101
0.436685830 0.260467827 0.234281987
0.457938224 0.270588070 0.241619080
0.479317069 0.282732069 0.253636599
0.503605127 0.294876695 0.257937998
0.528652370 0.304743797 0.264010191
0.555976868 0.316634744 0.275142670
0.583301902 0.331815153 0.289816976
0.607842982 0.344212174 0.299177647
0.636685729 0.361669660 0.312839806
0.665528238 0.382163018 0.326248974
0.701961040 0.399240762 0.343832761
0.732321084 0.426565200 0.359013200
0.154712468 0.198734984 0.175964981
0.160784468 0.204806983 0.182036966
0.167488977 0.208602279 0.181530714
0.174826145 0.207969993 0.179885998
0.183301985 0.203795508 0.181277484
0.189373985 0.209867507 0.193421498
0.201264992 0.205819502 0.187855855
0.213029489 0.206578493 0.183807984
0.228209630 0.213156402 0.185325980
0.249462023 0.222264007 0.191397965
0.261733234 0.222517014 0.197596475
0.275901735 0.224667758 0.199367508
0.292473465 0.228715986 0.201644510
0.310310006 0.234535053 0.207590014
0.325490415 0.237571433 0.213661984
0.348007470 0.243137494 0.219860479
0.365970880 0.250727683 0.224414706
0.382416487 0.257811964 0.227577582
0.412776530 0.257811964 0.230613992
0.431499213 0.266666621 0.236559510
0.451866210 0.275648236 0.244528741
0.473118603 0.285768479 0.253510118
0.494497448 0.297912449 0.262744993
0.518785477 0.310056478 0.271853387
0.540796757 0.319923788 0.276154190
0.565085173 0.331815124 0.283617854
0.592409551 0.346995533 0.295888990
0.619733930 0.362175912 0.308032990
0.646932483 0.379885942 0.320050478
0.672612429 0.403415143 0.332320958
0.706008613 0.425932705 0.350663811
0.759645462 0.438709944 0.383301973
0.174319997 0.217456996 0.193928003
0.192030743 0.220619872 0.185452119
0.198102742 0.226691872 0.187223122
0.200379565 0.227957159 0.184946150
0.204048097 0.225427315 0.185578868
0.220240742 0.234028995 0.202782884
0.226312742 0.232511312 0.199746877
0.239342436 0.231752157 0.195951998
0.254269600 0.236559004 0.198229089
0.273371220 0.243516371 0.206451878
0.285894752 0.240986735 0.206704870
0.298039019 0.247058988 0.210752606
0.312333763 0.251866102 0.213914990
0.328779042 0.256166875 0.219734043
0.346616268 0.261859417 0.223149866
0.364199847 0.264895797 0.226818681
0.387476236 0.268943667 0.230866536
0.406451851 0.275268704 0.235799968
0.427703887 0.282099992 0.245667085
0.444149226 0.287665993 0.251486838
0.462238967 0.294749856 0.255661130
0.482479244 0.302846134 0.259708852
0.503731608 0.312966377 0.263124496
0.525237024 0.322327763 0.272232890
0.549525559 0.334471732 0.281341285
0.571410537 0.348386824 0.289816707
0.597216964 0.364073068 0.301961005
0.631752133 0.374446422 0.314105004
0.653763473 0.392283648 0.328905821
0.684124112 0.412270904 0.344844788
0.710942447 0.435547322 0.361922443
0.743326962 0.453763872 0.387223125
0.214800745 0.243769497 0.204048008
0.218848750 0.242757887 0.196963862
0.228462964 0.247944504 0.198355258
0.233270139 0.251486510 0.195825264
0.232890502 0.249209702 0.193927988
0.244528860 0.251739323 0.208854988
0.256672978 0.256799310 0.212903246
0.266034395 0.255407989 0.211764529
0.279317141 0.258064359 0.212143987
0.293738008 0.262871504 0.217457220
0.308159262 0.264262855 0.217836738
0.324351758 0.267299503 0.219860986
0.337634116 0.275269240 0.222896889
0.352561295 0.279190451 0.228083506
0.367236078 0.283491224 0.232890666
0.387476504 0.287160069 0.237950802
0.402656496 0.293232054 0.244023174
0.423023582 0.297279835 0.247438505
0.439848274 0.303605229 0.254016519
0.457305372 0.309930265 0.258570433
0.474383473 0.316002250 0.262745470
0.493611634 0.322074234 0.267805129
0.514737546 0.330170512 0.271094024
0.534092188 0.339278877 0.278305143
0.555597544 0.352688253 0.291461021
0.582669318 0.364832222 0.301961064
0.605313301 0.380771369 0.313599169
0.632637620 0.391397923 0.324224979
0.663883507 0.406451374 0.339025795
0.688677847 0.424668133 0.354206145
0.718026280 0.445667565 0.371283829
0.739278734 0.466920018 0.390259266
0.253890008 0.269576281 0.211258650
0.253130883 0.268817395 0.208601996
0.256546289 0.271094620 0.209993631
0.265907437 0.275774986 0.213282645
0.268564284 0.275015980 0.207590088
0.273118287 0.271220714 0.215939000
0.281973273 0.275774628 0.221631959
0.294117421 0.280834645 0.223529562
0.306261986 0.282352626 0.228083178
0.315749168 0.285768479 0.229221642
0.329538137 0.287665755 0.228083283
0.345604151 0.291587532 0.230107263
0.361543655 0.295382977 0.234281987
0.376976311 0.301454961 0.237318382
0.390891850 0.305376202 0.242504999
0.407969773 0.310689449 0.247438639
0.425806612 0.315623075 0.252751559
0.438583195 0.322833270 0.261227340
0.453763664 0.325363606 0.262239337
0.472865283 0.332321286 0.267299294
0.491081446 0.338393271 0.270335376
0.510310173 0.345477402 0.276407629
0.531436026 0.351802409 0.285515279
0.549652278 0.360910535 0.291587800
0.569006920 0.372295916 0.301075339
0.593295276 0.387223244 0.316002339
0.622138083 0.400379270 0.329158992
0.640986621 0.413788885 0.340164185
0.669070005 0.429728061 0.354585439
0.700062752 0.446679026 0.369765818
0.728272796 0.466666818 0.384060621
0.750284255 0.488172293 0.398987979
0.273624063 0.288805008 0.221125990
0.276154399 0.291587621 0.224414647
0.281847060 0.294370770 0.226438805
0.291461200 0.297153860 0.228968993
0.304238021 0.299810052 0.228336483
0.304238021 0.293738067 0.225300089
0.309298009 0.297786057 0.229601637
0.318659008 0.303352058 0.232637957
0.330297023 0.308918059 0.234408930
0.342441022 0.314990073 0.243516549
0.354585767 0.315496027 0.241239876
0.368754297 0.317520291 0.241998777
0.382796049 0.320177078 0.246426061
0.394940019 0.320683092 0.252751023
0.413156003 0.326755077 0.255787432
0.428968817 0.334724784 0.258570760
0.444402188 0.342315048 0.261859864
0.459835589 0.347375005 0.265781015
0.475016057 0.347375005 0.271853030
0.495509386 0.355471343 0.280202389
0.514104962 0.362681985 0.285262734
0.533333123 0.369766146 0.291334987
0.554585516 0.378748000 0.303225994
0.572928846 0.387729138 0.309298009
0.591398060 0.397090346 0.315876007
0.613535643 0.409234673 0.326375693
0.640101135 0.424415022 0.341303051
0.661353469 0.442631006 0.359519035
0.685009599 0.460341662 0.374572814
0.712080956 0.478810936 0.389753163
0.742441177 0.498292178 0.406578034
0.772801995 0.522580981 0.418722063
0.310056806 0.319164962 0.239341974
0.307020396 0.319164962 0.245413959
0.316002518 0.319797397 0.240101174
0.326881796 0.320429981 0.241113245
0.337381363 0.321441948 0.246425971
0.331562400 0.324098825 0.240480468
0.336622387 0.328146815 0.242504731
0.345983386 0.330929816 0.246173277
0.356609404 0.332194805 0.248576656
0.363693386 0.333206832 0.252624929
0.375838131 0.336368948 0.253004402
0.390006632 0.338772655 0.252371997
0.404048383 0.344086021 0.256420046
0.416192383 0.351043820 0.264895797
0.428336382 0.357115835 0.274003386
0.444149196 0.360784024 0.274635971
0.460847378 0.366603374 0.278304935
0.478431106 0.372043222 0.284377217
0.496268392 0.374699384 0.293105364
0.514231384 0.380265385 0.296394736
0.527387679 0.386969984 0.298798412
0.542441547 0.394054115 0.303478986
0.563693941 0.403035969 0.315369993
0.584946334 0.409107983 0.321442008
0.605566204 0.420366973 0.332067996
0.627577364 0.434661776 0.345730305
0.652498126 0.451233387 0.361796468
0.676533818 0.463883370 0.371663809
0.697786152 0.476787031 0.381909966
0.719671130 0.495509088 0.395825148
0.745477557 0.515243173 0.418975174
0.775838435 0.534724951 0.455154806
0.344085783 0.344718575 0.240733802
0.345856994 0.349525601 0.261226803
0.342820615 0.343073815 0.258696795
0.351170003 0.346109927 0.258696973
0.359898508 0.348766595 0.265907317
0.359898776 0.345730722 0.253763586
0.368753791 0.351296782 0.260088325
0.373181492 0.355724066 0.259835720
0.381530583 0.357242078 0.261353523
0.387602597 0.358886778 0.264389485
0.401897520 0.359392703 0.264515996
0.409993798 0.364452571 0.268563986
0.422896981 0.369006783 0.271600276
0.435041040 0.376090974 0.279190779
0.447185606 0.377861977 0.286148161
0.464136571 0.383933991 0.292852610
0.479316950 0.386969984 0.292852610
0.496015161 0.393421978 0.297153980
0.512460709 0.401770830 0.304490805
0.525869787 0.405186564 0.310436338
0.545983553 0.413156331 0.315369993
0.560151815 0.420746267 0.319418132
0.579633057 0.429601282 0.329917789
0.594054699 0.433396578 0.335989773
0.617583811 0.444022596 0.344339073
0.638962626 0.456166953 0.354964912
0.662238896 0.471853048 0.370145321
0.686527669 0.485894769 0.384946406
0.710562766 0.498038828 0.398861766
0.735357106 0.517267585 0.409740567
0.756989181 0.540037811 0.426059395
0.781278014 0.561290562 0.457938015
0.368374169 0.370525181 0.254395992
0.374446571 0.373561174 0.268058181
0.374699622 0.370398611 0.275395393
0.377988368 0.367615402 0.269323051
0.383427948 0.376850188 0.279190093
0.384187311 0.377609164 0.271980137
0.393295199 0.375585198 0.272486061
0.402023703 0.380012840 0.278051704
0.406578094 0.381530464 0.275016069
0.413409203 0.383048683 0.276533902
0.425174057 0.384693384 0.279696375
0.434282184 0.388741374 0.283744395
0.443769842 0.394813359 0.288677752
0.456040412 0.400379390 0.294117808
0.466919988 0.400379390 0.298924983
0.480835170 0.405186385 0.301960975
0.499051154 0.414294362 0.312587202
0.513598979 0.417330772 0.313852191
0.527893782 0.426818401 0.319924176
0.540291190 0.430613369 0.322960168
0.558127940 0.437444746 0.330550402
0.578368187 0.446553141 0.338646382
0.596457720 0.455534369 0.348007679
0.609993815 0.459962100 0.352688015
0.629728198 0.468311399 0.362555474
0.651233137 0.480455369 0.370272160
0.672359049 0.493105441 0.379759371
0.695635676 0.508285820 0.395951867
0.718405962 0.522327542 0.413029999
0.741429090 0.537001371 0.427956939
0.768753529 0.561290205 0.448070765
0.788867772 0.585578978 0.473118365
0.386717111 0.397216976 0.280328572
0.395192921 0.398482114 0.285894960
0.397849530 0.395446122 0.288298756
0.402909517 0.393169135 0.288804799
0.413156092 0.398861557 0.283870578
0.410120457 0.410246551 0.289690286
0.415306836 0.409108132 0.289437413
0.422770143 0.406704694 0.290449262
0.429601252 0.409488022 0.293864489
0.438709646 0.406451643 0.290828884
0.447185427 0.409234852 0.295888960
0.456167132 0.413029969 0.301960975
0.465654612 0.419734538 0.306894511
0.480075985 0.425806552 0.310183167
0.488804817 0.426565528 0.313598961
0.499683946 0.430740118 0.314231545
0.514231563 0.437950552 0.319924176
0.530550122 0.448829532 0.332574576
0.542694151 0.451865941 0.338646591
0.556736290 0.455534339 0.341682553
0.572043121 0.461732894 0.345477730
0.592283547 0.469576120 0.354965568
0.610626042 0.478684485 0.367109567
0.626818478 0.485262573 0.371663243
0.645287812 0.494244248 0.380265564
0.665781081 0.504743934 0.390259564
0.683491051 0.516888082 0.397343546
0.704490423 0.531941950 0.409487545
0.726375341 0.547122359 0.426945060
0.747627735 0.562302291 0.445287883
0.768121123 0.578241169 0.462491781
0.795445621 0.602530003 0.501960993
0.417077988 0.421505064 0.289436996
0.423149973 0.427577823 0.304617375
0.425173998 0.428842962 0.308032990
0.430233985 0.428336978 0.308286011
0.440480530 0.429222405 0.308159411
0.437444925 0.432258040 0.311195046
0.436939001 0.436053306 0.306894064
0.440986961 0.435041249 0.304617077
0.447818071 0.434029162 0.306388050
0.456926465 0.436812490 0.312080532
0.463124961 0.439595103 0.314863920
0.475522250 0.440607041 0.320177019
0.489943326 0.444528699 0.325110674
0.504364014 0.453131020 0.328399986
0.510435998 0.459203005 0.334471971
0.519164860 0.462365806 0.335483998
0.531562209 0.465654761 0.338519990
0.545730591 0.470081985 0.344718605
0.554838955 0.476154000 0.347755045
0.575332344 0.481973737 0.359393030
0.588235259 0.487792909 0.362935007
0.601391375 0.493105859 0.366730183
0.619734526 0.496900558 0.376217991
0.640986919 0.506008983 0.388361990
0.657179296 0.517140985 0.395192951
0.675648689 0.529032052 0.403162718
0.695635855 0.541176200 0.412524015
0.710815430 0.553320944 0.424668014
0.734471619 0.568374813 0.442124963
0.756736159 0.583554745 0.463883460
0.776217580 0.598734617 0.484756559
0.792410016 0.614674032 0.501961052
0.453004748 0.459709108 0.318026751
0.453510731 0.460215181 0.319291770
0.457431972 0.459835619 0.323719382
0.460594386 0.457938164 0.323719382
0.468563914 0.456799805 0.324098825
0.470335305 0.459835440 0.327134430
0.469829381 0.467931688 0.332700372
0.473118365 0.469829381 0.327640355
0.479949474 0.469449848 0.326881379
0.489057869 0.472486228 0.332953393
0.495256394 0.478305221 0.344465584
0.501328409 0.479317099 0.343453467
0.513092995 0.479317099 0.346110016
0.526375473 0.482985705 0.349146336
0.537508070 0.486527354 0.352687985
0.548387051 0.495003164 0.361163795
0.557874918 0.498798192 0.362302363
0.570525110 0.501833975 0.365844369
0.583934009 0.505755723 0.371030986
0.598608375 0.511827707 0.379633397
0.614168525 0.519797742 0.389880121
0.626185894 0.527767539 0.394560724
0.642757535 0.534598589 0.402024359
0.664009929 0.543706298 0.414168388
0.680708349 0.550537407 0.424035639
0.697280288 0.561669767 0.434788376
0.715623379 0.573814094 0.448197752
0.728526235 0.585958302 0.464895725
0.746362627 0.600759208 0.474383563
0.770398378 0.615939558 0.492220044
0.793548286 0.632005095 0.517140985
0.814421058 0.649082720 0.543706357
0.481846988 0.489690006 0.340797007
0.479949743 0.495382756 0.348387003
0.487792701 0.491334707 0.344591975
0.490828305 0.492093474 0.344591975
0.495508701 0.491334736 0.344591975
0.497026891 0.492852539 0.346109807
0.501328468 0.497153789 0.353573471
0.502972782 0.499683768 0.353067487
0.509550810 0.501707792 0.351549447
0.518659234 0.507021189 0.359898478
0.522960007 0.507273972 0.364199728
0.530929744 0.513092995 0.370019197
0.538140416 0.513092995 0.369259834
0.549019456 0.513598979 0.372548997
0.557874799 0.518279314 0.377229273
0.568121672 0.524225235 0.379379779
0.583301723 0.530297279 0.388488173
0.593548536 0.533965468 0.389626712
0.606198490 0.538266718 0.393168718
0.619481087 0.542188525 0.403921336
0.634661436 0.550158143 0.411132485
0.647818089 0.559266329 0.420240611
0.662871480 0.568247974 0.427324474
0.678810596 0.575584829 0.437697738
0.693611264 0.582416236 0.451360017
