Assets/Resources/EldamarStudio/100 Horror LUTs Pack/LUTs/cube/Mechablow LUT.cube
LUT_3D_SIZE 5
DOMAIN_MIN 0.000000 0.000000 0.000000
DOMAIN_MAX 0.903226 0.903226 0.903226
0.000000000 0.000000000 0.086274996
0.015433699 0.040860288 0.107526705
0.221758395 0.107906409 0.149020001
0.408096254 0.188362002 0.206957862
0.608348906 0.298291981 0.281340778
0.069702692 0.147121996 0.153953284
0.167488813 0.168374687 0.164073005
0.297912687 0.197469994 0.188614696
0.447311848 0.255407691 0.234787986
0.634408653 0.346995503 0.304490864
0.310056806 0.319164962 0.239341974
0.345983386 0.330929816 0.246173277
0.428336382 0.357115835 0.274003386
0.542441547 0.394054115 0.303478986
0.697786152 0.476787031 0.381909966
0.506135225 0.521062374 0.364073128
0.532321393 0.533080399 0.381404251
0.579380274 0.551043391 0.402909249
0.665022254 0.586591005 0.441493005
0.771663785 0.650094986 0.522453964
0.729790807 0.766476750 0.618848741
0.733965516 0.779000640 0.630992889
0.764453053 0.789374053 0.648450136
0.811511636 0.807716727 0.673118591
0.872232616 0.831878603 0.714357734
0.004554003 0.013409289 0.124857992
0.016445404 0.055281699 0.131435990
0.232257798 0.130170405 0.184060693
0.413915247 0.212903127 0.236053005
0.616445363 0.310436517 0.299810112
0.074383095 0.148133680 0.176217705
0.170777813 0.167741701 0.182415992
0.302846372 0.207969397 0.210879117
0.454142660 0.262239277 0.250727266
0.635167599 0.355850637 0.318911940
0.329032362 0.318785667 0.254648685
0.353826404 0.330550104 0.261859685
0.434914351 0.359392673 0.286401391
0.542441547 0.398355246 0.321442276
0.698798001 0.480455488 0.396711111
0.502213836 0.526501834 0.376344144
0.529411495 0.531435490 0.388488233
0.580644965 0.550031662 0.409487396
0.659835696 0.581403852 0.447438657
0.775332332 0.645793676 0.535736680
0.727261305 0.771030605 0.626944900
0.726502180 0.771030664 0.626438916
0.759519041 0.780898035 0.644022763
0.810499787 0.799746752 0.675774872
0.865148783 0.827577293 0.721821606
0.000000000 0.050347578 0.182416409
0.061606809 0.078811117 0.190891579
0.244654953 0.139278576 0.223655984
0.425047398 0.220113695 0.269449979
0.622011244 0.319164813 0.336748570
0.138013989 0.165464982 0.213409290
0.194939807 0.175205410 0.222644106
0.312586963 0.213788986 0.252371967
0.458697140 0.272359550 0.290955156
0.645793915 0.365591377 0.363946676
0.336115986 0.324351847 0.291587830
0.368121445 0.336116374 0.303731680
0.441998839 0.363566965 0.321694970
0.555850625 0.408096403 0.364326417
0.701707304 0.484630227 0.434281796
0.517647147 0.530677140 0.420872718
0.539784670 0.533966124 0.422770530
0.586464286 0.552940965 0.442757815
0.665654838 0.586590946 0.485262275
0.776091218 0.652371705 0.553573549
0.721315384 0.768374205 0.625933230
0.719291389 0.767362475 0.631119311
0.755218208 0.780771673 0.656672776
0.809487343 0.802403629 0.684756815
0.870335162 0.828589201 0.730550230
0.068817250 0.091208130 0.261986136
0.154458821 0.113472544 0.265781134
0.285895377 0.163820282 0.289690405
0.448324114 0.237317994 0.332574129
0.632510900 0.327766955 0.411132097
0.199493825 0.185325861 0.287665993
0.243896410 0.199746698 0.291840702
0.344338685 0.233143538 0.318152875
0.479064137 0.286148131 0.358001530
0.656546354 0.375711679 0.433522999
0.358760536 0.339658678 0.356103539
0.392915934 0.344591975 0.364958853
0.458697110 0.372422665 0.385199398
0.568247974 0.414927125 0.422896713
0.709171474 0.485894948 0.495382547
0.535483956 0.531688988 0.480708271
0.550158143 0.545350969 0.487539113
0.595319569 0.564326406 0.505882084
0.673877120 0.599367440 0.544465363
0.776090860 0.651992261 0.596711099
0.714610934 0.771030784 0.672106445
0.719291508 0.774193525 0.675648153
0.749019504 0.785705090 0.690322518
0.803035796 0.804048061 0.714484453
0.873877287 0.835167646 0.761037290
0.223908782 0.143832833 0.433269590
0.274889350 0.159898713 0.427956581
0.390639186 0.206072241 0.454142570
0.536116123 0.268184990 0.491334617
0.682985425 0.365085483 0.545730412
0.282353044 0.221758559 0.448576868
0.322453976 0.231245846 0.454395741
0.423529506 0.266160667 0.473244667
0.558633804 0.320809275 0.511321723
0.700189650 0.401011974 0.559392750
0.383807421 0.356356561 0.510942340
0.407590270 0.363946676 0.507021070
0.491081566 0.389752954 0.526628375
0.609234810 0.436938792 0.562681973
0.739025772 0.504996777 0.609740555
0.542441130 0.575585127 0.605692804
0.557115853 0.576597154 0.613282681
0.598355412 0.582416117 0.620366931
0.678431213 0.597090423 0.637191772
0.791524112 0.654648781 0.685768664
0.707526922 0.780897915 0.743073583
0.723971784 0.786211610 0.742694438
0.748766363 0.793295205 0.752814293
0.796457946 0.810625911 0.771663785
0.880328596 0.846299767 0.820366561
