Assets/Resources/EldamarStudio/100 Horror LUTs Pack/LUTs/cube/Mechablow LUT.cube
LUT_3D_SIZE 8
DOMAIN_MIN 0.000000 0.000000 0.000000
DOMAIN_MAX 0.903226 0.903226 0.903226
0.000000000 0.000000000 0.086274996
0.000000000 0.020367000 0.102340452
0.038962997 0.046173193 0.114357993
0.164326280 0.092473000 0.143453285
0.277925372 0.129158795 0.165338188
0.383807480 0.176217467 0.195825472
0.489436984 0.232637569 0.234282285
0.608348906 0.298291981 0.281340778
0.000000000 0.072865091 0.125489995
0.016319092 0.088551991 0.115622543
0.095383093 0.098671995 0.142314553
0.199240819 0.126881897 0.154079556
0.305123627 0.162934899 0.181530550
0.392409980 0.201391473 0.208096445
0.500568986 0.252625018 0.244781539
0.614547849 0.313093245 0.286527634
0.103099279 0.168374196 0.163820192
0.140797183 0.182543099 0.166097090
0.213030010 0.191903993 0.173181176
0.276913643 0.204427287 0.186084643
0.347754478 0.228716180 0.209993988
0.436685830 0.260467827 0.234281987
0.528652370 0.304743797 0.264010191
0.636685729 0.361669660 0.312839806
0.253890008 0.269576281 0.211258650
0.268564284 0.275015980 0.207590088
0.306261986 0.282352626 0.228083178
0.361543655 0.295382977 0.234281987
0.425806612 0.315623075 0.252751559
0.491081446 0.338393271 0.270335376
0.569006920 0.372295916 0.301075339
0.669070005 0.429728061 0.354585439
0.368374169 0.370525181 0.254395992
0.383427948 0.376850188 0.279190093
0.406578094 0.381530464 0.275016069
0.443769842 0.394813359 0.288677752
0.499051154 0.414294362 0.312587202
0.558127940 0.437444746 0.330550402
0.629728198 0.468311399 0.362555474
0.718405962 0.522327542 0.413029999
0.481846988 0.489690006 0.340797007
0.495508701 0.491334736 0.344591975
0.509550810 0.501707792 0.351549447
0.538140416 0.513092995 0.369259834
0.583301723 0.530297279 0.388488173
0.634661436 0.550158143 0.411132485
0.693611264 0.582416236 0.451360017
0.760784388 0.626565576 0.501707852
0.601897597 0.627324581 0.450853556
0.607083976 0.629095256 0.462238997
0.614800870 0.636685550 0.469070256
0.640733540 0.644655526 0.479949534
0.669955611 0.654142976 0.497786462
0.711195409 0.669450045 0.521315515
0.746616244 0.683871269 0.542694271
0.797976077 0.715749741 0.587982237
0.729790807 0.766476750 0.618848741
0.735736728 0.779506624 0.625680029
0.736495614 0.780771792 0.631245852
0.759772360 0.784566581 0.639342070
0.776343942 0.794307649 0.658696949
0.804174781 0.804933667 0.669070363
0.833649635 0.818089783 0.692725539
0.872232616 0.831878603 0.714357734
0.000379548 0.007463549 0.105881996
0.000000000 0.013662547 0.110183448
0.040101547 0.055154644 0.129285082
0.166982830 0.102972545 0.159519449
0.277166188 0.144086003 0.182669193
0.386590749 0.188741088 0.208855450
0.488171816 0.239215717 0.243263841
0.606451750 0.300948799 0.286907077
0.003542452 0.070461996 0.121442094
0.011512090 0.082605638 0.135610089
0.089816280 0.106894448 0.151676446
0.194054171 0.141049907 0.169765636
0.298798352 0.170398548 0.189753100
0.396710902 0.211511806 0.219101742
0.495003283 0.252119273 0.249462545
0.612143815 0.313725561 0.294750094
0.113346085 0.164453104 0.172422186
0.143959284 0.178621098 0.179127440
0.190133184 0.190765545 0.184566632
0.267805099 0.206831202 0.199114099
0.348892927 0.228716075 0.211132541
0.428842723 0.261226833 0.240607083
0.529031932 0.305123359 0.271473825
0.638203382 0.362428427 0.315496653
0.250853837 0.263883352 0.206324920
0.267046183 0.266666710 0.215433300
0.298292160 0.278052092 0.227198079
0.353953183 0.294117719 0.238583550
0.419481546 0.313346088 0.254649103
0.483997583 0.335989892 0.275395542
0.566223562 0.372802168 0.308539003
0.664010346 0.425427109 0.352561891
0.362681985 0.370904624 0.272738904
0.378873736 0.375964373 0.279696375
0.402276844 0.379506737 0.283364832
0.439468473 0.390133202 0.292599618
0.492852271 0.408096373 0.308791995
0.553826511 0.433523029 0.328905582
0.625553608 0.469449908 0.362934828
0.712460279 0.521315753 0.418595999
0.477798998 0.485135853 0.342694551
0.490828574 0.487792283 0.350410730
0.503352344 0.496141642 0.352814764
0.536242723 0.505123377 0.367362469
0.580518603 0.524351835 0.387729347
0.626691997 0.548260450 0.415053457
0.690196157 0.576090872 0.450600833
0.761796176 0.622264147 0.501960576
0.591903985 0.616824985 0.453384280
0.593169034 0.623908997 0.450474381
0.609108090 0.622643828 0.463883609
0.632637620 0.631625712 0.473118216
0.660847604 0.645034909 0.492346376
0.700569093 0.660341382 0.510183513
0.744212568 0.678178549 0.537761033
0.790638626 0.704617202 0.578114748
0.720303476 0.767235756 0.608222306
0.723086357 0.768500626 0.611384988
0.726754844 0.768500745 0.614674449
0.749019504 0.774952233 0.630992711
0.769386411 0.784819543 0.644655168
0.802656531 0.797722757 0.664263189
0.833522856 0.809993327 0.692979217
0.868690491 0.826691747 0.713725448
0.000000000 0.016445097 0.130170897
0.003162904 0.026944643 0.137254894
0.046047099 0.068943903 0.148893088
0.184440538 0.112839997 0.175205633
0.292979181 0.157495201 0.197596192
0.392410070 0.199746996 0.221378729
0.497279972 0.254522264 0.263377994
0.616698384 0.313978642 0.303605139
0.000379549 0.084250547 0.146489188
0.018596092 0.089690447 0.151676446
0.113472186 0.117140643 0.168880537
0.214548096 0.146109745 0.188108996
0.312966526 0.184946090 0.214041814
0.408981293 0.226059735 0.243390441
0.507906497 0.269450009 0.264769107
0.614927292 0.327387333 0.310183078
0.126755193 0.174699187 0.192915916
0.158507541 0.190891653 0.199493647
0.220114112 0.195066094 0.199873090
0.285136074 0.218216449 0.214800999
0.361923069 0.239721909 0.231119186
0.442251742 0.275395453 0.257052392
0.534977555 0.311701179 0.289057374
0.645540714 0.371284068 0.331056148
0.275774986 0.276533991 0.234281987
0.285895109 0.282859117 0.235800177
0.323971748 0.296647549 0.249209285
0.368247956 0.300442636 0.256672651
0.425806522 0.317646712 0.272232622
0.494750023 0.345351160 0.295382917
0.576470554 0.381783932 0.326122642
0.669955611 0.436938733 0.369386345
0.385578990 0.378494263 0.289943010
0.389626801 0.381910026 0.295888543
0.414421260 0.386970282 0.301707983
0.455660731 0.396837652 0.312207520
0.502214015 0.413662374 0.323466152
0.557368934 0.433902681 0.346995264
0.634535193 0.473877281 0.379886180
0.711827934 0.525869787 0.432637632
0.491840720 0.497406483 0.369765997
0.500569224 0.499303907 0.371663749
0.516002655 0.503605485 0.379127055
0.546110094 0.513472557 0.384693265
0.585705042 0.527640879 0.401897371
0.630233943 0.547501385 0.422896981
0.690322340 0.581530809 0.462365836
0.761669636 0.627071619 0.518026531
0.599367440 0.624920726 0.465401471
0.601518095 0.632637560 0.469322979
0.616571486 0.636179447 0.479317099
0.639342308 0.641998827 0.491081446
0.669323266 0.655028403 0.506768048
0.706514716 0.664642870 0.525110781
0.744465232 0.686274290 0.552308261
0.801012218 0.714611292 0.597975791
0.730550230 0.774066925 0.630486727
0.724351704 0.777861893 0.625932872
0.734092534 0.774826050 0.634281933
0.756103337 0.782289505 0.644275546
0.773181617 0.789247394 0.659961700
0.801391602 0.800252736 0.676027894
0.834914804 0.815433502 0.701707661
0.864895701 0.831625760 0.723086834
0.000000000 0.038709641 0.153067634
0.000379548 0.053636741 0.162555635
0.068564087 0.081467189 0.177482635
0.178368270 0.118279286 0.195572644
0.294370472 0.159772187 0.217837095
0.389879495 0.205692738 0.247944638
0.497280300 0.254016608 0.281973571
0.621125817 0.316382170 0.329284817
0.007969637 0.099810444 0.184187099
0.043769822 0.104490645 0.182163343
0.124604724 0.120935738 0.197090551
0.219102085 0.144465640 0.206451654
0.316381991 0.184060991 0.232384548
0.408475637 0.222391188 0.256293386
0.512207448 0.272485882 0.283238649
0.618975282 0.330803007 0.328146338
0.146995276 0.179380089 0.215812653
0.174446285 0.188361645 0.213789001
0.219481632 0.199747190 0.226439089
0.288551629 0.218089730 0.238962993
0.368500859 0.243137538 0.259708732
0.447691739 0.277292997 0.281214178
0.543579996 0.321947992 0.312966436
0.648197234 0.373940736 0.358380526
0.270841271 0.267425627 0.256166995
0.292472929 0.277672648 0.256166995
0.323845625 0.291840643 0.268311650
0.379506648 0.303858250 0.276913643
0.432005018 0.323086619 0.294117838
0.498924464 0.348134011 0.313725650
0.576850176 0.382415891 0.348133922
0.673497617 0.432131261 0.391777307
0.385831743 0.377229542 0.318279296
0.404301077 0.384693265 0.304996759
0.421884745 0.388867825 0.317646742
0.461480170 0.401012272 0.331309259
0.504870534 0.418722540 0.349778622
0.563693762 0.440607101 0.366223723
0.630992889 0.477040082 0.399873525
0.717140794 0.527767122 0.447058529
0.485768467 0.494497091 0.378621012
0.497406363 0.493864745 0.383681267
0.518152952 0.504364371 0.392410100
0.547501445 0.517773509 0.406072021
0.584440410 0.530676961 0.420619965
0.630993009 0.552182436 0.444022566
0.686653793 0.582669139 0.475648016
0.764579415 0.628969073 0.523845434
0.597469866 0.624541163 0.482732654
0.600126266 0.631246269 0.493358552
0.613409162 0.628083646 0.484123975
0.632890522 0.636305928 0.496268243
0.667172611 0.650094628 0.516761661
0.701960504 0.664263129 0.537128329
0.744338989 0.679949522 0.561163902
0.795825601 0.711701632 0.600379407
0.720682919 0.767235994 0.635799944
0.721568346 0.771789908 0.626312733
0.732574165 0.770398200 0.632510781
0.749019623 0.777482808 0.645034432
0.767615438 0.787476182 0.659961879
0.803541720 0.799367368 0.675142288
0.836053133 0.815433502 0.703984618
0.869955480 0.830233574 0.727134585
0.002403808 0.061859995 0.203668192
0.014547893 0.070082448 0.202150390
0.117393993 0.091714002 0.217963085
0.204427183 0.127766997 0.233143553
0.302340388 0.166856393 0.247691199
0.402909517 0.211005539 0.274889171
0.499557287 0.262492210 0.313472390
0.620240450 0.323339462 0.359012991
0.058570281 0.112333730 0.213914990
0.099810347 0.120303549 0.219355196
0.157368898 0.135989636 0.231246084
0.235799983 0.158633545 0.237065449
0.324351192 0.190006346 0.257431805
0.412396997 0.231498927 0.282859206
0.517900229 0.278431535 0.316508293
0.622896969 0.332574427 0.365717947
0.184060991 0.190385997 0.238203898
0.202909201 0.200252756 0.248829737
0.243643269 0.206957817 0.251612991
0.299177885 0.225679994 0.266034544
0.373687297 0.248323992 0.281214178
0.455534726 0.282352746 0.308665156
0.549905121 0.325869560 0.346236259
0.656040728 0.378241450 0.390385985
0.289436847 0.276660293 0.281720608
0.308791995 0.277672529 0.285641819
0.335231096 0.292220116 0.288298279
0.385831714 0.311448634 0.306261957
0.436179370 0.329411834 0.317520827
0.508538961 0.357621849 0.346615911
0.585199296 0.395572275 0.372295827
0.677798808 0.439215451 0.417457283
0.394054174 0.383807391 0.343959183
0.413282752 0.385072827 0.341682166
0.427704304 0.391777247 0.351043284
0.468057901 0.407463402 0.363567173
0.513219357 0.426945001 0.380771369
0.567488730 0.447311997 0.394687176
0.641619265 0.480329007 0.427830160
0.722074568 0.528020144 0.474256814
0.502214015 0.498671561 0.418722540
0.507400692 0.502973020 0.413535655
0.529285014 0.506768048 0.424161732
0.550790429 0.520177007 0.429601550
0.590006351 0.532321036 0.448829979
0.640480697 0.554965138 0.471094191
0.697280169 0.588615000 0.505502999
0.766350627 0.632510781 0.552181959
0.604047954 0.626945019 0.504364312
0.604680598 0.631119668 0.511954606
0.614294529 0.633902371 0.514737368
0.633649588 0.642125130 0.523592651
0.670841277 0.653510571 0.538140297
0.706135333 0.668311298 0.556230068
0.745983481 0.687033534 0.581277251
0.801644564 0.719165027 0.624288559
0.711701572 0.770271897 0.643516779
0.715496778 0.773561001 0.641871989
0.724098623 0.772548914 0.649841547
0.744465411 0.779506445 0.657305419
0.769386590 0.791271627 0.672486007
0.798861802 0.799873531 0.689310610
0.836053014 0.817330837 0.715496480
0.872612178 0.832763970 0.739405632
0.044528723 0.084123738 0.248829737
0.086906917 0.094749995 0.247185543
0.153953090 0.113978349 0.255660713
0.232005015 0.140543640 0.270714760
0.321821392 0.177482724 0.285009474
0.416951180 0.221125722 0.309297979
0.510942698 0.265907735 0.347627819
0.631246030 0.326248914 0.400505722
0.113978274 0.125743359 0.253890187
0.143453538 0.135357082 0.257431746
0.190512642 0.148766473 0.265907735
0.262112379 0.171537101 0.281214356
0.337760925 0.200506002 0.297659874
0.425174177 0.236559093 0.320430189
0.518406272 0.281973302 0.352055728
0.627450943 0.334724516 0.404427797
0.214927450 0.202529743 0.288677752
0.228336573 0.207842931 0.287665814
0.268943846 0.214927346 0.286527485
0.321441948 0.231878459 0.303478748
0.386970401 0.257305741 0.318405896
0.461859733 0.285895079 0.342567712
0.553826332 0.328905344 0.375838101
0.654522657 0.386084646 0.426691860
0.310436517 0.282226622 0.315369993
0.323718905 0.290575385 0.322201043
0.349272490 0.296774298 0.327261180
0.394687176 0.314484626 0.341429472
0.451107264 0.332827359 0.356230170
0.511322379 0.361796260 0.377862096
0.585325718 0.395446062 0.409108192
0.682985604 0.439215660 0.460341454
0.403162628 0.387981921 0.380012274
0.422643930 0.385325462 0.379886270
0.438709557 0.395951718 0.384060711
0.478304714 0.408855170 0.395066649
0.522580624 0.432005137 0.414294630
0.576976776 0.452751189 0.439089119
0.644781590 0.482858926 0.463377744
0.726628482 0.524351835 0.509297788
0.509171426 0.501328468 0.450347990
0.506135464 0.505502880 0.451866180
0.531688809 0.515749633 0.458950073
0.555850625 0.523086488 0.469955444
0.598228931 0.540037930 0.484629989
0.642504454 0.561922729 0.504996479
0.701707721 0.592536032 0.535357296
0.767994881 0.628968894 0.568880379
0.599746823 0.626945019 0.533586323
0.605692565 0.628336191 0.530803263
0.612650096 0.634408534 0.538393140
0.639342308 0.644655347 0.556230128
0.668564320 0.656040490 0.569386482
0.705250204 0.668943465 0.584187269
0.750790715 0.687539279 0.605692983
0.813282788 0.720176816 0.648450255
0.716381788 0.766476750 0.670841277
0.710562944 0.772801816 0.666287541
0.719038606 0.773434341 0.666034222
0.738772810 0.781277657 0.676280677
0.760784388 0.790385485 0.690702140
0.791650712 0.801011860 0.704617262
0.833143473 0.815939248 0.727767229
0.871347487 0.837697625 0.757748365
0.135230988 0.112713285 0.313346267
0.165085286 0.122200996 0.313725710
0.218342900 0.138772994 0.323466182
0.286021620 0.162555352 0.334218562
0.364832193 0.195066482 0.352308273
0.448197007 0.235294014 0.371537030
0.538140297 0.281973302 0.404807270
0.636685371 0.333585978 0.448197097
0.172675565 0.149272740 0.312207550
0.195445552 0.155218109 0.322707444
0.239215821 0.167741999 0.328019977
0.306514740 0.186464280 0.340038091
0.376091123 0.216951087 0.358760178
0.458949953 0.253890187 0.381024510
0.543073773 0.294497311 0.405566275
0.635167480 0.340923697 0.451360106
0.247312084 0.215559915 0.342314899
0.264769197 0.224541545 0.348766267
0.299810261 0.233649716 0.354838371
0.351170123 0.246299639 0.364958972
0.418975294 0.270209074 0.380518556
0.491967261 0.299557447 0.399747014
0.574067235 0.339026272 0.432131588
0.662365794 0.386464208 0.470082372
0.334092617 0.297659993 0.380139202
0.338646531 0.302087337 0.381783813
0.367742032 0.307400435 0.387223005
0.412523627 0.318911970 0.397469938
0.468817115 0.342694640 0.414927363
0.532700598 0.366223723 0.434661478
0.608728588 0.402530283 0.461479902
0.685768545 0.447058439 0.497153640
0.421505362 0.398102283 0.429728150
0.428209841 0.399999917 0.435167521
0.448323995 0.405692667 0.444022655
0.480075717 0.416445524 0.450094908
0.521062195 0.428589284 0.466793180
0.582542896 0.451992482 0.485136002
0.647185385 0.484883010 0.510689437
0.728272855 0.523718894 0.551169813
0.511448741 0.519291282 0.500569284
0.523972034 0.522454143 0.507779837
0.538393497 0.526755035 0.514484465
0.564958990 0.537508130 0.521188974
0.598355532 0.547880948 0.532827318
0.646426439 0.563693941 0.550537527
0.707653463 0.590638697 0.577735543
0.768753946 0.624288261 0.611764550
0.604807258 0.634535015 0.578621268
0.601012349 0.629474819 0.574826002
0.617583990 0.636053205 0.578115106
0.637191296 0.645667553 0.590765595
0.667931795 0.655787289 0.605692446
0.707020998 0.674004197 0.619734347
0.753826320 0.691081285 0.636812210
0.814800501 0.720683217 0.671473861
0.706388175 0.768247902 0.681593776
0.712713659 0.767362475 0.691714048
0.718026817 0.774319768 0.696267903
0.736116230 0.779759526 0.706008732
0.760405004 0.791397810 0.720429957
0.792536080 0.804174662 0.731309175
0.830613375 0.817077875 0.751296401
0.875268877 0.835167587 0.777355850
0.223908782 0.143832833 0.433269590
0.243642882 0.148513839 0.427071303
0.290322542 0.164958835 0.431498885
0.349525809 0.187981993 0.442125440
0.434282333 0.220113978 0.463124394
0.518658817 0.256040454 0.483997464
0.599620521 0.308539003 0.512586892
0.682985425 0.365085483 0.545730412
0.249842063 0.175838113 0.427324623
0.268184304 0.178873911 0.422011137
0.302466631 0.192283437 0.437823862
0.364832461 0.211385384 0.448956579
0.441113204 0.240354165 0.465907753
0.515496671 0.273244917 0.482353061
0.601011992 0.319418162 0.513093054
0.684756398 0.368374825 0.538772881
0.296521157 0.237191647 0.460215032
0.313092828 0.242251620 0.452371895
0.344971329 0.253004193 0.457684666
0.400885254 0.268184811 0.471094400
0.465781331 0.292472810 0.485135704
0.544465542 0.321821451 0.510056794
0.620619833 0.366097420 0.535357237
0.705249786 0.412397027 0.564705789
0.347375005 0.311068982 0.480834782
0.361290097 0.315116823 0.484123886
0.391650796 0.323719203 0.487918764
0.440607101 0.338266999 0.498924583
0.497912735 0.356989264 0.512460411
0.568121195 0.384060651 0.528273344
0.644149065 0.419101894 0.553699970
0.717267394 0.464136451 0.583934426
0.425174177 0.411258370 0.523592412
0.431751996 0.416192204 0.532953620
0.442378372 0.415180206 0.531815112
0.481593937 0.423023164 0.537887454
0.539025962 0.438204020 0.550284624
0.601517975 0.465527982 0.569892347
0.674383581 0.499683768 0.590638995
0.748513818 0.541429162 0.619481325
0.521188974 0.542694569 0.591271639
0.530802965 0.547501385 0.596457720
0.541935623 0.547754705 0.598102331
0.563946843 0.547754526 0.601138413
0.597090602 0.549525619 0.604300976
0.651106894 0.567488730 0.625553548
0.715116978 0.598861694 0.643516779
0.782415926 0.633143663 0.671853423
0.619228125 0.670082510 0.657305598
0.621631861 0.673118353 0.662365615
0.632637739 0.666793346 0.663250983
0.649462461 0.674763024 0.669702828
0.673371136 0.672865272 0.673118234
0.709171236 0.681340814 0.679949343
0.752561450 0.696520984 0.697532773
0.814927220 0.726881504 0.723212719
0.707526922 0.780897915 0.743073583
0.717520475 0.785832047 0.748133719
0.724730909 0.788741589 0.741176307
0.742694438 0.789879978 0.749398768
0.761795998 0.795445979 0.754585505
0.787096798 0.808348954 0.765844405
0.825427055 0.822011471 0.789373636
0.880328596 0.846299767 0.820366561
