Assets/Resources/EldamarStudio/100 Horror LUTs Pack/LUTs/cube/Mudus LUT.cube
LUT_3D_SIZE 5
DOMAIN_MIN 0.000000 0.000000 0.000000
DOMAIN_MAX 0.903226 0.903226 0.903226
0.027450999 0.019608000 0.031373002
0.155977115 0.018595714 0.056546707
0.377988815 0.000632584 0.050347578
0.651360273 0.000000000 0.076534003
0.946995616 0.002656833 0.138772801
0.091840707 0.140543997 0.057558414
0.192536697 0.135357410 0.044781707
0.376976699 0.138646409 0.060847826
0.646173298 0.147248387 0.094497286
0.950916588 0.181657091 0.137760684
0.182416409 0.295635819 0.096773997
0.259708792 0.302846372 0.096394710
0.393042386 0.302846372 0.103984565
0.654016674 0.367994547 0.106514581
0.944338620 0.436938792 0.138013557
0.261859864 0.609361410 0.087286867
0.338393271 0.620114267 0.087540001
0.496394396 0.621758521 0.090828583
0.701455116 0.631878257 0.084376998
0.957368612 0.679190099 0.164958820
0.443769753 0.925995946 0.282985419
0.506514549 0.931815088 0.302719563
0.633143604 0.927260756 0.303984553
0.806704938 0.928525925 0.325869709
0.979506612 0.931182802 0.348513395
0.034282297 0.043136999 0.136369705
0.148513392 0.025806293 0.131815106
0.316888124 0.031373002 0.160278395
0.567109644 0.000632580 0.196837410
0.916381717 0.000000000 0.245540857
0.106261700 0.110183701 0.127513990
0.176597401 0.119038403 0.148133695
0.316255540 0.132448122 0.168753982
0.572675526 0.149145827 0.201391414
0.915622592 0.187223375 0.245034665
0.194813415 0.263883710 0.180771694
0.244908094 0.271473825 0.183428109
0.361036956 0.272106409 0.182795689
0.610625982 0.344465524 0.214421406
0.930297315 0.430107474 0.254522383
0.270335138 0.584566772 0.209993392
0.348639816 0.583301544 0.210625827
0.487666070 0.594054043 0.210879117
0.679569840 0.605819225 0.210625827
0.940417171 0.674636364 0.278937489
0.476407319 0.913345814 0.359139442
0.517900050 0.913725436 0.369512886
0.637444854 0.916887999 0.380518824
0.801138520 0.919418216 0.393168688
0.979632795 0.921441793 0.418089688
0.077798583 0.030740418 0.326249421
0.194813415 0.034028992 0.305629283
0.318406403 0.039216001 0.281847388
0.568121552 0.000632584 0.332194805
0.892726004 0.002656833 0.406704813
0.154585719 0.143832996 0.276533991
0.210499987 0.146110117 0.271346956
0.314864099 0.139278993 0.272991687
0.561543345 0.151422963 0.328272969
0.890069187 0.215433195 0.414673954
0.216445401 0.259582400 0.275268555
0.268437684 0.266160816 0.291334689
0.389752924 0.293611377 0.309929967
0.590006649 0.338899225 0.340796649
0.903858483 0.442251623 0.422517627
0.297912836 0.554332614 0.361416519
0.355977297 0.560531259 0.362555146
0.482985526 0.564832389 0.363314122
0.660594225 0.582542539 0.376091391
0.928273022 0.677292705 0.456673026
0.526628315 0.899809778 0.522074759
0.558253884 0.901454508 0.520430088
0.659202754 0.907653570 0.528020203
0.806957662 0.911574781 0.538393557
0.971789598 0.914737403 0.562049150
0.194307253 0.061859868 0.577735364
0.299810529 0.053257290 0.575838149
0.460468382 0.017583590 0.548766255
0.633902490 0.002909872 0.522074282
0.913725555 0.040227715 0.580518782
0.229728132 0.192663118 0.540796995
0.306641430 0.188361987 0.539911509
0.455913812 0.178241536 0.525236964
0.612649977 0.162934989 0.512587130
0.904870450 0.246932358 0.584060669
0.277545720 0.358127952 0.507021248
0.335483968 0.361416519 0.508412480
0.468943655 0.363061398 0.505629420
0.627704144 0.367994934 0.511195540
0.897533059 0.481594205 0.595192671
0.331562251 0.569133222 0.519038439
0.388109118 0.577862144 0.521315634
0.528779507 0.595825672 0.542820871
0.704364240 0.635800302 0.579886138
0.914863944 0.705755830 0.649462402
0.598608434 0.896267891 0.685641885
0.633143425 0.894243896 0.692978919
0.714104712 0.902087271 0.703731656
0.820746064 0.902213871 0.709423900
0.960278451 0.913345873 0.720177054
0.315243810 0.171663612 0.867172599
0.405566394 0.168753728 0.873877585
0.571663618 0.174446583 0.865907550
0.779886067 0.183554679 0.863757253
0.971789777 0.240354016 0.849082708
0.362302303 0.304364353 0.861732900
0.431752205 0.303099215 0.863757312
0.590006173 0.313346028 0.857811272
0.776976645 0.324984163 0.853889704
0.968880355 0.364326209 0.843896210
0.453510165 0.532700598 0.847564757
0.510689318 0.542188287 0.843390286
0.632004738 0.541808724 0.846426368
0.781910300 0.551423073 0.841239810
0.949525595 0.562808394 0.835294068
0.520809591 0.732321084 0.853383839
0.565338135 0.733206630 0.843137443
0.668184757 0.738519609 0.841871977
0.800758958 0.741176188 0.836938620
0.940417409 0.746995568 0.844402552
0.613788366 0.909044743 0.848956585
0.644402623 0.905502856 0.854142666
0.721442163 0.906388581 0.862112463
0.839974761 0.913598597 0.867299438
0.951928794 0.933839619 0.906641603
