Assets/Resources/EldamarStudio/100 Horror LUTs Pack/LUTs/cube/Mudus LUT.cube
LUT_3D_SIZE 8
DOMAIN_MIN 0.000000 0.000000 0.000000
DOMAIN_MAX 0.903226 0.903226 0.903226
0.027450999 0.019608000 0.031373002
0.070082545 0.023908548 0.040354453
0.183302090 0.011005904 0.058823999
0.311701268 0.001138644 0.049841646
0.449588984 0.000000000 0.054016385
0.608855188 0.000000000 0.074510001
0.779253840 0.003922000 0.104870282
0.946995616 0.002656833 0.138772801
0.041492999 0.069323547 0.040354453
0.100695543 0.065022089 0.043516546
0.195066094 0.075648449 0.056926355
0.315749198 0.057178997 0.049082648
0.442883998 0.048956547 0.055913735
0.594560444 0.027450902 0.081846930
0.771410525 0.007590090 0.102972545
0.936369658 0.027704170 0.133080274
0.099431090 0.151170194 0.068943895
0.145350650 0.155471548 0.056040548
0.209235102 0.153574005 0.049336094
0.315749288 0.154333100 0.056293286
0.434661478 0.163693905 0.074383281
0.599114478 0.174066931 0.084123738
0.778494775 0.198102474 0.111321807
0.948639691 0.219861180 0.140037969
0.158633634 0.240480989 0.084629998
0.184946194 0.247185647 0.081846647
0.248323992 0.241619632 0.084123641
0.323466271 0.244402289 0.082985289
0.442884028 0.261480272 0.094876997
0.598102450 0.293105602 0.101454645
0.770904243 0.327008277 0.107653350
0.937887430 0.362428933 0.142314970
0.214800999 0.366350353 0.101074994
0.245034546 0.380138993 0.111195460
0.294497192 0.376597166 0.101074994
0.372422814 0.376470387 0.103478804
0.463757157 0.377229363 0.103478804
0.611258924 0.421884835 0.101328194
0.786464274 0.468184650 0.109803997
0.938646615 0.508159339 0.143833160
0.250727475 0.559772432 0.096394747
0.285136074 0.567109406 0.097153746
0.345477462 0.570272088 0.097406909
0.433649629 0.576723814 0.095382646
0.538140178 0.582921982 0.095888808
0.657938480 0.581277728 0.082353003
0.806072235 0.614041746 0.104743697
0.954079509 0.645793676 0.161163956
0.309424281 0.749525547 0.104870282
0.333206534 0.759266257 0.112207539
0.397090375 0.756483316 0.119671084
0.489943206 0.762428880 0.121821560
0.597469926 0.758127630 0.119418077
0.711827755 0.763314247 0.127387568
0.831878543 0.764579535 0.137508273
0.950157762 0.774193108 0.195319057
0.443769753 0.925995946 0.282985419
0.482732296 0.929538012 0.303225726
0.521441936 0.926501870 0.303225815
0.594180644 0.928525925 0.301454395
0.678178310 0.929664552 0.311068922
0.778115153 0.929284990 0.323592395
0.878811121 0.926881373 0.333838940
0.979506612 0.931182802 0.348513395
0.034914549 0.039974999 0.062239543
0.063757546 0.030993454 0.066540092
0.164832652 0.030234357 0.086527549
0.261985838 0.027830547 0.097912893
0.382922381 0.009487809 0.115496546
0.546489656 0.002024260 0.142947540
0.734471500 0.003922000 0.151170284
0.929285347 0.000000000 0.184060991
0.046932094 0.050094999 0.066160537
0.093611538 0.057558544 0.077545993
0.160151646 0.069323443 0.089690447
0.261985928 0.070461892 0.102213643
0.382163197 0.068943903 0.118658736
0.544212461 0.059582613 0.137887284
0.728652954 0.024288386 0.153573796
0.910942554 0.028715895 0.181024700
0.109297544 0.120556191 0.097153991
0.130423546 0.128020540 0.108159088
0.186464086 0.125743449 0.104617544
0.271347642 0.136243105 0.108032987
0.396964192 0.152308747 0.128779441
0.554332614 0.167994648 0.143200472
0.742694080 0.188994542 0.163061097
0.929664910 0.214800730 0.184313819
0.157368988 0.216825083 0.120176829
0.180518538 0.223529637 0.117773533
0.230613619 0.214421183 0.120176740
0.297153622 0.214421183 0.124857634
0.412650287 0.243010625 0.137887090
0.560531378 0.276660532 0.142188549
0.746362984 0.315243274 0.159139544
0.920429945 0.355977237 0.181151211
0.216192365 0.351169914 0.148893192
0.227957085 0.355850816 0.144591749
0.287918746 0.353067547 0.146109834
0.358380705 0.351423383 0.146109834
0.443263561 0.355344355 0.144085988
0.585958064 0.396331102 0.152055800
0.768753886 0.456420064 0.156862810
0.936496019 0.497280180 0.184946373
0.255787522 0.535863221 0.151043355
0.276534021 0.543073773 0.145730287
0.338140368 0.541935384 0.141935095
0.421252280 0.547880828 0.148260623
0.524351716 0.556609571 0.144465819
0.640607297 0.556863010 0.145477355
0.784945965 0.601012051 0.151170284
0.941808701 0.644908071 0.200885445
0.296521276 0.737254798 0.145097837
0.336242825 0.737254798 0.164832547
0.390259087 0.739152491 0.160910353
0.481973529 0.741176426 0.162175730
0.582669497 0.745477438 0.163820446
0.696268439 0.751170278 0.173055112
0.816951573 0.754079521 0.183427811
0.947627902 0.770651519 0.229601353
0.441619128 0.913219571 0.301833838
0.468184561 0.917900085 0.305881947
0.508918345 0.914104879 0.303099424
0.580012619 0.913345814 0.312586814
0.667931676 0.915117145 0.321948022
0.772548974 0.922833323 0.338266790
0.870461822 0.919544756 0.355977237
0.974952638 0.920176744 0.370145559
0.028210094 0.043136999 0.161417007
0.095256455 0.027830547 0.157115653
0.183428004 0.025047192 0.161417007
0.272359550 0.031373002 0.167362541
0.383934081 0.028969193 0.188868001
0.521568537 0.014041752 0.207969740
0.705502510 0.000000000 0.238836274
0.911574543 0.000000000 0.265528083
0.087033994 0.074889451 0.145730197
0.119164996 0.075648449 0.139911547
0.168121561 0.075268999 0.147754550
0.257431716 0.083871000 0.164579183
0.370651186 0.093358807 0.187729552
0.514990807 0.085009545 0.206830993
0.703478813 0.058570549 0.233523175
0.897659540 0.060088504 0.264769167
0.121442094 0.124605000 0.146489099
0.157621905 0.138773009 0.156356543
0.208475992 0.139532104 0.171663180
0.267931998 0.142568007 0.169133201
0.376723260 0.159013197 0.193421990
0.534724653 0.172675446 0.218595996
0.721948326 0.187096789 0.234282285
0.912586570 0.223656178 0.268057913
0.180265903 0.222517282 0.184566647
0.199114293 0.221758291 0.191271186
0.245667547 0.219355091 0.188361630
0.296901077 0.215433300 0.187223196
0.401012063 0.237318188 0.200885549
0.546489477 0.267678529 0.216571659
0.732068360 0.311068803 0.241619453
0.912966490 0.354332536 0.262998194
0.230613902 0.338266969 0.208475992
0.246552736 0.340923727 0.214674279
0.287539154 0.347754270 0.210753098
0.352435201 0.342947274 0.210753083
0.434029073 0.345351100 0.209993988
0.574320138 0.391397566 0.224414617
0.754332721 0.448703349 0.240607291
0.927007914 0.497153729 0.272106320
0.267298996 0.535230756 0.230234265
0.294244319 0.542188346 0.228462636
0.343579829 0.543326795 0.224541441
0.423023254 0.545351028 0.231245905
0.524477899 0.545224249 0.226059452
0.628463089 0.554712176 0.230107456
0.784566998 0.599746943 0.250600785
0.942947268 0.643769681 0.297406644
0.324225068 0.736875355 0.258444279
0.351423025 0.739658117 0.259709269
0.411258578 0.743326664 0.263124555
0.495129466 0.748387158 0.263124555
0.592915773 0.745730281 0.267678559
0.701075435 0.746868908 0.269449711
0.811638534 0.754206240 0.273877084
0.943706155 0.773940265 0.325110704
0.485768497 0.917140841 0.391271055
0.513598859 0.915369749 0.393169075
0.549019337 0.919797540 0.401897609
0.613029480 0.922580540 0.407590121
0.690702140 0.921821773 0.407716632
0.778621435 0.922960103 0.415180415
0.877039790 0.921694934 0.427071422
0.979379952 0.923465729 0.442378163
0.043896634 0.030234357 0.262491912
0.118153185 0.019101642 0.260594279
0.196837634 0.028589644 0.250853837
0.271347642 0.033650000 0.236559272
0.379000485 0.037318356 0.252498627
0.516002357 0.012776909 0.278052002
0.702593207 0.002783356 0.317267299
0.891713798 0.006071980 0.352814615
0.093738087 0.091967441 0.225300282
0.142568097 0.087666094 0.232131720
0.190892190 0.087666094 0.222264379
0.262239277 0.080202639 0.223149985
0.365211904 0.090828896 0.242631197
0.502087176 0.084629908 0.279063731
0.684629977 0.058950096 0.312839925
0.878178120 0.086527683 0.345730633
0.142820626 0.145983741 0.223782375
0.162682086 0.150663838 0.216951013
0.212144092 0.149145827 0.227071270
0.269702643 0.149145842 0.230613619
0.368754297 0.163314536 0.251739621
0.513599277 0.173054993 0.279063821
0.693991244 0.191777378 0.320050359
0.890828133 0.239595190 0.355850816
0.172169283 0.204174265 0.230993271
0.200885653 0.205819279 0.235293821
0.250094831 0.221125722 0.249335825
0.312334239 0.234408617 0.256799281
0.397343814 0.237065077 0.269323289
0.520430207 0.264516264 0.286653876
0.703858197 0.303478569 0.321442276
0.895256221 0.362808257 0.360910743
0.242631450 0.327640623 0.268437624
0.257178843 0.328272939 0.269323170
0.299177974 0.331815273 0.280834764
0.352688015 0.331056178 0.276407182
0.421632022 0.334218383 0.276027620
0.561416507 0.378367931 0.301201642
0.737760842 0.441113025 0.330550194
0.914484322 0.496647716 0.375079066
0.273877650 0.507273972 0.304996729
0.298924625 0.510815740 0.307653278
0.346995473 0.510563016 0.310816079
0.424541265 0.517267406 0.316002637
0.509297967 0.525869548 0.310815871
0.615053713 0.534471750 0.319165021
0.768247843 0.587476254 0.344339162
0.927387655 0.640480578 0.400379539
0.341049850 0.718785524 0.356103539
0.367236078 0.722960234 0.360151649
0.414294988 0.716634929 0.352055639
0.495129883 0.721062541 0.355091542
0.589120865 0.729411900 0.363946557
0.692726195 0.734471858 0.366982758
0.803921223 0.739531875 0.376344293
0.936242759 0.765718043 0.423276424
0.511448383 0.907653391 0.477798879
0.520556450 0.908159316 0.471726537
0.563187599 0.906135559 0.478178024
0.616571665 0.908665597 0.477166206
0.695002794 0.907400429 0.483870834
0.781910360 0.914104760 0.489690185
0.878684342 0.912586570 0.507526696
0.972548962 0.918152869 0.521062195
0.114358187 0.036812194 0.394307375
0.160657898 0.040733807 0.384060800
0.238962993 0.040733807 0.375332177
0.322707266 0.041998647 0.355344534
0.401897162 0.032890804 0.343959183
0.526628733 0.012018008 0.367868364
0.711701274 0.002403808 0.409361452
0.905629158 0.006831180 0.445540547
0.144971386 0.105376348 0.354458839
0.182669103 0.110562898 0.359013170
0.243390530 0.106261738 0.349904746
0.312966526 0.101201907 0.337634295
0.383428037 0.093611635 0.324478000
0.519291401 0.085515618 0.358760387
0.697280049 0.057178807 0.398355573
0.889563322 0.099304214 0.453763634
0.184187084 0.176344097 0.330550104
0.211258650 0.181910098 0.347248286
0.254522473 0.175585002 0.332194984
0.315749288 0.170018911 0.324730724
0.382163286 0.166856214 0.321947992
0.522580922 0.176976472 0.363441080
0.705376446 0.192536190 0.408096284
0.893611491 0.256293625 0.458317906
0.213915184 0.242757991 0.329791397
0.237824544 0.247185647 0.336622536
0.280075639 0.245920181 0.323845744
0.343074292 0.253383636 0.337254614
0.407084197 0.252878278 0.329538375
0.537381113 0.279822826 0.369639188
0.708412647 0.316887975 0.412903011
0.880075872 0.391650707 0.464516014
0.246172994 0.333712995 0.332827389
0.266793549 0.329791397 0.342694610
0.317393988 0.340670198 0.347880989
0.394940078 0.367615640 0.370651186
0.477039993 0.384440184 0.381656975
0.576344132 0.398482382 0.395951927
0.729158640 0.447691441 0.430740088
0.901960552 0.514737487 0.483870983
0.301707983 0.511574805 0.394813180
0.320429981 0.512333810 0.394307643
0.371030629 0.517140865 0.396837533
0.448956281 0.527261198 0.404933482
0.522580504 0.530803204 0.405059963
0.619101942 0.541556060 0.413788706
0.765211582 0.594307244 0.450348079
0.921189189 0.649588704 0.501834154
0.396204978 0.709297836 0.458191067
0.414673924 0.713978648 0.466034383
0.455787450 0.714358091 0.466793388
0.512207150 0.718153298 0.459709257
0.597722948 0.722960174 0.468437463
0.692852497 0.725490272 0.465401947
0.799746811 0.734471560 0.475901186
0.934851170 0.775078893 0.530803204
0.546489418 0.905629158 0.567362547
0.566223741 0.904490530 0.573940396
0.594433486 0.904870272 0.575837731
0.648070931 0.905629158 0.577356040
0.715117157 0.909930408 0.584313750
0.791144729 0.913599014 0.588867724
0.879316747 0.914231598 0.600126445
0.967868388 0.920809746 0.601644456
0.174066737 0.056799740 0.536242485
0.219354823 0.054775480 0.528273463
0.303605169 0.048956256 0.526249170
0.390132904 0.033017002 0.506767750
0.485135704 0.012903010 0.492852718
0.579253495 0.001897740 0.481593996
0.728526294 0.006198708 0.503225565
0.905629277 0.036432497 0.551170409
0.184060931 0.120177031 0.496015251
0.225680023 0.123719089 0.499936491
0.292599380 0.116761096 0.495762020
0.382289708 0.108918093 0.487918913
0.467805237 0.094117999 0.478304595
0.554965496 0.078431100 0.466919690
0.707653463 0.053257387 0.493737817
0.894876599 0.118658982 0.551802635
0.226185977 0.205060095 0.485894829
0.261100620 0.203795016 0.488171816
0.311701745 0.199240834 0.486780375
0.386211008 0.193801448 0.474383384
0.467678815 0.189500093 0.465401828
0.555724442 0.180139184 0.454648852
0.722201288 0.196331471 0.505123377
0.896774232 0.270967752 0.554712176
0.248197377 0.290828437 0.466793090
0.276407391 0.292220116 0.466287345
0.325237006 0.287413031 0.460847557
0.391271263 0.284630388 0.453004539
0.467172444 0.284250826 0.456040621
0.557622135 0.283997267 0.450727433
0.719291568 0.324098617 0.503352344
0.888298333 0.405186534 0.562934518
0.272612274 0.390765190 0.467678726
0.295508802 0.393168926 0.457684755
0.349651814 0.391144753 0.462492466
0.419354647 0.399873465 0.468184650
0.506135106 0.412017703 0.477039695
0.606957674 0.424541265 0.489816725
0.742314816 0.471853256 0.524984062
0.897912681 0.546109915 0.582922041
0.311321735 0.512460470 0.475521743
0.331309080 0.519797385 0.476660281
0.383048475 0.527008116 0.481593996
0.461227268 0.536369205 0.497533172
0.564199924 0.570271909 0.523845494
0.663883686 0.585199237 0.536369443
0.775711596 0.619354486 0.557874978
0.910309613 0.671347260 0.615053594
0.408475578 0.705376267 0.540670335
0.428715855 0.706388235 0.545097888
0.473244846 0.711195111 0.547754645
0.543579936 0.713978410 0.563946784
0.627324641 0.723466277 0.578115165
0.704743743 0.727134705 0.576976478
0.800126076 0.737507582 0.583554685
0.925743282 0.785452485 0.640607297
0.592283428 0.894496977 0.664895415
0.611511409 0.895761967 0.669576168
0.635167480 0.895256042 0.669955492
0.682985246 0.899430811 0.678051770
0.727007985 0.901960850 0.673624337
0.795192719 0.901960790 0.682352543
0.877292573 0.909044743 0.691713929
0.964579523 0.916381657 0.698418498
0.248323992 0.085262284 0.707400262
0.281973571 0.084503286 0.703099251
0.362555265 0.076660194 0.697027326
0.457432270 0.060088284 0.690702260
0.570777833 0.022517091 0.681973338
0.685135722 0.000379548 0.675774515
0.788741529 0.004553996 0.658317804
0.917393982 0.062871389 0.669829011
0.252625018 0.148260534 0.673497558
0.286147982 0.143453091 0.679569840
0.363061577 0.137760803 0.679822803
0.458570898 0.127893537 0.673118234
0.564199924 0.111321732 0.666666865
0.673371255 0.097533278 0.664389729
0.781783581 0.071726814 0.646173239
0.908159256 0.148639828 0.661100507
0.275648266 0.241872281 0.676660478
0.304490894 0.245161280 0.676786542
0.374320298 0.245793894 0.664895833
0.464895725 0.235420570 0.661353827
0.563820243 0.234788179 0.660974264
0.669702768 0.225806564 0.655028224
0.779759765 0.226565644 0.651359618
0.909045041 0.284882873 0.663124502
0.311701298 0.354459256 0.649335921
0.339784861 0.358886927 0.656293452
0.391397774 0.355977446 0.649082720
0.470461547 0.353953183 0.642125189
0.565211713 0.354332715 0.641239762
0.664263129 0.356609643 0.638583183
0.770904481 0.358001530 0.633143783
0.904237807 0.420493543 0.664136767
0.338140458 0.477419376 0.646805644
0.360278249 0.482353091 0.644528747
0.418089658 0.481467247 0.648323834
0.490069449 0.483744353 0.640101075
0.579506397 0.485135645 0.638077259
0.669449568 0.483870924 0.636053085
0.765844524 0.490575612 0.636306047
0.902719736 0.556229889 0.679063857
0.380265743 0.606578231 0.653130829
0.399494052 0.609234750 0.651233137
0.446299553 0.609993696 0.650221050
0.522454262 0.608855247 0.650474191
0.609361410 0.618469238 0.654648542
0.700822294 0.626059294 0.659203053
0.795699060 0.643643498 0.666413546
0.908032894 0.694117963 0.715622604
0.423402548 0.723339558 0.652118504
0.438456804 0.720683277 0.655281544
0.485389084 0.719544590 0.655407548
0.551676154 0.727134943 0.655913889
0.640733659 0.730676651 0.666287601
0.739278734 0.754332781 0.696774006
0.829601288 0.766856253 0.708032846
0.932194889 0.801264703 0.746742487
0.602656543 0.895003021 0.745098114
0.616065860 0.896900296 0.745730042
0.643389881 0.892979145 0.746868670
0.690955043 0.898671389 0.758633673
0.753194153 0.896900296 0.770018816
0.820493042 0.902466595 0.780518711
0.878178239 0.901834071 0.783807516
0.957241774 0.916508317 0.794940054
0.315243810 0.171663612 0.867172599
0.354079634 0.169765785 0.874130309
0.426312685 0.168500707 0.875142455
0.515243232 0.172928393 0.868690789
0.630866706 0.174699217 0.867299438
0.749019325 0.183048502 0.866034269
0.863124847 0.203415215 0.856925726
0.971789777 0.240354016 0.849082708
0.326628804 0.221758604 0.866540372
0.354079485 0.220493451 0.862997949
0.430107564 0.219860867 0.863251209
0.523592651 0.223149702 0.859835386
0.630107820 0.227324337 0.862618446
0.744971335 0.239215866 0.857052147
0.858823359 0.255028099 0.848070860
0.975205541 0.284756362 0.854395807
0.373434454 0.331688851 0.857431829
0.401897490 0.334092230 0.852371812
0.457811892 0.333712816 0.863757193
0.541556001 0.339405537 0.858696878
0.642884314 0.344465584 0.852371812
0.751929343 0.354585588 0.849841774
0.863124847 0.369639426 0.850600898
0.965844512 0.394686490 0.844402373
0.437570870 0.464769065 0.848829806
0.453890115 0.469196796 0.850600600
0.498798192 0.470208526 0.847944558
0.568880379 0.474003702 0.844275415
0.659582376 0.478811026 0.843010843
0.753826737 0.482732296 0.840860188
0.853763521 0.492472798 0.838962674
0.954459071 0.500569046 0.833016872
0.474636197 0.587096632 0.838077188
0.495635331 0.591903925 0.842757642
0.537760735 0.595319450 0.841998518
0.601264834 0.598102331 0.838456750
0.680328846 0.602782965 0.840986788
0.761416674 0.604806781 0.834914505
0.854522526 0.609108150 0.831625462
0.948260427 0.611764610 0.832004726
0.511701584 0.705249488 0.852118850
0.532827497 0.703858554 0.844908595
0.569386482 0.708918333 0.842378080
0.629095376 0.708918333 0.840860188
0.697280049 0.715116978 0.838962734
0.773687482 0.715622544 0.834661603
0.863124669 0.717773736 0.840227723
0.941176295 0.723466516 0.842884362
0.550158262 0.812650144 0.853510618
0.567741990 0.810246944 0.840480685
0.601517677 0.808096170 0.839848042
0.656420290 0.810879230 0.847438097
0.722327590 0.807210863 0.844781816
0.792283058 0.809740782 0.841872334
0.863251209 0.816824913 0.850347579
0.941049635 0.825933099 0.853890002
0.613788366 0.909044743 0.848956585
0.618975580 0.909424365 0.862238884
0.651233494 0.909803808 0.854901671
0.693738461 0.909297824 0.854142785
0.754206300 0.906261802 0.863251209
0.822264433 0.911574602 0.861480296
0.886527777 0.914231598 0.877798557
0.951928794 0.933839619 0.906641603
