Assets/Resources/EldamarStudio/100 Horror LUTs Pack/LUTs/cube/Mudus LUT.cube
DOMAIN_MIN 0 0 0
DOMAIN_MAX 1 1 1
LUT_3D_SIZE 32
0.027450999 0.019608000 0.031373002
0.027450999 0.019608000 0.025300227
0.033902772 0.021758227 0.025679775
0.048071161 0.023529001 0.031246159
0.070082545 0.023908548 0.040354453
0.097406931 0.026944935 0.049462065
0.127260998 0.024920678 0.053510323
0.155977115 0.018595714 0.056546707
0.183302090 0.011005904 0.058823999
0.210626513 0.007969513 0.058823992
0.249588862 0.002024001 0.050095130
0.280961245 0.000000000 0.049082741
0.311701268 0.001138644 0.049841646
0.347628057 0.003668968 0.047311965
0.377988815 0.000632584 0.050347578
0.413156599 0.000000000 0.050980002
0.449588984 0.000000000 0.054016385
0.487286091 0.000000000 0.060088992
0.529790998 0.000000000 0.066161007
0.566729724 0.000000000 0.072233006
0.608855188 0.000000000 0.074510001
0.651360273 0.000000000 0.076534003
0.688172460 0.000126512 0.082858987
0.733712912 0.003162904 0.095003001
0.779253840 0.003922000 0.104870282
0.823403299 0.002530328 0.112586990
0.865402043 0.000000000 0.118658997
0.904870391 0.000000000 0.124730989
0.946995616 0.002656833 0.138772801
0.977103174 0.003922000 0.153953180
0.993042350 0.003036392 0.169133589
0.996078014 0.000000000 0.184313998
0.036559388 0.022643613 0.028336613
0.027450999 0.019608000 0.031373002
0.042504773 0.019608000 0.033902775
0.057685159 0.023023387 0.037824225
0.075774997 0.026944933 0.042631160
0.100442544 0.029981324 0.046426449
0.130297244 0.025426744 0.053004384
0.157368794 0.028462704 0.053257290
0.184820086 0.025427004 0.052751228
0.216698498 0.011005903 0.052751228
0.246932745 0.010879386 0.055661093
0.279949367 0.003036134 0.045035008
0.309424281 0.000000000 0.043010741
0.342062056 0.000885613 0.044528611
0.377988815 0.000632584 0.050347578
0.408348978 0.000000000 0.053383805
0.446552575 0.000000000 0.055534579
0.486021101 0.000000000 0.060088992
0.523719013 0.000000000 0.066161014
0.569007099 0.000000000 0.075015657
0.604301095 0.000000000 0.077545613
0.645287991 0.000000000 0.078557745
0.688172460 0.000126512 0.082858987
0.733712912 0.003162904 0.095003001
0.779253840 0.001644712 0.102592997
0.823403299 0.000885613 0.110942274
0.865402043 0.000000000 0.118658997
0.904870391 0.000000000 0.124730989
0.941682577 0.005312988 0.133459821
0.976343930 0.005186847 0.144339204
0.995192647 0.003036392 0.156103984
0.996078014 0.000000000 0.169133618
0.034915000 0.029980775 0.036052998
0.038709611 0.029095387 0.034788389
0.038203772 0.032511000 0.033523228
0.060720999 0.029980998 0.042125225
0.079696327 0.032890547 0.047058549
0.103984766 0.039468933 0.046552934
0.135483637 0.034914903 0.052118998
0.165844396 0.032131549 0.053257290
0.190386102 0.037444774 0.050980002
0.218216494 0.027577771 0.050980002
0.250853956 0.022517774 0.049588870
0.281214744 0.018469263 0.050600998
0.310436398 0.010626001 0.040101361
0.340291053 0.008349031 0.039341997
0.376723796 0.006451774 0.045413993
0.410499752 0.004300999 0.049082804
0.443896145 0.002783195 0.055155188
0.484503299 0.001518199 0.058824003
0.522453964 0.000000004 0.061860014
0.560784280 0.004300999 0.072865427
0.602529943 0.000506003 0.078178033
0.639468491 0.000000000 0.080455258
0.684123933 0.000126512 0.084883243
0.733712912 0.003162904 0.095003001
0.777103066 0.001644712 0.102592997
0.821252525 0.000000000 0.108664989
0.863251269 0.000506064 0.116002291
0.902719617 0.002150774 0.120429993
0.948133826 0.001011988 0.133459821
0.975711405 0.005313217 0.146110177
0.996963620 0.018090151 0.160404965
0.998228788 0.036559317 0.177608997
0.033902999 0.045414321 0.041872162
0.041745774 0.042884320 0.037571389
0.050347771 0.045920160 0.043390386
0.063504159 0.049462162 0.037823997
0.085894704 0.044908158 0.047691002
0.105755866 0.053130932 0.043769773
0.137634322 0.052118998 0.050853837
0.168121234 0.050601158 0.055787612
0.197722927 0.049842060 0.051992130
0.219987333 0.049335994 0.050979998
0.249082848 0.043517001 0.048070870
0.284250349 0.037444808 0.048323840
0.313472480 0.032510679 0.047185484
0.341302931 0.027071159 0.038836129
0.376723796 0.025047421 0.041871995
0.409487635 0.022011517 0.046805643
0.445667386 0.017710354 0.052878026
0.481467545 0.014674582 0.061986405
0.519671023 0.011638192 0.063884012
0.558886707 0.011891164 0.071220852
0.595951855 0.009108003 0.078937583
0.638456404 0.002024131 0.081973195
0.681467116 0.001138649 0.087792829
0.729664743 0.001897743 0.095762096
0.776976585 0.001644712 0.102592997
0.816951334 0.001265161 0.106134988
0.860468149 0.000759097 0.113725059
0.902213573 0.002277287 0.119797446
0.942061722 0.011385488 0.130929813
0.982289314 0.020746373 0.146110177
0.997343183 0.033523329 0.159519374
1.000000000 0.080582157 0.181909844
0.041492999 0.069323547 0.040354453
0.047185548 0.064389996 0.033902999
0.057938091 0.063251317 0.043517001
0.074889153 0.065401547 0.052245382
0.100695543 0.065022089 0.043516546
0.109803930 0.071094088 0.037444547
0.138393328 0.072865091 0.045793548
0.167362243 0.073750705 0.052751321
0.195066094 0.075648449 0.056926355
0.222390503 0.072612055 0.050853580
0.247944295 0.066666543 0.047691323
0.280455232 0.061733093 0.047944292
0.315749198 0.057178997 0.049082648
0.343326628 0.054395642 0.046552967
0.376597226 0.054395642 0.043769583
0.408728540 0.052371904 0.048703089
0.442883998 0.048956547 0.055913735
0.481087983 0.043517064 0.064642563
0.514484465 0.040480666 0.073750973
0.555091739 0.035041086 0.077292651
0.594560444 0.027450902 0.081846930
0.634282231 0.019101674 0.087286867
0.682732463 0.010500055 0.090448990
0.725490212 0.007969734 0.096521005
0.771410525 0.007590090 0.102972545
0.815180302 0.008222762 0.106261544
0.853637099 0.011385575 0.108791605
0.902213812 0.008349190 0.123971976
0.936369658 0.027704170 0.133080274
0.971663535 0.050474469 0.145351171
1.000000000 0.075648166 0.158760369
1.000000000 0.112080991 0.167867988
0.059708998 0.090575933 0.049462065
0.062745385 0.093611546 0.040354453
0.074889705 0.086527765 0.042505000
0.089563698 0.084503703 0.050600998
0.106767543 0.086274482 0.052624933
0.121947929 0.083238862 0.046552934
0.146236315 0.089310870 0.050600931
0.169639409 0.089437157 0.049462229
0.192409933 0.088171996 0.045920223
0.222390503 0.087792441 0.047817964
0.255534619 0.081846930 0.044655062
0.281340897 0.081847191 0.041619327
0.310436279 0.082226865 0.040733937
0.340290993 0.081720799 0.040480968
0.370651752 0.081720799 0.043516576
0.408728778 0.081720799 0.052751601
0.443643123 0.082732670 0.060847864
0.478051603 0.082985513 0.067425922
0.511448026 0.079949826 0.073750973
0.544845164 0.076913446 0.077292651
0.585452497 0.071473867 0.080328740
0.626945257 0.065907672 0.084883064
0.670588434 0.062112439 0.090448990
0.716128886 0.065148830 0.096521005
0.756609917 0.067172512 0.104870282
0.798988283 0.066919543 0.109297931
0.841493070 0.066413864 0.111827992
0.890069842 0.072106354 0.127008364
0.933333635 0.082352772 0.131562099
0.970271885 0.096520893 0.140923470
0.997469664 0.111574516 0.152688369
1.000000000 0.130296990 0.161796004
0.080455318 0.121948317 0.050980002
0.086021379 0.122454248 0.044402067
0.095508993 0.121188864 0.043896452
0.110309824 0.115370154 0.045793839
0.125489861 0.115496635 0.047311679
0.140670255 0.114611253 0.045540679
0.163440958 0.111574993 0.044528678
0.187476337 0.114357993 0.047311679
0.208855420 0.112966314 0.043896094
0.237444654 0.112966314 0.046932485
0.258064300 0.109677643 0.046679448
0.287412941 0.107653640 0.047691062
0.315622926 0.110183671 0.046805676
0.347122341 0.111828022 0.047311738
0.375205815 0.114105314 0.052625217
0.410373598 0.114105314 0.058064640
0.445161313 0.114105314 0.065401800
0.478178114 0.115496635 0.069196679
0.513472319 0.114358276 0.071473695
0.554459095 0.116381958 0.082353294
0.597343445 0.111448318 0.087286644
0.639089286 0.109424315 0.090955190
0.678811014 0.111068636 0.095508993
0.726755202 0.111701220 0.101581000
0.770018876 0.117014304 0.105376281
0.809740603 0.120303310 0.112586990
0.852118731 0.121062636 0.115875997
0.900695503 0.127134636 0.124984100
0.943959236 0.138519615 0.137128159
0.975838065 0.147122055 0.147248179
0.998608351 0.163061231 0.161922887
1.000000000 0.186463952 0.175964639
0.091840707 0.140543997 0.057558414
0.099556990 0.145477697 0.048196997
0.113219410 0.143326923 0.046932064
0.124098249 0.140290856 0.049968451
0.137760550 0.138014153 0.046932157
0.150410935 0.139278993 0.043136999
0.176470637 0.136749089 0.051359698
0.192536697 0.135357410 0.044781707
0.213789105 0.134598315 0.045540612
0.239342511 0.133712694 0.048576776
0.264515996 0.132447869 0.050347995
0.288804263 0.133080706 0.049082741
0.317267269 0.133080706 0.053257290
0.349652320 0.135610372 0.054775417
0.376976699 0.138646409 0.060847826
0.406578183 0.140923694 0.065275282
0.444529146 0.142441496 0.069829479
0.477798820 0.143832982 0.073497698
0.516255736 0.145856977 0.075521715
0.556609750 0.143706337 0.078431301
0.599620461 0.149272397 0.088425286
0.646173298 0.147248387 0.094497286
0.684377015 0.153320387 0.098418504
0.732953787 0.156356394 0.106008708
0.778621316 0.159266114 0.109803572
0.819734335 0.163946435 0.114231631
0.860214770 0.167488828 0.120303705
0.907652855 0.173561111 0.126375705
0.950916588 0.181657091 0.137760684
0.982795358 0.195192829 0.153320163
1.000000000 0.203921750 0.166729599
1.000000000 0.230486691 0.182669282
0.099431090 0.151170194 0.068943895
0.107020706 0.159519494 0.055281322
0.121821545 0.161543325 0.053257097
0.136243030 0.158507258 0.053763162
0.145350650 0.155471548 0.056040548
0.154458925 0.157748163 0.047691256
0.178241640 0.154965326 0.055028416
0.198608696 0.154333100 0.059203006
0.209235102 0.153574005 0.049336094
0.230487496 0.150537610 0.052371711
0.259709090 0.150411099 0.055407871
0.288804263 0.151676267 0.055913933
0.315749288 0.154333100 0.056293286
0.346110046 0.154586062 0.061859995
0.373940498 0.157621682 0.066919990
0.402782887 0.161416814 0.069829285
0.434661478 0.163693905 0.074383281
0.476660579 0.168627247 0.076787092
0.519545019 0.174952269 0.082606100
0.559266388 0.172169179 0.083364740
0.599114478 0.174066931 0.084123738
0.642378330 0.182163179 0.091461092
0.685009539 0.188235179 0.097659573
0.732953787 0.194307193 0.106767811
0.778494775 0.198102474 0.111321807
0.822011590 0.202656507 0.116508342
0.861480057 0.206704259 0.123592995
0.906514406 0.213029981 0.130170986
0.948639691 0.219861180 0.140037969
0.982795358 0.231246382 0.156483039
1.000000000 0.245667651 0.172042683
1.000000000 0.260847270 0.181151092
0.120683491 0.175458983 0.078051515
0.123719104 0.181530982 0.059835520
0.135610268 0.185578719 0.059076488
0.148387164 0.185831666 0.062365487
0.157495439 0.182795942 0.062112555
0.166603029 0.179759562 0.059076939
0.183301643 0.174446493 0.058317974
0.200379699 0.173434719 0.060594782
0.215307087 0.174826398 0.061480105
0.230487496 0.171790004 0.058444485
0.257558882 0.171663493 0.061480094
0.287033468 0.171663493 0.064516254
0.314990282 0.172928646 0.068437964
0.340038061 0.175838456 0.074004002
0.370398819 0.178874075 0.074004002
0.403036267 0.184313491 0.074257009
0.436179668 0.187223017 0.078937672
0.473624200 0.189879641 0.085895479
0.525237501 0.202024445 0.085895494
0.565338373 0.205566108 0.094497137
0.602909446 0.208222732 0.093611486
0.642631352 0.212523982 0.091208130
0.688045919 0.218595967 0.094623961
0.733586371 0.224667981 0.103731580
0.776976585 0.228463262 0.108285800
0.819607854 0.234282285 0.114105143
0.861480057 0.243137062 0.123592995
0.900948405 0.252245456 0.135736987
0.940670431 0.261227340 0.142314985
0.976723611 0.273751199 0.157495156
1.000000000 0.288045973 0.175079077
1.000000000 0.300316483 0.184187487
0.130297124 0.188108996 0.066793002
0.142062351 0.197090864 0.066033997
0.142947733 0.198861867 0.067172773
0.155597866 0.198608577 0.072738707
0.168880552 0.196711004 0.072865002
0.172928795 0.201264933 0.062239062
0.189626738 0.193168551 0.069323450
0.207842976 0.191650718 0.070461996
0.225047320 0.193168908 0.070714772
0.242378503 0.190132514 0.067678608
0.257558882 0.187096864 0.061733127
0.282858968 0.189120606 0.064769253
0.310309619 0.192283288 0.068944000
0.336622179 0.197343871 0.074510001
0.364326090 0.203036323 0.074510001
0.399493873 0.208475724 0.084123991
0.440986484 0.214547724 0.084630191
0.481340706 0.217963323 0.087539986
0.519291997 0.223276824 0.092094004
0.562555730 0.232637525 0.092094004
0.600252867 0.237823859 0.095129870
0.640733659 0.242884248 0.096141733
0.687792957 0.248956725 0.102719642
0.724984050 0.255028754 0.100695975
0.772801697 0.261100739 0.109803572
0.815180123 0.267552525 0.115496472
0.856673062 0.277166605 0.122580998
0.900948405 0.288678169 0.129917979
0.943073630 0.292472899 0.139405131
0.977482438 0.302846402 0.152814537
1.000000000 0.316002846 0.169386595
1.000000000 0.328146875 0.178494990
0.143453255 0.212397501 0.072865248
0.153573766 0.217457384 0.070840992
0.155091733 0.224161983 0.073244773
0.161416888 0.222897142 0.077292837
0.178494543 0.219481498 0.078431003
0.188108936 0.218975514 0.072864994
0.203794986 0.218469441 0.072359063
0.218722403 0.214294761 0.076533742
0.235420600 0.215433404 0.075774841
0.252372235 0.212397009 0.072738774
0.269702852 0.211385116 0.070841253
0.288931221 0.214421242 0.070840992
0.314357877 0.216318503 0.073877379
0.341176271 0.220113993 0.078811027
0.364958674 0.222643986 0.080582254
0.401517600 0.230740234 0.086148247
0.437950373 0.236812234 0.095256254
0.481973112 0.242884234 0.093738414
0.516761720 0.247311950 0.095635742
0.554459512 0.255914152 0.096141741
0.596964180 0.263124496 0.096141741
0.635673523 0.269196510 0.096141741
0.682100177 0.275395483 0.101960510
0.724224985 0.283365250 0.102719903
0.765717566 0.291460961 0.106767960
0.811511338 0.300316304 0.114484251
0.852118909 0.310057163 0.121062808
0.896141410 0.320682973 0.128652990
0.941049874 0.326881915 0.139405400
0.974699378 0.333459496 0.148513466
0.996837378 0.345351189 0.163314372
0.997975767 0.357495517 0.172422484
0.158633634 0.240480989 0.084629998
0.164326400 0.242378250 0.082732260
0.168247864 0.246426284 0.081720419
0.170524806 0.249841809 0.084503487
0.184946194 0.247185647 0.081846647
0.198608577 0.242631629 0.081846647
0.215179995 0.241619632 0.084123641
0.234661415 0.241619632 0.084123641
0.248323992 0.241619632 0.084123641
0.263883829 0.238962784 0.081467472
0.280834973 0.239974633 0.081340991
0.303352237 0.240607277 0.082226381
0.323466271 0.244402289 0.082985289
0.350537628 0.244402289 0.085262649
0.372675389 0.244402289 0.085642412
0.404933423 0.251612782 0.091081992
0.442884028 0.261480272 0.094876997
0.479949176 0.268817246 0.100316420
0.516887963 0.275901258 0.098292038
0.555597723 0.285894990 0.102592997
0.598102450 0.293105602 0.101454645
0.639595389 0.301201880 0.101454645
0.682226658 0.307653397 0.101454645
0.728779197 0.316761523 0.103478901
0.770904243 0.327008277 0.107653350
0.812270582 0.335230589 0.116002634
0.853763282 0.346363276 0.121568576
0.895002842 0.354838461 0.129411802
0.937887430 0.362428933 0.142314970
0.973940492 0.371410668 0.153826550
0.992410004 0.382289499 0.167362541
0.994939625 0.394687265 0.177735284
0.173308030 0.265275061 0.090701997
0.173814029 0.266034037 0.090195999
0.178115025 0.267425776 0.088804737
0.185705155 0.269450039 0.088551834
0.194813550 0.269197017 0.090701997
0.203921929 0.269197017 0.090701997
0.218342707 0.269450039 0.095003031
0.238456443 0.269450039 0.098039001
0.260215044 0.269450039 0.098039001
0.278431028 0.269450039 0.098039001
0.293990850 0.272106200 0.098039001
0.317014277 0.271094292 0.098039001
0.341176271 0.269197017 0.097406648
0.359646022 0.269450039 0.094876967
0.383934021 0.269450039 0.088804968
0.412523627 0.276407272 0.091081992
0.445920348 0.286527365 0.094117999
0.483238548 0.298418999 0.095256418
0.522706985 0.310563058 0.098292045
0.564452767 0.322707057 0.108412042
0.610499501 0.331562042 0.111574709
0.656293392 0.339911252 0.109550968
0.696015477 0.352056026 0.109550968
0.744465768 0.361290187 0.109550968
0.786464274 0.372675598 0.112080708
0.825679958 0.382290035 0.118532307
0.865401983 0.388362050 0.129664972
0.901833951 0.394434035 0.132700577
0.940670371 0.402909845 0.145856768
0.974825919 0.413029939 0.159518957
0.995698631 0.426312625 0.175458148
0.992662966 0.441493034 0.199746966
0.182416409 0.295635819 0.096773997
0.188488409 0.304743439 0.090701997
0.193295404 0.301201403 0.094497003
0.201897413 0.300822139 0.098671570
0.213029534 0.302466840 0.102592990
0.222137913 0.299556971 0.096773997
0.238835976 0.302087277 0.094244316
0.259708792 0.302846372 0.096394710
0.279443413 0.302846372 0.098039001
0.287539393 0.302846372 0.098039001
0.305755377 0.302846372 0.098039001
0.327387482 0.301454544 0.098039001
0.351170033 0.299556971 0.099177644
0.371790022 0.299809992 0.100948967
0.393042386 0.302846372 0.103984565
0.417330980 0.307653368 0.095509373
0.448956400 0.314357817 0.094117999
0.486653686 0.322327554 0.096015401
0.528779030 0.331815422 0.104364015
0.565464735 0.343959421 0.101834349
0.608855188 0.356103390 0.105755687
0.654016674 0.367994547 0.106514581
0.696015477 0.382415980 0.106514581
0.741555929 0.394560754 0.106514581
0.785452187 0.406072229 0.111068577
0.824541330 0.416825026 0.115116671
0.863124669 0.424794793 0.121062644
0.907905996 0.430866778 0.129664958
0.944338620 0.436938792 0.138013557
0.977861941 0.441872150 0.151928768
0.999367416 0.451233178 0.170018584
0.998735011 0.468817413 0.196710587
0.201138794 0.328399777 0.098039001
0.207210779 0.335104197 0.101580992
0.206831008 0.339911371 0.104110993
0.218469158 0.338393241 0.108918153
0.231751785 0.340290755 0.112333797
0.230739921 0.335230678 0.106261797
0.249841794 0.339658082 0.102719508
0.266413480 0.339405477 0.098039195
0.286907017 0.337887496 0.098798096
0.299557000 0.336242795 0.100442804
0.319670767 0.338646591 0.102845997
0.337887287 0.336622328 0.100822262
0.360278428 0.334724605 0.100442804
0.381783783 0.334724605 0.102467000
0.405186385 0.335610211 0.107653379
0.428842574 0.336242765 0.103478804
0.453130960 0.340796977 0.098924994
0.487286091 0.349146128 0.099557407
0.529790998 0.365338564 0.105123028
0.569133520 0.374825776 0.105502538
0.611258507 0.386970252 0.104364187
0.655787468 0.400126547 0.105881996
0.698418736 0.415053874 0.106008507
0.743959725 0.424920768 0.108285800
0.784946084 0.434788257 0.108285800
0.825932980 0.446805745 0.112713128
0.863883853 0.456926048 0.117267326
0.905629218 0.464895785 0.128273442
0.943200409 0.475774765 0.144591942
0.972548723 0.481846750 0.151928782
0.993674815 0.487286210 0.171410173
0.995193005 0.500948787 0.203288808
0.214800999 0.366350353 0.101074994
0.219354793 0.370904565 0.105629191
0.228083402 0.373308152 0.104111008
0.226312175 0.377609372 0.108918168
0.245034546 0.380138993 0.111195460
0.246932179 0.375205368 0.106261812
0.259076297 0.374699563 0.105755873
0.278557867 0.378873885 0.105628997
0.294497192 0.376597166 0.101074994
0.312713176 0.374319881 0.103352286
0.332321256 0.374067247 0.103352323
0.353067696 0.376091093 0.105376065
0.372422814 0.376470387 0.103478804
0.393675208 0.376723349 0.103225835
0.416698366 0.374193370 0.105503000
0.444022566 0.374193370 0.106514804
0.463757157 0.377229363 0.103478804
0.489942700 0.380898148 0.102213815
0.529790998 0.397722960 0.102593027
0.569513083 0.409361213 0.101328194
0.611258924 0.421884835 0.101328194
0.657811463 0.433017254 0.103352197
0.701201677 0.447059005 0.104237683
0.743959546 0.457558662 0.104490712
0.786464274 0.468184650 0.109803997
0.824541330 0.475901365 0.112586990
0.864389956 0.487286448 0.116255186
0.904870391 0.496394813 0.126375690
0.938646615 0.508159339 0.143833160
0.975585103 0.515243173 0.156482980
0.990132630 0.523086369 0.166097209
0.990638793 0.532827377 0.198735014
0.220240414 0.408855110 0.105249584
0.224541187 0.413156480 0.109550796
0.235546768 0.414042085 0.103984803
0.245667145 0.415307105 0.101201564
0.247185141 0.420620114 0.103099406
0.262112498 0.417836756 0.099810056
0.274762571 0.414168417 0.099936746
0.288930833 0.413788974 0.101707883
0.307779998 0.416698098 0.104617007
0.325995982 0.416698098 0.104617007
0.345477730 0.414421409 0.102972873
0.365718246 0.415433407 0.103984736
0.388235599 0.418975115 0.106514573
0.409487993 0.424288154 0.106514573
0.430740356 0.418595701 0.103858411
0.457938135 0.418595672 0.104996763
0.481973141 0.419734091 0.106514566
0.499051094 0.423276126 0.104617007
0.532447577 0.429348141 0.098544993
0.569513083 0.440354258 0.095256351
0.610879481 0.453763694 0.095382988
0.654143274 0.468185008 0.096141994
0.702340484 0.477419108 0.101834491
0.741808951 0.489563763 0.098798096
0.782289624 0.500442982 0.102340303
0.825806320 0.511069119 0.110689424
0.862745106 0.517647088 0.117773563
0.905123234 0.526755393 0.124098577
0.937634647 0.537887514 0.140797064
0.970778108 0.545983493 0.156230330
0.999240994 0.551043153 0.167994618
0.990132570 0.563187957 0.186211407
0.223276049 0.451359987 0.102213979
0.232384443 0.460468382 0.111321576
0.243136987 0.462619007 0.107020795
0.253004342 0.462619007 0.105502799
0.259329945 0.463124990 0.112207025
0.271473974 0.463124990 0.106135018
0.283870995 0.457811981 0.100315996
0.296014994 0.455282003 0.096647739
0.310942173 0.456293911 0.095635876
0.332068026 0.459203035 0.098545000
0.356103748 0.459203035 0.101454861
0.377862275 0.460974336 0.103984728
0.401391655 0.464010358 0.107020631
0.427704066 0.466793031 0.109550953
0.448956400 0.463757426 0.109550945
0.472612590 0.467678994 0.109297983
0.495888770 0.468690813 0.109550953
0.517267168 0.465781033 0.107653379
0.541556001 0.459708989 0.098544978
0.572169781 0.468564361 0.095256336
0.610879481 0.479822993 0.097912982
0.653384268 0.493232191 0.101454988
0.696268499 0.507779956 0.101834483
0.735736966 0.519923985 0.098798089
0.772928596 0.527514040 0.095762298
0.818216324 0.536875427 0.099304318
0.868817091 0.548007965 0.108665176
0.908285439 0.557115555 0.120809942
0.942694485 0.566223860 0.137760967
0.972296119 0.575585246 0.157748222
0.994433939 0.584187329 0.177102968
0.999240994 0.593548059 0.195319057
0.237444371 0.507780075 0.104743645
0.243769392 0.511321783 0.102719970
0.255028546 0.513978362 0.103225574
0.268437892 0.513978362 0.101707645
0.278684825 0.513978362 0.107399993
0.283618033 0.513978362 0.101327993
0.295762002 0.513978362 0.097786315
0.312839687 0.513346076 0.098545350
0.329917550 0.516002774 0.100442909
0.349146217 0.521062613 0.103478514
0.373307735 0.521189094 0.095382862
0.397596508 0.523213387 0.098418735
0.420746386 0.523972452 0.100315996
0.445920050 0.523466110 0.100948639
0.467172384 0.522960186 0.095888630
0.495635599 0.527134776 0.103099428
0.523719370 0.530170798 0.099683806
0.550031662 0.528399706 0.095256209
0.576470733 0.524478495 0.090449363
0.606325448 0.523972452 0.086906992
0.630993485 0.531183124 0.089563631
0.667299330 0.541556120 0.094623767
0.710056603 0.554838717 0.096394993
0.757495701 0.566982746 0.096015446
0.796964049 0.576850057 0.102087051
0.835294008 0.584819794 0.110815972
0.878937125 0.594560742 0.125110775
0.911574781 0.601391613 0.139532268
0.951043129 0.607843041 0.156989336
0.979380012 0.618595719 0.175205305
0.997722983 0.628715932 0.197216809
1.000000000 0.637824059 0.221126080
0.250727475 0.559772432 0.096394747
0.253004462 0.564705849 0.091460913
0.267172545 0.565591216 0.097912967
0.272991836 0.566856384 0.093611740
0.285136074 0.567109406 0.097153746
0.297280073 0.565591216 0.097153738
0.309803724 0.567488968 0.091714323
0.325237125 0.567488968 0.093612000
0.345477462 0.570272088 0.097406909
0.363693953 0.575205445 0.098165520
0.385831743 0.575458467 0.095256135
0.408222497 0.573687732 0.092346743
0.433649629 0.576723814 0.095382646
0.458949775 0.575205505 0.095888712
0.483491123 0.573561192 0.091461003
0.506261587 0.578368187 0.089816801
0.538140178 0.582921982 0.095888808
0.569512963 0.582669079 0.089563586
0.599367797 0.579633415 0.086527959
0.627577722 0.581277728 0.085389383
0.657938480 0.581277728 0.082353003
0.683238864 0.586337864 0.087413132
0.722833455 0.595572472 0.090702474
0.764326632 0.604174435 0.096015260
0.806072235 0.614041746 0.104743697
