Assets/Resources/EldamarStudio/100 Horror LUTs Pack/LUTs/cube/Murkdart LUT.cube
LUT_3D_SIZE 5
DOMAIN_MIN 0.000000 0.000000 0.000000
DOMAIN_MAX 0.903226 0.903226 0.903226
0.098039001 0.082353003 0.047059000
0.207589701 0.090195999 0.059456002
0.434281796 0.079063587 0.046426415
0.762176096 0.069576129 0.007843000
0.997343183 0.099557124 0.007969820
0.176849693 0.149398699 0.086653702
0.220999405 0.147754416 0.067678705
0.430992812 0.210246697 0.033902597
0.756989121 0.247564688 0.000632580
0.995825231 0.269070089 0.002656833
0.323086828 0.292346388 0.155598000
0.362681657 0.305123091 0.152055696
0.483997792 0.307399958 0.081087992
0.766350389 0.404553950 0.000632584
0.994939983 0.490448982 0.000000000
0.597343147 0.556356370 0.358254105
0.619354844 0.561163962 0.364579260
0.702719986 0.581403852 0.304996878
0.838583112 0.544465363 0.187603101
1.000000000 0.581277668 0.162302196
0.843389928 0.824035585 0.694623590
0.858570755 0.825047433 0.696141422
0.887918949 0.829095602 0.689563632
0.949651957 0.836052895 0.634408414
1.000000000 0.774319768 0.529032230
0.137634695 0.109170996 0.114104696
0.196837395 0.095762290 0.115749404
0.383301795 0.100948714 0.139658272
0.709550858 0.049715586 0.159899116
0.987855792 0.130423784 0.194686517
0.182415977 0.151043415 0.110183701
0.214168116 0.176217705 0.126881406
0.389879793 0.197469980 0.133713111
0.714484513 0.227577567 0.147501275
0.988234878 0.278304696 0.195698634
0.322707117 0.305755675 0.206704378
0.354838520 0.313978374 0.207716659
0.465022236 0.310689390 0.154332399
0.731436014 0.416571856 0.141682521
0.988234878 0.491840631 0.199114606
0.588361979 0.568754017 0.413155943
0.611638248 0.568754137 0.405692637
0.684503496 0.585705101 0.372422516
0.818722308 0.555597544 0.269070238
0.997090101 0.610120058 0.287665933
0.842251658 0.825300455 0.711068571
0.849715352 0.828842521 0.708285749
0.878051817 0.831499100 0.705123365
0.937887490 0.840227365 0.663756847
0.997343183 0.790006340 0.568880320
0.209234834 0.162175998 0.253763795
0.256673098 0.144465417 0.274383515
0.417330801 0.098039001 0.295003384
0.707653701 0.028083583 0.364958793
0.982036769 0.198608175 0.417330801
0.263504386 0.248829693 0.229854703
0.276280701 0.232131407 0.245919973
0.404806823 0.199114278 0.286148101
0.702087104 0.224667951 0.353573680
0.973940492 0.343579769 0.430487037
0.353193790 0.317141414 0.265654802
0.375711501 0.350537837 0.287792802
0.485262781 0.404807240 0.329664826
0.711827934 0.450347930 0.360404819
0.955850840 0.532447755 0.459329605
0.597723246 0.588615000 0.493864834
0.610499561 0.599999964 0.502466798
0.657178879 0.607210338 0.501961112
0.778114855 0.595825613 0.437318534
0.971157670 0.680455506 0.496521384
0.835673809 0.825806379 0.753446758
0.838583052 0.827830374 0.743959308
0.862365365 0.839594901 0.754079342
0.919165254 0.847817898 0.736116409
0.994180620 0.819987416 0.661227226
0.350284398 0.290448993 0.552435100
0.395319521 0.270208836 0.564832568
0.524477959 0.191018596 0.603036284
0.743580282 0.053130995 0.620114267
0.979000688 0.226818442 0.642505109
0.410120249 0.389879674 0.524351537
0.435673833 0.373181701 0.542947292
0.530044496 0.311448663 0.581783533
0.728905320 0.247944400 0.596584260
0.965717852 0.365338326 0.644275665
0.534724534 0.510562956 0.483744532
0.552308917 0.523212790 0.505376518
0.568374395 0.515749097 0.563187718
0.727134407 0.479823083 0.594560266
0.942820787 0.569386363 0.660594642
0.609234393 0.601391435 0.545604229
0.628715992 0.617710114 0.570904195
0.683238387 0.651992261 0.614041686
0.770904243 0.701328099 0.656293392
0.932574093 0.749652088 0.702972949
0.825173795 0.839594781 0.791650772
0.835041225 0.849715531 0.797596335
0.856167018 0.856926084 0.810246766
0.892093658 0.870081961 0.817457199
0.969892442 0.858950078 0.781910062
0.620240450 0.581151247 0.844908476
0.630992889 0.565085411 0.846173644
0.671094596 0.514484406 0.864515960
0.788994074 0.382795215 0.887665927
0.987096965 0.345856577 0.891966760
0.673497915 0.643769622 0.823276639
0.671853542 0.634661436 0.838709474
0.700948894 0.590891957 0.852119029
0.795445919 0.488551438 0.884376943
0.976344109 0.445161253 0.890195906
0.754079163 0.749525666 0.811638176
0.758380711 0.745983422 0.817204297
0.759266138 0.720176995 0.835167348
0.808222651 0.662618756 0.860847533
0.961163580 0.618216038 0.875015616
0.810246766 0.803668618 0.801264763
0.813535750 0.806957603 0.804047823
0.828209937 0.816445351 0.815812886
0.836305797 0.809234738 0.847817898
0.938266754 0.776976645 0.866919875
0.839468598 0.854016602 0.827830791
0.848197460 0.856546640 0.841366351
0.863124609 0.865780950 0.845541000
0.896647692 0.888551593 0.881846726
0.948007822 0.917900026 0.902339816
