Assets/Resources/EldamarStudio/100 Horror LUTs Pack/LUTs/cube/Murkdart LUT.cube
DOMAIN_MIN 0 0 0
DOMAIN_MAX 1 1 1
LUT_3D_SIZE 32
0.098039001 0.082353003 0.047059000
0.098039001 0.082353003 0.047059000
0.108791776 0.084503770 0.047059000
0.123972163 0.086274996 0.048323840
0.139532000 0.086654447 0.050980002
0.157747999 0.089690059 0.050980002
0.183554322 0.090195999 0.058570318
0.207589701 0.090195999 0.059456002
0.229601189 0.089437097 0.054901998
0.253890008 0.086401477 0.054901995
0.286906868 0.086274996 0.049083002
0.316255242 0.084250741 0.045034744
0.349272251 0.082353003 0.043136999
0.391777068 0.082099974 0.043390032
0.434281796 0.079063587 0.046426415
0.476786584 0.080834806 0.042252004
0.522327363 0.082353003 0.039216001
0.572169244 0.081088014 0.038583420
0.626818895 0.075015992 0.035547014
0.670335770 0.068943992 0.021378634
0.716635466 0.068564259 0.011891004
0.762176096 0.069576129 0.007843000
0.801770985 0.066666998 0.007716520
0.844275832 0.066666998 0.004680903
0.884503245 0.066666998 0.003922000
0.926754951 0.070841305 0.002530328
0.969260037 0.079443127 0.000000000
0.996584415 0.085515894 0.000000000
0.997343183 0.099557124 0.007969820
0.994307220 0.112966411 0.024162162
0.993927956 0.126881972 0.048070956
1.000000000 0.145098001 0.078431003
0.098039001 0.088424996 0.044022612
0.101075388 0.085389383 0.044022612
0.111828163 0.087539613 0.048323613
0.128273398 0.090575770 0.053889774
0.145603999 0.092726447 0.058949839
0.163819984 0.095762059 0.050980002
0.179506317 0.098798320 0.056040645
0.203162402 0.100948669 0.056419969
0.227324471 0.101581097 0.051865615
0.253890008 0.098545484 0.051865611
0.283997744 0.098419003 0.048956484
0.321315616 0.094371006 0.047059000
0.356103659 0.091461390 0.045034744
0.394054413 0.091714352 0.042884033
0.428209811 0.094243973 0.040354416
0.470714569 0.096015193 0.043390192
0.520809591 0.096015200 0.039215617
0.572042942 0.094497003 0.033649631
0.614674151 0.093232006 0.023403026
0.666540384 0.095509358 0.020366639
0.715496778 0.088298649 0.011891004
0.763188243 0.085768387 0.006831130
0.804680884 0.085135989 0.004680875
0.844275832 0.090955004 0.001644516
0.879949272 0.095508993 0.000885613
0.919291317 0.098418668 0.000885613
0.961163700 0.103225708 0.000506064
0.993548036 0.106767505 0.003036387
0.999620438 0.110183448 0.000379554
0.999114394 0.125616327 0.016824992
0.997343361 0.141176209 0.041113570
0.996963620 0.157242000 0.069323383
0.106641002 0.098797999 0.051739547
0.107526615 0.093611613 0.047437999
0.117014773 0.092726231 0.045287773
0.132195160 0.093232162 0.050094616
0.149146229 0.095256448 0.056672774
0.165590987 0.101834059 0.054648839
0.183428094 0.102719545 0.053889871
0.201897472 0.105755933 0.056673225
0.224921092 0.109550767 0.052371681
0.249462515 0.110689476 0.050979998
0.281846970 0.106261998 0.048070870
0.314231455 0.110309996 0.043011002
0.352308482 0.107020997 0.043896351
0.389500290 0.106767967 0.043136999
0.430487156 0.106008582 0.041998651
0.473244578 0.111195579 0.037318189
0.517267585 0.111195587 0.037318196
0.570525110 0.108791776 0.032511193
0.614547789 0.108791783 0.024920991
0.660847366 0.113725357 0.016824642
0.708665431 0.114863999 0.009993747
0.756736457 0.109550767 0.004680647
0.799494207 0.109803759 0.001771226
0.845034957 0.115875773 0.000759096
0.884250283 0.115496546 0.000000000
0.919038296 0.118785545 0.000000000
0.959013104 0.121568769 0.000506064
0.994054198 0.126249090 0.003542448
0.998734832 0.133586377 0.003415941
0.996457994 0.143706277 0.021631898
0.997469962 0.158000976 0.041745991
0.998228788 0.169386551 0.060215224
0.118785322 0.109677158 0.058823999
0.118785322 0.101075165 0.059076387
0.126122385 0.101834163 0.052624937
0.137001991 0.100568995 0.050854161
0.152182385 0.098292381 0.052751228
0.167362228 0.105629221 0.053130772
0.185072482 0.110942319 0.054901998
0.203668699 0.115116701 0.053636838
0.225679994 0.116635092 0.053636838
0.247438326 0.121189155 0.051106513
0.275268734 0.118153155 0.048070870
0.312460244 0.120177150 0.045541000
0.346995264 0.123972163 0.041745998
0.383934051 0.124225125 0.043643128
0.428463042 0.123212740 0.040607002
0.471473932 0.127387762 0.033270005
0.520809591 0.130171135 0.029981032
0.568248093 0.129032314 0.028210253
0.618089974 0.130297333 0.026438858
0.662618518 0.132068157 0.016571639
0.708159029 0.135610312 0.008728586
0.753700197 0.136622176 0.004680837
0.796204984 0.136875153 0.002277007
0.840227842 0.140670165 0.000000000
0.883238435 0.142441452 0.000000000
0.920050323 0.139532000 0.000000000
0.956483126 0.140543997 0.000000000
0.992915869 0.146615982 0.002277287
0.998734832 0.155344814 0.005186839
0.998987973 0.166729897 0.014547965
0.992915988 0.181024373 0.048830010
0.997470021 0.187856153 0.058697160
0.131309539 0.118405998 0.059962451
0.131688997 0.108159542 0.069070160
0.137381330 0.108159542 0.064895771
0.145350710 0.110815927 0.059582997
0.155597553 0.107020542 0.058064904
0.170777932 0.110056929 0.051992133
0.187729001 0.118153319 0.053889871
0.205565855 0.126502290 0.053257290
0.225300550 0.134092093 0.050600551
0.249588549 0.131056473 0.050600547
0.272105962 0.131688997 0.047691323
0.306388050 0.135736987 0.046679452
0.346995264 0.139532000 0.046300001
0.383175015 0.139785036 0.045794003
0.425300270 0.142820671 0.036812142
0.467678845 0.148640156 0.026818557
0.512840331 0.151676551 0.018849000
0.567489088 0.152941540 0.018722415
0.622138023 0.159013554 0.021758022
0.665654778 0.157495186 0.012396990
0.710056722 0.158633739 0.004048004
0.755217791 0.161290407 0.001264999
0.800758958 0.164199546 0.007084001
0.837950826 0.164199546 0.001517999
0.878558040 0.166097283 0.000000000
0.918026626 0.167488962 0.000000000
0.950031519 0.165970653 0.000000000
0.986464262 0.172042638 0.000000000
0.994433701 0.180012360 0.004553989
0.997469664 0.190132514 0.013156198
0.998229027 0.201517761 0.028716076
0.992156982 0.213662550 0.065148905
0.146489933 0.124477997 0.069070064
0.149525553 0.127514377 0.078178450
0.152055770 0.125869930 0.072232939
0.154838875 0.126881927 0.065655001
0.158633947 0.125237316 0.064136900
0.176849931 0.116128936 0.051992133
0.189500004 0.124225318 0.056040645
0.204300702 0.130044281 0.055028517
0.222264245 0.135610089 0.050221097
0.246552959 0.143200487 0.047564931
0.276660651 0.148892999 0.044655062
0.307527125 0.153952986 0.043643065
0.344718575 0.157747999 0.042504713
0.383175015 0.158001035 0.039722003
0.416571379 0.161037415 0.033650011
0.470714450 0.168880671 0.031878937
0.516255617 0.172928929 0.022264749
0.561417103 0.174193919 0.012144424
0.616066039 0.180265933 0.009614034
0.659582794 0.183554575 0.009866999
0.703984737 0.187475935 0.004048004
0.748513281 0.191018000 0.000000000
0.791650593 0.191523939 0.001012001
0.837191820 0.191523939 0.001012001
0.876660228 0.191523939 0.000000000
0.918026328 0.194813341 0.000000000
0.955471039 0.199367806 0.000000000
0.977355897 0.205439806 0.000000000
0.989879906 0.208854958 0.000000000
0.994433701 0.214673907 0.009867180
0.995698690 0.221758142 0.026691964
0.992156982 0.228842929 0.053004131
0.161669672 0.135609999 0.075648002
0.162175611 0.133586392 0.082226701
0.165211767 0.138772994 0.082732551
0.169512987 0.139532000 0.075521842
0.173181549 0.139152452 0.073497675
0.184946314 0.134345055 0.065654449
0.198102325 0.132826999 0.058570322
0.213535726 0.138646394 0.058064681
0.231878638 0.142441317 0.054269418
0.256166995 0.149778485 0.054775801
0.283744395 0.158507317 0.051739447
0.314105183 0.168627322 0.044655066
0.349272639 0.176849961 0.044275641
0.388994068 0.181530640 0.043770000
0.429221690 0.186843738 0.037698004
0.474635899 0.192283317 0.026818397
0.527387381 0.199746996 0.021758555
0.570524752 0.203035980 0.010500008
0.617583692 0.209107995 0.005566353
0.661100447 0.214927599 0.002783001
0.709297895 0.214168221 0.002783001
0.756103635 0.217330769 0.000000000
0.799873590 0.219228432 0.000000000
0.838203430 0.226438642 0.000000000
0.876913249 0.226438642 0.000000000
0.916128993 0.227830321 0.000000000
0.955977380 0.232258260 0.000000000
0.985325694 0.236305982 0.000000000
0.993421793 0.237191468 0.002530322
0.997217000 0.240227535 0.009614285
0.998608351 0.248197228 0.029348563
0.997217000 0.259203315 0.058570318
0.176849693 0.149398699 0.086653702
0.175205410 0.146363080 0.087792769
0.177355766 0.151422977 0.085768931
0.182922155 0.151170149 0.081467390
0.188994244 0.150411159 0.078810550
0.195572630 0.149904758 0.076533712
0.210499704 0.149398699 0.073750705
0.220999405 0.147754416 0.067678705
0.240733996 0.148513705 0.061606701
0.265022039 0.151043713 0.061986480
0.290575564 0.163314164 0.059203122
0.319923788 0.174446717 0.050474454
0.350284547 0.187729359 0.042504709
0.388488054 0.198608696 0.042757940
0.430992812 0.210246697 0.033902597
0.476660281 0.216318697 0.023023402
0.528273106 0.222390696 0.016951006
0.576470256 0.229727834 0.008855302
0.619987011 0.237824112 0.002783291
0.660847485 0.242251694 0.002783351
0.707400203 0.247564957 0.001644708
0.756989121 0.247564688 0.000632580
0.802656591 0.251106977 0.000126512
0.845161378 0.255660802 0.001644708
0.881593525 0.259582400 0.000000000
0.918026268 0.262365401 0.001391672
0.955724418 0.265148699 0.001138644
0.987982392 0.267045945 0.000000000
0.995825231 0.269070089 0.002656833
0.998355269 0.270840883 0.009361255
0.998355269 0.275648296 0.028589463
0.998355269 0.289310694 0.062744997
0.192030087 0.163820192 0.098039001
0.190512478 0.162302390 0.096521392
0.190259323 0.164832413 0.092093900
0.195066154 0.170145258 0.089057766
0.203415543 0.162935108 0.082226098
0.206451938 0.166350260 0.083364941
0.219101995 0.166097105 0.082353003
0.233143598 0.163693726 0.080582008
0.245288000 0.160658091 0.074510001
0.269576043 0.154586092 0.068437994
0.296900749 0.164326221 0.064516224
0.325237185 0.177482411 0.056167006
0.355597258 0.191524640 0.046300001
0.386464030 0.206957996 0.039215937
0.427956820 0.225173980 0.026059175
0.471347392 0.237571076 0.013156109
0.520683229 0.245161086 0.006325001
0.572802007 0.252498239 0.006325001
0.618216038 0.264643043 0.000506002
0.661986172 0.269955724 0.002024261
0.706388474 0.274130166 0.003162904
0.750158191 0.278684199 0.002909872
0.795698583 0.284756184 0.000000000
0.843643427 0.286021203 0.002403808
0.885389090 0.288298458 0.001644712
0.922580302 0.291967094 0.000632576
0.957495034 0.297533184 0.003668968
0.987602770 0.297786206 0.001138648
0.994054258 0.301201910 0.001897736
0.995319128 0.303478956 0.010752743
0.996837080 0.309044689 0.029348165
0.996837080 0.318153083 0.065780990
0.207210496 0.175964981 0.098039009
0.210246891 0.179000601 0.101075396
0.208728731 0.177482784 0.099557236
0.209740490 0.178747967 0.100189522
0.215559557 0.184187502 0.103478491
0.218595952 0.190259501 0.091334499
0.224162012 0.188614666 0.084883012
0.234029010 0.184060499 0.082353011
0.248323634 0.178874105 0.080582008
0.269576043 0.175838485 0.074510001
0.305502743 0.172675624 0.068438008
0.337381482 0.180518478 0.060468238
0.367741942 0.194939807 0.052372005
0.398608029 0.213029996 0.045287944
0.435040772 0.231245980 0.027071189
0.474130392 0.251865774 0.011511827
0.519924164 0.267931491 0.002530297
0.569765627 0.279822618 0.000253000
0.612270534 0.291967452 0.000253000
0.666034460 0.301328182 0.000000000
0.714358211 0.306388259 0.000126516
0.754965246 0.308539003 0.000126516
0.786590934 0.309044987 0.000000000
0.832131445 0.315117002 0.000000002
0.877798915 0.318659306 0.000126517
0.920177102 0.321695328 0.000000000
0.957495034 0.324857593 0.000632580
0.984819412 0.327893972 0.003668968
0.991018355 0.333459973 0.001138653
0.992283463 0.335863531 0.010752456
0.994054437 0.339531958 0.035673149
0.999873459 0.351549506 0.077924989
0.213661999 0.188108996 0.103857994
0.225427255 0.194054484 0.112713382
0.226312876 0.194939867 0.113599002
0.227830738 0.196457997 0.112586871
0.234282196 0.202150553 0.114231318
0.242377937 0.205692872 0.109677002
0.250474304 0.204174548 0.100063324
0.260214865 0.204427585 0.093611874
0.270841062 0.203668743 0.089563869
0.281341225 0.202783346 0.083491862
0.302592874 0.193928003 0.074510001
0.337001890 0.192915872 0.066413745
0.371663630 0.201517865 0.059582643
0.408095956 0.216192201 0.054522838
0.447185546 0.234408855 0.038962923
0.488424718 0.252624869 0.025553137
0.528399706 0.274889380 0.009361137
0.572548985 0.294497281 0.000000000
0.615053833 0.313472837 0.000000000
0.660341203 0.328399539 0.000000000
0.710815728 0.337760627 0.000000000
0.755344510 0.340797007 0.000000000
0.791651011 0.339279205 0.000126512
0.828842819 0.348133862 0.002909870
0.872106493 0.349651873 0.000632582
0.915623307 0.349272668 0.000000000
0.955597937 0.350284666 0.001518063
0.987729251 0.358127445 0.009361448
0.996457815 0.361163825 0.001771180
0.997976005 0.366982847 0.000000000
0.997976005 0.370145470 0.017583556
1.000000000 0.376217753 0.058064133
0.239974484 0.208348989 0.111954249
0.250095010 0.212397248 0.119038373
0.247564971 0.218216240 0.119671255
0.251360148 0.215686247 0.120936096
0.257811695 0.218722254 0.120935991
0.263630301 0.223402932 0.116255321
0.272738576 0.225427181 0.112207055
0.285135955 0.222390786 0.104743734
0.298418581 0.225426987 0.098671734
0.308286220 0.227956980 0.092599735
0.320809394 0.225300372 0.087666377
0.342061490 0.216192499 0.074510001
0.376597017 0.216192499 0.064263254
0.415433079 0.224541470 0.058570966
0.456672937 0.237444565 0.050474588
0.496521473 0.263757259 0.037697904
0.537507653 0.278937250 0.022517130
0.579506695 0.299936861 0.005566009
0.626186252 0.319797993 0.000000000
0.665401876 0.341555923 0.000000000
0.707147181 0.356735975 0.000000000
0.750284374 0.367109239 0.001012128
0.788108706 0.369639486 0.001897744
0.832131565 0.378747612 0.001138648
0.871094584 0.385072500 0.001644712
0.912207603 0.382289499 0.004174662
0.951043844 0.380645305 0.004554189
0.979886413 0.389753312 0.004554189
0.997469962 0.391524345 0.003795180
1.000000000 0.392789513 0.001771217
1.000000000 0.398355514 0.012650201
1.000000000 0.402530253 0.050980002
0.270714641 0.234914273 0.126755282
0.275269032 0.235673666 0.129411638
0.278304845 0.239721626 0.131309405
0.275648147 0.243010640 0.128526479
0.283618003 0.238077179 0.130423635
0.285894722 0.243390292 0.124351636
0.295129597 0.246932313 0.121947959
0.305249691 0.248956561 0.114990287
0.321189165 0.248197272 0.109677188
0.336749107 0.254269272 0.103984639
0.348387063 0.253383636 0.101960860
0.365591198 0.249588907 0.090828739
0.386843562 0.243896633 0.074510001
0.423276275 0.243643597 0.062365998
0.464009792 0.249209225 0.056673225
0.507526755 0.267172605 0.046426360
0.548134148 0.290702015 0.031246265
0.586970091 0.306008548 0.014294661
0.636053324 0.325743318 0.002150642
0.676028073 0.347248673 0.000000000
0.715496719 0.368121356 0.001138644
0.755977273 0.383301765 0.000126516
0.789626658 0.396078259 0.002783356
0.832131445 0.410246521 0.000759096
0.875015855 0.415939301 0.001138644
0.912207603 0.420999259 0.000759020
0.950158119 0.415939271 0.008349358
0.975711882 0.423150063 0.001138559
0.990132928 0.424288630 0.000000000
1.000000000 0.426565647 0.005186568
0.999114394 0.428336650 0.022391114
0.998861372 0.434408635 0.060088284
0.292726070 0.265022010 0.149526000
0.289943427 0.262745380 0.147248641
0.295762271 0.262998283 0.148007736
0.303352088 0.265781045 0.149272829
0.308918059 0.264895588 0.146110028
0.308918059 0.267931968 0.140038028
0.318532646 0.271979719 0.138520032
0.329538316 0.274509728 0.132700995
0.340670198 0.277799040 0.122074939
0.358886987 0.283871055 0.119038552
0.373940885 0.282479197 0.118406028
0.392410278 0.279696316 0.108285777
0.413662672 0.277546048 0.092979044
0.435421050 0.277040005 0.075015999
0.471853018 0.274003625 0.062872007
0.516887605 0.279569834 0.050221458
0.562934399 0.292473048 0.034788039
0.604933143 0.312080622 0.017330986
0.641366005 0.339405090 0.005186963
0.682605743 0.358127683 0.001138643
0.724857509 0.378241688 0.001644708
0.766350269 0.398482144 0.002909872
0.808854997 0.413536012 0.000000000
0.839721799 0.437318027 0.000000000
0.878937602 0.446932286 0.002024256
0.917014599 0.452118993 0.002530328
0.950158119 0.457432061 0.000000000
0.980518878 0.457432061 0.000000000
0.990132987 0.457685024 0.000000000
0.995698988 0.460974038 0.007336995
0.999367416 0.466287017 0.030739762
0.996331036 0.472359031 0.082353003
0.323086828 0.292346388 0.155598000
0.323086828 0.298418403 0.161669999
0.331056386 0.291840732 0.159392640
0.338772953 0.294117779 0.161416575
0.342441678 0.300695777 0.164452538
0.345350802 0.289184302 0.161290407
0.350410789 0.302340060 0.155218393
0.362681657 0.305123091 0.152055696
0.376596868 0.304111391 0.144844979
0.392283350 0.305123389 0.134218916
0.404680401 0.317014396 0.128273398
0.417457491 0.317899793 0.117394157
0.434915036 0.316129029 0.105629414
0.456673414 0.313472718 0.096268363
0.483997792 0.307399958 0.081087992
0.520429790 0.304364175 0.064136997
0.565464795 0.309930563 0.045667645
0.612144351 0.323466361 0.025680274
0.656546354 0.345477849 0.008222571
0.690195799 0.361669511 0.001644574
0.729285240 0.381277293 0.000000000
0.766350389 0.404553950 0.000632584
0.799746573 0.428716391 0.000000000
0.842251360 0.440860420 0.000000000
0.879949450 0.460088402 0.000000000
0.915875971 0.473750621 0.000632584
0.947374761 0.485009462 0.000000000
0.980518878 0.487792820 0.000000000
0.994939983 0.490448982 0.000000000
0.998735011 0.492852598 0.008855180
1.000000000 0.494750202 0.033143569
0.999367416 0.493611395 0.082353003
0.355850786 0.324477792 0.176090986
0.365464777 0.323339581 0.184566781
0.365464777 0.333712578 0.186337784
0.371536791 0.330170780 0.184819594
0.373434514 0.335863352 0.185199052
0.376470655 0.329791576 0.170018941
0.391650587 0.328400075 0.174066991
0.394433588 0.337001681 0.163061291
0.405818880 0.337001890 0.157747999
0.420999259 0.338646591 0.152181983
0.438077420 0.340670586 0.148260787
0.446173400 0.348766595 0.136116534
0.460974425 0.348386943 0.122074790
0.482226819 0.345603973 0.112713762
0.505250216 0.343832761 0.097533397
0.534977794 0.337760597 0.079949200
0.569892406 0.331688613 0.064769186
0.615307093 0.335483760 0.044908434
0.666160822 0.349652201 0.021378841
0.700569212 0.370145470 0.007083991
0.741555989 0.392915547 0.001011999
0.780012906 0.414168060 0.000000000
0.812017620 0.436685979 0.000126512
0.849968374 0.448830009 0.002403804
0.881087899 0.465527982 0.000126516
0.915875971 0.486527324 0.001391672
0.945730209 0.505249798 0.001897740
0.975332320 0.517773390 0.000000000
0.994939983 0.518405974 0.000000000
1.000000000 0.523212790 0.008855180
1.000000000 0.526881576 0.036432751
1.000000000 0.526881576 0.089563802
0.390765369 0.357874572 0.198861182
0.398355186 0.357874572 0.204933584
0.407969564 0.358001381 0.215180367
0.405439556 0.365085393 0.211385220
0.405692577 0.366223842 0.209867179
0.409867287 0.367741913 0.194307432
0.419481397 0.364199996 0.192789376
0.435420573 0.367362469 0.190385669
0.437697470 0.370398283 0.177482381
0.451359659 0.373434663 0.175964385
0.463377923 0.375079364 0.170018867
0.481087983 0.379127383 0.160404921
0.490575641 0.382922381 0.146363184
0.511322021 0.380265534 0.133713126
0.533839583 0.379000366 0.117267579
0.562302589 0.374193370 0.098165587
0.586590588 0.369639188 0.089057177
0.621252537 0.360530972 0.073118210
0.671473742 0.364326358 0.044908375
0.712713599 0.375458360 0.021125820
0.749146163 0.397469729 0.004048004
0.791651249 0.421758264 0.000000000
0.825680137 0.440227956 0.000000000
0.862112582 0.457937986 0.001644712
0.890196264 0.471600354 0.001644712
0.917520642 0.489816338 0.005565980
0.947248220 0.513346076 0.006451804
0.974573076 0.532574177 0.000379552
0.990891755 0.542441368 0.000000000
0.998481810 0.550537586 0.014927174
0.998481810 0.557494998 0.043390125
0.998481810 0.561796188 0.101707801
0.428463101 0.391904116 0.223276109
0.431498706 0.394939721 0.226312503
0.437191516 0.394939870 0.233523339
0.445541084 0.392536521 0.240480974
0.439848572 0.392916054 0.232511133
0.445161521 0.401517779 0.226945117
0.451866120 0.399240702 0.225300550
0.462239236 0.398481697 0.220366836
0.477166593 0.404427201 0.212650135
0.486274213 0.407463610 0.206578135
0.492473245 0.410499841 0.197596252
0.506767869 0.415560126 0.187096551
0.527007759 0.419987530 0.173054978
0.542441189 0.419987530 0.160404980
0.565970957 0.417330682 0.142188311
0.592536569 0.412523687 0.124098331
0.618090153 0.407969505 0.109677143
0.637571096 0.403035700 0.104617015
0.677039564 0.393928081 0.074256942
0.720177054 0.393421769 0.046426389
0.761922836 0.403415322 0.021125812
0.798355639 0.422390699 0.001897577
0.834535360 0.440733910 0.001644585
0.869955599 0.464516014 0.000632585
0.897279978 0.480328977 0.000000010
0.923592627 0.497153938 0.003036008
0.950411081 0.514864028 0.015180027
0.977608979 0.535863400 0.004048009
0.991650581 0.551170230 0.008222535
0.996710598 0.566350579 0.024161838
0.996710598 0.581024945 0.054901708
0.996710598 0.590132594 0.115622580
0.470968008 0.428336978 0.259708971
0.474003613 0.431372583 0.262745351
0.470587999 0.434408784 0.259329975
0.473624378 0.434408814 0.257559001
0.482353449 0.432384551 0.256799966
0.479317069 0.435420930 0.256799966
0.487160355 0.436432958 0.253763676
0.497659981 0.435926944 0.247691318
0.510816097 0.437950969 0.240101114
0.525743484 0.443896472 0.236938983
0.531941950 0.446932137 0.227957100
0.542062044 0.451992601 0.218848720
0.558380604 0.456926346 0.204933375
0.578874052 0.459456027 0.184693068
0.597090781 0.459456027 0.166477084
0.615813017 0.456799805 0.155471206
0.638077438 0.453510791 0.140797004
0.661859989 0.448576987 0.122833863
0.686148047 0.436432958 0.098545037
0.722833753 0.427324653 0.079317048
0.765717745 0.424921006 0.056293517
0.807463348 0.430740029 0.032258030
0.843643069 0.443769544 0.010753032
0.874003887 0.465021968 0.004681017
0.900316000 0.481973290 0.001391735
0.927387357 0.502466679 0.000000062
0.956483126 0.527008057 0.003036064
0.980771899 0.542188406 0.015180058
0.994686961 0.555217981 0.038582850
0.999746978 0.569386184 0.063630626
0.999746978 0.584566653 0.091840923
0.999746978 0.599241018 0.124731034
0.516255379 0.475901753 0.285009712
0.516508400 0.476154715 0.290828764
0.519544542 0.474889338 0.291714370
0.519164920 0.476660550 0.288172215
0.525616586 0.476660550 0.286653996
0.527387798 0.474889308 0.286653996
0.529412031 0.477925718 0.289184332
0.539658725 0.479823023 0.285009742
0.551043868 0.480961382 0.278557986
0.562176168 0.482985407 0.275521874
0.576976359 0.491714239 0.266666502
0.591144860 0.492726117 0.255534381
0.604807138 0.496141762 0.245667085
0.620366812 0.499177396 0.231751740
0.633522809 0.501707792 0.218595773
0.649335802 0.501707792 0.197975963
0.668690622 0.500569403 0.182795763
0.692979157 0.496900797 0.163947195
0.721568763 0.484756738 0.141809136
0.748640060 0.469829381 0.123086371
0.769892335 0.462618738 0.101075403
0.807716429 0.460847765 0.077798977
0.853257358 0.465781242 0.055787757
0.894244194 0.476407617 0.044402741
0.920050383 0.495382726 0.047438733
0.942947030 0.512460351 0.050095089
0.968121111 0.533586025 0.055914100
0.992409885 0.548766434 0.072612092
0.995446026 0.566603601 0.090069748
1.000000000 0.580771446 0.115243390
0.999114394 0.596837223 0.143326953
0.997216642 0.613915384 0.175584748
0.559898496 0.516887963 0.318785697
0.558001220 0.518785715 0.317267716
0.563946486 0.520430446 0.326628715
0.563187718 0.516128898 0.324098706
0.565085053 0.517267525 0.322327465
0.571157455 0.517267525 0.328399450
0.572296083 0.519291759 0.321442038
0.581910431 0.520683467 0.326122731
0.594307482 0.522707224 0.322580725
0.604554176 0.522707224 0.320682973
0.611891270 0.529538333 0.308032602
0.627197981 0.536369503 0.298798203
0.644275844 0.538646460 0.287792563
0.657178819 0.541935146 0.277672172
0.669323206 0.541682124 0.260594487
0.685768247 0.540417492 0.248829678
0.703984678 0.538899302 0.229095474
0.723339438 0.539152324 0.210879326
0.746109962 0.533333480 0.190891713
0.775585115 0.520303845 0.176217467
0.799114406 0.507020712 0.154206201
0.815306723 0.497912586 0.125869945
0.858444273 0.493231982 0.100316450
0.899177790 0.493485183 0.084629968
0.933712721 0.503732026 0.082352974
