Assets/Resources/EldamarStudio/100 Horror LUTs Pack/LUTs/cube/Murkdart LUT.cube
LUT_3D_SIZE 8
DOMAIN_MIN 0.000000 0.000000 0.000000
DOMAIN_MAX 0.903226 0.903226 0.903226
0.098039001 0.082353003 0.047059000
0.139532000 0.086654447 0.050980002
0.229601189 0.089437097 0.054901998
0.349272251 0.082353003 0.043136999
0.522327363 0.082353003 0.039216001
0.716635466 0.068564259 0.011891004
0.884503245 0.066666998 0.003922000
0.997343183 0.099557124 0.007969820
0.131309539 0.118405998 0.059962451
0.155597553 0.107020542 0.058064904
0.225300550 0.134092093 0.050600551
0.346995264 0.139532000 0.046300001
0.512840331 0.151676551 0.018849000
0.710056722 0.158633739 0.004048004
0.878558040 0.166097283 0.000000000
0.994433701 0.180012360 0.004553989
0.192030087 0.163820192 0.098039001
0.203415543 0.162935108 0.082226098
0.245288000 0.160658091 0.074510001
0.355597258 0.191524640 0.046300001
0.520683229 0.245161086 0.006325001
0.706388474 0.274130166 0.003162904
0.885389090 0.288298458 0.001644712
0.994054258 0.301201910 0.001897736
0.270714641 0.234914273 0.126755282
0.283618003 0.238077179 0.130423635
0.321189165 0.248197272 0.109677188
0.386843562 0.243896633 0.074510001
0.548134148 0.290702015 0.031246265
0.715496719 0.368121356 0.001138644
0.875015855 0.415939301 0.001138644
0.990132928 0.424288630 0.000000000
0.390765369 0.357874572 0.198861182
0.405692577 0.366223842 0.209867179
0.437697470 0.370398283 0.177482381
0.490575641 0.382922381 0.146363184
0.586590588 0.369639188 0.089057177
0.749146163 0.397469729 0.004048004
0.890196264 0.471600354 0.001644712
0.990891755 0.542441368 0.000000000
0.559898496 0.516887963 0.318785697
0.565085053 0.517267525 0.322327465
0.594307482 0.522707224 0.322580725
0.644275844 0.538646460 0.287792563
0.703984678 0.538899302 0.229095474
0.799114406 0.507020712 0.154206201
0.933712721 0.503732026 0.082352974
1.000000000 0.572675645 0.129158631
0.717520535 0.676027834 0.490701973
0.723592818 0.681846976 0.504237831
0.735483646 0.682099819 0.502340257
0.774066985 0.691207886 0.480202258
0.819354832 0.698798180 0.446805656
0.869829297 0.688171804 0.381277800
0.947628021 0.644655228 0.303099573
0.997469962 0.602150857 0.239342198
0.843389928 0.824035585 0.694623590
0.850727797 0.824541450 0.698924482
0.863883674 0.827324510 0.697912633
0.879443467 0.832257807 0.693358779
0.904491186 0.835673809 0.675395250
0.938519835 0.837571025 0.643516481
0.983807623 0.825300455 0.597849250
1.000000000 0.774319768 0.529032230
0.118026547 0.098418549 0.075648546
0.135989547 0.090195999 0.076027997
0.212017551 0.098798096 0.083871000
0.306641638 0.101201907 0.082226284
0.472106159 0.091081999 0.097533345
0.674636185 0.075774744 0.093105994
0.861353815 0.064642735 0.085262381
0.991397560 0.107400127 0.108032703
0.135610089 0.118405998 0.075268999
0.155218109 0.123845994 0.084250554
0.198988110 0.128526092 0.087033898
0.304617286 0.138772905 0.080328546
0.474003822 0.149019718 0.090702161
0.675521731 0.150537804 0.085642003
0.861100256 0.161796257 0.081340998
0.990386009 0.180012375 0.106135353
0.179000646 0.163820192 0.097533450
0.192789197 0.162555560 0.106641091
0.224035278 0.158633634 0.089310989
0.330550283 0.193042547 0.080328643
0.481467575 0.237318188 0.076913103
0.674762666 0.263630837 0.058317639
0.861986101 0.283111781 0.060721450
0.989753127 0.297533363 0.091461085
0.266287267 0.236432388 0.148386732
0.275648177 0.241999075 0.147248194
0.309044749 0.248197272 0.137887195
0.368754268 0.243137538 0.104490638
0.522960424 0.287413180 0.076027900
0.690322757 0.369259894 0.033143811
0.862871826 0.405818999 0.016698446
0.985578775 0.419228345 0.080328889
0.388994545 0.362555176 0.215939373
0.407716841 0.359013021 0.218089744
0.427956820 0.367615730 0.206451476
0.483112246 0.384566396 0.180518642
0.571790159 0.363693804 0.123719186
0.732321262 0.397849262 0.083111815
0.875268638 0.474636286 0.054016534
0.990765214 0.546362936 0.086780719
0.544085920 0.515117288 0.333965570
0.559139669 0.511954248 0.335989803
0.581910253 0.518279493 0.334471822
0.628969193 0.534724653 0.301201463
0.691967070 0.539152145 0.257685006
0.780392468 0.513725460 0.185958475
0.919544578 0.510309815 0.144086003
0.998355269 0.579759657 0.187602967
0.706135094 0.677798867 0.498924822
0.718153000 0.673877299 0.506767869
0.727640569 0.675901473 0.503225863
0.761163890 0.684882998 0.488045633
0.802783012 0.691587448 0.451486439
0.858191133 0.679063559 0.392409950
0.936748981 0.646426558 0.313725352
1.000000000 0.603921413 0.267552108
0.847565055 0.823402643 0.693232179
0.844275773 0.823656201 0.692599535
0.853257596 0.815939188 0.694243670
0.870714784 0.822770596 0.693484962
0.893864691 0.834788084 0.675521791
0.933206618 0.835673809 0.653890133
0.985831559 0.820493162 0.612270415
1.000000000 0.779000759 0.542314589
0.150537997 0.115243189 0.127007991
0.162302107 0.103478998 0.124984451
0.221885085 0.099556997 0.136243090
0.320050627 0.101201907 0.146109745
0.470714360 0.088804714 0.170778006
0.655407906 0.039595012 0.175332084
0.841998637 0.061859995 0.195825189
0.984060645 0.145856947 0.226565436
0.161037549 0.142694101 0.108538643
0.184313908 0.133965999 0.120303549
0.212776646 0.135610089 0.121821545
0.313346088 0.139911458 0.145350724
0.465527922 0.143959448 0.159013286
0.648829877 0.139911354 0.172801644
0.837318420 0.157748446 0.193674922
0.986590803 0.203668609 0.230487004
0.196837097 0.169259995 0.123086996
0.208475992 0.183428094 0.130044088
0.245287985 0.198228985 0.148134008
0.325869352 0.207590088 0.141050100
0.479317099 0.227957085 0.158128008
0.664642692 0.253890097 0.166730002
0.844528615 0.279570073 0.194940001
0.986463904 0.310436398 0.230107173
0.277672559 0.263630748 0.186464190
0.287539184 0.264769197 0.178114727
0.312586993 0.269070536 0.187602744
0.361796260 0.262744904 0.156609997
0.508665502 0.308539063 0.150158286
0.668690622 0.372422516 0.156862736
0.848070920 0.403668612 0.184946194
0.985199094 0.431878626 0.227830619
0.396331251 0.376723468 0.256799400
0.398987800 0.380138993 0.261100709
0.429095358 0.387729377 0.263124377
0.473371029 0.392410100 0.232511267
0.556862473 0.377482563 0.192410290
0.716761351 0.417330444 0.182795644
0.861733198 0.501328290 0.200253084
0.983933926 0.556609690 0.244528815
0.551423371 0.530550241 0.387855828
0.560025215 0.530929685 0.385831654
0.580012798 0.534851491 0.382922202
0.624288380 0.543832898 0.366982549
0.679822624 0.547880948 0.317647368
0.764579475 0.522707164 0.267298847
0.908791780 0.534471750 0.253384173
0.992283344 0.608348966 0.302593142
0.702846289 0.690069556 0.533206761
0.712207496 0.686907291 0.541429102
0.729411602 0.692599237 0.545730233
0.753320813 0.697153449 0.534598529
0.799241185 0.702593207 0.508159399
0.852371693 0.696900487 0.457938164
0.922454059 0.661227047 0.392662734
0.997469962 0.639468610 0.367615432
0.842504561 0.827071726 0.717899621
0.841239810 0.824794531 0.716128826
0.854016602 0.830360651 0.717394054
0.871853054 0.830613434 0.723845541
0.895382822 0.837950766 0.707779646
0.923972130 0.842757702 0.680708230
0.973687589 0.830107629 0.646299839
0.996837080 0.796584606 0.582795620
0.182163343 0.137887284 0.199620277
0.196584180 0.137507737 0.202024087
0.254901737 0.119164996 0.216318816
0.328525931 0.100822359 0.219861269
0.482479185 0.089184262 0.255534649
0.652498305 0.038709912 0.288804382
0.834155500 0.057432272 0.311322272
0.983554423 0.195319444 0.361922801
0.199367553 0.178621098 0.173307925
0.199999720 0.171916634 0.183934182
0.243137524 0.154712453 0.200632721
0.323339373 0.141429543 0.219102174
0.466034114 0.141555652 0.250727534
0.649968445 0.131309539 0.280202270
0.826818168 0.158760175 0.312713534
0.971410751 0.249968335 0.364705563
0.245540634 0.215686634 0.176850185
0.256546557 0.226312280 0.182416186
0.263124377 0.231119379 0.205060080
0.335863382 0.216192186 0.219861075
0.480455637 0.232131734 0.252498627
0.652371764 0.248956367 0.276154280
0.822390556 0.291587740 0.322327435
0.970018983 0.353320897 0.375837892
0.280328989 0.257937908 0.191777289
0.291713923 0.268184632 0.211005643
0.328525811 0.303858191 0.241113186
0.389120579 0.326881647 0.251233280
0.505502999 0.343326896 0.254648834
0.657684803 0.368374527 0.281214625
0.822896957 0.410499930 0.319164991
0.968500793 0.449715108 0.371031076
0.395825535 0.393927991 0.300569385
0.417330533 0.398482174 0.313472807
0.435800046 0.413029790 0.325236827
0.473371029 0.417330563 0.315749794
0.549019516 0.405439347 0.282226533
0.693991184 0.458823562 0.301834643
0.836432934 0.530170798 0.336495847
0.968121171 0.572169662 0.389120787
0.555218279 0.541808844 0.429601461
0.560151875 0.543706119 0.437824190
0.574067235 0.550411224 0.434408545
0.606578112 0.557874799 0.436938882
0.664642811 0.565084994 0.406704813
0.744465172 0.549019456 0.369006932
0.876280963 0.576470554 0.377735555
0.977735698 0.649841905 0.426312238
0.694496930 0.695635557 0.573687553
0.710436344 0.693105638 0.579253495
0.716255844 0.693105638 0.572928667
0.741555929 0.696900547 0.583175242
0.775711536 0.704996765 0.558380961
0.830992818 0.703352451 0.520050943
0.901834548 0.676027834 0.471726537
0.992536187 0.676533759 0.468943566
0.835420430 0.829221785 0.730550230
0.833776176 0.829222083 0.735736847
0.846173346 0.829348743 0.732573986
0.859202802 0.832511008 0.739658475
0.882606030 0.839468539 0.735357165
0.914611042 0.845161140 0.718405902
0.954712272 0.839974344 0.685641885
1.000000000 0.808981597 0.636306047
0.247438371 0.186463997 0.331309199
0.260594636 0.183301792 0.336748987
0.303858191 0.163820192 0.347628385
0.401517928 0.114484191 0.377356380
0.505123198 0.085009620 0.378115356
0.667552173 0.035421006 0.415306926
0.839848518 0.067552269 0.450980246
0.982163131 0.206198424 0.480455339
0.260215104 0.229474977 0.304111630
0.274636537 0.226818532 0.321315408
0.308285624 0.207210645 0.331561923
0.391651094 0.169386178 0.365338624
0.496647447 0.138772905 0.370398372
0.655155063 0.135230735 0.407210499
0.830866635 0.163820341 0.445540547
0.975711584 0.255534500 0.476913452
0.315749288 0.297533184 0.294497192
0.323212802 0.304490626 0.305123538
0.332194984 0.281214386 0.322580367
0.388488263 0.250221431 0.351169914
0.491840571 0.232637376 0.358507365
0.653889775 0.254142851 0.400506020
0.827197671 0.299051195 0.442251652
0.968121409 0.376849890 0.495002985
0.359139830 0.337507963 0.291208267
0.372802168 0.353320450 0.307021081
0.397469848 0.364579529 0.322580457
0.425679922 0.371536911 0.363946587
0.518785834 0.360278159 0.373560905
0.669323146 0.386717498 0.412523478
0.821125865 0.433269918 0.457052469
0.949272573 0.496268243 0.511827826
0.411258370 0.392283171 0.335863382
0.430866390 0.408475816 0.346110106
0.454269260 0.429981202 0.367236167
0.504491210 0.478178531 0.415432930
0.578115344 0.495762378 0.416445345
0.688551426 0.520050406 0.433776379
0.823402584 0.549905300 0.476154387
0.950284839 0.590132773 0.524604857
0.548766494 0.558127701 0.475015700
0.558507383 0.559139609 0.477798730
0.581656873 0.577609241 0.493611813
0.618975282 0.591018021 0.512586892
0.656040907 0.597216964 0.510056913
0.728146732 0.586337984 0.474003941
0.852877796 0.633017302 0.495003015
0.949272454 0.698544979 0.549652219
0.699683368 0.706009030 0.628210187
0.710563242 0.709298015 0.628969193
0.719418228 0.715370178 0.631372452
0.735863328 0.715749681 0.631372511
0.769639373 0.720809519 0.630992949
0.810752571 0.725110531 0.603415728
0.875522017 0.704237521 0.564579308
0.978620827 0.725616515 0.579759777
0.830360770 0.834028780 0.757495105
0.832384408 0.837823987 0.770651579
0.839088798 0.840480745 0.770398438
0.850727558 0.844275892 0.767109454
0.872485995 0.845034957 0.766603231
0.897786021 0.856799603 0.763187766
0.942441702 0.851992369 0.735736728
0.991397858 0.833016992 0.700189590
0.322959721 0.264136732 0.498798192
0.339911282 0.259835273 0.505249918
0.382163078 0.234029070 0.522074461
0.456926107 0.197596624 0.550411463
0.581910133 0.087792613 0.571916401
0.692979455 0.043010999 0.571536958
0.841619313 0.081088006 0.583301783
0.980012596 0.219481334 0.609867275
0.346110076 0.301201642 0.481973469
0.350790441 0.299430519 0.491587698
0.383933991 0.282605946 0.503984690
0.456925929 0.242631361 0.532321453
0.564958990 0.166476741 0.557242453
0.683238208 0.142061830 0.557115674
0.832131267 0.174699724 0.575458467
0.969639242 0.270335227 0.601897597
0.404300809 0.377482802 0.466666818
0.410626024 0.380012810 0.474509805
0.420493573 0.362808228 0.490069568
0.461986363 0.335863382 0.513472438
0.566602945 0.280328989 0.544465363
0.681340456 0.264642477 0.541935205
0.826818228 0.304364294 0.577103078
0.963946700 0.388361752 0.615686238
0.473497540 0.454648763 0.442757547
0.478937328 0.455534458 0.452877939
0.480581760 0.457052469 0.470208645
0.493991345 0.439848304 0.502466559
0.566223800 0.404300988 0.537760675
0.678810835 0.387476265 0.538646340
0.818469346 0.434282362 0.568247676
0.948893011 0.503858447 0.620872915
0.513599157 0.499810010 0.460467994
0.523213029 0.507020712 0.464136630
0.545857370 0.516761541 0.477925092
0.572802007 0.538772583 0.499810100
0.600885510 0.544591904 0.554585695
0.701960683 0.541556120 0.567362010
0.825933099 0.573687851 0.601012111
0.938013792 0.625300229 0.649462223
0.563693464 0.561922729 0.501075447
0.576470494 0.566603243 0.511574805
0.598355353 0.581277490 0.530423701
0.628589630 0.605439484 0.557368577
0.672485948 0.648196995 0.597469866
0.736495435 0.663883746 0.612776697
0.832763791 0.688551247 0.626438677
0.935863078 0.719038486 0.675395250
0.703984976 0.707273841 0.646552503
0.695129573 0.708032727 0.645540833
0.708918273 0.717014551 0.656925917
0.732953787 0.729664803 0.675015628
0.766223729 0.743074000 0.695002973
0.796837449 0.749652267 0.682099760
0.856040716 0.739785016 0.655914009
0.947501659 0.777229249 0.685768485
0.830233812 0.838835835 0.793168902
0.828715920 0.840860248 0.788488209
0.834535003 0.843390286 0.787476242
0.853763580 0.851233244 0.802909553
0.865022182 0.854902148 0.806325257
0.888551593 0.862997830 0.804047763
0.924351811 0.869323254 0.795445561
0.972422719 0.853889644 0.767235637
0.443010569 0.388108552 0.685515523
0.454522550 0.383808017 0.696268260
0.485515386 0.365338266 0.701707840
0.539278924 0.332067907 0.718785524
0.617204428 0.268943369 0.737760782
0.745097995 0.141049653 0.754712284
0.864263296 0.147248253 0.747880757
0.975079238 0.243390292 0.740037978
0.467678994 0.424920648 0.671979964
0.475522012 0.425300241 0.679569840
0.495635659 0.405439377 0.688677788
0.537254512 0.373307973 0.708791733
0.618089736 0.313725352 0.727261126
0.739152193 0.215306625 0.748133957
0.856293261 0.216951117 0.741808534
0.963314414 0.286274433 0.727514446
0.524478197 0.502593100 0.661859453
0.528526068 0.496647835 0.675648272
0.532447457 0.487666368 0.680455387
0.565717936 0.456673026 0.694876850
0.631372631 0.409993619 0.715749383
0.732068241 0.334345013 0.736242771
0.852371812 0.336242765 0.734598398
0.958127737 0.398355454 0.733839333
0.592157185 0.584313631 0.646046937
0.595951855 0.583681166 0.650727510
0.594054103 0.571790040 0.653383791
0.603795290 0.553447247 0.679443181
0.643137157 0.520936012 0.701834500
0.725743055 0.465781271 0.726881564
0.839089274 0.460341543 0.720430255
0.946616113 0.511068761 0.733206570
0.653257370 0.635926664 0.624161661
0.663757205 0.644528508 0.635167539
0.668311357 0.646805823 0.641492546
0.669829190 0.645793736 0.670588374
0.673624277 0.625679851 0.690069556
0.730550110 0.589373708 0.715749264
0.834535003 0.583428442 0.720556319
0.934218585 0.628589571 0.741555810
0.679949284 0.675521791 0.650980055
0.683238506 0.677545667 0.650094867
0.698418736 0.683364809 0.660594821
0.710563004 0.692472994 0.668943644
0.741935492 0.709297717 0.689816713
0.755850732 0.716381729 0.723465800
0.840607047 0.706262052 0.749272704
0.931815088 0.743453443 0.771916389
0.714611292 0.709677577 0.670841277
0.718532264 0.713978529 0.680961251
0.728020310 0.720809579 0.688551366
0.744339287 0.734218538 0.696268260
0.765591502 0.752308249 0.717014313
0.810119808 0.783427835 0.759898663
0.845035017 0.799240947 0.763946533
0.929917574 0.821631789 0.787982285
0.830360770 0.840859950 0.806831002
0.832511067 0.843390226 0.808602273
0.835673809 0.841872096 0.813915253
0.845794022 0.852624953 0.818595886
0.862744987 0.865654767 0.833649337
0.884883285 0.879570067 0.847691298
0.906894326 0.883238614 0.841492653
0.960278213 0.875142574 0.830613077
0.620240450 0.581151247 0.844908476
0.621505618 0.575078547 0.842631221
0.636052966 0.562049329 0.848703623
0.653510273 0.531941772 0.856420159
0.695509136 0.491461039 0.871600032
0.767235994 0.408601642 0.883364856
0.870841265 0.315749407 0.895761967
0.987096965 0.345856577 0.891966760
0.635167122 0.600885570 0.834787905
0.635420561 0.597849309 0.839848220
0.645667255 0.587602556 0.837444305
0.670588255 0.558886468 0.848450601
0.695635915 0.521315396 0.860341430
0.769259691 0.442504466 0.886148095
0.867299438 0.353573233 0.890701950
0.979379773 0.377861828 0.888931096
0.680581748 0.656672716 0.818216324
0.683364630 0.653510332 0.823023081
0.681973577 0.647311687 0.836179674
0.696141362 0.625426888 0.843769729
0.715622663 0.586970448 0.854016423
0.775711536 0.532827199 0.874762774
0.869323075 0.454775333 0.883871078
0.972295880 0.468184769 0.880328596
0.728273213 0.722327769 0.816445231
0.723466158 0.718658686 0.811638117
0.727387667 0.708918095 0.820872664
0.728273213 0.692473233 0.830739975
0.745098293 0.664895594 0.843516767
0.785705328 0.623402953 0.858317673
0.865907431 0.557368636 0.876280785
0.962428629 0.560531020 0.876407266
0.776343942 0.768753946 0.804047704
0.775964916 0.769006968 0.803795099
0.773561001 0.765211701 0.806957424
0.774699390 0.760910690 0.823529243
0.774699628 0.738519609 0.835926414
0.801518142 0.714231491 0.852751434
0.863630414 0.665275037 0.869070053
0.949398756 0.659456372 0.872232676
0.805692732 0.799873531 0.797722757
0.808854878 0.803035915 0.803921342
0.813788712 0.804174781 0.805818915
0.820493281 0.808602095 0.809993505
0.819228172 0.807590246 0.825806558
0.827956736 0.794307590 0.847311735
0.868311286 0.765970647 0.872738600
0.935736716 0.757242382 0.868943572
0.815686226 0.818975091 0.809613764
0.823276699 0.822011471 0.812397182
0.823023260 0.824035525 0.806831121
0.832384467 0.829601467 0.819228411
0.847058654 0.835167408 0.830866516
0.859962106 0.845414519 0.834029138
0.873245001 0.843010962 0.865275204
0.933333158 0.842504680 0.872359455
0.839468598 0.854016602 0.827830791
0.848829746 0.853004336 0.838329971
0.854016602 0.855281770 0.839848459
0.859202743 0.861606598 0.845287621
0.867045760 0.868310928 0.855407596
0.890322626 0.881973684 0.876027763
0.909677386 0.901960313 0.892852485
0.948007822 0.917900026 0.902339816
