Assets/Resources/EldamarStudio/100 Horror LUTs Pack/LUTs/cube/Mutant LUT.cube
LUT_3D_SIZE 8
DOMAIN_MIN 0.000000 0.000000 0.000000
DOMAIN_MAX 0.903226 0.903226 0.903226
0.133332998 0.058823999 0.066666998
0.149779007 0.071346998 0.079190098
0.173308089 0.087033898 0.098798096
0.196711004 0.110942349 0.108158998
0.233522996 0.131561995 0.135483995
0.285894990 0.166350737 0.162555248
0.362681985 0.206831291 0.200632572
0.481593758 0.265654802 0.248576805
0.149779007 0.096015446 0.091713995
0.153700009 0.099936545 0.087792993
0.177229896 0.115243092 0.114863642
0.200632289 0.128526002 0.121442094
0.238583356 0.152814999 0.142188653
0.291840732 0.179000735 0.168753937
0.364200205 0.219354793 0.208855450
0.477799058 0.274130076 0.253510356
0.156736091 0.152814895 0.133207083
0.170904085 0.153953463 0.130044192
0.180265889 0.161416993 0.141935095
0.211637989 0.177102998 0.149272636
0.250727177 0.191904008 0.162934989
0.302340090 0.219987184 0.195445731
0.381404191 0.260847270 0.224921092
0.498291880 0.315116912 0.277166069
0.175964639 0.217457637 0.170904279
0.177102998 0.224161997 0.169259995
0.197596192 0.227956980 0.178620994
0.228083283 0.241619632 0.192789286
0.269070417 0.260467827 0.207589984
0.321062356 0.283491284 0.223149896
0.402656645 0.319038630 0.256293625
0.523592591 0.376723796 0.312713623
0.199114382 0.304744184 0.217836991
0.214800999 0.312587202 0.230739728
0.223276377 0.313346088 0.229475081
0.257052183 0.323086619 0.243643269
0.300822169 0.340670377 0.261606187
0.362934917 0.369259924 0.277925164
0.453384280 0.408728480 0.317141175
0.561669767 0.468564212 0.377988636
0.242757991 0.423023462 0.299557239
0.255534470 0.432258189 0.297659993
0.279190630 0.433649451 0.305376470
0.308159530 0.448576450 0.316382110
0.360151649 0.463124722 0.333586186
0.424794734 0.483617753 0.358254224
0.510183692 0.520429730 0.399241179
0.618469417 0.579380333 0.465654522
0.334598005 0.584819555 0.404174268
0.347121805 0.580645144 0.414674103
0.368500739 0.587223411 0.420999557
0.409993529 0.595445871 0.430739909
0.456040740 0.606957495 0.449335545
0.520683169 0.624161839 0.475395262
0.583175242 0.642631292 0.503099501
0.682605624 0.685768485 0.564579070
0.527387619 0.754838586 0.597975612
0.541935563 0.765211582 0.597975612
0.562428653 0.759519458 0.604047656
0.588488579 0.770271957 0.616065800
0.627450764 0.775964379 0.629348636
0.679316700 0.793801486 0.654775381
0.733459830 0.804174304 0.678304791
0.786211550 0.821631789 0.689563572
0.133712545 0.070588000 0.083491549
0.146236554 0.071726546 0.088172443
0.170524642 0.094876900 0.110183448
0.192789286 0.119544543 0.122201093
0.227324381 0.142188653 0.146995544
0.278431535 0.172295988 0.173560917
0.353573740 0.211132243 0.205945581
0.470715046 0.264262825 0.256419808
0.143073544 0.099936545 0.094370544
0.154459000 0.108159088 0.108538538
0.170904085 0.112839989 0.122707449
0.194813460 0.132827461 0.135989651
0.230360389 0.150411099 0.154332817
0.282858998 0.185705096 0.180139273
0.349525720 0.223655835 0.208728835
0.475142419 0.273624182 0.261606485
0.158760458 0.146868750 0.132827446
0.169386089 0.153574005 0.137128100
0.186590895 0.158254191 0.147754550
0.207337454 0.171537116 0.160278454
0.244149342 0.193927750 0.170778096
0.295256108 0.224414736 0.197722822
0.372675478 0.260721266 0.230992973
0.493105322 0.316129237 0.283238322
0.179127455 0.214168638 0.178241551
0.183428004 0.216571644 0.180645347
0.202277094 0.222770542 0.182922453
0.226059541 0.236938730 0.191145092
0.265528262 0.256926000 0.209108174
0.319544375 0.279190421 0.235041082
0.398861647 0.319291562 0.268184662
0.523972034 0.382036448 0.322074801
0.201518193 0.301960737 0.220873192
0.211638004 0.309044749 0.233523205
0.224035278 0.312080801 0.233396277
0.257052153 0.320682943 0.246806085
0.295762420 0.338267177 0.261353731
0.357874572 0.364452928 0.284377187
0.442757696 0.409487575 0.319923818
0.565338135 0.470082313 0.386969984
0.239595070 0.419607460 0.302213997
0.250980556 0.422264218 0.305755943
0.272991627 0.428210080 0.306261867
0.303352445 0.438836128 0.315243721
0.356609732 0.456925809 0.337508082
0.412144005 0.476786643 0.359392673
0.504996538 0.515243471 0.405186534
0.616445363 0.575711548 0.466793180
0.338140279 0.573434114 0.409867257
0.343832791 0.576976538 0.411132276
0.370018542 0.583807826 0.421252072
0.407463670 0.594180584 0.436179996
0.457431942 0.606704593 0.462365627
0.518026650 0.623149574 0.485515088
0.593168557 0.649715245 0.515749276
0.694876790 0.695129752 0.575964510
0.513345778 0.750031292 0.595698953
0.534218550 0.752434731 0.586843908
0.547248363 0.755977154 0.597343147
0.577356100 0.761796296 0.610120177
0.620113790 0.771157384 0.626312137
0.669196427 0.781783462 0.642757475
0.729032159 0.798987985 0.673498034
0.787349999 0.820493340 0.711827517
0.141935095 0.075268902 0.114484094
0.149779007 0.083112001 0.122327998
0.167741999 0.098798096 0.132447988
0.198734745 0.122707352 0.148892999
0.231246099 0.148133993 0.169259995
0.285262376 0.177103087 0.196711093
0.352435201 0.218595698 0.229601562
0.472991824 0.272865206 0.282226712
0.149399459 0.113345549 0.126249090
0.157242462 0.110942543 0.121062547
0.170904174 0.123086900 0.139911547
0.198355094 0.139532000 0.152055994
0.237571090 0.164958745 0.177229807
0.286780268 0.197470188 0.205692649
0.354712069 0.231498837 0.239342451
0.472612590 0.286653996 0.290575653
0.159139901 0.152056009 0.153700098
0.179253459 0.167362556 0.170904085
0.197596192 0.175585002 0.182669088
0.214800909 0.184187099 0.183807626
0.249968275 0.202909291 0.202150196
0.299683720 0.234408990 0.227198079
0.376596987 0.267046213 0.260088384
0.497406751 0.320303559 0.311701179
0.187476099 0.230739728 0.205439910
0.186970353 0.233523101 0.211765006
0.210120097 0.242504641 0.213156179
0.235547453 0.249968290 0.221378729
0.273118526 0.264769286 0.235800192
0.323086649 0.288930982 0.256546617
0.402150720 0.327640742 0.294117659
0.521568835 0.383807600 0.343200445
0.210120097 0.313346088 0.253890097
0.211132437 0.321189076 0.257052273
0.232764095 0.324351370 0.268058091
0.257305622 0.329411745 0.265148640
0.300822169 0.346995175 0.281973273
0.363440990 0.374446273 0.305882543
0.450221360 0.412650287 0.342947274
0.572042882 0.474509746 0.407463700
0.252751738 0.436685711 0.328525931
0.260467827 0.438203752 0.329285145
0.277545750 0.440101385 0.331688821
0.315243632 0.449082941 0.348892748
0.364579409 0.464010000 0.362302750
0.422011375 0.484756380 0.380518556
0.507400453 0.522327423 0.422390997
0.619987607 0.585199296 0.489310563
0.348387092 0.577103078 0.433017194
0.360404730 0.584567010 0.445035011
0.377229571 0.590512395 0.444781542
0.416318744 0.597849071 0.455914021
0.458570659 0.610879242 0.471220642
0.518532574 0.621378958 0.494243920
0.587855577 0.646679580 0.525110602
0.687286317 0.692093432 0.581657290
0.526249230 0.754712045 0.606451511
0.540923417 0.761163652 0.608475447
0.561416745 0.760025442 0.613662601
0.588361561 0.769006610 0.625173748
0.627071381 0.776976585 0.638962507
0.673877418 0.787855685 0.657684565
0.730550349 0.801518023 0.684503138
0.795698702 0.817710578 0.708285570
0.143453285 0.087413348 0.150790647
0.147754550 0.092852548 0.153953448
0.171663180 0.101454645 0.158633634
0.191144988 0.122707352 0.170398638
0.230360195 0.149272636 0.193927646
0.280075729 0.178114727 0.221252739
0.353193998 0.223655924 0.260721266
0.473497808 0.274509639 0.316002637
0.158380911 0.112839893 0.153953448
0.157622010 0.115116991 0.162555635
0.172422275 0.128905639 0.163694084
0.193168744 0.142188549 0.178621098
0.231878176 0.163314447 0.197722733
0.279570073 0.193422094 0.225047633
0.358253896 0.234534919 0.267046392
0.472359091 0.288172185 0.318659067
0.166983098 0.159013093 0.183807537
0.170904279 0.167235658 0.189500183
0.190512091 0.174699187 0.193042636
0.210373536 0.187223196 0.206324831
0.245161265 0.208349198 0.227956980
0.298039436 0.236559272 0.256166875
0.380138904 0.276786745 0.291334569
0.495508939 0.331688911 0.341176182
0.183807641 0.222011641 0.227577627
0.191271096 0.232257724 0.223909080
0.212017551 0.242378533 0.240860537
0.235420629 0.256799281 0.250600994
0.270209044 0.272106618 0.264642268
0.327008098 0.297533303 0.285388738
0.408854902 0.340923339 0.326881647
0.533206761 0.396457613 0.385831624
0.207716793 0.317646831 0.282732189
0.220619738 0.318279743 0.289563537
0.238330096 0.332068175 0.292979091
0.263630658 0.337887555 0.295635819
0.308159500 0.357115567 0.316761613
0.370398253 0.377356172 0.339531839
0.452877909 0.419354856 0.378621101
0.571283579 0.478178352 0.439974964
0.248703733 0.430993021 0.352182359
0.257937908 0.435673714 0.354965091
0.281088084 0.443137467 0.364452600
0.318659276 0.454143375 0.375458747
0.367615610 0.469449729 0.392662734
0.426059127 0.488931119 0.412650377
0.513472378 0.523719311 0.451359808
0.618848622 0.584440172 0.507526934
0.338772833 0.579253852 0.459329545
0.356862545 0.584946573 0.461733252
0.374572843 0.591018260 0.467931628
0.412776887 0.596584558 0.479443192
0.463124514 0.611511707 0.500822544
0.527134836 0.631751835 0.520556629
0.592789173 0.652118802 0.544591844
0.693611443 0.703225732 0.608981788
0.516634762 0.754332244 0.622264385
0.530802906 0.755850434 0.618089557
0.551929116 0.759519458 0.627577484
0.580645144 0.766476810 0.636053264
0.615686059 0.774952590 0.643896222
0.667299092 0.785325706 0.666413546
0.724731088 0.799746931 0.690195858
0.801391721 0.823402941 0.725489736
0.149020001 0.104996994 0.202150390
0.157242462 0.104237802 0.204174653
0.170904279 0.116002284 0.207716897
0.194813445 0.135989547 0.213535547
0.229601383 0.155091986 0.229601368
0.278431535 0.183681443 0.258444160
0.359519064 0.224035472 0.298292279
0.480202466 0.278431624 0.360404998
0.157621801 0.130550444 0.207210645
0.158001453 0.129411817 0.203415543
0.173940271 0.137507543 0.207590088
0.204301268 0.154459208 0.223023534
0.237950534 0.172422379 0.238962784
0.284756720 0.196963936 0.259582728
0.360531241 0.239342257 0.305376261
0.479569882 0.291714013 0.358760297
0.173434809 0.173181191 0.227324277
0.179253653 0.175585091 0.232763991
0.192915902 0.180265903 0.237444803
0.213662460 0.193927750 0.243643075
0.246047094 0.212397188 0.259329259
0.307147384 0.238077179 0.292979091
0.381530464 0.278811008 0.327514112
0.504996657 0.331941545 0.387222916
0.185578644 0.236306250 0.262871653
0.189753190 0.244149640 0.271094263
0.207717001 0.247944444 0.277293086
0.235041097 0.264769107 0.290195823
0.274257004 0.279696286 0.302719831
0.332320929 0.304996639 0.325995892
0.419734359 0.343706459 0.363187551
0.538393617 0.396078348 0.425047159
0.206958011 0.318026394 0.306261957
0.218089730 0.328400016 0.321694732
0.235927001 0.337634206 0.333080173
0.275775075 0.358380735 0.352561384
0.321947962 0.380771369 0.369006962
0.376723260 0.396331370 0.380265802
0.465148449 0.428463012 0.417457283
0.574066997 0.483744383 0.475015640
0.257937938 0.442125022 0.395572186
0.266919553 0.448830187 0.403415293
0.288677812 0.455787361 0.407716632
0.331056625 0.469955474 0.422643721
0.375964254 0.482858717 0.432258368
0.436938673 0.507147670 0.455534697
0.525110722 0.537634015 0.488424748
0.627071500 0.590385556 0.544338942
0.357115269 0.587223589 0.491714060
0.363440990 0.592789590 0.504237473
0.384060472 0.598987579 0.508032620
0.415559441 0.604554296 0.515370190
0.465528250 0.619354904 0.525237441
0.525110722 0.635673761 0.548260272
0.601770759 0.656040788 0.582289457
0.701581180 0.702466846 0.633016825
0.522200763 0.757495463 0.653257430
0.528399706 0.760404587 0.638836145
0.543579638 0.764326513 0.645287931
0.576343715 0.770145118 0.655281365
0.618216395 0.780012608 0.669449866
0.668817341 0.789121032 0.684376657
0.731182575 0.805059612 0.709297895
0.794307232 0.827197671 0.728652775
0.151043743 0.117520481 0.264136732
0.157242462 0.121821538 0.268437654
0.176343992 0.133206993 0.273877472
0.206451729 0.147248477 0.278304726
0.239595190 0.167741999 0.292852461
0.289816499 0.195825472 0.311321735
0.367362559 0.230234280 0.346363008
0.489943027 0.279949814 0.411638439
0.153194457 0.139025539 0.256673068
0.165844545 0.144086197 0.272486180
0.181910098 0.152688101 0.274004072
0.210119992 0.165211990 0.281467646
0.243643194 0.181657180 0.294117540
0.289816469 0.206831187 0.313978463
0.362049311 0.242378443 0.347248524
0.490195930 0.300569147 0.418595523
0.169260085 0.192662984 0.290701926
0.173560917 0.194686636 0.293105513
0.190386087 0.196584180 0.294244081
0.219860733 0.205945373 0.299430728
0.259708822 0.224414825 0.315875918
0.305882335 0.249968201 0.337508082
0.383934110 0.281088263 0.376849920
0.506514609 0.334598094 0.435926557
0.180645257 0.252877891 0.322960109
0.190512195 0.252498627 0.322074711
0.211638182 0.257558495 0.323592693
0.238204002 0.268943638 0.334092259
0.283617973 0.286527395 0.354585558
0.337887555 0.304870516 0.374193370
0.417330563 0.346489638 0.411132276
0.543453276 0.407084256 0.475521803
0.206957996 0.337001950 0.361669660
0.220999390 0.339026064 0.371790141
0.236179635 0.348513275 0.384313554
0.271853179 0.358254105 0.392156452
0.320809603 0.377482563 0.410373151
0.384819925 0.399746925 0.436179489
0.468311191 0.436179489 0.468943536
0.583934188 0.491334707 0.524731219
0.260341734 0.444275737 0.436559200
0.266160458 0.450094461 0.442378461
0.290195823 0.461859465 0.454902083
0.330423385 0.478051722 0.469829470
0.389499933 0.504364491 0.496141940
0.456166714 0.524604499 0.514990687
0.533206761 0.551296711 0.535230696
0.632257879 0.589247286 0.580645204
0.352941096 0.592410088 0.538140297
0.363440841 0.590891838 0.538646340
0.388614893 0.602656603 0.548134029
0.421884835 0.614294827 0.559013367
0.476154119 0.632384717 0.577482939
0.537507713 0.648450255 0.592030287
0.612017810 0.669449866 0.618089795
0.716002345 0.714863837 0.673750758
0.513851643 0.754079521 0.680455327
0.531056464 0.758633792 0.669702709
0.543453574 0.762175798 0.673750758
0.570524931 0.766476810 0.682099879
0.609613895 0.778747439 0.689689696
0.666287303 0.788108826 0.707653642
0.729917765 0.807336867 0.730171025
0.800885558 0.832763791 0.766603410
0.145098001 0.140164286 0.376343966
0.153826997 0.139911249 0.372548997
0.181909993 0.147375092 0.375711560
0.216318995 0.168121353 0.382542849
0.263883263 0.189499989 0.396710843
0.324477822 0.214547694 0.408096105
0.397596300 0.244401976 0.427324563
0.492599756 0.290448964 0.475522101
0.148766547 0.162555560 0.368627548
0.157622010 0.166097090 0.370272249
0.186337546 0.168880358 0.373434544
0.221378833 0.184946194 0.381910145
0.272106528 0.205313206 0.397090286
0.330677003 0.230234176 0.411258906
0.400505543 0.261859536 0.436685532
0.500949025 0.307400525 0.485135913
0.154712200 0.202909291 0.387223542
0.168247834 0.211891547 0.393421799
0.194560185 0.217963293 0.395319343
0.229980826 0.228336647 0.404554069
0.279570103 0.245920196 0.412523538
0.338519931 0.267046094 0.427577198
0.413915455 0.297533363 0.452245444
0.514863610 0.343580157 0.497659445
0.166983008 0.272991896 0.416192263
0.182416454 0.272865444 0.414041638
0.205819264 0.279570103 0.421884835
0.246046990 0.293738306 0.426185906
0.300316632 0.308032900 0.445540905
0.365211725 0.329917818 0.466287345
0.445793927 0.360025257 0.489563644
0.548639834 0.415053755 0.535104394
0.196964011 0.365718007 0.457178980
0.201517999 0.368627548 0.467931718
0.232763901 0.370398283 0.465654582
0.269955903 0.377862096 0.472865194
0.330423564 0.392283380 0.489310473
0.398735017 0.414547712 0.510309577
0.487412959 0.445414364 0.533839345
0.594054461 0.497027218 0.581910253
0.253889978 0.478178442 0.519291580
0.269070446 0.483617842 0.525995851
0.291208267 0.491460711 0.532195032
0.331815332 0.497786015 0.540417552
0.388867825 0.512587011 0.557495475
0.459962189 0.529032052 0.573814034
0.543706119 0.553320885 0.599114299
0.650726974 0.602024138 0.640227497
0.363567263 0.611258805 0.604047835
0.365591079 0.603795290 0.596710980
0.391144544 0.616951406 0.598734736
0.431372195 0.624667823 0.615180254
0.480328619 0.643516660 0.637950718
0.559899032 0.669070244 0.655660987
0.643263817 0.695256591 0.681214273
0.729032397 0.727767110 0.720809698
0.518658996 0.762302160 0.720683157
0.528652847 0.761163890 0.707906604
0.544718564 0.768754005 0.714484096
0.577355862 0.774066746 0.725869596
0.623276353 0.785199165 0.733459890
0.670082271 0.799114406 0.750537336
0.736369550 0.814547837 0.770019054
0.810878932 0.844022870 0.800505757
0.107021026 0.166223809 0.552308559
0.129411861 0.167741701 0.549651742
0.182669088 0.177355915 0.553826571
0.236938819 0.190638825 0.554585576
0.308792025 0.217330620 0.566603243
0.388741553 0.245034873 0.573940337
0.482226074 0.285135806 0.594813406
0.574572682 0.335104465 0.615053594
0.112334013 0.185958236 0.549019277
0.135104403 0.190765545 0.547248483
0.179886460 0.198102370 0.553700209
0.239342630 0.216824889 0.556103766
0.314231545 0.238330200 0.569006920
0.395066321 0.267172605 0.585072637
0.492346376 0.306261808 0.607463419
0.589373708 0.357242286 0.624668002
0.117141202 0.236811906 0.555217981
0.131688863 0.246806085 0.555850625
0.185578957 0.247817829 0.565338433
0.249841809 0.262744904 0.569007039
0.320177078 0.280581892 0.578241706
0.404047966 0.310942531 0.590891540
0.497912884 0.346110165 0.611891150
0.593042612 0.389246970 0.634787738
0.117520556 0.306388438 0.574193597
0.141935393 0.310815871 0.573434472
0.188994110 0.317393720 0.579380274
0.261606485 0.333080113 0.593548238
0.339658350 0.353573918 0.600505948
0.422137767 0.378874362 0.614674449
0.517646790 0.412903100 0.631625295
0.616951227 0.455028474 0.659708798
0.163693994 0.407969505 0.602277160
0.180139095 0.412270844 0.601265192
0.216445103 0.409614086 0.608095765
0.275142640 0.415939182 0.610246599
0.361923009 0.436053187 0.623655558
0.445920348 0.461606741 0.645287871
0.545224488 0.491081804 0.653257430
0.637823761 0.529032111 0.678684413
0.268564314 0.536748648 0.647311568
0.276407301 0.535357535 0.648956418
0.303732097 0.536495805 0.653889775
0.345224470 0.537128329 0.660088599
0.401518285 0.539784670 0.657937944
0.486780465 0.555724323 0.674636424
0.578621089 0.585578740 0.697153926
0.677292705 0.618089795 0.717520237
0.405313194 0.663504362 0.714104772
0.406072050 0.665274858 0.710815787
0.426692069 0.667678654 0.708033025
0.461986095 0.670082510 0.715875804
0.510183513 0.681973338 0.723592401
0.577229261 0.692220211 0.737128079
0.654395819 0.705123425 0.753573716
0.750284672 0.741176367 0.779633045
0.545856595 0.783681273 0.774572730
0.548386574 0.782036841 0.772675276
0.559898615 0.789500356 0.775584757
0.591397762 0.790006399 0.776976228
0.627704084 0.800885379 0.787602603
0.685768366 0.813029528 0.804933488
0.755723953 0.835167468 0.827324450
0.839974523 0.867299378 0.858190596
