Assets/Resources/EldamarStudio/100 Horror LUTs Pack/LUTs/cube/Mutant LUT.cube
DOMAIN_MIN 0 0 0
DOMAIN_MAX 1 1 1
LUT_3D_SIZE 32
0.133332998 0.058823999 0.066666998
0.136369392 0.061859611 0.069702610
0.139405221 0.064895771 0.072738774
0.143706322 0.067931838 0.075774841
0.149779007 0.071346998 0.079190098
0.155851007 0.077418998 0.085262865
0.159392685 0.080961324 0.088804677
0.165717706 0.083997712 0.093484998
0.173308089 0.087033898 0.098798096
0.176344484 0.090069525 0.101834483
0.182289988 0.096014999 0.104870126
0.188362002 0.104111254 0.105881996
0.196711004 0.110942349 0.108158998
0.208349004 0.114231065 0.114231065
0.214420989 0.120303832 0.120303832
0.222896799 0.123972185 0.126375988
0.233522996 0.131561995 0.135483995
0.246299565 0.143073574 0.145730585
0.261479974 0.152181968 0.148766980
0.271094352 0.155724362 0.154586017
0.285894990 0.166350737 0.162555248
0.303099126 0.178494990 0.170651257
0.318659008 0.184819981 0.177103460
0.342947811 0.196964011 0.192283094
0.362681985 0.206831291 0.200632572
0.383681297 0.217330977 0.208096310
0.409488052 0.229981065 0.218216062
0.442884415 0.245161444 0.233396441
0.481593758 0.265654802 0.248576805
0.521062553 0.285135925 0.270841151
0.564959109 0.306008548 0.296394587
0.619607985 0.333332986 0.317647010
0.130297378 0.064895995 0.075774617
0.142441392 0.067931615 0.075774610
0.141176224 0.073118001 0.076660000
0.144971162 0.075774617 0.080075935
0.152435169 0.077039547 0.084883220
0.155851007 0.080455385 0.088298477
0.159392685 0.086527385 0.089310609
0.165717706 0.090069711 0.093484998
0.173308089 0.093105897 0.098798096
0.176344484 0.096141525 0.101834491
0.182289988 0.102086991 0.107780002
0.192409992 0.108158991 0.114990637
0.199367642 0.113978252 0.119165123
0.205313385 0.117520414 0.122833386
0.211385384 0.126375824 0.123339444
0.222264379 0.130044192 0.129411608
0.233522996 0.134597987 0.137001812
0.246299565 0.142441154 0.146995574
0.261480004 0.149146363 0.154838964
0.273876995 0.158254042 0.152308643
0.287033319 0.167489097 0.161416590
0.304111242 0.179506868 0.171663120
0.321568877 0.187729120 0.179759607
0.342947811 0.196964011 0.186211094
0.362681985 0.211385280 0.201391280
0.385072619 0.222011656 0.211132288
0.412017733 0.232511386 0.220746383
0.442884415 0.245161444 0.233396441
0.478937596 0.260341823 0.248576805
0.516255319 0.280835152 0.263757169
0.557115614 0.302972972 0.284250587
0.607464015 0.330297381 0.305503011
0.138014004 0.075268999 0.082732551
0.141555995 0.076154388 0.080581777
0.142947227 0.079190552 0.082732551
0.146236330 0.081467390 0.083997391
0.153953224 0.080961324 0.089184225
0.149905175 0.083997712 0.093991064
0.161543459 0.089563772 0.092346773
0.166223764 0.095635772 0.095635772
0.173308089 0.099177904 0.100948676
0.176344499 0.102213524 0.103984714
0.186590984 0.108158998 0.112080999
0.190638736 0.112207256 0.116129257
0.200126514 0.118152767 0.121569000
0.204680964 0.122453995 0.123845771
0.212650225 0.129664630 0.127640769
0.223529771 0.133965969 0.132447764
0.235673770 0.138519764 0.137001574
0.247817755 0.144591764 0.144212380
0.261480004 0.150664181 0.151802972
0.273877025 0.161669657 0.156230420
0.287918717 0.168880478 0.160784021
0.304111242 0.179506868 0.171663120
0.322327971 0.188867494 0.180771500
0.341556132 0.202023908 0.188867778
0.366982967 0.211385280 0.197470054
0.387982309 0.225173980 0.209867090
0.414547831 0.236053288 0.220493346
0.443263888 0.249841988 0.235926762
0.476786822 0.264642805 0.248576805
0.520303547 0.283365160 0.272612363
0.561795950 0.306388557 0.291461349
0.610373259 0.333712995 0.312713772
0.146363169 0.086148165 0.087539837
0.147627994 0.086148165 0.083238617
0.146742389 0.088298611 0.087033771
0.144971162 0.090069830 0.086274996
0.156356841 0.088171996 0.090449154
0.151676074 0.092093766 0.098292165
0.160278320 0.096394993 0.100569315
0.169260174 0.101201832 0.101201832
0.174573064 0.106514931 0.106514931
0.177609339 0.109550685 0.109550685
0.188108996 0.114231318 0.113345705
0.194180742 0.118279256 0.118406095
0.200632289 0.122454002 0.123719484
0.207210958 0.128525987 0.124605000
0.216318563 0.134597987 0.130676985
0.225300595 0.139531970 0.134218991
0.238709837 0.144086152 0.141303122
0.249588996 0.150790572 0.143706322
0.260468185 0.157495007 0.148513958
0.275142193 0.165338174 0.155850857
0.289183885 0.174952462 0.165085569
0.303352147 0.182036862 0.173181310
0.321315825 0.191271007 0.182289660
0.341809154 0.205313087 0.193675071
0.364326417 0.215939119 0.201518282
0.388994306 0.227703974 0.211891472
0.414801061 0.240354061 0.220493153
0.443643421 0.255534440 0.235673711
0.477545917 0.269449651 0.252371967
0.518532336 0.286907166 0.272612363
0.562681556 0.310815960 0.301201940
0.609360814 0.338519841 0.322833836
0.149779007 0.096015446 0.091713995
0.151676163 0.095635995 0.086021543
0.152561545 0.097406775 0.089563772
0.154459000 0.099556997 0.093864992
0.153700009 0.099936545 0.087792993
0.159772009 0.106008545 0.099936999
0.167994767 0.109930314 0.107779995
0.174193710 0.112207383 0.111827835
0.177229896 0.115243092 0.114863642
0.180265516 0.118279479 0.117900029
0.188741326 0.121315867 0.115116678
0.194560289 0.125110731 0.116887800
0.200632289 0.128526002 0.121442094
0.212523967 0.134345040 0.130297452
0.221631572 0.140290543 0.136369452
0.228716061 0.147122055 0.138014004
0.238583356 0.152814999 0.142188653
0.253004164 0.159139961 0.150537997
0.259076953 0.168247581 0.150538012
0.275901556 0.172928348 0.158507213
0.291840732 0.179000735 0.168753937
0.306008995 0.188108966 0.178874448
0.318532497 0.197090089 0.185199469
0.342568249 0.208728820 0.200126916
0.364200205 0.219354793 0.208855450
0.386211634 0.231245637 0.216951430
0.409108490 0.246046618 0.228842542
0.442504853 0.261226982 0.234914541
0.477799058 0.274130076 0.253510356
0.518785536 0.289816409 0.275774837
0.561922550 0.310815960 0.300063401
0.595318973 0.341176003 0.324351460
0.155851007 0.111195058 0.103857994
0.149779007 0.108159453 0.100822389
0.149525940 0.107779995 0.099430934
0.155850783 0.109550774 0.103478998
0.165844008 0.112080544 0.106008992
0.159772009 0.115116939 0.099936999
0.165843993 0.121188931 0.112080999
0.172422469 0.121821709 0.116634995
0.177229896 0.121315770 0.117900029
0.180265516 0.124351479 0.120936416
0.186210990 0.127387866 0.118153065
0.194813311 0.134471729 0.123213187
0.202909589 0.139151990 0.129032284
0.212523967 0.140417039 0.133333057
0.221631572 0.143453419 0.139405057
0.230739802 0.154205933 0.143073872
0.239342257 0.160784259 0.147121996
0.250727504 0.164958999 0.154332638
0.265148968 0.171283975 0.162682027
0.279570371 0.183174938 0.168247998
0.293358922 0.188108742 0.174825922
0.306008995 0.194181129 0.181910053
0.318532497 0.203162864 0.188235074
0.339784890 0.209234878 0.200379878
0.359266073 0.223150283 0.210752696
0.382163107 0.237318158 0.217963040
0.408981979 0.251992106 0.226059183
0.439468473 0.264263362 0.237950936
0.470208675 0.279443741 0.251992732
0.506894171 0.295888811 0.269955873
0.548260272 0.315875947 0.290955037
0.589246988 0.341176003 0.315243065
0.156863004 0.128905639 0.116002642
0.155851007 0.128399700 0.115496702
0.158381000 0.125363544 0.114611320
0.160404846 0.126249149 0.115876161
0.168626994 0.129285097 0.119164996
0.166855991 0.132320926 0.113092996
0.170904636 0.132826999 0.114611320
0.175331920 0.137254715 0.121821605
0.180518672 0.136748999 0.123466089
0.185325518 0.138013840 0.126502484
0.193801314 0.138519868 0.128779128
0.201897576 0.143579990 0.131814986
0.209867328 0.151043326 0.139278963
0.217330992 0.154332325 0.143453643
0.224161893 0.159645408 0.144971639
0.235673308 0.162681803 0.151043639
0.244908199 0.172928512 0.157242119
0.254016578 0.178621307 0.163060993
0.265402019 0.184693336 0.166476652
0.278052062 0.193801656 0.172802329
0.293232411 0.202150643 0.180771574
0.307021141 0.207843184 0.189500257
0.321189284 0.217077687 0.198735118
0.344844908 0.227957323 0.208475485
0.370651275 0.236306012 0.218342960
0.392409623 0.249589011 0.227450982
0.419102132 0.263630718 0.235167578
0.449462622 0.277799219 0.245287552
0.487412930 0.290069818 0.260088503
0.524857640 0.310562909 0.280582070
0.566856205 0.333839178 0.302087277
0.611005306 0.361416638 0.326375306
0.155218288 0.142188698 0.124857992
0.156863004 0.140543997 0.123213284
0.164453000 0.143326923 0.124857992
0.166729838 0.140290856 0.123592831
0.169386089 0.142947704 0.126249000
0.171916410 0.147248477 0.125236988
0.173687637 0.147754416 0.125110611
0.176470995 0.147754416 0.129791275
0.181783706 0.151549697 0.132067993
0.189626709 0.153320700 0.134218767
0.195319161 0.154964983 0.137254819
0.204427540 0.157368690 0.139025703
0.212397292 0.161163703 0.143959358
0.218975335 0.166223705 0.149526000
0.227830708 0.172295690 0.152309000
0.237064987 0.175964504 0.153826997
0.250727177 0.182036504 0.161416799
0.260720968 0.190512434 0.169892147
0.270841271 0.196584716 0.171916425
0.281087995 0.202150643 0.179126993
0.296774000 0.212650284 0.187096953
0.314990520 0.220746547 0.196204826
0.332068473 0.230486885 0.207463995
0.351802737 0.241113096 0.215053812
0.375078976 0.250980407 0.222517282
0.403795004 0.262871355 0.233016983
0.429601699 0.275269002 0.243390352
0.459962159 0.289310694 0.254775226
0.491714060 0.303478986 0.267551810
0.531309366 0.321062624 0.289689660
0.576470554 0.346236259 0.312207460
0.623529017 0.375837982 0.334977686
0.156736091 0.152814895 0.133207083
0.159013391 0.151296705 0.127893597
0.165464997 0.153194085 0.129917681
0.173560917 0.155471057 0.132701024
0.170904085 0.153953463 0.130044192
0.176217765 0.160405010 0.135357186
0.176470995 0.159898996 0.137128085
0.178747892 0.160658091 0.136621997
0.180265889 0.161416993 0.141935095
0.192409903 0.167488992 0.141935095
0.196584314 0.171410218 0.145603865
0.203668252 0.173687264 0.147375092
0.211637989 0.177102998 0.149272636
0.217710048 0.177356035 0.151802957
0.228842825 0.182922095 0.156356901
0.239342287 0.187349811 0.159898996
0.250727177 0.191904008 0.162934989
0.265907556 0.201011613 0.173307583
0.278178096 0.207210854 0.179759845
0.288298368 0.211258844 0.187096745
0.302340090 0.219987184 0.195445731
0.321062148 0.230613247 0.203036129
0.345350891 0.242631495 0.212144479
0.362428904 0.251739293 0.218848899
0.381404191 0.260847270 0.224921092
0.406072289 0.272738636 0.234534979
0.436432987 0.288425148 0.248197064
0.466792971 0.301075161 0.263883412
0.498291880 0.315116912 0.277166069
0.531941533 0.334598154 0.295129240
0.572675586 0.356862634 0.322074175
0.624288082 0.384187073 0.340290993
0.171916485 0.167994529 0.148387492
0.171916485 0.171030924 0.136242718
0.172042996 0.171663493 0.137381002
0.175078988 0.170651332 0.143326849
0.180012479 0.169133082 0.148260966
0.180012479 0.178241462 0.148260966
0.177735835 0.174573004 0.151043653
0.181404278 0.173687726 0.147374794
0.189373508 0.176597401 0.141935110
0.195445523 0.179632992 0.144971490
0.201771259 0.185705006 0.150790498
0.209740698 0.187602505 0.154712260
0.217709988 0.190006018 0.158760488
0.223782048 0.195572048 0.163946971
0.229854822 0.198608428 0.160910606
0.240986988 0.204174489 0.167868316
0.253004462 0.208602205 0.173561200
0.265907556 0.213156402 0.179380372
0.281087995 0.222264037 0.194560006
0.293358505 0.228463247 0.198228881
0.307273746 0.238203973 0.203415483
0.323592484 0.248323977 0.208602130
0.342314512 0.254775494 0.212144479
0.366603315 0.263883919 0.221252099
0.385957986 0.272991657 0.227957085
0.408475488 0.284882635 0.238203779
0.436432987 0.300569117 0.254269063
0.466792971 0.318785906 0.275521427
0.507779598 0.331435949 0.291207790
0.546109796 0.350790411 0.306261659
0.584440172 0.374952197 0.325490057
0.627324462 0.399367481 0.352434993
0.172548994 0.180265740 0.154839009
0.178368002 0.186211258 0.160151973
0.171916217 0.184946090 0.154458970
0.170904294 0.186716989 0.151929036
0.176090986 0.188993871 0.149399459
0.186210990 0.190511927 0.151929125
0.186210990 0.186969995 0.154459447
0.186843842 0.185831711 0.157495156
0.191903770 0.188867897 0.154964969
0.195824996 0.191903517 0.153700367
0.204806864 0.192029983 0.156735986
0.210879117 0.198102504 0.162808001
0.219101638 0.202150747 0.165591121
0.226944864 0.208222747 0.168121189
0.233016953 0.213915288 0.173055321
0.243896112 0.216951072 0.177229732
0.257558316 0.225553393 0.187349871
0.270461589 0.232764289 0.194560573
0.281087995 0.237317920 0.200632781
0.296268374 0.246426225 0.204680383
0.312333852 0.252624989 0.207716733
0.328526139 0.259709120 0.213788733
0.344971359 0.264010340 0.220746145
0.366476804 0.273118019 0.227071837
0.390765548 0.284503698 0.233902737
0.414421350 0.297027022 0.242757976
0.442758054 0.312713146 0.256419927
0.475521833 0.330929875 0.272865295
0.508538604 0.343832970 0.294117689
0.546742320 0.361290157 0.311574787
0.586717129 0.384440064 0.329664588
0.633270025 0.408728868 0.352941006
0.172548994 0.198482245 0.162934735
0.180645257 0.202529982 0.162935004
0.177988738 0.206198722 0.160531491
0.171410337 0.204427496 0.161290258
0.173687547 0.207842961 0.157115996
0.184187248 0.206198245 0.158507317
0.192283005 0.207210496 0.163567305
0.192283005 0.204427496 0.164958984
0.196457833 0.206325248 0.167615354
0.202023774 0.208096027 0.167109728
0.206831142 0.210246250 0.169892371
0.215938985 0.214294761 0.174952254
0.222011268 0.218090251 0.177608892
0.230234221 0.222644210 0.177482471
0.238076985 0.230486989 0.185325563
0.248956501 0.236179441 0.189373985
0.259582341 0.239215448 0.195445985
0.274383128 0.248576984 0.204680562
0.287666231 0.253004283 0.207716972
0.298292100 0.259582341 0.208728909
0.313472450 0.266793013 0.215559512
0.331562251 0.272865236 0.218848869
0.348007739 0.277293235 0.225932762
0.369260162 0.288298607 0.233902812
0.392789274 0.299683571 0.244022995
0.418469340 0.311827958 0.255660951
0.447311848 0.325869381 0.269070089
0.482226402 0.341050148 0.282732666
0.513598979 0.360025495 0.297153771
0.550537348 0.375711441 0.318406165
0.588108778 0.397596449 0.337760836
0.633270264 0.421885252 0.359013259
0.175964639 0.217457637 0.170904279
0.181657389 0.219354898 0.169007033
0.183428347 0.222390771 0.167236000
0.179759830 0.224161997 0.163946986
0.177102998 0.224161997 0.169259995
0.183934286 0.221884698 0.169259995
0.190765321 0.223908961 0.173181638
0.196078002 0.226438984 0.177102998
0.197596192 0.227956980 0.178620994
0.206325129 0.228715986 0.182036832
0.211891219 0.232764035 0.183934122
0.218975380 0.235547140 0.187855631
0.228083283 0.241619632 0.192789286
0.234661996 0.241872594 0.190512642
0.244655222 0.249209225 0.198734865
0.255028605 0.254775286 0.204174444
0.269070417 0.260467827 0.207589984
0.279443204 0.263504237 0.212396994
0.297153920 0.269070268 0.214927316
0.309297949 0.277419269 0.219734639
0.321062356 0.283491284 0.223149896
0.337254643 0.291587263 0.231245637
0.355724365 0.297912985 0.234661490
0.377988905 0.308032990 0.243769899
0.402656645 0.319038630 0.256293625
0.429474890 0.333459616 0.270082265
0.456799328 0.346109688 0.287286282
0.491334498 0.358886898 0.299430877
0.523592591 0.376723796 0.312713623
0.560404718 0.398482203 0.332447797
0.599873424 0.417583853 0.353700221
0.639342666 0.441619635 0.374952644
0.184566960 0.233396992 0.177229956
0.184566960 0.233396992 0.177229956
0.186970219 0.235294253 0.179886252
0.188740999 0.237065032 0.181657031
0.188994035 0.237318069 0.181403995
0.188994035 0.237318069 0.181403995
0.191271320 0.239595354 0.183428317
0.195319340 0.243137315 0.186970338
0.198861152 0.246173069 0.190512031
0.204933926 0.252245069 0.196584031
0.213662177 0.257811725 0.197090060
0.223023281 0.260088950 0.199367300
0.231625602 0.262366027 0.202150643
0.240987033 0.268438041 0.205693036
0.253131032 0.271473646 0.211765036
0.263124794 0.274509817 0.217331022
0.276028007 0.279064000 0.221631855
0.293358564 0.284756571 0.224794030
0.308539003 0.287792981 0.224794045
0.324225366 0.298925042 0.235420674
0.337761015 0.307527035 0.241872296
0.351929039 0.315370053 0.246426031
0.370271534 0.327261060 0.252624512
0.394433796 0.333333075 0.261732906
0.420999289 0.342188329 0.275142282
0.449715316 0.355217993 0.290069640
0.479823112 0.372675151 0.304744035
0.507147431 0.387855500 0.316888034
0.539278805 0.402782828 0.331941813
0.577735305 0.423276395 0.353447169
0.619101763 0.446679592 0.379506618
0.658571005 0.467932016 0.400759041
0.187602580 0.257684976 0.186337575
0.187602580 0.257684976 0.186337575
0.191903576 0.257684976 0.192789346
0.194812998 0.258317381 0.196837410
0.195192546 0.258696944 0.196457863
0.198102415 0.261606812 0.193547994
0.198102415 0.261606812 0.191018313
0.206957698 0.267172694 0.195825696
0.216571718 0.271979481 0.202150732
0.220113531 0.270461828 0.205692410
0.226186305 0.270714819 0.208855286
0.236938819 0.274003714 0.213282824
0.245034754 0.277545840 0.216445401
0.250094622 0.283618391 0.217837021
0.262239397 0.289690375 0.226945400
0.274383396 0.292726010 0.228210405
0.284377187 0.297279954 0.229475409
0.296015382 0.303351969 0.232005239
0.308539003 0.309044540 0.239974424
0.329285383 0.317646921 0.245540410
0.345477700 0.327387720 0.250980318
0.361037374 0.335863531 0.257052392
0.379379898 0.345477819 0.267804921
0.400632322 0.351549834 0.276913315
0.427071273 0.364453107 0.288298398
0.455787301 0.378368109 0.301074952
0.486148119 0.393674523 0.313851714
0.516255856 0.406072259 0.325996399
0.543580234 0.418595821 0.343453377
0.579253495 0.438456804 0.361037403
0.618469179 0.461860001 0.383807987
0.655534565 0.483112395 0.409867406
0.193041995 0.281973571 0.202656597
0.193041995 0.281973571 0.202656597
0.195192769 0.284123808 0.204806820
0.202276975 0.285641938 0.212143987
0.205313057 0.286021590 0.212523535
0.204300940 0.282985717 0.201391667
0.207210809 0.290701985 0.210373104
0.208855093 0.289057702 0.208981782
0.219481274 0.292852610 0.214294896
0.225806326 0.291461259 0.217330515
0.231751934 0.291334778 0.220366865
0.241872191 0.295382768 0.225427002
0.252877802 0.298797935 0.231498986
0.258696795 0.303352207 0.233776018
0.266540021 0.307273984 0.234282404
0.281087995 0.313345969 0.243390173
0.291714191 0.317899764 0.243390173
0.303352535 0.323971778 0.244655326
0.320809841 0.330043793 0.251992643
0.334092379 0.338899136 0.255913794
0.355344743 0.348007530 0.265780777
0.373561114 0.357115924 0.272359133
0.393421799 0.366224259 0.282985300
0.416951507 0.374572992 0.292093694
0.438203901 0.382922262 0.298924804
0.468058228 0.399240971 0.312207431
0.497912854 0.415432841 0.326375604
0.522580862 0.429474890 0.342314899
0.555091798 0.444022775 0.359772593
0.593042552 0.461479932 0.379759759
0.632005155 0.486021549 0.402150750
0.666919768 0.510309935 0.430992991
0.199114382 0.304744184 0.217836991
0.197596192 0.306261986 0.220872998
0.201264769 0.306894422 0.219987616
0.206831157 0.309930354 0.225553215
0.214800999 0.312587202 0.230739728
0.212903246 0.308792174 0.220114112
0.216445312 0.309297860 0.221632183
0.219481677 0.314863920 0.228715986
0.223276377 0.313346088 0.229475081
0.231625676 0.314104974 0.232510895
0.237824187 0.317140996 0.234029055
0.244908199 0.318152994 0.237570971
0.257052183 0.323086619 0.243643269
0.266540021 0.326375395 0.249209374
0.273877174 0.330676615 0.247438610
0.285641789 0.334598392 0.252498567
0.300822169 0.340670377 0.261606187
0.310562968 0.346742362 0.261606187
0.329158813 0.352814376 0.265907705
0.345098197 0.358633757 0.269196838
0.362934917 0.369259924 0.277925164
0.384187311 0.378368318 0.290069163
0.405566156 0.387603164 0.299683481
0.429854602 0.398102492 0.308791876
0.453384280 0.408728480 0.317141175
0.476027966 0.419228166 0.324604839
0.508032858 0.437191337 0.340038180
0.531309187 0.453383803 0.358254164
0.561669767 0.468564212 0.377988636
0.597596347 0.485768348 0.396457970
0.641366363 0.508791745 0.420367002
0.676027775 0.536116183 0.450727195
0.207084402 0.325996548 0.231878549
0.205945730 0.329664737 0.237950549
0.206830978 0.331815124 0.238203749
0.212270588 0.332447708 0.238330394
0.220999509 0.335104555 0.245920107
0.221505567 0.335104555 0.242884502
0.225932986 0.333206803 0.242378563
0.229728132 0.332827240 0.243390426
0.234788403 0.335863441 0.245793670
0.240860403 0.338899046 0.248830065
0.246932566 0.344212145 0.249588981
0.254269570 0.346868724 0.250980288
0.262618572 0.349272162 0.255787253
0.274509609 0.352308542 0.261859983
0.283617973 0.358001113 0.262618959
0.294496953 0.361037344 0.266793549
0.307526767 0.365591526 0.274383366
0.322707146 0.371031135 0.281593561
0.334851176 0.377103150 0.281593561
0.353194267 0.381657332 0.285641909
0.372043133 0.388488531 0.293105543
0.393295527 0.400253117 0.304617137
0.414547920 0.409361482 0.316508144
0.438329995 0.420999557 0.325110465
0.461985976 0.433143556 0.334218860
0.486906976 0.446552694 0.345857203
0.513219118 0.459202677 0.356483549
0.540922999 0.477292895 0.374699533
0.572169185 0.493485361 0.394939780
0.605439305 0.511069059 0.415686071
0.642757714 0.530676723 0.436811745
0.682226121 0.558001161 0.467172563
0.222264051 0.347249031 0.253131002
0.228336811 0.353321016 0.259202987
0.225047410 0.359140009 0.260973990
0.222517014 0.362176001 0.260721028
0.224035144 0.362429023 0.261100531
0.230107903 0.362429023 0.258064926
0.233143657 0.362428993 0.257559001
0.234788015 0.362175971 0.257559001
0.238077044 0.363187909 0.257811964
0.249968052 0.366223544 0.257938474
0.256040782 0.369259894 0.260974109
0.266160995 0.372549266 0.261733025
0.277799010 0.377609313 0.265401632
0.289690048 0.385705024 0.274004042
0.298798412 0.388741404 0.280076027
0.307906210 0.389626980 0.283238828
0.318785429 0.392915994 0.289563805
0.331815571 0.398355603 0.296774000
0.346996009 0.401392013 0.296774000
0.367489368 0.410246670 0.305123359
0.384693265 0.415053785 0.311827987
0.402403176 0.421885014 0.319418132
0.423655540 0.433649570 0.328652978
0.444907963 0.442757964 0.334724993
0.466413289 0.454396039 0.343327284
0.490701705 0.469323367 0.358001649
0.519291162 0.486527890 0.377736002
0.555723846 0.501707494 0.395951986
0.591397524 0.519797683 0.414167970
0.625553071 0.539532185 0.436179399
0.660973787 0.560531616 0.460847557
0.700442910 0.582289994 0.488425016
0.229095712 0.390765369 0.277166724
0.232384413 0.388488740 0.277672708
0.236306414 0.394560754 0.277292937
0.238456547 0.398102760 0.277925551
0.243010357 0.398102760 0.279443711
0.244275510 0.398102760 0.278811306
0.247817978 0.395572424 0.278305382
0.254143059 0.395319372 0.279949665
0.259835631 0.396837384 0.282606006
0.269955367 0.401897281 0.286653996
0.279063761 0.404933631 0.286780477
0.283112288 0.407969475 0.289816618
0.294117719 0.411005676 0.290575743
0.307906061 0.416571736 0.294497371
0.319544792 0.422137797 0.300569355
0.328652591 0.425174177 0.306641370
0.342314780 0.428589731 0.311575025
0.356356949 0.434029162 0.317520380
0.367236406 0.437065005 0.317520380
0.387982756 0.445667416 0.328652382
0.409235120 0.454775512 0.335863501
0.429222077 0.462618738 0.342947602
0.452118754 0.474509716 0.352182031
0.470714986 0.480961293 0.363567770
0.494244099 0.492346376 0.376470447
0.518785357 0.505882025 0.389373660
0.545603871 0.521695137 0.406831086
0.572928548 0.534598649 0.422770351
0.604047656 0.549778223 0.438330173
0.636685312 0.569639206 0.459962100
0.670840919 0.591777205 0.488678277
0.710309625 0.614927411 0.523592710
0.242757991 0.423023462 0.299557239
0.243896350 0.427577376 0.291967243
0.246932507 0.429095715 0.297406942
0.248703733 0.432637721 0.295635730
0.255534470 0.432258189 0.297659993
0.258570462 0.430739999 0.297659993
0.264895320 0.433902889 0.301454991
0.272865415 0.430866510 0.303099692
0.279190630 0.433649451 0.305376470
0.283744276 0.441998482 0.309171468
0.290954858 0.443263590 0.311321735
0.301707506 0.444402188 0.313345999
0.308159530 0.448576450 0.316382110
0.322327465 0.452118725 0.317646980
0.334471822 0.454901695 0.323718965
0.348007679 0.458570540 0.325995982
0.360151649 0.463124722 0.333586186
0.377356291 0.469196707 0.339405328
0.388994724 0.473497510 0.340670466
0.405439615 0.478304833 0.348007470
0.424794734 0.483617753 0.358254224
0.446047127 0.492726147 0.364326745
0.469449729 0.503984749 0.372801960
0.491208076 0.513598740 0.386717528
0.510183692 0.520429730 0.399241179
