Assets/Resources/EldamarStudio/100 Horror LUTs Pack/LUTs/cube/Mutant LUT.cube
LUT_3D_SIZE 5
DOMAIN_MIN 0.000000 0.000000 0.000000
DOMAIN_MAX 0.903226 0.903226 0.903226
0.133332998 0.058823999 0.066666998
0.165717706 0.083997712 0.093484998
0.214420989 0.120303832 0.120303832
0.303099126 0.178494990 0.170651257
0.481593758 0.265654802 0.248576805
0.155218288 0.142188698 0.124857992
0.176470995 0.147754416 0.129791275
0.227830708 0.172295690 0.152309000
0.314990520 0.220746547 0.196204826
0.491714060 0.303478986 0.267551810
0.187602580 0.257684976 0.186337575
0.206957698 0.267172694 0.195825696
0.262239397 0.289690375 0.226945400
0.361037374 0.335863531 0.257052392
0.543580234 0.418595821 0.343453377
0.262998253 0.452372104 0.318785131
0.289057404 0.470335424 0.327387691
0.350664228 0.490575224 0.350031227
0.460215122 0.520050287 0.387603134
0.629601479 0.605439782 0.488424927
0.527387619 0.754838586 0.597975612
0.557368517 0.762302518 0.605565846
0.605313003 0.769133449 0.621505439
0.692219853 0.795066476 0.658823609
0.786211550 0.821631789 0.689563572
0.143453285 0.069955997 0.106894284
0.157874718 0.091208287 0.118026696
0.211511701 0.129158691 0.148766696
0.299177855 0.183428124 0.200758845
0.471473724 0.269829094 0.277672529
0.154585719 0.137634709 0.139278978
0.182415977 0.154332399 0.157621399
0.227577820 0.180518821 0.178874105
0.304743975 0.225300282 0.219355121
0.492599636 0.308412522 0.297279924
0.195445582 0.257305682 0.216444984
0.213156402 0.268437684 0.227577403
0.261227101 0.291334689 0.237697691
0.361416936 0.334218651 0.280202270
0.543327034 0.427830189 0.370018870
0.267932117 0.458950102 0.340164244
0.284630239 0.466160506 0.345098138
0.350031644 0.484756649 0.366350234
0.455661118 0.518406093 0.407590240
0.629601777 0.604427755 0.500442803
0.526502311 0.753953278 0.598355293
0.551802397 0.757495463 0.608855307
0.602150440 0.769639254 0.626565397
0.683491230 0.791144729 0.658950031
0.793674350 0.815686584 0.704743564
0.152308583 0.093485415 0.174573407
0.163693726 0.103605285 0.177482694
0.207843006 0.135357410 0.197469994
0.293991297 0.194560543 0.248576984
0.478937447 0.276027828 0.334345192
0.167615294 0.157242283 0.196078002
0.176850110 0.160151586 0.200379699
0.222896576 0.184060693 0.219987273
0.313599110 0.235420406 0.273371398
0.496900618 0.316888124 0.359139621
0.188867584 0.263504416 0.260214984
0.216065705 0.280835122 0.279190421
0.274635971 0.313219398 0.308032393
0.372548699 0.352182120 0.345351219
0.550158083 0.435041040 0.427830607
0.270462126 0.469956130 0.393422127
0.295635998 0.476407528 0.399620414
0.356104136 0.496394992 0.414927125
0.467045873 0.530423880 0.454902112
0.641113222 0.614927232 0.543706417
0.510309756 0.756103575 0.638583243
0.538899481 0.757115722 0.635546923
0.596078157 0.768501043 0.648956418
0.684756219 0.790132999 0.680961132
0.802150548 0.825553417 0.735483527
0.151043996 0.124604866 0.288424999
0.171283990 0.134977713 0.292599857
0.227198124 0.161163718 0.308412552
0.308032990 0.207969993 0.333586246
0.489436775 0.282226533 0.430107683
0.163693711 0.179759562 0.305123538
0.188614860 0.186969995 0.312966526
0.237697691 0.210246697 0.324478239
0.324098557 0.247185409 0.356483251
0.507020891 0.329032212 0.449082941
0.189247131 0.296900392 0.358380824
0.213409275 0.302466691 0.371790111
0.276660234 0.326375812 0.394054502
0.377355993 0.364326388 0.424794525
0.560657799 0.442884207 0.506641388
0.278558016 0.483744383 0.472991973
0.302846372 0.498039514 0.485262394
0.377735704 0.519291639 0.512080789
0.493611366 0.565085292 0.552435160
0.653004229 0.621125937 0.608981669
0.516887784 0.756103754 0.693358779
0.544212282 0.761922717 0.682858884
0.588488340 0.776976585 0.697912574
0.683491766 0.795698762 0.720809639
0.801391542 0.832004726 0.775711536
0.107021026 0.166223809 0.552308559
0.169259995 0.174320102 0.551296473
0.269449800 0.202782825 0.562175810
0.411258787 0.252878100 0.575205445
0.574572682 0.335104465 0.615053594
0.111575186 0.221378684 0.550410807
0.169639707 0.232890636 0.561543226
0.280961514 0.257052392 0.570904493
0.426312506 0.304870367 0.592915535
0.586717308 0.376343608 0.628715575
0.127894029 0.353953212 0.588109016
0.181024581 0.356483221 0.591524482
0.304237545 0.380771607 0.605945468
0.456167042 0.423276633 0.626818180
0.621631563 0.485515594 0.662112415
0.299430937 0.568880141 0.665275097
0.323972076 0.568880200 0.670588017
0.394560397 0.572801888 0.673497796
0.524731219 0.591650903 0.692093730
0.693484962 0.644655049 0.728652716
0.545856595 0.783681273 0.774572730
0.559645534 0.784693301 0.777355731
0.602023602 0.794813156 0.783048809
0.704996705 0.818595707 0.812270582
0.839974523 0.867299378 0.858190596
