Assets/Resources/EldamarStudio/100 Horror LUTs Pack/LUTs/cube/Nailslice LUT.cube
LUT_3D_SIZE 8
DOMAIN_MIN 0.000000 0.000000 0.000000
DOMAIN_MAX 0.903226 0.903226 0.903226
0.070588000 0.031373002 0.027450999
0.071726546 0.032132000 0.024288097
0.146489099 0.047058996 0.039216001
0.253383636 0.018469356 0.048197355
0.381404191 0.001518192 0.050980002
0.522707224 0.002024260 0.062618993
0.705376267 0.000000000 0.072865285
0.910562515 0.000000000 0.107273988
0.078431003 0.048956547 0.035673548
0.077925541 0.056419998 0.038457002
0.162555560 0.068564445 0.043137096
0.264389634 0.065781184 0.046679452
0.380645394 0.060721349 0.042378195
0.530550241 0.055154644 0.059835736
0.708538830 0.032131515 0.079443544
0.905755758 0.025047433 0.108032800
0.097912900 0.137001991 0.045541003
0.130044088 0.139784649 0.038077354
0.180898085 0.139405191 0.036053099
0.277672559 0.150031537 0.036812000
0.389247179 0.155092001 0.046932094
0.532700777 0.167615101 0.067678638
0.721189320 0.173940480 0.085389189
0.917393804 0.198228911 0.123086803
0.152435347 0.231498629 0.047059000
0.177862003 0.228715986 0.038583543
0.222770721 0.225553185 0.046932187
0.290954918 0.228715986 0.054395642
0.405692369 0.245540634 0.071220994
0.548766494 0.264263004 0.078684546
0.727261543 0.286527574 0.098798342
0.918152928 0.319544613 0.130297333
0.221505180 0.335231185 0.074889377
0.249209195 0.335989982 0.085388996
0.285768360 0.330423564 0.082985379
0.351549387 0.333586186 0.084123835
0.438456595 0.333712995 0.086021185
0.582163036 0.360530943 0.099936739
0.760404587 0.404807270 0.119038276
0.932700932 0.452372015 0.152688190
0.326881707 0.475648195 0.113472477
0.347248524 0.474762917 0.113598995
0.390006125 0.476027578 0.111574732
0.467045993 0.481467456 0.113724999
0.554206133 0.488425374 0.117520481
0.659582198 0.489184469 0.127261251
0.809740722 0.530803442 0.155724287
0.957748353 0.585199296 0.196710527
0.476660281 0.666160822 0.156103551
0.495509058 0.667425990 0.157494813
0.537001669 0.668564439 0.161669850
0.604427576 0.672865152 0.169513270
0.685262322 0.674889445 0.178114980
0.773814023 0.679316998 0.197090298
0.865907550 0.689689815 0.217836842
0.965211570 0.721568704 0.279316634
0.655534446 0.848956585 0.338140398
0.669070125 0.859582186 0.336875409
0.696394742 0.850221395 0.350664288
0.739531577 0.854142725 0.363946378
0.792662799 0.857811391 0.381277382
0.861353755 0.862618327 0.405186474
0.921188772 0.867172599 0.434282035
0.985957921 0.872359455 0.470461190
0.074510001 0.043895997 0.033270452
0.079569548 0.039595455 0.032511450
0.150031552 0.043516546 0.049715549
0.244402289 0.044655092 0.068184994
0.352435380 0.037571095 0.070461892
0.495635450 0.032131806 0.096521243
0.679569781 0.001138547 0.114610828
0.891587555 0.004807297 0.147501826
0.070967548 0.053636547 0.041113544
0.088931441 0.053636547 0.026944641
0.149145737 0.069702990 0.047691189
0.244781628 0.084629998 0.065022089
0.350031555 0.085388996 0.074889354
0.497786045 0.094117999 0.100695543
0.677039802 0.074510001 0.123592563
0.892725587 0.062618516 0.144844994
0.117140643 0.120176740 0.068184994
0.136748537 0.126882091 0.065022096
0.175078645 0.126502544 0.068184994
0.256926209 0.145350650 0.076786995
0.366097659 0.156230450 0.087666087
0.506641448 0.170398563 0.101454541
0.693611681 0.180139095 0.124730833
0.899810493 0.200252876 0.154965281
0.156609997 0.214547992 0.073498085
0.185325637 0.215053752 0.082226284
0.218089744 0.213030085 0.084250547
0.278304726 0.214168638 0.081720643
0.387602389 0.237318277 0.098671988
0.525237262 0.260847390 0.113851726
0.715875983 0.281467348 0.133333534
0.906767905 0.321188897 0.162428916
0.232511178 0.321189195 0.103352085
0.245414630 0.318659186 0.102972537
0.286654174 0.322201014 0.111954182
0.350411028 0.324604809 0.117140733
0.430613548 0.330929756 0.120556377
0.566350102 0.351043701 0.135989636
0.749652088 0.396837384 0.149145916
0.928526223 0.449335635 0.190386012
0.329538465 0.464263260 0.138899535
0.346742451 0.462618470 0.143959284
0.390512347 0.468058288 0.139279082
0.459456265 0.468184441 0.146489382
0.545983195 0.476786464 0.151549637
0.649336040 0.479822636 0.156736016
0.800252974 0.525996327 0.179253563
0.949904740 0.584313571 0.231625780
0.478051841 0.654775381 0.179506823
0.495888501 0.659962118 0.188488081
0.533712685 0.657052577 0.194307730
0.601264834 0.662618399 0.198608369
0.676660120 0.668184996 0.205313072
0.771410584 0.671726525 0.215686455
0.857431829 0.683491588 0.241366565
0.955470860 0.720683098 0.302593052
0.657178998 0.847944140 0.358886838
0.673497736 0.847185135 0.358633459
0.698292077 0.846679330 0.361163497
0.736369252 0.847058773 0.373560995
0.792536318 0.854522288 0.391397774
0.857431889 0.858696818 0.408475667
0.921568334 0.865528166 0.443263948
0.981657028 0.874130309 0.480202228
0.085515901 0.057179093 0.103352092
0.101454541 0.059203450 0.100569546
0.163694099 0.047059000 0.106514998
0.244781733 0.047817901 0.114737444
0.352561295 0.057937995 0.131688908
0.475015700 0.077545904 0.151296914
0.645793736 0.071600109 0.178494290
0.866666675 0.023023358 0.204047933
0.100315996 0.078431100 0.099430993
0.123845994 0.077925541 0.093990996
0.162555560 0.077545993 0.097912997
0.240101531 0.092852637 0.110815734
0.337634295 0.109677091 0.130803078
0.466287196 0.120683089 0.155091986
0.645287812 0.119544350 0.180898100
0.867299318 0.101834394 0.215180367
0.132448003 0.125237197 0.094749995
0.146109641 0.132827550 0.104997002
0.194307193 0.141809002 0.111195087
0.253004283 0.152814895 0.122960091
0.348513365 0.164453000 0.137760907
0.486274391 0.181784093 0.166476846
0.663757086 0.193548292 0.183934286
0.887412786 0.211638018 0.223023176
0.188108906 0.205565825 0.127261445
0.198608547 0.211132541 0.126882002
0.235420629 0.216192290 0.132321104
0.284377098 0.216951281 0.134725004
0.380265832 0.233775839 0.146742642
0.512333930 0.254901648 0.171030834
0.694750011 0.284250289 0.195066199
0.897786021 0.324857265 0.229348361
0.249083087 0.311701357 0.169386283
0.268311530 0.312839806 0.165844560
0.299178064 0.314105213 0.162934989
0.350410908 0.315243542 0.162176087
0.426818490 0.321948171 0.168374196
0.556230009 0.350411028 0.186717451
0.738266766 0.391397774 0.210499480
0.918026567 0.449209452 0.255028546
0.344971716 0.456420273 0.199873731
0.367995083 0.453637004 0.203415379
0.399620831 0.456420273 0.198861465
0.462618351 0.462618649 0.206072092
0.544844866 0.467805088 0.206451744
0.641493082 0.476027459 0.210499465
0.794686854 0.520177186 0.242125005
0.945983410 0.587476254 0.291334897
0.491714269 0.650474489 0.245161295
0.503478944 0.652877748 0.252119005
0.548766494 0.654522538 0.257432163
0.604300916 0.659961760 0.259709269
0.681846857 0.666413665 0.265148669
0.768627226 0.669702888 0.279443175
0.857938111 0.681846857 0.294750243
0.956989348 0.719924033 0.359898865
0.676407576 0.845414340 0.408855379
0.693231702 0.843896151 0.411891103
0.710689425 0.845540881 0.423276395
0.751929045 0.848703384 0.428463131
0.803162396 0.851359725 0.444528580
0.861986220 0.856546283 0.462239057
0.918406248 0.866413474 0.489563227
0.983807564 0.874256730 0.520683229
0.070082352 0.064390004 0.187855989
0.119797193 0.054143000 0.188615084
0.202150196 0.038836457 0.189500287
0.266287297 0.048197355 0.178873926
0.358380735 0.061859995 0.184820086
0.479569733 0.079569645 0.208981469
0.650980175 0.080075718 0.242757991
0.861859560 0.060341801 0.287792653
0.125363901 0.087413348 0.175837740
0.146489188 0.092473000 0.171030730
0.193422079 0.090069890 0.176596731
0.255281389 0.096774347 0.169512734
0.341682822 0.112080991 0.181657180
0.472485721 0.120556377 0.208222464
0.646552801 0.128146544 0.244781822
0.857685208 0.129538536 0.290069729
0.153953448 0.143326998 0.174193546
0.176596731 0.152688190 0.158380732
0.217837095 0.155471548 0.168753639
0.260341614 0.159013197 0.168753743
0.349651933 0.176596925 0.191524535
0.475142360 0.193548292 0.215306893
0.655534446 0.209235102 0.254016638
0.867552280 0.222643822 0.301707894
0.200126633 0.211891636 0.176596642
0.214674205 0.207842827 0.176217288
0.256926179 0.224414736 0.185199529
0.319038630 0.243896618 0.203542277
0.383554459 0.245920181 0.203035831
0.506893992 0.266666651 0.230613545
0.683111787 0.288804561 0.263630539
0.886527240 0.330170661 0.311068624
0.270461738 0.307780176 0.211764827
0.289816380 0.311954528 0.212396920
0.329411626 0.314357817 0.220493644
0.369892836 0.319418281 0.222264186
0.435547203 0.323339403 0.228209823
0.554965198 0.352308482 0.252624720
0.729664683 0.396078408 0.281087965
0.912080705 0.448323816 0.333965629
0.369133741 0.443769544 0.255660743
0.378874272 0.446932375 0.254522294
0.416445553 0.447311789 0.263377726
0.470082104 0.454396009 0.263883471
0.544085801 0.460215360 0.271220624
0.635420859 0.471979469 0.281846970
0.791524470 0.515749574 0.314484537
0.939025760 0.586970270 0.380012721
0.499810517 0.643769920 0.325996250
0.519418001 0.640986562 0.327008188
0.548892915 0.643010855 0.326122552
0.609487891 0.646552801 0.332067937
0.682732463 0.654016256 0.343200624
0.768121541 0.661100447 0.353447258
0.852624893 0.673497915 0.367488831
0.953320801 0.716381609 0.428083330
0.693231881 0.839974940 0.477798790
0.696900308 0.836306036 0.470461458
0.718532562 0.838203609 0.476913303
0.754079580 0.840607226 0.488045216
0.805566132 0.845414400 0.501834035
0.859962046 0.849715471 0.520430148
0.916761398 0.861353636 0.539278805
0.983175039 0.871220767 0.576343656
0.121315181 0.061227195 0.299051195
0.165211990 0.045161355 0.296900809
0.238077193 0.042251803 0.295256078
0.311827987 0.056420192 0.283111840
0.382922381 0.072738998 0.270082384
0.490955174 0.085895449 0.281847179
0.666160822 0.078557916 0.320050448
0.871473789 0.068311334 0.373308182
0.149399176 0.111701541 0.287033647
0.189753190 0.104111187 0.280455172
0.240101442 0.110056639 0.277293056
0.307526827 0.112839893 0.269576102
0.378747821 0.118279383 0.260847181
0.490575731 0.128905728 0.280581921
0.666160524 0.130170897 0.321821272
0.870588064 0.132574528 0.372675300
0.195825383 0.175585002 0.253637075
0.216066182 0.176976293 0.261606365
0.263377994 0.174573287 0.259329289
0.312586993 0.179380089 0.256167173
0.379127085 0.180898085 0.256926090
0.490322918 0.195825294 0.284250468
0.671726525 0.209994003 0.328020394
0.878431439 0.231246009 0.388867617
0.233396366 0.236938819 0.251233190
0.254901946 0.244402289 0.261480272
0.290954918 0.249462634 0.257937819
0.346110165 0.256040484 0.264263034
0.409108013 0.257305652 0.268184721
0.524351656 0.280455291 0.299810350
0.693484664 0.300316542 0.341303080
0.888425052 0.340796918 0.401771098
0.289943188 0.318911970 0.263757169
0.305123627 0.318279654 0.270208985
0.345351070 0.326628476 0.281088114
0.417330652 0.347754359 0.296774268
0.513852179 0.367235959 0.326502174
0.595825434 0.371536911 0.335231185
0.739785016 0.404048353 0.364705622
0.909677207 0.460088551 0.424161643
0.381783724 0.450094461 0.319797546
0.401771098 0.452877909 0.325363636
0.444655448 0.456799716 0.337001830
0.505502760 0.472106338 0.348513365
0.577103138 0.470841199 0.353573948
0.656925976 0.480960995 0.361416936
0.800759196 0.527514160 0.399494141
0.937507987 0.593295217 0.465148717
0.522074580 0.639595449 0.409108251
0.544085562 0.638456821 0.408981711
0.577103257 0.642757714 0.417204440
0.622011542 0.644275546 0.417836666
0.689057648 0.653763235 0.425679862
0.771031022 0.656420112 0.440100968
0.853130817 0.667678893 0.455281436
0.954838574 0.723339796 0.520430267
0.700822115 0.831625581 0.547375023
0.713725269 0.834914327 0.542314768
0.733080447 0.834788024 0.553193867
0.769259632 0.837697685 0.564452708
0.809108257 0.842251956 0.570018709
0.862112522 0.852498233 0.588614643
0.919164956 0.858317614 0.607589781
0.974572837 0.867046356 0.632004917
0.183933988 0.064516254 0.438330472
0.223150194 0.068058185 0.432005286
0.291208088 0.067299090 0.428336203
0.374573112 0.073624089 0.420619726
0.466540366 0.076533742 0.405439645
0.561417162 0.078431003 0.393295199
0.690828562 0.071979746 0.411132276
0.892219722 0.073877543 0.484123707
0.205186471 0.125363991 0.411764473
0.231625274 0.127134547 0.402150452
0.293231905 0.130044177 0.406578124
0.372169733 0.126375645 0.396710634
0.457938254 0.129664734 0.388487995
0.553447247 0.128526092 0.386970013
0.682479322 0.129791349 0.408475548
0.886021316 0.136242509 0.475774825
0.248956382 0.209108099 0.391777188
0.276027739 0.206704378 0.394054234
0.317141175 0.206324935 0.387096733
0.383554548 0.203921735 0.385072470
0.462998122 0.205186576 0.382669359
0.553826749 0.205692634 0.381151348
0.690322638 0.212650463 0.411638290
0.892725706 0.240860254 0.484756291
0.285768360 0.280961454 0.376597106
0.306009084 0.282226443 0.381024659
0.345983475 0.282226622 0.370398283
0.404301077 0.282226622 0.373561203
0.479316801 0.285768270 0.379000723
0.563061059 0.283491284 0.377862453
0.708665431 0.301834524 0.425300300
0.898797989 0.357495248 0.493232280
0.340164632 0.361543357 0.392662704
0.353067666 0.368374616 0.383048654
0.399746805 0.366350234 0.384946346
0.460341543 0.375838280 0.392789364
0.542947292 0.380518466 0.405439436
0.622770250 0.385958195 0.417963445
0.763187885 0.417963266 0.456925720
0.915875912 0.482985437 0.520556688
0.407084465 0.465781450 0.410752416
0.428210080 0.466413647 0.409740716
0.461986035 0.472359091 0.417457134
0.528526366 0.480708361 0.428463221
0.628336132 0.508791625 0.460594922
0.732194424 0.540164411 0.495003194
0.825932980 0.558886707 0.522833765
0.937634468 0.617077708 0.566856265
0.537634611 0.636685550 0.493485302
0.554206431 0.644655228 0.491461277
0.591397941 0.640354514 0.499177635
0.648576915 0.653763235 0.512081027
0.716129243 0.664010227 0.529411852
0.785957932 0.672865331 0.540670693
0.863883734 0.683744073 0.553573310
0.949778318 0.738140225 0.616065323
0.721821606 0.828589499 0.632005394
0.733206689 0.832131207 0.635041356
0.748639762 0.831625581 0.635800123
0.782163203 0.834661603 0.639848173
0.819354653 0.838456750 0.649968207
0.866034091 0.846173406 0.660088420
0.919291258 0.857178986 0.675521433
0.966223776 0.869323432 0.699177265
0.262998283 0.097027287 0.623655796
0.297533095 0.097027287 0.617836833
0.372549087 0.095509090 0.613662422
0.467678607 0.082985573 0.606198490
0.585452139 0.071347095 0.601771116
0.688678026 0.053383809 0.588488221
0.798482120 0.047690995 0.590006530
0.907147467 0.089310616 0.593295217
0.280076265 0.155977100 0.604553998
0.310436547 0.155471548 0.604933560
0.374067187 0.153573796 0.599493802
0.472106338 0.147754550 0.597216606
0.576344013 0.138646200 0.593548119
0.683364809 0.129158989 0.582542598
0.792030215 0.130676791 0.582289517
0.899557233 0.152055338 0.589753389
0.313852191 0.237191379 0.594180763
0.342062235 0.242378354 0.593168676
0.396964073 0.241872087 0.589373708
0.486021638 0.235673383 0.586464286
0.585452318 0.230866566 0.583680928
0.686021447 0.227830380 0.582162857
0.790638506 0.231625661 0.579759717
0.906135440 0.252498329 0.599493623
0.357874930 0.329158634 0.571536899
0.381910145 0.334724933 0.567489147
0.431372553 0.334724635 0.573308051
0.504743576 0.331435919 0.570398569
0.593295455 0.326249152 0.565211833
0.695509017 0.331182688 0.570398569
0.790765464 0.328652561 0.567109585
0.913599014 0.366350263 0.604554117
0.417836666 0.437697679 0.567362547
0.439089388 0.435167760 0.577608824
0.484630197 0.433523476 0.573561013
0.545224130 0.433649659 0.571663260
0.624541402 0.436685562 0.575964391
0.721062779 0.436812460 0.576850057
0.809613883 0.440607369 0.586211264
0.922833443 0.493611723 0.625932872
0.492220461 0.548387170 0.587602794
0.516888201 0.547501266 0.591271102
0.545603931 0.548260391 0.590259254
0.605313301 0.548387170 0.585325658
0.687666178 0.557368517 0.597849548
0.765970588 0.567868292 0.606957376
0.842251539 0.579885781 0.619860530
0.939531684 0.633775771 0.666540265
0.579885840 0.662238777 0.603415787
0.587602854 0.660594523 0.601644158
0.617457330 0.661479950 0.607336819
0.671094298 0.665528238 0.616824865
0.738646507 0.674130559 0.623023272
0.817836761 0.697786450 0.658317506
0.887160301 0.736116171 0.689057231
0.946236789 0.762428999 0.720809817
0.728019834 0.827450752 0.712207496
0.736242890 0.834028721 0.715243340
0.752941310 0.832131326 0.705376327
0.784187436 0.836812079 0.718911946
0.829475045 0.841239810 0.731056094
0.877672493 0.849209309 0.747627854
0.916761458 0.859961629 0.759772360
0.962175429 0.873371303 0.773940146
0.367741615 0.163693786 0.818975568
0.403542161 0.161416501 0.813156426
0.463124871 0.160530880 0.814547479
0.557115793 0.155976936 0.806198418
0.674130142 0.160151958 0.805692375
0.783807397 0.163187861 0.805186331
0.885135651 0.192789257 0.804680586
0.974319756 0.238836214 0.797975540
0.385451853 0.212144166 0.807210565
0.420620054 0.209487334 0.807590127
0.471600145 0.211764619 0.807084024
0.571283996 0.208981588 0.805565834
0.673624158 0.211258769 0.805186391
0.780898392 0.217583984 0.798608541
0.887412786 0.237823993 0.798481822
0.976470172 0.273624241 0.798734665
0.425806403 0.299303979 0.796963573
0.449462175 0.303098917 0.799873352
0.506008983 0.299936891 0.796078444
0.591398001 0.302593052 0.802656472
0.687286794 0.304870337 0.797343254
0.790638745 0.314990640 0.791903794
0.884376764 0.332321227 0.792536139
0.971663654 0.359139651 0.798228502
0.485895038 0.409234405 0.795951545
0.509044766 0.412650049 0.788741231
0.556609452 0.411764801 0.785452127
0.628842473 0.414421201 0.791777253
0.712460279 0.417583704 0.789879739
0.799493849 0.422264397 0.789120793
0.890954971 0.441239715 0.789879620
0.970777571 0.458823413 0.786084831
0.558633566 0.526122928 0.787982464
0.582036793 0.526375592 0.790638924
0.613029480 0.533712745 0.786717117
0.669196606 0.531688929 0.781910062
0.738140345 0.534598112 0.784819603
0.812144339 0.540796936 0.787096500
0.890449047 0.554079354 0.788741410
0.964832425 0.568627298 0.790765584
0.633017063 0.644908547 0.798481703
0.642631471 0.644908547 0.794307351
0.675015688 0.644781709 0.791397691
0.724225283 0.647311687 0.794433534
0.775331974 0.650727272 0.789879858
0.831245959 0.659835398 0.793168664
0.899683416 0.666792929 0.797090471
0.956736028 0.676913381 0.795319498
0.704364061 0.754965007 0.799114227
0.706641018 0.755977035 0.808728755
0.725743234 0.753194153 0.802656353
0.760784090 0.758127451 0.804300964
0.806198359 0.759392858 0.804806828
0.858317375 0.766856372 0.810879171
0.906514823 0.774699330 0.815306723
0.958000898 0.790385783 0.822137594
0.757368565 0.855534375 0.818975568
0.763820350 0.853257120 0.830360830
0.773181617 0.855534434 0.819860458
0.800252914 0.855281353 0.824035227
0.834028959 0.856799543 0.825679898
0.876280904 0.864010036 0.831245780
0.920683086 0.876028061 0.846932411
0.964959025 0.905123413 0.872485578
