Assets/Resources/EldamarStudio/100 Horror LUTs Pack/LUTs/cube/Nailanger LUT.cube
LUT_3D_SIZE 5
DOMAIN_MIN 0.000000 0.000000 0.000000
DOMAIN_MAX 0.903226 0.903226 0.903226
0.082353003 0.000000000 0.000000000
0.165085703 0.021252289 0.043136999
0.290322810 0.057558831 0.058191415
0.445414245 0.145224258 0.123718992
0.710436463 0.232890800 0.210625976
0.132700995 0.115749404 0.063757285
0.164073005 0.117393695 0.059835702
0.272991687 0.155977115 0.086654119
0.434282243 0.223023579 0.149145827
0.704870462 0.304111540 0.226692095
0.141808584 0.277292818 0.131435573
0.181783825 0.283871233 0.141302988
0.262239397 0.292346388 0.149145991
0.412776828 0.349272817 0.186717287
0.698671758 0.442757547 0.259709239
0.139278993 0.507274151 0.226692125
0.195952117 0.508286238 0.235167712
0.314357698 0.519417882 0.249841988
0.455408245 0.528905392 0.261986107
0.712713480 0.620113611 0.327766955
0.323719233 0.813662589 0.455534428
0.373181581 0.820872784 0.444781870
0.485641748 0.822770417 0.455534428
0.632005036 0.833522916 0.478431582
0.807337403 0.841113567 0.522327542
0.114358000 0.029728293 0.133080706
0.161796287 0.038582996 0.117393695
0.251106977 0.093864702 0.146489412
0.386211127 0.178241715 0.210246861
0.659455895 0.257052660 0.286780536
0.133332998 0.111827984 0.116761699
0.173940405 0.138013989 0.140290707
0.239974409 0.166476697 0.165464982
0.386211127 0.229222104 0.221379131
0.664642572 0.314610958 0.298924804
0.165085286 0.263883680 0.190638691
0.190891996 0.265527993 0.195192710
0.248450413 0.278305084 0.201771110
0.393421680 0.339152098 0.245287970
0.677166104 0.439848095 0.329032391
0.166729838 0.487033546 0.287159979
0.211891398 0.491587371 0.291967124
0.308791816 0.500442803 0.296268404
0.444908679 0.516128838 0.306767821
0.703605354 0.608602107 0.385705203
0.342947274 0.817836881 0.474509597
0.381150991 0.809361219 0.471853167
0.486274123 0.813282907 0.489184290
0.634281933 0.825679898 0.515623093
0.791144907 0.839089274 0.547122180
0.124224991 0.060214985 0.311954409
0.184060693 0.084756687 0.296267956
0.259582400 0.119038828 0.272105962
0.388867706 0.185452119 0.308791786
0.639215827 0.273370981 0.404300779
0.153953299 0.172675401 0.257305712
0.184693292 0.173940405 0.252118677
0.246173277 0.189374104 0.258317798
0.369892538 0.241366237 0.309044719
0.631119490 0.332574099 0.409234494
0.167994574 0.272738397 0.281973362
0.196078420 0.281847388 0.278557986
0.290322810 0.342694819 0.342062235
0.386211097 0.360657692 0.356736124
0.638583243 0.453384012 0.437064767
0.198987722 0.474256992 0.384313524
0.235041127 0.485388815 0.380898118
0.317520559 0.493864655 0.389500111
0.432131529 0.508918285 0.402656525
0.680961430 0.611258805 0.484376937
0.376596987 0.794054449 0.561416566
0.398987859 0.794307292 0.553699851
0.496647179 0.802529991 0.575711608
0.631752133 0.815939486 0.595066428
0.790892005 0.824035406 0.620240569
0.103858002 0.151169986 0.542694390
0.191903695 0.167488843 0.536369622
0.319544554 0.190638706 0.515496254
0.434788108 0.226565123 0.491587371
0.650347590 0.286527634 0.550158024
0.143073574 0.250221252 0.495509535
0.200632423 0.254143119 0.494876981
0.307780117 0.263630390 0.487033516
0.422264576 0.281214446 0.471980125
0.644781828 0.342441231 0.551169932
0.170904279 0.359772384 0.473624408
0.218722284 0.368247837 0.470335245
0.309677541 0.380012363 0.476280808
0.416065991 0.392789513 0.478558123
0.646046937 0.465022385 0.560910523
0.206831142 0.495509118 0.486780256
0.248070702 0.499051392 0.495509148
0.347628266 0.522959948 0.514104784
0.521062434 0.605313122 0.597470105
0.690701962 0.636812091 0.631751895
0.391271293 0.791397750 0.664895892
0.427830428 0.796204865 0.666413724
0.522201002 0.801517904 0.683870912
0.641872227 0.812017918 0.703099072
0.782416403 0.823402584 0.723592520
0.128525943 0.289310604 0.850221395
0.237697765 0.296774089 0.844402432
0.404933214 0.318026781 0.835294008
0.588741183 0.343579769 0.822517514
0.764073551 0.379632741 0.805818617
0.182163358 0.374319613 0.833269596
0.262492359 0.383428365 0.831625342
0.417457163 0.397216737 0.828336239
0.585831463 0.413535595 0.811132014
0.755597413 0.432890296 0.804553747
0.271979988 0.528020024 0.807083786
0.327134699 0.533586323 0.807969809
0.444402158 0.535863221 0.806578040
0.587223351 0.541429281 0.799620271
0.746489167 0.546995580 0.800126135
0.337507874 0.675774634 0.800759137
0.382036299 0.674383163 0.801011741
0.483997434 0.677039802 0.796963930
0.611511707 0.679316759 0.793168843
0.746489584 0.684629738 0.793801427
0.450600505 0.818975568 0.804427564
0.475015700 0.814041734 0.807210565
0.554965377 0.817583561 0.816318631
0.674509764 0.825426638 0.814800620
0.837318361 0.868437767 0.865907729
