Assets/Resources/EldamarStudio/100 Horror LUTs Pack/LUTs/cube/Nailanger LUT.cube
DOMAIN_MIN 0 0 0
DOMAIN_MAX 1 1 1
LUT_3D_SIZE 32
0.082353003 0.000000000 0.000000000
0.085389383 0.003036387 0.000000000
0.092726223 0.003922000 0.002150774
0.103098996 0.002656839 0.005186839
0.115622543 0.001138547 0.010120095
0.130802929 0.010246934 0.028336871
0.148513645 0.016825000 0.038962677
0.165085703 0.021252289 0.043136999
0.179507002 0.023529002 0.044654999
0.191651016 0.023529006 0.050726999
0.221252739 0.032257870 0.048070870
0.237444729 0.037318256 0.047059000
0.251106650 0.042631354 0.049335998
0.272106081 0.051486064 0.055155031
0.290322810 0.057558831 0.058191415
0.308538973 0.070841186 0.066034183
0.329791397 0.084503382 0.076660380
0.354712546 0.097280398 0.088804983
0.382036984 0.112460047 0.100949012
0.403795391 0.122074358 0.107527003
0.423150003 0.133079991 0.113598995
0.445414245 0.145224258 0.123718992
0.475774974 0.157368988 0.141302511
0.506134987 0.169513002 0.144338906
0.541049540 0.181656986 0.156483278
0.580265284 0.193801329 0.173054978
0.622770131 0.205945998 0.189753070
0.665274858 0.218089983 0.198861450
0.710436463 0.232890800 0.210625976
0.755977094 0.249841943 0.224541172
0.800632179 0.266286969 0.237950593
0.843137026 0.278430998 0.247059003
0.088424996 0.006072000 0.003036387
0.091461383 0.000000000 0.006072000
0.098798223 0.003036387 0.010372999
0.106640995 0.006452000 0.015559612
0.115622543 0.009867386 0.021125548
0.130802929 0.016318934 0.031372484
0.151043326 0.020366676 0.036938936
0.164832324 0.029222026 0.038456678
0.177988604 0.035673775 0.037824098
0.194686636 0.035673782 0.041619390
0.215559483 0.044401903 0.047691386
0.235420480 0.049462259 0.047059000
0.249968290 0.054775640 0.049335998
0.269323438 0.063883744 0.055407997
0.290322810 0.072738446 0.061227027
0.308538973 0.078811213 0.066666611
0.329791397 0.090575770 0.075142190
0.352814972 0.102719985 0.085136183
0.372928590 0.115496442 0.094877020
0.400252968 0.130676746 0.107021004
0.423909068 0.138393387 0.117393985
0.447438508 0.148260400 0.125743002
0.476027995 0.160531119 0.135736495
0.512207806 0.175585002 0.150410905
0.544845104 0.185452282 0.160277992
0.581910014 0.198229045 0.173307940
0.621758103 0.212524071 0.186717317
0.659202874 0.227198377 0.195825055
0.701707661 0.239342362 0.207590267
0.746869206 0.254143178 0.223276332
0.792409956 0.271979988 0.239721596
0.837065041 0.290575773 0.253131002
0.094497003 0.009993774 0.012523999
0.101834387 0.010372999 0.015559613
0.098419003 0.010752773 0.012143999
0.111321770 0.013788838 0.019481160
0.121315315 0.019354774 0.026818322
0.132953703 0.027197998 0.035926707
0.146742329 0.032890450 0.031372547
0.164705709 0.037570771 0.037697930
0.177862093 0.047944322 0.038962774
0.197469786 0.052119005 0.043390490
0.216444865 0.058696900 0.047185224
0.233649254 0.063757032 0.049209226
0.249968290 0.067931771 0.050347868
0.268185019 0.076028027 0.055661030
0.287539601 0.085136116 0.063630767
0.308538973 0.093990833 0.069702767
0.328273177 0.100063220 0.075774774
0.350664198 0.111574791 0.084250577
0.368880242 0.125237018 0.093358986
0.397596359 0.135863364 0.107400239
0.421125740 0.149145991 0.119544700
0.447185457 0.156736135 0.130676642
0.475901484 0.167741761 0.138140008
0.510310054 0.180897906 0.151296675
0.542315304 0.193675056 0.162048995
0.579886317 0.204174742 0.172801659
0.620619893 0.218089998 0.184693292
0.660341620 0.231625661 0.197090313
0.702087402 0.248450741 0.211005658
0.751676083 0.258823514 0.226691946
0.794813573 0.274130434 0.241365984
0.835294008 0.294117987 0.252751231
0.103098996 0.025680158 0.024667999
0.105882220 0.024920933 0.023908773
0.108033001 0.027956773 0.026818322
0.108286157 0.028463159 0.018215999
0.125743151 0.031878322 0.027324386
0.135736927 0.040101092 0.036432773
0.149904996 0.049209159 0.035420842
0.161163703 0.055281159 0.034914702
0.177862093 0.060594257 0.042504899
0.199114501 0.068690643 0.048070841
0.214927003 0.073624320 0.049968131
0.232384413 0.078937411 0.054775160
0.247564793 0.083112165 0.055913802
0.266160995 0.088931128 0.059203159
0.286400974 0.096015245 0.067299411
0.305755615 0.105123349 0.074003994
0.325743169 0.115243152 0.080076002
0.348260522 0.121947736 0.086780578
0.368374199 0.135863140 0.095888987
0.395192891 0.146742359 0.109297819
0.421125740 0.157748312 0.121315472
0.445414245 0.167868316 0.132447869
0.475774974 0.176850140 0.141682014
0.508032799 0.188994169 0.153826818
0.540417552 0.202403575 0.163693696
0.576344311 0.214547977 0.175331652
0.619355083 0.226186067 0.183933988
0.662618697 0.237571150 0.196837276
0.705123425 0.255028486 0.215812802
0.752182126 0.269197047 0.232763931
0.802403629 0.280961305 0.249209210
0.836559176 0.299177974 0.256040305
0.114104547 0.057178997 0.035673548
0.108791545 0.051865995 0.029601548
0.109550767 0.051865771 0.033143774
0.114358157 0.053130709 0.035294224
0.123845994 0.050094996 0.025047095
0.135990009 0.056166995 0.034155481
0.152435005 0.066919543 0.038962774
0.165338159 0.075015545 0.042504996
0.177103087 0.080708094 0.047817901
0.198355496 0.083744481 0.050853517
0.211638004 0.087919317 0.051739097
0.227071494 0.092599988 0.057052251
0.244149536 0.098292544 0.063504092
0.259835929 0.104617514 0.066793449
0.283997446 0.107906125 0.072865449
0.304616988 0.115369789 0.080075994
0.322833389 0.125237092 0.085768543
0.342188537 0.136748567 0.092473023
0.369512975 0.145856977 0.101581432
0.393295616 0.158127561 0.113852009
0.418722540 0.169512928 0.124098733
0.444655240 0.180012986 0.133206964
0.475395471 0.186464489 0.142441079
0.506514549 0.198861554 0.154585823
0.538772821 0.212903276 0.164832249
0.575964749 0.226312533 0.175584644
0.618975639 0.239089072 0.190385550
0.664515972 0.248197451 0.196457550
0.707400143 0.264516085 0.216571614
0.752687871 0.279190421 0.236938491
0.799367249 0.292346984 0.254522204
0.838836432 0.310562998 0.266667008
0.117140934 0.075395003 0.038709935
0.117140934 0.075395003 0.032637935
0.120429933 0.074382998 0.030866936
0.124731153 0.076154098 0.033649839
0.129917994 0.077419385 0.034155481
0.142062008 0.074382998 0.037191868
0.154206008 0.082985319 0.046299610
0.164072990 0.087665930 0.047817774
0.173687249 0.090195939 0.047817905
0.192283496 0.095888488 0.050853521
0.210625991 0.107652999 0.056799740
0.223782510 0.112207316 0.059835605
0.238077343 0.115749642 0.062744997
0.253763139 0.119797900 0.063757062
0.275015503 0.128905505 0.069829062
0.301580846 0.134597927 0.083111860
0.322833389 0.141176388 0.090702191
0.341682553 0.148893282 0.095509343
0.363440990 0.158000976 0.104617044
0.382416010 0.172675371 0.119291425
0.411132336 0.181656927 0.130170733
0.440987051 0.189753190 0.139279127
0.469323456 0.198608488 0.148513854
0.508791983 0.213788897 0.160657883
0.539911509 0.226185918 0.172802001
0.574952602 0.237444669 0.181656912
0.615939200 0.248576924 0.190765068
0.661480308 0.266413450 0.205565929
0.704364538 0.278178662 0.214294747
0.746869266 0.291334808 0.229475170
0.791271508 0.303478986 0.246932521
0.835800052 0.316635013 0.266667008
0.125237316 0.096141316 0.051866319
0.125237316 0.096141316 0.050854318
0.129538327 0.096141316 0.046932545
0.135610312 0.096141316 0.047818158
0.140291005 0.097532995 0.049715545
0.148134008 0.096647382 0.046299610
0.155218005 0.096141316 0.049335998
0.167362422 0.103604995 0.053510323
0.176723644 0.106135093 0.052118998
0.191397980 0.110436328 0.053383842
0.209613994 0.119797640 0.064389415
0.225806251 0.125869378 0.068437934
0.239595324 0.130043998 0.071473673
0.255028337 0.134724736 0.073118031
0.274003386 0.141556218 0.076913320
0.295255780 0.150663838 0.082985319
0.319291174 0.158380508 0.094750188
0.339784801 0.165464982 0.100442998
0.362935007 0.172675371 0.107653372
0.386464000 0.184819371 0.122327685
0.408475459 0.198102474 0.133712575
0.437950820 0.206451505 0.142820805
0.465528160 0.215686008 0.151929185
0.500189662 0.228463233 0.161670014
0.537381291 0.239089012 0.173813999
0.575205624 0.250980347 0.184566662
0.617457449 0.262239397 0.193295389
0.660974264 0.278431624 0.208475754
0.706388295 0.288804322 0.223403141
0.748893023 0.302719861 0.234282285
0.793168843 0.318279594 0.251359969
0.840354025 0.335357308 0.274256676
0.132700995 0.115749404 0.063757285
0.127767280 0.115749404 0.062112994
0.132068276 0.122327402 0.063251220
0.138140276 0.117267400 0.056419995
0.144971386 0.116508402 0.057938289
0.153573722 0.119038403 0.056925837
0.159645721 0.119038403 0.058444027
0.164073005 0.117393695 0.059835702
0.176976681 0.124224797 0.060594607
0.190006301 0.129032180 0.061480001
0.207969710 0.136242867 0.069828995
0.222517252 0.141303152 0.074256547
0.238835990 0.145477414 0.077292934
0.254775375 0.151296377 0.080834739
0.272991687 0.155977115 0.086654119
0.288677782 0.164452896 0.090448998
0.314484388 0.173560902 0.099556990
0.335483670 0.183934256 0.108791851
0.357748270 0.193042412 0.115876012
0.385325730 0.199746713 0.128652647
0.407969445 0.211891174 0.140037954
0.434282243 0.223023579 0.149145827
0.462365687 0.232257709 0.158254206
0.494243920 0.244402513 0.167362615
0.531562269 0.255914092 0.175458714
0.570778012 0.265022039 0.188994363
0.616066098 0.277925700 0.199620634
0.659709096 0.294244409 0.214800730
0.704870462 0.304111540 0.226692095
0.753573298 0.315116882 0.241745964
0.796078146 0.329411685 0.254775584
0.843137026 0.348387003 0.276786715
0.138013899 0.135483995 0.071347095
0.130423695 0.134725094 0.068311289
0.129790992 0.141809106 0.069576323
0.137381181 0.147627994 0.070841089
0.143073648 0.136242986 0.059835546
0.154079780 0.140797004 0.064768992
0.162681907 0.141050100 0.068311319
0.167868480 0.140164480 0.069702998
0.172422096 0.138646096 0.069702998
0.187602490 0.147754490 0.072738625
0.205692738 0.153952986 0.078684092
0.219101906 0.158760354 0.080708094
0.232763991 0.162935093 0.081846736
0.250980079 0.169260055 0.085136093
0.269196808 0.173307672 0.093738414
0.285641968 0.180391997 0.098798290
0.303099275 0.189500198 0.106388085
0.332195044 0.197975993 0.117267087
0.350664109 0.212776870 0.126248971
0.380012631 0.219101846 0.138140202
0.405439734 0.227830470 0.148386732
0.429728240 0.238203958 0.155977130
0.460215479 0.247438073 0.165211990
0.491208106 0.259582698 0.174952805
0.527640820 0.272486001 0.182542995
0.569260180 0.284756631 0.192789644
0.611765027 0.294370979 0.206957936
0.657052398 0.312080979 0.221631527
0.703352332 0.322327822 0.233775914
0.750158072 0.333966047 0.247185171
0.801391244 0.347628057 0.260847598
0.843896091 0.359772086 0.276028007
0.141049519 0.159772024 0.074383490
0.138013899 0.156736404 0.071347103
0.134724721 0.160278499 0.072612301
0.138393328 0.165338337 0.076913491
0.149146423 0.166602999 0.081087939
0.152182028 0.160531014 0.078051560
0.163187504 0.157495335 0.080455333
0.171789929 0.156230509 0.081847012
0.178494856 0.156862885 0.081847012
0.187602490 0.159898505 0.081847012
0.205692738 0.166097015 0.087792486
0.217836738 0.172169521 0.089816481
0.229348153 0.178115502 0.090955123
0.244908065 0.184440464 0.094244480
0.263124824 0.193548083 0.100316487
0.286147982 0.200000107 0.106515005
0.305376202 0.207716778 0.115496479
0.323086649 0.216191992 0.126375481
0.347375482 0.222264022 0.132447496
0.376976490 0.234282240 0.144212708
0.403541982 0.246046960 0.154459223
0.429728240 0.256166995 0.161543131
0.460215479 0.262618452 0.165212005
0.493611902 0.274762481 0.177356005
0.529159009 0.289183766 0.187096804
0.569892585 0.304237634 0.198861644
0.614800632 0.318659008 0.213029936
0.657305360 0.330802977 0.222137526
0.705249548 0.340543807 0.239468634
0.750157833 0.353194177 0.257305443
0.795698762 0.369133472 0.272738606
0.846932471 0.387096494 0.282100022
0.132447869 0.178241745 0.083238870
0.143959373 0.178115249 0.080202490
0.145224780 0.179380089 0.085768640
0.142441422 0.183428168 0.085262708
0.144718364 0.186084747 0.082732551
0.155344933 0.185072735 0.084756806
0.165970862 0.181530416 0.089310743
0.174825862 0.180139005 0.092726164
0.182416111 0.180139005 0.093990996
0.193674520 0.181024387 0.093990996
0.199873745 0.181150869 0.088172004
0.214042008 0.187222868 0.092220254
0.225173876 0.194433779 0.094244219
0.239595026 0.202277005 0.097786158
0.265780956 0.208728448 0.106514990
0.281593919 0.220240474 0.112586990
0.302846193 0.227324858 0.121694990
0.322707146 0.234408736 0.133839130
0.346995980 0.240480751 0.144465744
0.371284008 0.252118737 0.147754386
0.399493724 0.264262974 0.159519106
0.427830517 0.274383247 0.169639125
0.460088968 0.280835211 0.176596999
0.490702033 0.295761883 0.183174998
0.528652966 0.305629164 0.193042278
0.571284294 0.318152845 0.206324965
0.617330909 0.331815064 0.221505255
0.657431841 0.346362859 0.228210270
0.699936628 0.358506858 0.242630854
0.749778509 0.371410161 0.258823305
0.794813395 0.387476176 0.272359014
0.838330150 0.405692756 0.279443145
0.135483727 0.198482245 0.098418988
0.139531732 0.200505972 0.091334611
0.147248775 0.198608726 0.092852771
0.149020001 0.200379506 0.098165996
0.146362960 0.203036264 0.092852704
0.156862617 0.206325248 0.095888659
0.164958730 0.205819175 0.095382996
0.177103147 0.204427496 0.099810280
0.185452253 0.205186397 0.103604987
0.197596267 0.206451237 0.106134988
0.205945730 0.206451237 0.102340251
0.214041725 0.206451252 0.102339983
0.228463024 0.211384892 0.104237735
0.242378250 0.218469247 0.106894016
0.260847390 0.224541247 0.116002396
0.280582070 0.235420316 0.124731243
0.300316274 0.244529098 0.130803242
0.322074562 0.251233667 0.140670240
0.344971716 0.258697033 0.150031686
0.369260281 0.270335495 0.157874897
0.395445973 0.280581743 0.162808239
0.422770411 0.292599231 0.171663389
0.454396218 0.301075220 0.178874239
0.490449011 0.316255331 0.188741267
0.523592293 0.326881528 0.199114293
0.567236066 0.335989892 0.208222657
0.615307093 0.348513484 0.224035323
0.657811403 0.365211666 0.234661877
0.701960862 0.379759490 0.246679381
0.744465590 0.388361484 0.258317441
0.790891945 0.403668433 0.275648236
0.829221725 0.421885252 0.288551241
0.142314643 0.223149985 0.113219641
0.141176000 0.223908901 0.106388249
0.144338906 0.224920750 0.103605129
0.150158361 0.224288642 0.106514998
0.150537908 0.223909095 0.106514998
0.158127710 0.227703989 0.108791709
0.165843993 0.228715986 0.109044962
0.175205410 0.228715986 0.107020929
0.186590895 0.229475081 0.110815637
0.198355362 0.232510805 0.116887644
0.207590237 0.234914273 0.117646858
0.217836738 0.234914273 0.116382025
0.228083283 0.234914273 0.118279286
0.246047035 0.237697631 0.118785284
0.259076625 0.241998628 0.127008051
0.277166605 0.251739264 0.134977803
0.295003355 0.260847360 0.141429633
0.319923908 0.266919971 0.147501633
0.342188358 0.275521696 0.153573662
0.366224080 0.288551718 0.165844351
0.391271710 0.299936891 0.170777991
0.421631992 0.310056627 0.178874001
0.449588865 0.322200656 0.182289854
0.487033576 0.336369187 0.191398010
0.524224937 0.349272549 0.202403635
0.562301993 0.359519273 0.214294672
0.610373557 0.369639695 0.223908991
0.655914068 0.387223244 0.238456786
0.701454818 0.402783096 0.252118975
0.747501671 0.414927274 0.265907824
0.790892124 0.423655868 0.277672619
0.828083277 0.441619635 0.301454633
0.144844964 0.253004044 0.122327968
0.142820641 0.250474453 0.120050609
0.143073738 0.250727296 0.116508290
0.148387030 0.254522175 0.116761193
0.153826550 0.256546497 0.118658997
0.156862944 0.253510118 0.118658997
0.164958730 0.253763080 0.121695317
0.175711408 0.253257096 0.121695325
0.186843932 0.253763139 0.120430030
0.195951551 0.256799549 0.126502022
0.205565915 0.262239069 0.132068038
0.216445044 0.264263064 0.132321253
0.228842244 0.264516026 0.130929992
0.240987033 0.265022010 0.130929992
0.256167412 0.265022010 0.137001991
0.275395751 0.271473795 0.143073991
0.294117808 0.279317021 0.147881150
0.311321586 0.285642058 0.151550025
0.338646054 0.291714072 0.157622069
0.363440722 0.305882394 0.173814043
0.387476444 0.318912059 0.180645034
0.415813029 0.331056058 0.184439987
0.452118516 0.343326569 0.196457505
0.485515714 0.355597824 0.199746907
0.523719251 0.369766295 0.207590252
0.564579308 0.383554995 0.217836976
0.607590199 0.396458089 0.229728028
0.653131306 0.411638469 0.241872028
0.698671758 0.426312774 0.256672829
0.745730340 0.440227985 0.274383396
0.794180751 0.453004599 0.292599976
0.839721978 0.468185008 0.310815990
0.141808584 0.277292818 0.131435573
0.150916979 0.280329198 0.137507573
0.144591644 0.273498029 0.130929753
0.149398908 0.275774807 0.131941825
0.162808418 0.283744395 0.139531851
0.162934944 0.277798891 0.130802989
0.171031311 0.284883112 0.138393298
0.181783825 0.283871233 0.141302988
0.192409992 0.280582219 0.140670404
0.198987946 0.281088293 0.141682401
0.213915288 0.281214803 0.141935408
0.223782659 0.282479823 0.143200412
0.235800177 0.283618182 0.144844994
0.250094622 0.286274403 0.149145991
0.262239397 0.292346388 0.149145991
0.275015980 0.292346388 0.155217990
0.293611765 0.298798144 0.161289990
0.313598961 0.307273954 0.166729718
0.335610449 0.316002816 0.172802418
0.362934798 0.327640802 0.178874418
0.385831743 0.338520139 0.183681414
0.412776828 0.349272817 0.186717287
0.449082911 0.361543328 0.196457505
0.482479334 0.376723737 0.205565915
0.522707164 0.388994396 0.215685993
0.564579308 0.401770949 0.225806236
0.607590199 0.414927095 0.235547066
0.653131306 0.432890803 0.244908407
0.698671758 0.442757547 0.259709239
0.744212568 0.458443969 0.281973571
0.793042541 0.473624378 0.304743975
0.845794022 0.486400962 0.322959989
0.141176000 0.308791786 0.145350799
0.150284395 0.307021171 0.146615803
0.152941003 0.303605229 0.146236584
0.149651974 0.299810141 0.140164629
0.161796555 0.307020783 0.147375003
0.171916798 0.304996789 0.156482846
0.172296315 0.306768090 0.145730317
0.179759994 0.310942769 0.151549712
0.190386012 0.307906777 0.152308807
0.199747011 0.307906777 0.152308807
0.214547873 0.310309976 0.157115802
0.229728252 0.312334239 0.157115802
0.238456994 0.312713802 0.158254147
0.249841824 0.314484566 0.162554994
0.264136821 0.318405747 0.162554994
0.278684795 0.317267597 0.164958790
0.292346597 0.317267597 0.171030790
0.312460333 0.324351788 0.177102789
0.335483998 0.335230947 0.183175147
0.359898567 0.344718814 0.189247191
0.389120668 0.356862783 0.195319667
0.416951239 0.367488980 0.199367657
0.453383982 0.379759490 0.208222300
0.489057690 0.394939899 0.212776706
0.527008057 0.410120279 0.224161789
0.567994952 0.423782438 0.232131481
0.609993875 0.437444657 0.241239876
0.655534506 0.453763664 0.257938236
0.701075554 0.466413736 0.262745023
0.748387098 0.482605755 0.285009354
0.791018605 0.498798400 0.310562789
0.835041225 0.509424627 0.330296993
0.139658198 0.340670377 0.162049383
0.150284395 0.334598392 0.168121368
0.152941003 0.333966017 0.156862780
0.156736165 0.330423564 0.157621995
0.160658002 0.332827389 0.156103730
0.172422737 0.332827389 0.168627366
0.179506987 0.332321316 0.166097194
0.184313804 0.336748987 0.160657704
0.191904008 0.336748987 0.163694084
0.204048216 0.336748987 0.164453194
0.219102070 0.338140309 0.167236179
0.231246054 0.342694253 0.172296196
0.245288089 0.343453646 0.173434556
0.252878159 0.343074203 0.175964221
0.268058211 0.344844967 0.174699381
0.281720787 0.346109807 0.177102804
0.296900779 0.343074203 0.180139184
0.313345551 0.344971776 0.186211184
0.336748779 0.356230378 0.192283198
0.359519035 0.362555325 0.193801016
0.387602478 0.375079185 0.201391280
0.418975115 0.389247179 0.208475932
0.454648793 0.402403206 0.217330664
0.488298625 0.416192293 0.220366701
0.530044436 0.432890475 0.230234176
0.569512784 0.443896204 0.242378175
0.609487951 0.459203124 0.247818068
0.654016376 0.475395620 0.267046422
0.701075256 0.490955174 0.278431535
0.746869326 0.503858149 0.285009354
0.795446157 0.525110602 0.314990371
0.832005203 0.536749005 0.339405388
0.137887418 0.369133562 0.177735984
0.149398997 0.362555146 0.189247414
0.152308583 0.361416757 0.180898219
0.156736165 0.363820523 0.171030983
0.165085465 0.363440990 0.176343977
0.170904428 0.363187969 0.179127336
0.180139318 0.361290216 0.178368226
0.188614860 0.361922532 0.176343977
0.199114203 0.367109120 0.176470488
0.211258993 0.367109120 0.179506883
0.225680307 0.367109120 0.179000974
0.238077313 0.370524704 0.182416394
0.249588698 0.373813778 0.186717346
0.261480451 0.371537149 0.190006047
0.275901139 0.372296125 0.188108981
0.289310575 0.373434335 0.189879760
0.304870367 0.374699324 0.192915753
0.318785131 0.372296125 0.194686979
0.340037584 0.381404519 0.200758994
0.361922562 0.384946167 0.199114218
0.388235062 0.394939870 0.203668311
0.418975115 0.409867138 0.212144122
0.452624500 0.427956641 0.221378967
0.484503388 0.440607339 0.225932658
0.523719251 0.455407977 0.235800132
0.568374574 0.471220553 0.247944549
0.608349144 0.478304654 0.259582639
0.650853813 0.496268451 0.274509996
0.697406590 0.513219535 0.289057791
0.744844973 0.529158533 0.300822526
0.788741589 0.541429162 0.311954588
0.837318420 0.562681556 0.348387420
0.140923038 0.390386015 0.183808029
0.150031418 0.393421620 0.192915633
0.150790781 0.393295020 0.191524059
0.154332981 0.394813210 0.189247027
0.165085465 0.396837473 0.194560021
0.168121070 0.393801093 0.194560021
0.179000676 0.393548042 0.197343364
0.187602997 0.393295020 0.196584269
0.196205065 0.394560099 0.194560021
0.211258993 0.397469968 0.194686532
0.223403007 0.397469997 0.191903919
0.237824306 0.399494231 0.193168759
0.253636986 0.401644915 0.195319057
0.270588070 0.401897997 0.196078092
0.279696435 0.407969981 0.202150851
0.294117808 0.406325161 0.205060184
0.313598990 0.406831145 0.208096176
0.333965540 0.408728987 0.209867418
0.343073994 0.408728987 0.206831038
0.367109746 0.412270665 0.207337037
0.393042684 0.420999467 0.212776721
0.421631962 0.433396965 0.220872968
0.452624500 0.446173459 0.227450997
0.492093712 0.461353868 0.239595026
0.526249290 0.471726686 0.250980556
0.567615271 0.487159699 0.263124943
0.614421129 0.505629182 0.274763048
0.656925857 0.517773926 0.283871442
0.699430645 0.530423939 0.296141982
0.745983303 0.546615958 0.310310185
0.790765226 0.561669588 0.325616986
0.828209996 0.571789980 0.345351040
0.143959358 0.425553739 0.201012015
0.144718379 0.425806701 0.201770976
0.153826773 0.430993080 0.208728358
0.158380836 0.429728091 0.207716361
0.168247744 0.428210169 0.209613919
0.173687771 0.429980814 0.207210720
0.181783393 0.429474741 0.204680398
0.193675056 0.429474741 0.207210720
0.202783257 0.429474741 0.207210720
0.213915154 0.430486858 0.207210720
0.228969008 0.433396757 0.207084253
0.243137270 0.433396757 0.210120365
0.259456009 0.435673743 0.212776721
0.277166069 0.437318027 0.212523684
0.288804740 0.438330024 0.211005479
0.307527125 0.439595014 0.219481453
0.323466152 0.439974576 0.221758366
0.342694134 0.443010956 0.223529592
0.358254373 0.445161760 0.224794775
0.378494740 0.450727731 0.230107725
0.402783006 0.449968368 0.224414989
0.430233896 0.457685024 0.230234116
0.460973829 0.469955504 0.241492853
0.500442326 0.485135943 0.245667011
0.539911509 0.502593577 0.260088295
0.577102959 0.516002357 0.271347314
0.620493114 0.533459425 0.283111989
0.662997842 0.547880888 0.299051106
0.708159447 0.562681854 0.313472480
0.752561450 0.576723576 0.329285413
0.800126135 0.593927741 0.349019945
0.844148993 0.608728409 0.372928739
0.141303003 0.465781450 0.213535741
0.141303003 0.465781450 0.213535741
0.151549771 0.468184710 0.219734475
0.158127844 0.469196707 0.225806460
0.165970564 0.463883698 0.225932911
0.173561126 0.465401530 0.219860926
0.182163417 0.467805207 0.218722418
0.192915738 0.467805207 0.218975455
0.205819353 0.468564123 0.221252739
0.217204258 0.469702452 0.221252739
0.232131600 0.472612321 0.221252739
0.249209255 0.473624468 0.221505731
0.265528291 0.473624468 0.227577731
0.283997446 0.475901157 0.229601726
0.301075071 0.477545470 0.231499046
0.320430011 0.477545470 0.232384533
0.341682434 0.477545470 0.236938730
0.357621312 0.479569733 0.238203719
0.374572963 0.481340975 0.242504954
0.395572364 0.487159967 0.244529009
0.414927453 0.489436984 0.246805996
0.440227598 0.488424867 0.239721596
0.469829232 0.497785985 0.249209270
0.505755663 0.509424388 0.254016578
0.547121823 0.523086548 0.262365282
