Assets/Resources/EldamarStudio/100 Horror LUTs Pack/LUTs/cube/Nailslice LUT.cube
DOMAIN_MIN 0 0 0
DOMAIN_MAX 1 1 1
LUT_3D_SIZE 32
0.070588000 0.031373002 0.027450999
0.067552388 0.034408614 0.027450999
0.066666998 0.035294000 0.025300225
0.067931838 0.034029163 0.023529001
0.071726546 0.032132000 0.024288097
0.080834940 0.038203999 0.030360872
0.097532995 0.044275999 0.033902679
0.120682694 0.047059000 0.036938708
0.146489099 0.047058996 0.039216001
0.167741492 0.047058988 0.039216008
0.200632602 0.032511130 0.047944129
0.227956980 0.023403004 0.048956260
0.253383636 0.018469356 0.048197355
0.280961066 0.014927032 0.050727036
0.311321825 0.005819429 0.047691423
0.346489608 0.001518196 0.049462192
0.381404191 0.001518192 0.050980002
0.415433109 0.003289424 0.050980002
0.451865971 0.000253035 0.050980009
0.485515386 0.002783357 0.056546714
0.522707224 0.002024260 0.062618993
0.563188255 0.000000000 0.065654866
0.605946004 0.000000000 0.062997989
0.654522777 0.000000000 0.069070004
0.705376267 0.000000000 0.072865285
0.755597293 0.000000000 0.078684658
0.804680228 0.000000000 0.088298991
0.856293261 0.000000000 0.100442991
0.910562515 0.000000000 0.107273988
0.958127320 0.003541982 0.116887957
0.990005970 0.008728608 0.130803198
0.996078014 0.011765000 0.149020001
0.067552388 0.034408614 0.027450999
0.058444001 0.034408614 0.021379000
0.066160612 0.037444774 0.027830772
0.069702610 0.038330387 0.028336613
0.072865091 0.037445001 0.027703933
0.089943320 0.038203999 0.036432870
0.099051058 0.044275999 0.029854679
0.125616401 0.043770004 0.037444703
0.154838592 0.041745901 0.045288000
0.173814267 0.044022605 0.045288000
0.200885639 0.038203612 0.045288000
0.229981244 0.031499259 0.051992383
0.255281359 0.026439101 0.053130999
0.281467050 0.020999033 0.054016385
0.317393810 0.011891429 0.053763423
0.347754598 0.005187005 0.048324004
0.381404191 0.003036387 0.049462192
0.414168119 0.003922000 0.050980002
0.445794016 0.003289417 0.050980002
0.487792730 0.000253031 0.050980002
0.527640879 0.000885613 0.058443960
0.569260240 0.000000000 0.063630611
0.611891448 0.000126512 0.063124500
0.657558441 0.003036387 0.072106391
0.706135154 0.000759099 0.073624387
0.756988943 0.001391672 0.080075979
0.807716608 0.002530323 0.090322606
0.859329641 0.000000000 0.097406603
0.905629158 0.000000000 0.106894433
0.953826547 0.001771217 0.115117200
0.988741338 0.013662342 0.127767369
0.999114394 0.036052998 0.145983607
0.066666998 0.035294000 0.031751998
0.066160612 0.033143774 0.023529226
0.057052769 0.037444774 0.021758227
0.070461608 0.039216001 0.029601775
0.076407097 0.039216001 0.030360775
0.091081865 0.039216001 0.037697934
0.106008679 0.042125225 0.035926681
0.124984115 0.046552934 0.035040997
0.156862780 0.043517001 0.044908226
0.177862197 0.045161288 0.044908226
0.202656865 0.043769773 0.049209226
0.227956980 0.041745774 0.049209226
0.256293505 0.037698001 0.052751224
0.283364803 0.031625550 0.052751224
0.317899793 0.024415204 0.052751224
0.349525601 0.019861003 0.050095003
0.379886389 0.015306807 0.048576806
0.413282722 0.014041809 0.051612578
0.446679235 0.012523996 0.053130776
0.483870953 0.009740641 0.055281550
0.524478436 0.002909746 0.053383809
0.566730261 0.001138646 0.060467992
0.609614491 0.000126512 0.063124500
0.659202933 0.003162904 0.072232902
0.707020521 0.001644712 0.074510001
0.756988943 0.000000000 0.075901322
0.808096111 0.002277290 0.086274289
0.858064473 0.002530326 0.097279996
0.910815716 0.000000000 0.110309824
0.956356525 0.008855180 0.121188961
0.988614976 0.029348752 0.132447809
0.995698988 0.071094319 0.149398997
0.070461839 0.039089162 0.035294000
0.069702610 0.038583227 0.027450774
0.071726769 0.038203999 0.022264162
0.063883997 0.044275999 0.028589321
0.079063706 0.044655547 0.033902999
0.092093870 0.045541160 0.038203999
0.111827999 0.048070837 0.036685679
0.131056115 0.051106866 0.038582996
0.156863093 0.054143060 0.043896094
0.180645183 0.054648999 0.044402163
0.204933584 0.054648999 0.047691159
0.231752142 0.052118998 0.049715161
0.257178783 0.053257640 0.049715161
0.287160039 0.047818124 0.049209163
0.318532377 0.042758003 0.047185164
0.349525601 0.039089516 0.047311649
0.379886389 0.036053129 0.044781968
0.412144512 0.034281895 0.049082570
0.449209243 0.032511283 0.053383809
0.486906767 0.028209802 0.056420196
0.525237203 0.025173744 0.060721420
0.565718234 0.017077999 0.059709031
0.608349442 0.013535686 0.065401509
0.657684922 0.012018063 0.072232902
0.708285689 0.009234711 0.077040002
0.755723774 0.003795161 0.078431644
0.807843089 0.002277098 0.081467256
0.857937992 0.002277287 0.093611434
0.908032537 0.010120327 0.111321807
0.954838514 0.027830340 0.123466119
0.992409945 0.048323944 0.138266742
0.994686961 0.102973156 0.154206172
0.078431003 0.048956547 0.035673548
0.073497549 0.051992163 0.030739998
0.077419326 0.051865771 0.024288548
0.080961548 0.051486544 0.026692161
0.077925541 0.056419998 0.038457002
0.093105927 0.059456386 0.038457002
0.116888314 0.062871672 0.037444677
0.140923694 0.066287249 0.038203545
0.162555560 0.068564445 0.043137096
0.183807954 0.071600065 0.046173487
0.207969531 0.072106093 0.046679452
0.235167488 0.069576100 0.046679452
0.264389634 0.065781184 0.046679452
0.291967064 0.069070540 0.046932485
0.319417953 0.066413678 0.041240007
0.349525601 0.063757353 0.041619189
0.380645394 0.060721349 0.042378195
0.412524074 0.058570575 0.041113406
0.451992571 0.061606959 0.050221037
0.491460949 0.057431929 0.053383809
0.530550241 0.055154644 0.059835736
0.570651710 0.053130645 0.067299418
0.613282979 0.047185130 0.070461541
0.658823490 0.038583446 0.073750906
0.708538830 0.032131515 0.079443544
0.758127570 0.025426785 0.084124126
0.804047704 0.018596122 0.088678472
0.858697176 0.009487743 0.091714084
0.905755758 0.025047433 0.108032800
0.948893011 0.054269202 0.123339646
0.981783986 0.090828337 0.134472027
1.000000000 0.124225549 0.155724451
0.078431003 0.064136930 0.038709935
0.081467390 0.067172550 0.041745547
0.082985707 0.072358936 0.034661774
0.085768931 0.073118158 0.034914933
0.087033927 0.071600385 0.044528998
0.105249926 0.068563998 0.032385003
0.120430313 0.074130058 0.039974678
0.140923694 0.079696417 0.040480711
0.162935004 0.082985833 0.039721936
0.186843559 0.080708459 0.040101491
0.211005792 0.083744802 0.043137129
0.233270183 0.088298865 0.043643065
0.258317649 0.087792866 0.043643065
0.285895079 0.084250927 0.043896098
0.316255808 0.090322927 0.046932481
0.348513722 0.090069868 0.043643195
0.382922381 0.088045739 0.044655193
0.418343127 0.085641928 0.046679415
0.455028951 0.085894972 0.050221033
0.494497329 0.088931352 0.050980002
0.532068431 0.088551804 0.055281546
0.570019126 0.086527802 0.061859995
0.610246539 0.080582291 0.067425929
0.655787766 0.077545896 0.073497944
0.703605473 0.073497646 0.081341282
0.754079580 0.069955550 0.087160252
0.803668201 0.067931920 0.092220120
0.849588871 0.076281287 0.106894471
0.898924649 0.080455713 0.107273929
0.946995318 0.096141741 0.121441945
0.984313667 0.119671062 0.135483652
1.000000000 0.145477936 0.146616071
0.083491646 0.089437321 0.036685679
0.089057706 0.092472926 0.034661938
0.094244324 0.093358316 0.037697550
0.101454996 0.096141316 0.035167839
0.107653543 0.094749995 0.042378452
0.119418316 0.093864381 0.040986679
0.130043998 0.093358316 0.036433000
0.150158077 0.097786024 0.042251609
0.172296092 0.102213897 0.044022772
0.194813341 0.102719516 0.049335994
0.219102055 0.105502859 0.044655450
0.243390292 0.106514990 0.045667320
0.267425627 0.110436641 0.045667320
0.295003057 0.109045319 0.045161322
0.325363815 0.110563315 0.041366417
0.358127773 0.109424517 0.044402193
0.390006363 0.112333991 0.043136999
0.423782527 0.112966314 0.044528678
0.458317667 0.112966314 0.045667037
0.492473096 0.113219351 0.050980002
0.531941891 0.116255730 0.060467735
0.571031272 0.116888314 0.066413678
0.612397313 0.114105314 0.069449671
0.660341740 0.113472730 0.075521685
0.708159506 0.110436350 0.083870962
0.760910928 0.110183306 0.091587670
0.814800739 0.110436566 0.095762067
0.864389300 0.115496427 0.102846436
0.907526553 0.127008617 0.114863999
0.950790584 0.138393357 0.123719178
0.986464262 0.157621503 0.142061904
1.000000000 0.181910321 0.157748327
0.089563996 0.113472700 0.040227704
0.098924987 0.114864014 0.033902675
0.104996994 0.114104696 0.033523228
0.111068994 0.116634697 0.036559161
0.123213090 0.117393695 0.038836453
0.136116624 0.117393695 0.039342068
0.143580094 0.117393695 0.043896317
0.154332399 0.117393695 0.037571292
0.177862093 0.120430082 0.039848004
0.199114501 0.123465925 0.046299778
0.224921018 0.126501858 0.042505011
0.249209687 0.129158705 0.042125296
0.274636328 0.130297348 0.042125296
0.302213699 0.132827669 0.042378329
0.332574099 0.131435990 0.040481009
0.360404789 0.132321611 0.041619189
0.393801183 0.132321209 0.046172999
0.425553411 0.137634262 0.048956141
0.459962010 0.138646409 0.053004410
0.491714090 0.140290692 0.053636707
0.532194495 0.140543729 0.062112443
0.573687613 0.143580124 0.074256711
0.617204487 0.144339174 0.075521708
0.667299509 0.145856977 0.078557715
0.714231491 0.143580124 0.083617993
0.762808263 0.144718394 0.091334701
0.818722486 0.148513690 0.098418705
0.870335102 0.152687937 0.104870439
0.918911576 0.162049353 0.117520675
0.953067601 0.177609131 0.126502186
0.986338019 0.192788988 0.144338965
1.000000000 0.214800701 0.166350290
0.097912900 0.137001991 0.045541003
0.108539097 0.136243090 0.037191711
0.117141001 0.134092316 0.036053099
0.122454099 0.134851083 0.033522971
0.130044088 0.139784649 0.038077354
0.148260772 0.139405191 0.037318062
0.158633992 0.137887195 0.039848324
0.166476995 0.139405191 0.042884395
0.180898085 0.139405191 0.036053099
0.202150494 0.142441586 0.036053095
0.228462964 0.144718319 0.034661774
0.252245426 0.147754267 0.034155838
0.277672559 0.150031537 0.036812000
0.304996938 0.153067946 0.037065033
0.334850967 0.151043683 0.040101416
0.362681687 0.152814910 0.043137189
0.389247179 0.155092001 0.046932094
0.423276126 0.159392610 0.052371673
0.459708989 0.162681967 0.064136930
0.493611723 0.165717840 0.064642735
0.532700777 0.167615101 0.067678638
0.577482343 0.168627232 0.075774908
0.622896969 0.171537101 0.081593908
0.672612667 0.173940286 0.081593908
0.721189320 0.173940480 0.085389189
0.768880308 0.174320087 0.089816891
0.817963243 0.180898145 0.096900895
0.869576275 0.187223181 0.109044887
0.917393804 0.198228911 0.123086803
0.958633602 0.210373133 0.132953972
0.981783986 0.229980871 0.145098060
1.000000000 0.245161280 0.169386089
0.113092527 0.167362005 0.039469004
0.119165301 0.164326400 0.033397004
0.127640709 0.161416739 0.035800491
0.134092167 0.162175506 0.034029167
0.139152497 0.167109042 0.025932584
0.157368481 0.164073437 0.041112963
0.173054829 0.158633992 0.035294324
0.182921991 0.159392983 0.035168000
0.193042099 0.163693994 0.039089490
0.214294493 0.163693994 0.039089490
0.238456741 0.163820505 0.041998614
0.258823484 0.165970713 0.040733777
0.280708164 0.167868003 0.040227842
0.308032542 0.168247566 0.043137033
0.335356921 0.171283945 0.046173420
0.367615402 0.174067304 0.049209196
0.396078497 0.175585493 0.052245196
0.423276126 0.177609384 0.055408064
0.459708989 0.186717018 0.058444463
0.501707733 0.190006375 0.064643003
0.543706477 0.193042248 0.068437740
0.586337745 0.195951641 0.072738513
0.628968954 0.198861510 0.078557514
0.671473801 0.198861510 0.078557521
0.721189380 0.201265275 0.085388802
0.772549033 0.204048306 0.092852511
0.824035168 0.208222568 0.099936515
0.875648260 0.217330933 0.112080507
0.913978577 0.234281942 0.124225169
0.954585850 0.246805698 0.132953987
0.987603009 0.260721207 0.145224586
1.000000000 0.284630477 0.172422484
0.125363737 0.180265740 0.042125128
0.137254775 0.180139259 0.038962997
0.139026001 0.183554873 0.039342225
0.148387030 0.182795569 0.040860292
0.158380881 0.183554411 0.034788191
0.166476861 0.185578808 0.034787938
0.177103192 0.185072869 0.039848320
0.193168864 0.183048874 0.040480994
0.205818862 0.185072869 0.045034997
0.220619500 0.185072869 0.045034997
0.236052871 0.182163000 0.042125128
0.262365371 0.184187263 0.045161255
0.284376651 0.187223107 0.043896355
0.308159024 0.189499930 0.043896031
0.335483402 0.195193157 0.052245416
0.365211576 0.193421930 0.055281803
0.398102313 0.198482201 0.058317546
0.428462714 0.203289285 0.062618561
0.462618858 0.207842916 0.070208959
0.501834273 0.214167878 0.067678645
0.538519740 0.217330724 0.071473867
0.579000473 0.220366865 0.072485738
0.623655975 0.223529726 0.072991505
0.671726823 0.229095742 0.081340872
0.723339558 0.229095742 0.085894868
0.776976347 0.231499195 0.094370663
0.829095185 0.236558944 0.102972865
0.875901282 0.250474304 0.115116857
0.922200739 0.262238830 0.127260849
0.957621753 0.278178036 0.141176298
0.986970425 0.291334450 0.152434975
0.997090161 0.309551001 0.169639125
0.139532253 0.204553977 0.045161255
0.147628248 0.202530235 0.042125124
0.151170254 0.202783242 0.037318230
0.156230256 0.206325248 0.037824169
0.170271993 0.204047948 0.036306456
0.179632992 0.203794926 0.039848059
0.186211050 0.206325248 0.041872315
0.196964145 0.204680532 0.041619286
0.214421272 0.205060080 0.045034744
0.229095265 0.206325248 0.045034744
0.244149119 0.205439627 0.048197124
0.261353254 0.204427510 0.047184996
0.287539274 0.206325248 0.047944386
0.309930265 0.208728507 0.045667253
0.335483402 0.214800820 0.053004406
0.369259596 0.219734430 0.061353795
0.399620384 0.218216240 0.062871993
0.432510793 0.225173980 0.064769253
0.465907693 0.229601294 0.069702968
0.502846420 0.235420242 0.073750898
0.544212461 0.239594996 0.074509516
0.579000533 0.244655371 0.076533742
0.621758461 0.249715731 0.074889019
0.672233045 0.253889978 0.082100160
0.721315801 0.257432252 0.090954997
0.773181558 0.261606902 0.098418660
0.825553358 0.266413748 0.107527062
0.872612298 0.277039915 0.118153244
0.920177042 0.289563477 0.126249239
0.960404634 0.305249423 0.141935199
0.986970425 0.322453827 0.159139588
0.996078014 0.339911252 0.174699247
0.152435347 0.231498629 0.047059000
0.158507347 0.228463024 0.045161255
0.162555635 0.227577627 0.043389995
0.166477010 0.228715986 0.041998800
0.177862003 0.228715986 0.038583543
0.188487992 0.226438686 0.043896060
0.197849289 0.227324307 0.047944319
0.208349049 0.227071568 0.047691289
0.222770721 0.225553185 0.046932187
0.241366282 0.228589475 0.047691286
0.253257513 0.229854628 0.050094642
0.272738606 0.228715986 0.052118644
0.290954918 0.228715986 0.054395642
0.315496653 0.228969023 0.051866028
0.340670258 0.234155625 0.057052631
0.371157229 0.239089280 0.065528147
0.405692369 0.245540634 0.071220994
0.437318116 0.246173203 0.070588417
0.471220672 0.251739293 0.070082359
0.507400393 0.256672651 0.076787002
0.548766494 0.264263004 0.078684546
0.592283368 0.266287267 0.081720158
0.629475117 0.274889618 0.082226150
0.679064095 0.278937370 0.089310803
0.727261543 0.286527574 0.098798342
0.775838256 0.291208297 0.105629310
0.822897077 0.300822645 0.113725573
0.869576216 0.308159620 0.121568792
0.918152928 0.319544613 0.130297333
0.961922705 0.334092200 0.145730570
0.987729371 0.352308452 0.163946614
0.996078014 0.373307914 0.184946001
0.162555039 0.253004044 0.047059000
0.168627024 0.249968380 0.047818031
0.174446538 0.249336034 0.049968258
0.181530863 0.250347912 0.054016322
0.190765038 0.252498060 0.058317937
0.196837038 0.252498060 0.052245166
0.207210645 0.253257096 0.054016322
0.221505702 0.251865774 0.054016322
0.237445056 0.249841973 0.053004190
0.258697450 0.252877563 0.059076961
0.266414046 0.255660892 0.056673158
0.284123987 0.254901797 0.055661030
0.306135237 0.252751023 0.057938028
0.324858010 0.253004044 0.063756995
0.352182388 0.256040454 0.066793382
0.379253805 0.259076834 0.073624216
0.409108192 0.264895856 0.079696164
0.442884117 0.273244590 0.081973456
0.479317009 0.276280969 0.078937076
0.516508639 0.279316694 0.086274363
0.558127701 0.287792504 0.088551708
0.603415370 0.296647996 0.088045903
0.649209499 0.297027498 0.091081515
0.695002913 0.303226024 0.099936880
0.741049886 0.315623283 0.110815965
0.787729263 0.327135026 0.119038671
0.835041165 0.334219038 0.122580931
0.874509513 0.346363008 0.125616536
0.920935571 0.358507067 0.136875004
0.966223359 0.372169226 0.155091345
0.996078014 0.387982190 0.178874031
0.996078014 0.406199008 0.197090060
0.183807403 0.277292818 0.047059000
0.189879403 0.274256438 0.056167386
0.193801165 0.275521755 0.059076637
0.198734969 0.276660413 0.062112570
0.206198409 0.276533812 0.064263448
0.218089402 0.270714819 0.055281546
0.221631721 0.278305143 0.059329413
0.236432686 0.280582219 0.061479993
0.254142970 0.279190719 0.061606504
0.267805070 0.277166337 0.065148957
0.286148310 0.277292818 0.065401994
0.301834375 0.277925402 0.064769410
0.321315408 0.276154190 0.067046404
0.340037614 0.274256408 0.072865382
0.364326388 0.277292818 0.075900987
0.389247566 0.280329198 0.074130379
0.415686578 0.284883380 0.076660223
0.445540935 0.292220235 0.079696164
0.479317009 0.300568968 0.081973448
0.524098396 0.303605348 0.081720419
0.563946784 0.310436547 0.087412998
0.605692685 0.320177257 0.092599705
0.649209499 0.327387452 0.100189894
0.700821877 0.336495847 0.103225507
0.751169801 0.344971657 0.109803572
0.798734903 0.356736362 0.117140926
0.844402552 0.367615372 0.123086937
0.886654258 0.379759371 0.131688535
0.923465788 0.391904026 0.145350799
0.967741549 0.404048175 0.158127367
0.998481810 0.417710394 0.179000363
0.996078014 0.433523387 0.209234834
0.200252801 0.306388587 0.056672990
0.206324786 0.303352207 0.058570579
0.208095789 0.302466601 0.069829196
0.218469158 0.305249959 0.073624149
0.228715777 0.306388587 0.074763000
0.228715807 0.304364592 0.063630864
0.242884114 0.301328301 0.067172796
0.250853777 0.303858280 0.071600087
0.269070178 0.303858280 0.073118091
0.284503579 0.304111302 0.076154470
0.302466720 0.303984791 0.076280996
0.316634953 0.303984791 0.074256733
0.334092259 0.303984791 0.073877186
0.353067607 0.302466601 0.077166222
0.379506588 0.303352207 0.080202386
0.398987770 0.306388587 0.078431003
0.423276573 0.307906777 0.078431383
0.453510523 0.312840164 0.081467383
0.493991017 0.321947813 0.084503785
0.531309187 0.327893347 0.091966994
0.573055029 0.334724724 0.093864731
0.611511767 0.343833119 0.096394666
0.651865721 0.353194088 0.100063182
0.708032668 0.366856486 0.109930091
0.752814353 0.375964284 0.112966277
0.802656293 0.386464298 0.121694781
0.849209368 0.398102522 0.130297244
0.893611848 0.408348769 0.139405340
0.928399742 0.420493424 0.141808808
0.968374133 0.437950939 0.169386357
0.998229027 0.451992571 0.184819579
0.993674815 0.465654790 0.204554200
0.221505180 0.335231185 0.074889377
0.226059377 0.332194805 0.070335187
0.229348168 0.332827389 0.077419378
0.230613336 0.334092230 0.083238222
0.249209195 0.335989982 0.085388996
0.249968186 0.333712995 0.077798992
0.257052302 0.334219068 0.076281190
0.272106171 0.332700878 0.079190671
0.285768360 0.330423564 0.082985379
0.303985149 0.332700878 0.086780675
0.319165170 0.332827389 0.085388996
0.334851384 0.331309199 0.084882937
0.351549387 0.333586186 0.084123835
0.370525062 0.334345192 0.084503382
0.394054592 0.334345192 0.086274609
0.417204142 0.335230798 0.090575382
0.438456595 0.333712995 0.086021185
0.464010149 0.334977984 0.088424996
0.505123019 0.343200207 0.090575784
0.543832958 0.351043373 0.096141845
0.582163036 0.360530943 0.099936739
0.623656154 0.370651454 0.103984997
0.662112355 0.380265862 0.102846183
0.715622902 0.392662913 0.112207189
0.760404587 0.404807270 0.119038276
0.804300964 0.416697860 0.127640650
0.852245271 0.428463072 0.138393253
0.897786081 0.437570930 0.145477638
0.932700932 0.452372015 0.152688190
0.969892323 0.462239355 0.169386327
1.000000000 0.484377146 0.200505957
0.995193005 0.499051183 0.209107995
0.246932149 0.362555534 0.093485422
0.250600964 0.362049311 0.086907186
0.254901946 0.360151768 0.088804774
0.257937700 0.364452958 0.094117835
0.262112558 0.367109120 0.091840543
0.274256557 0.361543119 0.092093565
0.280708134 0.362428844 0.088931315
0.291081250 0.363820523 0.086907417
0.307020724 0.363187969 0.088425413
0.325237513 0.363187969 0.094497420
0.338266999 0.363187969 0.091840707
0.353700221 0.362428844 0.092093572
0.372928709 0.361543119 0.093232051
0.396710724 0.367362142 0.096015409
0.414927363 0.367741704 0.096015409
0.437950701 0.367109120 0.101328187
0.460341364 0.365970701 0.104743570
0.484630108 0.361796111 0.099303991
0.514990211 0.367868125 0.099303998
0.551170111 0.375458479 0.100822359
0.591271281 0.385199130 0.102593422
0.633396327 0.397343248 0.104617417
0.679063976 0.409614474 0.110689439
0.727640748 0.419734240 0.116761580
0.770018816 0.429854572 0.123465993
0.811637938 0.444655418 0.132447645
0.856167078 0.459329128 0.146616071
0.901454389 0.468563974 0.149905443
0.936369479 0.484377176 0.160910964
0.972043097 0.498039484 0.182542726
1.000000000 0.506262124 0.208475530
1.000000000 0.530550122 0.226691559
0.265148968 0.389880002 0.090449043
0.271220952 0.398988366 0.093485430
0.279190779 0.392030388 0.093358979
0.285262764 0.390006214 0.095382854
0.289436996 0.397469997 0.097912565
0.301581025 0.397469968 0.100948937
0.306135297 0.396964014 0.096141979
0.314357966 0.397217035 0.091967307
0.328273177 0.396457940 0.091461048
0.346489996 0.393548042 0.097533055
0.361796170 0.393548042 0.094876923
0.380771309 0.395572305 0.097912975
0.403794974 0.396964014 0.102340326
0.430107951 0.397723019 0.105123028
0.448323905 0.400759399 0.105123028
0.471347570 0.398735166 0.105123036
0.491081744 0.398988187 0.107400194
0.508918226 0.401265353 0.108412400
0.533207059 0.404300988 0.105376013
0.560784340 0.407590330 0.102593377
0.598608553 0.413029999 0.103858277
0.642884254 0.421631992 0.107653037
0.691208005 0.433902562 0.113725066
0.739784837 0.449082971 0.119797863
0.783807576 0.456925988 0.128146693
0.826059222 0.470461696 0.137001693
0.868311048 0.489689976 0.146616086
0.907779455 0.501834035 0.155724466
0.942441463 0.513725698 0.166982993
0.975838125 0.529917955 0.189753383
1.000000000 0.544465661 0.218089953
1.000000000 0.554839015 0.241871998
0.297280371 0.433902383 0.101328008
0.300568998 0.431878775 0.101581037
0.306641549 0.434535384 0.104617424
0.313852370 0.429981112 0.105250008
0.318406194 0.433017194 0.105629362
0.323339373 0.430613369 0.101454936
0.332953691 0.433143705 0.104490675
0.341429353 0.435041040 0.102466650
0.355091542 0.436938494 0.103605106
0.373308361 0.437950611 0.111701369
0.399747223 0.435040742 0.109044529
0.416951060 0.437065005 0.108032659
0.437444389 0.438962728 0.108032651
0.460721076 0.438962728 0.105881996
0.478937715 0.439468801 0.105881996
0.499557525 0.442505211 0.110688992
0.521948576 0.444782108 0.112966195
0.541556060 0.447818160 0.115370005
0.565844417 0.446552783 0.114484400
0.598481774 0.444023103 0.117014721
0.627703846 0.448956758 0.113978632
0.666666627 0.458064884 0.117267489
0.711448312 0.471980065 0.125363693
0.754712164 0.484503657 0.136748821
0.796457648 0.501960695 0.145098299
0.839847982 0.511448383 0.150031731
0.882226408 0.525616705 0.154965296
0.917140782 0.537760735 0.164073095
0.948639989 0.552561522 0.183807448
0.976596892 0.566603541 0.205186605
0.998102248 0.582036674 0.234535322
1.000000000 0.593042374 0.262618393
0.326881707 0.475648195 0.113472477
0.329917818 0.476407140 0.111574732
0.337001532 0.473624468 0.108032770
0.340543985 0.473624468 0.112333998
0.347248524 0.474762917 0.113598995
0.359392524 0.477798522 0.110562988
0.365591019 0.474130064 0.108285673
0.379633099 0.472232729 0.111321703
0.390006125 0.476027578 0.111574732
0.402529955 0.481340945 0.117267482
0.425679862 0.478557587 0.118532613
0.448829681 0.479569733 0.113724999
0.467045993 0.481467456 0.113724999
0.487539500 0.481720418 0.110183060
0.507400513 0.483364701 0.113472477
0.529917777 0.483870775 0.114484474
0.554206133 0.488425374 0.117520481
0.577482700 0.493232459 0.120177157
0.603036284 0.491461217 0.121442005
0.631878614 0.488425106 0.126122609
0.659582198 0.489184469 0.127261251
0.689943016 0.494244307 0.125236988
0.728526175 0.505629480 0.131815270
0.765717804 0.516002715 0.143959746
0.809740722 0.530803442 0.155724287
