Assets/Resources/EldamarStudio/100 Horror LUTs Pack/LUTs/cube/Nailslice LUT.cube
LUT_3D_SIZE 5
DOMAIN_MIN 0.000000 0.000000 0.000000
DOMAIN_MAX 0.903226 0.903226 0.903226
0.070588000 0.031373002 0.027450999
0.120682694 0.047059000 0.036938708
0.311321825 0.005819429 0.047691423
0.563188255 0.000000000 0.065654866
0.910562515 0.000000000 0.107273988
0.089563996 0.113472700 0.040227704
0.154332399 0.117393695 0.037571292
0.332574099 0.131435990 0.040481009
0.573687613 0.143580124 0.074256711
0.918911576 0.162049353 0.117520675
0.183807403 0.277292818 0.047059000
0.236432686 0.280582219 0.061479993
0.364326388 0.277292818 0.075900987
0.605692685 0.320177257 0.092599705
0.923465788 0.391904026 0.145350799
0.360278368 0.517141104 0.119544744
0.416065633 0.520809293 0.117393702
0.538140476 0.528272927 0.124351829
0.718279541 0.538773119 0.139405251
0.961290598 0.618848920 0.218722224
0.655534446 0.848956585 0.338140398
0.690069556 0.851486564 0.348893255
0.763820648 0.856799603 0.374826193
0.878810942 0.861353457 0.407463551
0.985957921 0.872359455 0.470461190
0.086274996 0.052624710 0.082099698
0.140923694 0.047059000 0.086021699
0.290069669 0.050980002 0.107906409
0.511448264 0.077545702 0.140670568
0.876280844 0.007590118 0.191903859
0.113472693 0.101707697 0.078810699
0.160910398 0.119038403 0.094497278
0.290702075 0.141935408 0.113472275
0.527260840 0.159266263 0.147754565
0.889942706 0.179253563 0.201770842
0.198102415 0.256040663 0.123592407
0.245920390 0.259329677 0.129158691
0.349272400 0.265907675 0.137002110
0.574320138 0.312333971 0.167742118
0.913725495 0.385705054 0.229980841
0.380392134 0.500189960 0.193801269
0.421632111 0.502467215 0.191018566
0.533965647 0.513978481 0.202150404
0.700948477 0.525363624 0.213282824
0.953067482 0.618089616 0.289057672
0.668564200 0.845414460 0.391398102
0.691714168 0.845034599 0.393674970
0.768753946 0.849588752 0.421884954
0.876407385 0.857558429 0.456167102
0.980012655 0.873497665 0.507526934
0.088298410 0.058823999 0.251866221
0.196837395 0.033270430 0.236432686
0.317141384 0.057558831 0.223655984
0.531182826 0.085642412 0.254775524
0.868690610 0.060847569 0.325110376
0.171663702 0.141555697 0.209614113
0.212523833 0.144212693 0.208602414
0.310942709 0.150410995 0.205945417
0.523972273 0.179506272 0.252498239
0.868058026 0.205439538 0.340164393
0.239341989 0.260974377 0.209234834
0.282859087 0.267172694 0.225300699
0.410120189 0.300821990 0.267552376
0.581530690 0.322833538 0.286527365
0.896773994 0.393927753 0.369133592
0.404300839 0.488045275 0.307779938
0.449083090 0.490575850 0.307147354
0.544212222 0.499177843 0.314990103
0.702467263 0.518785655 0.337507844
0.942567766 0.625806153 0.428589612
0.690069199 0.837824166 0.505123615
0.713599026 0.833269596 0.514863849
0.784819782 0.838456631 0.525490165
0.874509513 0.854269207 0.552308559
0.974826217 0.869196951 0.596963584
0.201138124 0.073624127 0.481847107
0.288424969 0.073624127 0.473877132
0.440607101 0.079443134 0.460594267
0.620114267 0.073371135 0.436812371
0.894749761 0.078431658 0.509930134
0.253763407 0.193927690 0.443896115
0.311321825 0.192915842 0.434155375
0.444149226 0.194560543 0.430866539
0.608728766 0.191271275 0.426945120
0.894749761 0.220619783 0.509298086
0.331309557 0.333586216 0.423909247
0.377103090 0.335863352 0.417077690
0.489310354 0.342441529 0.425932825
0.639215469 0.342441529 0.431499124
0.916634977 0.416824639 0.529664755
0.442505121 0.512334287 0.456293374
0.488298565 0.513851941 0.457937837
0.606704950 0.531562448 0.480582118
0.782795250 0.590765238 0.545604229
0.936622322 0.656799376 0.605060279
0.725110590 0.828589439 0.648450434
0.744591773 0.837191582 0.658570409
0.803921640 0.839468896 0.674509645
0.877419293 0.850980639 0.685388863
0.964705944 0.869576454 0.714104831
0.367741615 0.163693786 0.818975568
0.444149196 0.160783902 0.813788414
0.612903178 0.161923021 0.809867382
0.817457080 0.167994738 0.806957543
0.974319756 0.238836214 0.797975540
0.421758294 0.274256617 0.800759017
0.478937328 0.274889231 0.801391602
0.632510722 0.279190332 0.802656174
0.815180361 0.288931161 0.796204925
0.973687589 0.334851384 0.801770687
0.526881814 0.473118186 0.789500237
0.573307812 0.468817294 0.789120376
0.685515583 0.475775003 0.788235188
0.826312482 0.487918884 0.786970019
0.968374312 0.519164979 0.793548107
0.647944331 0.672485590 0.799240708
0.678051949 0.671853185 0.793927848
0.756356955 0.678431213 0.795825481
0.851739228 0.685641885 0.795445561
0.960531235 0.706261694 0.801644325
0.757368565 0.855534375 0.818975568
0.765844464 0.855534375 0.824920595
0.813408792 0.856167018 0.826186001
0.886906981 0.864263058 0.834029078
0.964959025 0.905123413 0.872485578
