Assets/Resources/EldamarStudio/100 Horror LUTs Pack/LUTs/cube/Nailanger LUT.cube
LUT_3D_SIZE 8
DOMAIN_MIN 0.000000 0.000000 0.000000
DOMAIN_MAX 0.903226 0.903226 0.903226
0.082353003 0.000000000 0.000000000
0.115622543 0.001138547 0.010120095
0.179507002 0.023529002 0.044654999
0.251106650 0.042631354 0.049335998
0.329791397 0.084503382 0.076660380
0.423150003 0.133079991 0.113598995
0.541049540 0.181656986 0.156483278
0.710436463 0.232890800 0.210625976
0.114104547 0.057178997 0.035673548
0.123845994 0.050094996 0.025047095
0.177103087 0.080708094 0.047817901
0.244149536 0.098292544 0.063504092
0.322833389 0.125237092 0.085768543
0.418722540 0.169512928 0.124098733
0.538772821 0.212903276 0.164832249
0.707400143 0.264516085 0.216571614
0.138013899 0.135483995 0.071347095
0.143073648 0.136242986 0.059835546
0.172422096 0.138646096 0.069702998
0.232763991 0.162935093 0.081846736
0.303099275 0.189500198 0.106388085
0.405439734 0.227830470 0.148386732
0.527640820 0.272486001 0.182542995
0.703352332 0.322327822 0.233775914
0.142314643 0.223149985 0.113219641
0.150537908 0.223909095 0.106514998
0.186590895 0.229475081 0.110815637
0.228083283 0.234914273 0.118279286
0.295003355 0.260847360 0.141429633
0.391271710 0.299936891 0.170777991
0.524224937 0.349272549 0.202403635
0.701454818 0.402783096 0.252118975
0.139658198 0.340670377 0.162049383
0.160658002 0.332827389 0.156103730
0.191904008 0.336748987 0.163694084
0.245288089 0.343453646 0.173434556
0.296900779 0.343074203 0.180139184
0.387602478 0.375079185 0.201391280
0.530044436 0.432890475 0.230234176
0.701075256 0.490955174 0.278431535
0.141303003 0.465781450 0.213535741
0.165970564 0.463883698 0.225932911
0.205819353 0.468564123 0.221252739
0.265528291 0.473624468 0.227577731
0.341682434 0.477545470 0.236938730
0.414927453 0.489436984 0.246805996
0.547121823 0.523086548 0.262365282
0.710436463 0.593042254 0.322959810
0.165337995 0.638077259 0.290449262
0.191650987 0.639974952 0.290954798
0.244655252 0.644275546 0.302846283
0.323086560 0.650347948 0.303857982
0.406704456 0.652118504 0.309930354
0.500948727 0.655787110 0.319671035
0.599493802 0.663883567 0.330297261
0.724351287 0.693864226 0.377482414
0.323719233 0.813662589 0.455534428
0.352941096 0.823908567 0.435293853
0.381530404 0.819860697 0.444528848
0.446932435 0.823908806 0.447691411
0.523592591 0.824288249 0.461353779
0.610499620 0.832510650 0.472612411
0.706135511 0.837697804 0.497280180
0.807337403 0.841113567 0.522327542
0.101961002 0.019608000 0.057178997
0.130171001 0.012144452 0.060721450
0.168501094 0.037950546 0.074383087
0.219734639 0.069702901 0.097533450
0.293358535 0.105249539 0.128020346
0.391651183 0.149778545 0.162555546
0.510563254 0.201518029 0.204047844
0.685768306 0.249841973 0.247058526
0.115243092 0.052877545 0.054775096
0.135230556 0.058317542 0.065781087
0.164579093 0.079064094 0.085389093
0.216698542 0.105376445 0.103352189
0.292979002 0.133080095 0.131941736
0.386463940 0.178115010 0.162935004
0.511954427 0.222390994 0.202782989
0.683364570 0.267425537 0.249715343
0.139152542 0.122960091 0.098292448
0.146995544 0.130803093 0.104996994
0.174826086 0.128779531 0.095888548
0.219481185 0.155850977 0.121062540
0.285136193 0.188361749 0.145730287
0.379886180 0.226312265 0.172675639
0.509550571 0.272486091 0.213662282
0.683744133 0.323339462 0.260341525
0.144591644 0.216951281 0.138646290
0.158380911 0.216192186 0.136243105
0.184186995 0.221252546 0.138140529
0.219355091 0.227577642 0.143706650
0.284756631 0.254522204 0.167615280
0.379126966 0.298039645 0.195825279
0.509677351 0.342947185 0.231499016
0.675648093 0.393801183 0.271220714
0.155976996 0.322327524 0.178494275
0.162681565 0.321821481 0.181783989
0.195572555 0.325363696 0.185199440
0.240986645 0.332447827 0.195825383
0.296141773 0.339152187 0.203162640
0.380139112 0.367995054 0.221252635
0.517520547 0.426312417 0.254143029
0.690069437 0.487159997 0.300316334
0.153827012 0.456040710 0.242251918
0.168121353 0.457179368 0.238709465
0.211132452 0.459076911 0.241619334
0.263883471 0.465401888 0.245161191
0.334724844 0.472232640 0.252624929
0.412144184 0.481087923 0.262492001
0.535230756 0.519924104 0.285388738
0.705502868 0.590765119 0.340164512
0.165970787 0.628715634 0.315116793
0.197343290 0.627324402 0.304617256
0.239847913 0.627830327 0.310056984
0.314231426 0.630107582 0.317394018
0.396584541 0.637318611 0.322959810
0.482985377 0.642251849 0.329538077
0.583301842 0.651612580 0.343326837
0.705502868 0.677039981 0.378874063
0.331182867 0.808854997 0.466919869
0.351296574 0.814042032 0.448197305
0.378241569 0.813409150 0.448830158
0.440607041 0.812523842 0.456546485
0.518026471 0.816445410 0.467172593
0.607843339 0.826691866 0.487792134
0.701707721 0.830613315 0.512586832
0.794180691 0.834914327 0.524351239
0.112081088 0.026691904 0.156609997
0.142314553 0.028968999 0.150031552
0.173940077 0.045414094 0.137887195
0.224161997 0.078684546 0.147627637
0.282100171 0.120556280 0.175458282
0.365970969 0.168374479 0.212776735
0.476027668 0.220872998 0.253763378
0.650853872 0.264389813 0.301454991
0.134092093 0.084629998 0.121062547
0.141935095 0.082985096 0.122960091
0.170904174 0.086906999 0.133586556
0.215559900 0.113978542 0.157115638
0.273877621 0.150790647 0.182542995
0.348892897 0.197849542 0.216192111
0.477545857 0.239342242 0.256040573
0.652751207 0.281720519 0.302593350
0.136369184 0.130044192 0.141050085
0.153700098 0.142568097 0.139784634
0.193674996 0.166856200 0.169133291
0.214294732 0.169512734 0.169512749
0.270335197 0.199747190 0.196711004
0.354838490 0.233016819 0.224414736
0.480581671 0.277166098 0.262998283
0.657811403 0.330297142 0.316129029
0.158001453 0.216192186 0.175458282
0.173687547 0.219355091 0.186084643
0.195192993 0.224035278 0.184820101
0.222517282 0.228336543 0.194307089
0.278178185 0.257305533 0.209867194
0.360278249 0.294497192 0.245034993
0.488551557 0.341682434 0.280708343
0.659835517 0.399746716 0.325743169
0.174826086 0.321189076 0.227071270
0.181024805 0.313978374 0.233143523
0.202909276 0.318026394 0.227957085
0.238583356 0.320682853 0.236938730
0.285262257 0.329791188 0.236432463
0.364959061 0.365717977 0.265148818
0.496141583 0.419607669 0.295888454
0.676027715 0.485768676 0.347628146
0.171283826 0.444275707 0.287413090
0.186590999 0.447311908 0.284250379
0.216192186 0.450600743 0.285894990
0.268184632 0.455281615 0.289057285
0.330803096 0.461986452 0.292852461
0.400379628 0.466540366 0.302214086
0.518785477 0.513599098 0.329284996
0.689183712 0.588867664 0.385958165
0.183428183 0.627071500 0.353067577
0.207842827 0.621252298 0.349272460
0.250601083 0.625553489 0.357874393
0.321947783 0.629095435 0.361290306
0.394307673 0.636559248 0.364705652
0.488804817 0.639848471 0.380645186
0.580139279 0.649335742 0.388488293
0.706008852 0.681720316 0.426818460
0.346995413 0.812776506 0.492979050
0.359898865 0.809867263 0.486400872
0.399367571 0.813409209 0.486527473
0.456926018 0.814800739 0.500189841
0.530802906 0.817710578 0.509424210
0.613535464 0.821125984 0.520935774
0.700948834 0.829727709 0.542314947
0.793168664 0.837571323 0.559519291
0.117647000 0.033143640 0.257305652
0.146995649 0.044908639 0.250221521
0.188488558 0.066919543 0.237697631
0.226438984 0.091967344 0.225300640
0.280075818 0.125743344 0.232637182
0.364326477 0.173055097 0.261985809
0.473750830 0.221505567 0.306135267
0.637823820 0.273370981 0.368880451
0.128779545 0.106514990 0.224920988
0.158507109 0.110056631 0.208981290
0.187349901 0.113092631 0.213409632
0.215053737 0.124857634 0.205945373
0.276660204 0.156609893 0.226565644
0.351675987 0.196204826 0.267046303
0.470461547 0.244402200 0.317267299
0.626818419 0.294876814 0.365970790
0.146236643 0.159772083 0.210246742
0.163820207 0.161669642 0.206324726
0.194813445 0.178621188 0.201517820
0.220240280 0.178494379 0.216192290
0.274636626 0.208728641 0.246046990
0.347881109 0.245920181 0.280075639
0.459961921 0.292979181 0.324225098
0.629348397 0.342694253 0.381024718
0.159140006 0.220872998 0.219734639
0.173308000 0.221631989 0.218848646
0.199873284 0.244402289 0.241619632
0.245540634 0.281973243 0.278052002
0.281593829 0.277545810 0.278431445
0.345224440 0.307020962 0.301075548
0.460467905 0.347628295 0.334218562
0.626185954 0.401138395 0.384060800
0.178368345 0.317520618 0.269449979
0.190512195 0.321062386 0.274383545
0.220619634 0.330170751 0.285515517
0.252624810 0.335989982 0.290195733
0.292599618 0.344971657 0.303478837
0.363820553 0.372801989 0.319164753
0.482606024 0.424414992 0.355976909
0.652371943 0.485388875 0.414547801
0.196204737 0.439595103 0.333206624
0.208981752 0.443896383 0.336116284
0.236685991 0.443137378 0.340290755
0.274509609 0.452625006 0.341429472
0.331688762 0.458064467 0.348893106
0.393421739 0.466666549 0.353320479
0.512586653 0.511195481 0.383933902
0.679316580 0.586084664 0.449462354
0.212017566 0.606704593 0.409361273
0.228210017 0.612144232 0.407084286
0.263250887 0.607336819 0.404680640
0.326375574 0.611764848 0.412650287
0.391524285 0.617963195 0.416698188
0.473497629 0.626944780 0.424415112
0.564199865 0.636432827 0.434535265
0.694370627 0.675774693 0.474635959
0.360784233 0.801897585 0.536875427
0.373940468 0.799873173 0.537761033
0.403415322 0.802656472 0.537634194
0.460341573 0.803921223 0.540544093
0.535483956 0.808602214 0.553952754
0.612650096 0.815053582 0.560784042
0.701708019 0.822264373 0.582795382
0.791524589 0.833143353 0.600885570
0.125489995 0.084503382 0.374446183
0.148134187 0.092726447 0.361923188
0.198355094 0.108033001 0.350158095
0.247185439 0.129917994 0.338393360
0.300822198 0.152688190 0.324351192
0.362428725 0.180138990 0.330423445
0.477672547 0.227198184 0.379000545
0.644022763 0.278684646 0.443390191
0.148260906 0.150031537 0.334724844
0.167741999 0.153826728 0.325995922
0.201517910 0.154712439 0.332574457
0.244402274 0.164832532 0.321062505
0.291967422 0.177735388 0.315243542
0.352940947 0.204933554 0.326502383
0.470967740 0.249842077 0.378241360
0.631625533 0.298039436 0.439974666
0.166350096 0.205186397 0.308665186
0.173687354 0.207969651 0.314105093
0.200632185 0.212270901 0.306262165
0.235800192 0.218089640 0.305503100
0.279696375 0.227957085 0.310183167
0.348133832 0.249335721 0.332574427
0.461733341 0.296141893 0.382163256
0.627197802 0.349146277 0.449335814
0.174952805 0.262871653 0.309044719
0.176723629 0.263503820 0.303352535
0.208855346 0.272486061 0.308159620
0.249209195 0.287033528 0.324730814
0.288677722 0.292093456 0.325743288
0.352814645 0.321948171 0.352814823
0.467046291 0.357874662 0.396964163
0.622770548 0.413029909 0.458697140
0.176470995 0.328905374 0.329158783
0.192283645 0.330929756 0.327766836
0.221758187 0.341556191 0.335230976
0.273497999 0.366982818 0.358001173
0.343959183 0.411258370 0.405819178
0.389120489 0.411132336 0.402909815
0.486274481 0.437824398 0.426945001
0.646173239 0.494117439 0.486653984
0.195951998 0.441998929 0.384060711
0.210879192 0.440860271 0.381024510
0.245667443 0.450221479 0.392283291
0.296774358 0.466666669 0.407969445
0.352435380 0.478558153 0.418216169
0.407716662 0.484756470 0.422517627
0.515749514 0.523466110 0.456799924
0.676533937 0.588741541 0.519797742
0.224794373 0.609361053 0.466919452
0.245793834 0.604554296 0.467931807
0.284250379 0.609234571 0.474636346
0.337887615 0.612397254 0.478431255
0.400632471 0.619354844 0.480961382
0.478810817 0.626565218 0.489183843
0.562049448 0.634408474 0.496394575
0.696900666 0.681720138 0.544844627
0.383807391 0.797849357 0.597722828
0.395825237 0.793927789 0.594433904
0.420493573 0.796078265 0.593801379
0.473877370 0.797216892 0.595951974
0.537128210 0.808601916 0.609487712
0.614547372 0.810879230 0.619860768
0.699936509 0.821125984 0.631878674
0.785072625 0.828842223 0.650727451
0.109930001 0.137001991 0.501201451
0.145097807 0.143200278 0.499177724
0.206830993 0.156609997 0.492346555
0.270461619 0.170651481 0.479569733
0.340164632 0.187476441 0.464642733
0.405439734 0.211384982 0.452118695
0.488045722 0.234155282 0.456293464
0.651612759 0.283744812 0.531182706
0.133586198 0.184440345 0.470588475
0.166350096 0.192409739 0.476280928
0.212397203 0.198102474 0.477292925
0.270588607 0.207083836 0.465022266
0.331182450 0.217710182 0.448956192
0.396078289 0.235673472 0.441492438
0.475648314 0.250221550 0.454142958
0.638077199 0.295509100 0.520176888
0.153700098 0.256799459 0.444908082
0.177229807 0.256799370 0.448197216
0.215560108 0.257178932 0.444781452
0.266413897 0.261606485 0.432890654
0.321441919 0.270588458 0.432131559
0.386084467 0.278431624 0.433017284
0.464516282 0.303099394 0.454395711
0.644528806 0.355091721 0.528399765
0.169386089 0.318026483 0.438456476
0.185831815 0.317520618 0.433017284
0.225679889 0.320303261 0.425047398
0.269449979 0.327387393 0.433522850
0.322327524 0.331688851 0.428210169
0.374826372 0.335863292 0.427704126
0.461227089 0.364325881 0.460215181
0.632004917 0.417963237 0.528273463
0.182289734 0.387223125 0.441745669
0.205060452 0.385325491 0.436558843
0.230866551 0.391144723 0.438709795
0.280075759 0.399873435 0.442251682
0.339785159 0.413029701 0.456420362
0.395698696 0.421252191 0.462365717
0.499557376 0.452371955 0.499683738
0.649209082 0.507906318 0.562429011
0.201770738 0.456040740 0.450347990
0.212650239 0.458823472 0.451360017
0.250347733 0.464642823 0.458823562
0.301581383 0.476913363 0.465781450
0.381657124 0.509804130 0.502087176
0.481593996 0.563820481 0.558001220
0.551170468 0.566603303 0.556609452
0.680075586 0.609487653 0.601897418
0.220872998 0.599746585 0.525110722
0.243769825 0.605818868 0.526755333
0.278304636 0.605439425 0.535736799
0.350031644 0.615054011 0.545350909
0.429221928 0.628462791 0.561796129
0.503352165 0.640480757 0.573181510
0.575964510 0.644655287 0.575838268
0.700695753 0.690955043 0.623655736
0.394560337 0.788108885 0.646173537
0.410878956 0.790259361 0.656293511
0.431625485 0.791903853 0.652245462
0.491081387 0.797849596 0.663630724
0.550664127 0.801770568 0.673244655
0.620872736 0.806957424 0.681087673
0.697027206 0.815559864 0.692473114
0.779127359 0.823402822 0.704617262
0.081720427 0.203542277 0.680581808
0.139278546 0.203921720 0.677292824
0.221632093 0.210499465 0.672485590
0.313345969 0.223150000 0.669449866
0.399494171 0.239594981 0.650600731
0.485768735 0.252751559 0.638836265
0.573687553 0.270841300 0.628589511
0.667551875 0.290448964 0.622770011
0.104743741 0.242251530 0.664516270
0.142061800 0.246552989 0.656672835
0.219354808 0.252245367 0.661606550
0.305755943 0.259203196 0.649462104
0.392662853 0.264769197 0.639342189
0.481087834 0.279949546 0.629095316
0.557495117 0.289310515 0.612523973
0.646426320 0.304237813 0.614674270
0.134977892 0.307526797 0.640354514
0.166603357 0.312334090 0.632131577
0.234155372 0.314737380 0.635673642
0.303858280 0.318912029 0.628589511
0.389879584 0.322580546 0.626185715
0.469070107 0.331182659 0.614800930
0.550790787 0.338899553 0.609740794
0.647311568 0.361669451 0.616445065
0.158127993 0.386337638 0.617457569
0.188867912 0.385831535 0.612144351
0.239974722 0.387981921 0.608222663
0.308918625 0.389626920 0.607843220
0.382036656 0.393042266 0.605566263
0.458191097 0.398228914 0.603162348
0.535104275 0.402023911 0.595066488
0.638836026 0.425806463 0.615053535
0.176470995 0.458064556 0.606325090
0.202530026 0.465781450 0.610879481
0.257558465 0.469702631 0.606451690
0.318279564 0.468184650 0.602782845
0.382922381 0.470588446 0.598987699
0.461100549 0.470588446 0.598987579
0.535483897 0.476154178 0.600632429
0.655534267 0.509044945 0.635926425
0.206830814 0.545603812 0.610626280
0.227071285 0.547628164 0.614547610
0.268437564 0.546362877 0.609108329
0.333206832 0.550284684 0.614674449
0.410626203 0.562049508 0.618089795
0.492852747 0.574573100 0.629095256
0.572295547 0.581531048 0.630487025
0.687666059 0.622897029 0.670841098
0.233269989 0.620113552 0.611638546
0.248323992 0.619481564 0.613915265
0.287413090 0.622643650 0.614800692
0.348766923 0.628462911 0.620113850
0.428336471 0.638330460 0.627197623
0.532068431 0.664389551 0.657178998
0.645287812 0.712966561 0.707400203
0.722074568 0.721568525 0.709930360
0.392409652 0.789880037 0.710815787
0.407969594 0.787982166 0.717140615
0.433523118 0.787729442 0.713725090
0.491840571 0.795572400 0.721441984
0.560278237 0.802023768 0.732321501
0.636685431 0.814168334 0.747248530
0.712713361 0.814927399 0.756104052
0.785705388 0.830613434 0.769260049
0.128525943 0.289310604 0.850221395
0.175458506 0.292220086 0.844023049
0.260468066 0.298544824 0.841872454
0.355724096 0.308918625 0.836305976
0.460341632 0.323465943 0.833143413
0.563693583 0.340796888 0.825047314
0.665908039 0.360911071 0.818848729
0.764073551 0.379632741 0.805818617
0.150284797 0.326502144 0.844781816
0.188488603 0.330044031 0.830360293
0.265148759 0.330803037 0.836812019
0.356356710 0.340290844 0.826565385
0.455407798 0.349398971 0.826691747
0.557368696 0.361796260 0.816571891
0.657684565 0.374952465 0.801138282
0.756862521 0.394307345 0.801264703
0.196078449 0.393801063 0.832510710
0.225426883 0.397975981 0.827071071
0.286274642 0.400379688 0.831119478
0.373560965 0.409993410 0.822264552
0.467172623 0.417456865 0.819354713
0.561290503 0.426438719 0.809614062
0.659835696 0.435420752 0.805059671
0.751549482 0.446552753 0.804300547
0.244655043 0.485136092 0.810879230
0.272612423 0.485515267 0.809614062
0.321442038 0.486527681 0.811511636
0.390765369 0.488045573 0.804806769
0.469576001 0.488930881 0.799114585
0.553447366 0.492093503 0.791524410
0.647691369 0.496774197 0.790259182
0.741050065 0.503478587 0.788361788
0.280075550 0.567741752 0.803415775
0.314104885 0.571410418 0.804047704
0.354079604 0.572928607 0.805439413
0.412903190 0.571789980 0.796711028
0.485388756 0.571410418 0.788488567
0.564579248 0.573940516 0.792915940
0.652372003 0.575205684 0.789753139
0.738013506 0.584693313 0.785705209
0.331941664 0.653510392 0.805819154
0.351802289 0.653004467 0.804174602
0.385325581 0.657179058 0.801011741
0.443896234 0.655281544 0.799240649
0.512965977 0.658317506 0.794939637
0.591271281 0.660847545 0.795192719
0.665654421 0.662745297 0.791524589
0.741935611 0.665907681 0.784187376
0.362934560 0.732574046 0.800252795
0.389500320 0.730803013 0.800759017
0.417836577 0.729285181 0.793168843
0.469323218 0.731562257 0.794307232
0.529031992 0.731182694 0.793927789
0.604933858 0.734851360 0.792536139
0.680075586 0.740417004 0.794939935
0.751802385 0.745603919 0.792283177
0.450600505 0.818975568 0.804427564
0.456546396 0.824667633 0.814421594
0.481593490 0.818342626 0.806704462
0.528146386 0.816318750 0.812270641
0.585831583 0.817583561 0.814800918
0.654522359 0.825426579 0.813029647
0.738646209 0.836432636 0.828589618
0.837318361 0.868437767 0.865907729
