Assets/Resources/EldamarStudio/100 Horror LUTs Pack/LUTs/cube/Napalm LUT.cube
LUT_3D_SIZE 5
DOMAIN_MIN 0.000000 0.000000 0.000000
DOMAIN_MAX 0.903226 0.903226 0.903226
0.109803997 0.101961002 0.054901998
0.182415992 0.106515005 0.057179291
0.355091393 0.102593422 0.048324004
0.640607119 0.115749255 0.048956003
0.943073630 0.143959656 0.049841974
0.174826279 0.167362422 0.048703291
0.198734984 0.161163703 0.056546707
0.351549506 0.176850110 0.059456002
0.635167480 0.215433702 0.041746005
0.937887430 0.255028576 0.041745670
0.319164962 0.322454393 0.034535438
0.354838490 0.328652650 0.024414884
0.396964222 0.307399958 0.047691420
0.649462700 0.369892120 0.016318996
0.943580031 0.425806224 0.080202609
0.592536271 0.619987249 0.000000000
0.621758342 0.628842354 0.002909872
0.703731835 0.631878257 0.002023998
0.762302399 0.595572352 0.020999374
0.963820636 0.625173986 0.197722912
0.850094616 0.889310658 0.354079366
0.873624623 0.895255923 0.377862036
0.918532431 0.892473221 0.386590391
0.986970127 0.892220080 0.431499094
0.998734832 0.851486564 0.484756202
0.127134711 0.113724999 0.103984989
0.174573004 0.115369707 0.101707697
0.300189376 0.127134696 0.103605285
0.559898853 0.145477548 0.138267130
0.907147467 0.182289511 0.179000676
0.150031716 0.157242283 0.089563996
0.191903710 0.170018986 0.106894284
0.295635790 0.185704976 0.119670987
0.563946843 0.212903112 0.132194415
0.912333608 0.272738636 0.183934391
0.273370981 0.300821990 0.117014408
0.313599080 0.301834077 0.113092996
0.364326417 0.293991089 0.124604695
0.612903297 0.358127922 0.145856827
0.920050323 0.438835979 0.212017804
0.555723965 0.597216845 0.122833535
0.594940066 0.600253403 0.129791230
0.666287005 0.612270832 0.131435946
0.730929375 0.584439933 0.177862361
0.946869195 0.632131696 0.307273746
0.834788024 0.889563680 0.425553232
0.849082649 0.884756625 0.428715825
0.903858244 0.888678193 0.452245116
0.965717793 0.888045311 0.487286240
0.994180799 0.853004515 0.540417254
0.170018986 0.113092579 0.270714819
0.215433285 0.127134711 0.254395962
0.305376381 0.135989994 0.223655969
0.572675407 0.124857575 0.254522383
0.896647334 0.184692785 0.333712786
0.194812998 0.187982276 0.223655984
0.222896993 0.194180980 0.218722284
0.310310096 0.193168700 0.215812817
0.563188255 0.218722701 0.258697242
0.883238494 0.312839627 0.362555474
0.207210585 0.305376410 0.200759411
0.257937700 0.318153083 0.222390816
0.397596806 0.354458958 0.274762809
0.593548357 0.393421531 0.315369785
0.888804317 0.495256156 0.428716004
0.467931718 0.592283487 0.324984103
0.512080908 0.586590827 0.344085991
0.612776875 0.590891957 0.356230527
0.694496810 0.589627087 0.381151527
0.915116906 0.665148675 0.498545200
0.790006399 0.876154661 0.577609003
0.803289056 0.877799094 0.582289577
0.867678404 0.880075812 0.601265013
0.935863554 0.889690042 0.625553429
0.978114784 0.867172599 0.661479950
0.238330126 0.126502126 0.611258328
0.293611586 0.132068411 0.595192850
0.411638290 0.145856991 0.567236245
0.611258388 0.136369124 0.542694390
0.903478742 0.212649897 0.561290264
0.250094712 0.231119275 0.560278118
0.301707864 0.236685559 0.555724084
0.415939242 0.244276121 0.537381589
0.605060279 0.243010700 0.520809293
0.899177730 0.332194626 0.565970659
0.263251126 0.380012810 0.527893662
0.337760687 0.386843950 0.527640343
0.459835798 0.420240104 0.524731100
0.619102120 0.428209931 0.525996268
0.879190505 0.537760794 0.603162646
0.333586246 0.608349264 0.515117109
0.396584243 0.618975103 0.520683229
0.538140297 0.644149303 0.557621956
0.713093102 0.676913261 0.642631352
0.892220080 0.726881921 0.697912812
0.704364181 0.885515451 0.691334784
0.729411721 0.887665927 0.708032846
0.803921342 0.884123743 0.756103575
0.892346561 0.890069783 0.766603231
0.941176474 0.881467640 0.787855864
0.314104795 0.225173950 0.911574781
0.373181671 0.236052901 0.900442779
0.494496942 0.267931998 0.896521151
0.659329653 0.323845893 0.890069783
0.906388640 0.368121386 0.880202472
0.372675329 0.355091304 0.889689863
0.415180504 0.362934619 0.894370615
0.528905690 0.385199159 0.888425112
0.677545786 0.423529327 0.882605910
0.900063097 0.458317548 0.878937602
0.501960993 0.565970838 0.874383152
0.543706596 0.577735305 0.871094584
0.619481206 0.586844027 0.875015795
0.719164908 0.602277040 0.870714903
0.899809897 0.618975401 0.867299438
0.543073595 0.735231102 0.881467640
0.582163155 0.737507880 0.874130487
0.674003899 0.741049588 0.872485995
0.781150937 0.764579237 0.869449854
0.897659719 0.772675693 0.868184745
0.645161390 0.904996634 0.839721620
0.672865450 0.907906532 0.851233304
0.733206987 0.900442362 0.859329581
0.828083694 0.906641304 0.874762893
0.925869823 0.921947777 0.906261802
