Assets/Resources/EldamarStudio/100 Horror LUTs Pack/LUTs/cube/Napalm LUT.cube
LUT_3D_SIZE 8
DOMAIN_MIN 0.000000 0.000000 0.000000
DOMAIN_MAX 0.903226 0.903226 0.903226
0.109803997 0.101961002 0.054901998
0.131688997 0.105881996 0.058823999
0.200632200 0.101961002 0.056419995
0.297659993 0.105881996 0.054901998
0.429981381 0.107400186 0.054901998
0.591018438 0.113724999 0.050980002
0.773687541 0.117647000 0.035294000
0.943073630 0.143959656 0.049841974
0.127767086 0.131309539 0.057685453
0.146995559 0.119164996 0.040354453
0.199873209 0.130550444 0.059203450
0.285894990 0.137254998 0.059709001
0.416318744 0.144212186 0.053383809
0.583175004 0.157115743 0.045540806
0.761037529 0.170398548 0.033270258
0.940670311 0.182795823 0.041619293
0.180139184 0.181784093 0.051739097
0.207337543 0.188868001 0.064769454
0.213156089 0.177102998 0.058823999
0.288298279 0.181404456 0.054901998
0.420620173 0.201265201 0.055787809
0.591903508 0.229854733 0.041998643
0.772295713 0.246679097 0.029095907
0.943200588 0.277293086 0.044781819
0.266793638 0.264010280 0.045413997
0.277672648 0.264010280 0.046679452
0.299937099 0.269070625 0.042757548
0.321821272 0.249462634 0.056546710
0.428336382 0.274889261 0.055787615
0.594560146 0.311195523 0.032258175
0.766476810 0.342567891 0.007337352
0.939911425 0.368374437 0.058064636
0.384693384 0.396205187 0.008729003
0.406072021 0.403415382 0.008349454
0.429222286 0.399367452 0.000000000
0.459202915 0.394180924 0.001518192
0.489437163 0.378115356 0.023782814
0.616192222 0.411005467 0.011132197
0.789626777 0.449589163 0.012650003
0.948007405 0.480708361 0.093864419
0.552055478 0.579506457 0.002024260
0.565464556 0.576976657 0.002024260
0.596457899 0.580518842 0.002656642
0.639721513 0.586590528 0.000000000
0.676406980 0.578241706 0.002024260
0.712713420 0.556103468 0.005819256
0.829474866 0.568754017 0.071979553
0.961037278 0.598102570 0.172675595
0.705755532 0.742694259 0.011385280
0.718026578 0.750537276 0.022517530
0.750411153 0.748892963 0.035926651
0.790891886 0.752814531 0.050094824
0.831119716 0.758254349 0.061732814
0.857432008 0.735736847 0.120683119
0.893990993 0.706388593 0.181783825
0.969512939 0.700316250 0.271094054
0.850094616 0.889310658 0.354079366
0.861480057 0.889942765 0.378494620
0.878178656 0.892725825 0.380897939
0.906641424 0.892978966 0.380771726
0.939784765 0.895761967 0.394686729
0.979885876 0.896521032 0.422390968
0.991144776 0.877545655 0.461353511
0.998734832 0.851486564 0.484756202
0.118405998 0.106640995 0.072865091
0.134851098 0.105881996 0.068184994
0.184187084 0.114863642 0.082732551
0.249082983 0.128652990 0.085515901
0.359012932 0.129032359 0.097280197
0.531941891 0.133332998 0.093738258
0.731688797 0.132827252 0.092726439
0.921441734 0.157368690 0.108285815
0.118785545 0.123086996 0.068184994
0.132068545 0.130550444 0.083491549
0.181404546 0.132068545 0.084250547
0.248323992 0.139911458 0.080708191
0.357748151 0.146995544 0.087792993
0.528905928 0.158633545 0.091713995
0.721441984 0.174825996 0.088425286
0.914863586 0.198102385 0.108285822
0.168880537 0.162555546 0.073244639
0.178241655 0.169639543 0.080328643
0.197849542 0.164199650 0.085009545
0.261226833 0.177482635 0.082226187
0.383174896 0.196584284 0.090195999
0.539784908 0.221631899 0.083744377
0.743832767 0.247944355 0.088045835
0.922707021 0.274509639 0.119165100
0.239215627 0.244655520 0.077546000
0.253763199 0.247817636 0.083112001
0.277925283 0.245034978 0.079949096
0.301455081 0.236811817 0.085768551
0.401644468 0.264263004 0.089437000
0.558886766 0.297912747 0.088298462
0.748134077 0.337001920 0.083238639
0.917773545 0.369639546 0.118406050
0.371283978 0.375584722 0.058570355
0.380138993 0.383681387 0.053890169
0.410246372 0.380138904 0.050347906
0.437697381 0.383681267 0.056926355
0.464389384 0.363693804 0.084250547
0.594939649 0.394939750 0.076407358
0.779759943 0.442757756 0.091840737
0.935230911 0.480329007 0.158633545
0.525996268 0.553447485 0.006578352
0.535610199 0.558001280 0.005692737
0.570145369 0.560910881 0.004554093
0.609108388 0.566982806 0.004933544
0.657684803 0.562934697 0.012903182
0.688298643 0.537128448 0.074889086
0.811005890 0.562428534 0.131056160
0.949272811 0.597596407 0.213915259
0.688551307 0.734598517 0.074383356
0.706388593 0.732574284 0.078557462
0.727260947 0.730676651 0.071473561
0.765591145 0.731182992 0.090196267
0.809993446 0.736622274 0.106135175
0.846426129 0.721568406 0.153700098
0.874383569 0.698671579 0.208981633
0.951929152 0.701454818 0.285894841
0.839215755 0.884377062 0.371157736
0.844022334 0.883871257 0.369639307
0.855154872 0.879949391 0.365844309
0.890955150 0.879822850 0.385199130
0.931688488 0.883871257 0.397849321
0.970777631 0.890955210 0.429348350
0.989879608 0.873624623 0.469829202
0.991271257 0.848197520 0.491587669
0.130929992 0.112966098 0.121442094
0.150537908 0.110183448 0.117140643
0.190512091 0.119164996 0.120682999
0.262998343 0.127007991 0.118785456
0.372928202 0.127008185 0.121442094
0.512839973 0.133333102 0.146868736
0.698292553 0.162175909 0.173687473
0.901075244 0.196710795 0.203795016
0.146236449 0.133333102 0.114863649
0.160404563 0.135610089 0.110562995
0.183807552 0.141555652 0.107779548
0.250727177 0.149399459 0.112839997
0.353699923 0.159898907 0.127008006
0.500822008 0.177988812 0.150411189
0.700948417 0.188361645 0.166729793
0.894243836 0.223529354 0.202529743
0.159139901 0.171663180 0.098671995
0.170145094 0.185452461 0.118785545
0.212397188 0.191271201 0.119038098
0.261353552 0.193168730 0.120682999
0.364959091 0.207716912 0.137887195
0.523213267 0.228083178 0.156736091
0.718026638 0.256926090 0.174699187
0.906008720 0.300316334 0.211511806
0.230107635 0.254648983 0.129791349
0.249715567 0.251486182 0.128526092
0.274257094 0.255028635 0.133207083
0.294117719 0.248323992 0.132827446
0.394307733 0.266666710 0.138646185
0.539278626 0.305376410 0.153320476
0.731815159 0.342188358 0.180392116
0.908032894 0.384313554 0.223656178
0.335230976 0.377609104 0.136243090
0.354332834 0.372802168 0.137381539
0.384566486 0.378241450 0.135483995
0.419734269 0.377102792 0.136622444
0.452751279 0.361796170 0.148766384
0.580265582 0.398102641 0.162808195
0.764452636 0.447185367 0.197975993
0.922960162 0.494876653 0.254395992
0.508412242 0.556989253 0.156736195
0.525616586 0.557495236 0.154585823
0.553700328 0.558760166 0.151296735
0.598355353 0.560657620 0.158886999
0.638709724 0.559519172 0.165844381
0.676280737 0.537128448 0.192536190
0.802782953 0.566982687 0.236053377
0.937507749 0.610120475 0.318153113
0.665907562 0.733080447 0.226438940
0.687539756 0.743073821 0.241872251
0.716129303 0.737254441 0.247691453
0.757621408 0.739911020 0.251865923
0.798355579 0.743453443 0.260847747
0.837444723 0.727008224 0.274636179
0.866540551 0.701834559 0.304870516
0.951043546 0.714104891 0.381277770
0.833269835 0.888551533 0.459202826
0.837571263 0.890955031 0.465781152
0.855154753 0.888298690 0.472991675
0.890828729 0.890955031 0.481467575
0.921568513 0.890955031 0.493485212
0.959139705 0.894370735 0.507526517
0.981910110 0.881467640 0.536622167
0.993674815 0.854522705 0.563187361
0.154079646 0.107020639 0.214800626
0.170398548 0.114104547 0.199873731
0.207210630 0.120683089 0.188235536
0.260088265 0.123846002 0.176091284
0.371537030 0.133332998 0.185958445
0.517520487 0.127134994 0.201138273
0.708791852 0.118785642 0.238330200
0.890575409 0.186464325 0.285389155
0.165338293 0.145730197 0.175711647
0.181024894 0.148893103 0.163314268
0.197722718 0.149652094 0.171030730
0.255660921 0.152056009 0.168248087
0.354079932 0.157495096 0.182416186
0.503352284 0.161796451 0.197217003
0.686400831 0.172296092 0.234661654
0.872359633 0.236053243 0.294497102
0.178368449 0.183302000 0.184060991
0.189120635 0.185958534 0.171284184
0.224035174 0.195445731 0.174952641
0.269323170 0.196584180 0.169386640
0.369892627 0.213030100 0.190638721
0.508032560 0.233775929 0.218469381
0.693611622 0.279570103 0.268311292
0.874130309 0.343074024 0.330044448
0.190006644 0.246173635 0.162049279
0.200506106 0.250980556 0.169133186
0.248324096 0.266539842 0.179253280
0.317393899 0.282606274 0.201897278
0.395319462 0.290828735 0.211638004
0.523466349 0.318532377 0.237444520
0.704870462 0.359519213 0.271094561
0.882479370 0.415813059 0.335357249
0.282100171 0.370145351 0.190638736
0.311195612 0.373434454 0.206578285
0.352308452 0.381657004 0.218216360
0.405692458 0.379253805 0.226945087
0.436432719 0.370272189 0.231625453
0.565338314 0.411385119 0.261859715
0.740037799 0.462239027 0.298798352
0.903605223 0.516255558 0.377229273
0.459329545 0.541682363 0.265022367
0.473244786 0.541935265 0.269323111
0.504490793 0.542820990 0.270967603
0.562934756 0.552688479 0.273750663
0.614927351 0.552308738 0.285389245
0.652245402 0.539025962 0.298671663
0.777988434 0.576597035 0.346109927
0.924983740 0.624794543 0.436812162
0.631372511 0.722074509 0.352308929
0.647564530 0.725996256 0.360278249
0.673877060 0.720430255 0.354965091
0.712586820 0.727134883 0.361416876
0.765591085 0.728779197 0.371663183
0.809487700 0.724478364 0.385831535
0.843643546 0.703605175 0.406704545
0.930803180 0.721442044 0.476660341
0.803288937 0.881593764 0.544971585
0.813535690 0.880075753 0.539152145
0.826691985 0.882099807 0.544718742
0.862618446 0.882605970 0.553953230
0.899809957 0.884882987 0.565464497
0.942567706 0.886907041 0.578494608
0.964326084 0.878684282 0.600885451
0.989879608 0.861733139 0.627197802
0.189753190 0.112839997 0.359646201
0.210499644 0.120303541 0.351676285
0.246047080 0.126249090 0.330423564
0.303226054 0.134851187 0.319923759
0.389247179 0.135736808 0.299937189
0.529791236 0.129538000 0.309424609
0.718785524 0.123719186 0.343453556
0.899936557 0.194686770 0.386211187
0.198229000 0.155218199 0.305250168
0.214927092 0.160784215 0.312080801
0.246426448 0.162681550 0.309803754
0.296900868 0.168121561 0.296900898
0.378747851 0.167109102 0.285894990
0.516761422 0.165464908 0.299051374
0.707147300 0.171916634 0.329791009
0.885768592 0.229981050 0.388614714
0.210878998 0.209993795 0.290449083
0.234788343 0.218722180 0.292599529
0.256926090 0.217837006 0.289057374
0.298924536 0.224161997 0.284377098
0.383681297 0.221758187 0.282606095
0.523339868 0.240607098 0.304996818
0.711701393 0.269323289 0.349019647
0.880834877 0.341682494 0.418974966
0.201897636 0.288677841 0.284250379
0.229980737 0.287918627 0.291334271
0.280834734 0.288677722 0.292346835
0.343074292 0.303478837 0.298671842
0.411764681 0.306514829 0.300316274
0.541682482 0.339026183 0.327513814
0.703858554 0.379253536 0.374572724
0.868184745 0.455661088 0.457431614
0.232005179 0.379000366 0.268564194
0.262492090 0.380265802 0.277672529
0.304743975 0.398735106 0.288931102
0.396458000 0.422138184 0.329158813
0.490322560 0.445667386 0.373308390
0.586210966 0.453763813 0.383681387
0.727640808 0.493232220 0.421884567
0.881087720 0.558633983 0.508665323
0.360404909 0.552434981 0.313472539
0.390133083 0.555218220 0.333080024
0.449082911 0.555218220 0.366223663
0.536242902 0.569006681 0.402023911
0.599367440 0.575331926 0.411384881
0.644655287 0.565085232 0.421125650
0.772422493 0.608096182 0.475648373
0.905123472 0.660594940 0.551929176
0.582922399 0.725490093 0.471979737
0.602024138 0.727134585 0.480835110
0.630613565 0.727008045 0.486907065
0.678937435 0.727767110 0.491714060
0.737254620 0.731688738 0.496268421
0.790891826 0.732447743 0.504111290
0.817204475 0.715876222 0.521948457
0.919038355 0.742947042 0.585452199
0.780644953 0.881087780 0.641366124
0.782795727 0.881973565 0.638457000
0.800252736 0.882226408 0.644022763
0.833269894 0.883744597 0.646426618
0.870967805 0.885135949 0.651992261
0.915243328 0.889057577 0.663251460
0.944338977 0.884503305 0.678937256
0.973813713 0.869702637 0.700569153
0.227197990 0.121441990 0.553573191
0.251486480 0.123845801 0.545097709
0.296900988 0.129284993 0.537002087
0.362555355 0.136495903 0.516129196
0.434155732 0.148640454 0.499177635
0.557621717 0.133332998 0.489057451
0.724604785 0.128020257 0.499557167
0.903225660 0.209613770 0.515749454
0.225932732 0.165338293 0.507147372
0.246299744 0.171537206 0.506135404
0.293611288 0.173560724 0.506135464
0.353446931 0.176217273 0.492346287
0.423023283 0.181277633 0.478430986
0.551043510 0.174319923 0.466919661
0.712460577 0.175711632 0.485642105
0.891081750 0.241366327 0.504996836
0.253383726 0.242757991 0.485389203
0.274383515 0.244276002 0.486400723
0.303731978 0.243010730 0.483364940
0.358507365 0.248071074 0.473497957
0.434155732 0.258064836 0.471726626
0.547880948 0.252624840 0.461606473
0.720809758 0.273497730 0.493105561
0.895129502 0.352182060 0.522960186
0.249335825 0.307400346 0.477293193
0.275142521 0.317647368 0.469070047
0.334977567 0.335736662 0.465654373
0.386970013 0.338772744 0.454901814
0.442884564 0.344971538 0.458823651
0.553573549 0.348260462 0.455408067
0.713219464 0.385199189 0.484756649
0.875142336 0.463377684 0.548640072
0.243770003 0.445287853 0.466793001
0.272486180 0.445920527 0.473877430
0.333586395 0.443390101 0.473623991
0.419607639 0.447817564 0.481973529
0.504743934 0.472865373 0.499304444
0.604174733 0.481973439 0.499304265
0.742820978 0.524225056 0.539278984
0.877166212 0.587096691 0.603289008
0.305249959 0.561796248 0.459456176
0.332321227 0.561543167 0.454775184
0.391777128 0.572169542 0.466540188
0.469322979 0.585958183 0.489057362
0.572169840 0.613535941 0.542061865
0.667552233 0.632384717 0.588994265
0.767741501 0.653510273 0.608349442
0.887159884 0.697027564 0.665022254
0.459329367 0.728653014 0.490955293
0.484250367 0.733333111 0.496900380
0.529411912 0.736622095 0.519038260
0.606325090 0.736116409 0.565338433
0.698418736 0.743074000 0.624794722
0.762681961 0.746109784 0.627451003
0.800505519 0.734218717 0.633522987
0.905376375 0.767868400 0.694497168
0.717014790 0.886021495 0.683491409
0.738899469 0.882353187 0.693105519
0.758001208 0.877292633 0.706008434
0.795951784 0.883997500 0.728146672
0.829095364 0.884883046 0.734724879
0.887286663 0.889310658 0.741302609
0.925869584 0.893991232 0.755091608
0.952561796 0.876660526 0.764579177
0.253890276 0.146362990 0.753447533
0.280581981 0.146110028 0.747375309
0.337001801 0.149525285 0.746995628
0.409740537 0.159266338 0.737254858
0.492725968 0.175964370 0.727387607
0.584566951 0.194686979 0.715749562
0.755091846 0.179632992 0.706008792
0.906009018 0.222770438 0.696900845
0.256926000 0.191777080 0.729158521
0.286780268 0.196457848 0.738646269
0.336242884 0.200126544 0.725616872
0.406957924 0.204807118 0.717393994
0.485894799 0.214547887 0.712840080
0.580898046 0.232890725 0.703605235
0.746995747 0.221631825 0.689563692
0.892220199 0.254648983 0.678810954
0.291334480 0.287413090 0.711195350
0.315243542 0.297153652 0.715496540
0.360278189 0.296774268 0.712586641
0.428336561 0.302087188 0.707779646
0.506009161 0.311575085 0.702213705
0.591018319 0.320809454 0.694370747
0.749399006 0.320809335 0.698292553
0.889436901 0.363567442 0.686653733
0.334851533 0.396963984 0.695256233
0.367741734 0.402403355 0.695761919
0.405186534 0.407337010 0.690195858
0.457558602 0.408855200 0.687412858
0.527387977 0.418975204 0.687412500
0.600885391 0.423529178 0.675015748
0.740037799 0.423529178 0.671853185
0.877292931 0.475521684 0.685262322
0.342694283 0.485389084 0.693864644
0.375458598 0.488931030 0.697153509
0.424920738 0.494750261 0.692093611
0.504364371 0.522960246 0.688677788
0.569386363 0.531688571 0.681087554
0.632005334 0.541303098 0.679569602
0.745603502 0.544085979 0.682099819
0.875774801 0.595445752 0.707779884
0.354205817 0.652751327 0.700822234
0.382922351 0.649335742 0.696394384
0.438456565 0.646932483 0.694623590
0.514104903 0.647438109 0.696773887
0.613535941 0.648829699 0.707273841
0.690575421 0.673497677 0.720556557
0.779000580 0.682985425 0.720936000
0.884630024 0.722960114 0.747375011
0.428969264 0.747248292 0.653763235
0.455914259 0.741682529 0.645034790
0.488551527 0.747248292 0.651612639
0.560657561 0.742694259 0.666540504
0.639974713 0.753700197 0.686907053
0.731435716 0.768880308 0.726502240
0.808728278 0.790765524 0.762302220
0.894876301 0.805692375 0.794813395
0.643263757 0.888425231 0.710815787
0.649209619 0.891081512 0.717394054
0.674636066 0.888931096 0.721948087
0.725363553 0.890069485 0.746362805
0.785705507 0.893358409 0.785072625
0.847058594 0.892852485 0.823529541
0.901580751 0.894496799 0.823403060
0.934092343 0.894244015 0.830613434
0.314104795 0.225173950 0.911574781
0.335483521 0.226945072 0.903098881
0.390132964 0.239089027 0.900442481
0.456293404 0.256166786 0.899557173
0.543832958 0.280708432 0.898291945
0.636306286 0.311954319 0.890828609
0.739152372 0.349904865 0.888425231
0.906388640 0.368121386 0.880202472
0.319797397 0.273877293 0.897912621
0.360404491 0.277292609 0.903605282
0.394180685 0.284629852 0.897533059
0.463504136 0.300442755 0.888045788
0.543832898 0.321189106 0.888804615
0.636432767 0.344591886 0.885262609
0.733965695 0.378114969 0.877672434
0.897785783 0.392409414 0.874889493
0.384313762 0.382162780 0.885894895
0.405439228 0.390638679 0.894496799
0.441239685 0.393042028 0.893105567
0.506134987 0.403035879 0.891081512
0.577103138 0.418216407 0.884630024
0.658823490 0.440227598 0.878810823
0.745350778 0.461733133 0.873877287
0.900316060 0.477039576 0.875395358
0.472232401 0.511195362 0.881846786
0.483365089 0.515243590 0.880202472
0.511448503 0.514864028 0.878431320
0.559645772 0.523971856 0.879316747
0.613156259 0.529032230 0.870714784
0.677039742 0.541176319 0.868311226
0.756483316 0.553700149 0.869323373
0.892978966 0.557621956 0.859961867
0.503605545 0.590891600 0.874762595
0.524604738 0.603415608 0.876154244
0.574066997 0.617963076 0.868564606
0.619101822 0.633649588 0.867172599
0.660468161 0.635926604 0.864389539
0.719165087 0.645160973 0.868184865
0.778115094 0.653257370 0.860720813
0.891207933 0.659329414 0.862238824
0.540037811 0.703605413 0.876660407
0.552688003 0.705882192 0.872232735
0.590765595 0.706641316 0.874636352
0.643390357 0.707020640 0.871853471
0.707526803 0.731815338 0.872612417
0.761416495 0.742314577 0.863883436
0.808728933 0.750284493 0.867805481
0.896394551 0.752182364 0.865907729
0.551802516 0.831752002 0.868058383
0.574825883 0.829601526 0.869955719
0.598355651 0.825174034 0.872106135
0.650601029 0.821252286 0.871473789
0.709045053 0.815054059 0.869829416
0.781278014 0.814927042 0.868564606
0.834787786 0.827324212 0.874889433
0.903604984 0.831246197 0.873624623
0.645161390 0.904996634 0.839721620
0.651485920 0.913472593 0.851106882
0.675395548 0.905882299 0.848956585
0.714104772 0.904870391 0.857811391
0.753067911 0.900063097 0.856672764
0.809867501 0.906894386 0.872485638
0.872486055 0.909804165 0.891334593
0.925869823 0.921947777 0.906261802
