Assets/Resources/EldamarStudio/100 Horror LUTs Pack/LUTs/cube/Napalm LUT.cube
DOMAIN_MIN 0 0 0
DOMAIN_MAX 1 1 1
LUT_3D_SIZE 32
0.109803997 0.101961002 0.054901998
0.109803997 0.101961002 0.054901998
0.114105001 0.101961002 0.054901998
0.121442162 0.103225842 0.056167159
0.131688997 0.105881996 0.058823999
0.149904996 0.105881996 0.058823999
0.165591314 0.108412318 0.058823999
0.182415992 0.106515005 0.057179291
0.200632200 0.101961002 0.056419995
0.218848974 0.101961002 0.062491991
0.242883980 0.101961002 0.054016128
0.269196749 0.103984736 0.053004257
0.297659993 0.105881996 0.054901998
0.327767015 0.105629027 0.054396000
0.355091393 0.102593422 0.048324004
0.392030388 0.104364187 0.051865995
0.429981381 0.107400186 0.054901998
0.467678964 0.111068986 0.054901998
0.510183036 0.117140993 0.054901995
0.544339120 0.114863642 0.052118644
0.591018438 0.113724999 0.050980002
0.640607119 0.115749255 0.048956003
0.680328488 0.121442489 0.042884007
0.725869715 0.118406095 0.036812000
0.773687541 0.117647000 0.035294000
0.819481313 0.120429985 0.038076989
0.861480057 0.126501992 0.042631064
0.900948405 0.132573992 0.039595455
0.943073630 0.143959656 0.049841974
0.978494346 0.156103969 0.061985962
1.000000000 0.170018971 0.077672191
1.000000000 0.188235000 0.101961002
0.103732005 0.104996607 0.051865615
0.112839609 0.095889002 0.067046002
0.114990383 0.100190006 0.060594775
0.122706994 0.104491003 0.054143224
0.133586168 0.108538836 0.050854158
0.143832996 0.105881996 0.058823999
0.156989008 0.110941999 0.063883997
0.176597014 0.114484318 0.063251287
0.199114382 0.111827910 0.060215097
0.221884593 0.104996614 0.059456386
0.245920360 0.110815607 0.059709385
0.268184662 0.111068614 0.053004261
0.292346597 0.110815644 0.053004257
0.319417655 0.109171353 0.054901998
0.355091393 0.111701034 0.054396003
0.384819597 0.111068614 0.053130999
0.422390789 0.113472186 0.051866002
0.460973918 0.116508573 0.050094988
0.501075447 0.120177396 0.054901991
0.549146175 0.123466030 0.049335994
0.587602675 0.122833386 0.047944386
0.633522987 0.122833386 0.046932258
0.677419364 0.124984115 0.043263510
0.725869715 0.133586481 0.045920387
0.769133568 0.132827386 0.037571102
0.814800620 0.134218708 0.035294000
0.859455764 0.138140053 0.037064999
0.903984785 0.141682386 0.036559068
0.943453133 0.150411218 0.046805590
0.976723135 0.163947180 0.058950029
0.997849226 0.178241745 0.076407343
1.000000000 0.194306999 0.104996607
0.106261998 0.110183001 0.050980002
0.115370162 0.105376385 0.055407617
0.120176770 0.104870230 0.061985999
0.127008006 0.105882227 0.054143228
0.138393089 0.108791769 0.049715545
0.145730704 0.112839840 0.065907933
0.163820550 0.110941999 0.057432223
0.180898249 0.113724999 0.060215224
0.202403679 0.115496226 0.059203092
0.222517014 0.110562526 0.058950488
0.244654953 0.116002545 0.060974225
0.268943757 0.118026547 0.056926232
0.291460991 0.118026547 0.053130776
0.316508085 0.116002746 0.054396000
0.351043552 0.115243353 0.050600998
0.389120579 0.118026547 0.054901998
0.419481367 0.121062540 0.057937995
0.458949864 0.124098770 0.054396003
0.502972960 0.125616968 0.054395996
0.542188764 0.128652647 0.051486220
0.586970508 0.131688729 0.039721977
0.628715873 0.132953629 0.037444875
0.674383223 0.134345025 0.034914501
0.722959995 0.141429678 0.041998904
0.764832556 0.143706769 0.040227715
0.812903285 0.145098090 0.035294000
0.860214889 0.148639768 0.036812063
0.904111266 0.153320462 0.041745774
0.946489513 0.161669821 0.048070751
0.977102697 0.174320176 0.063756719
0.996963620 0.187729597 0.079316802
1.000000000 0.200379550 0.105881996
0.114863992 0.118785322 0.053510323
0.121442385 0.115749381 0.052245162
0.132574379 0.114484549 0.058190774
0.131815165 0.114990160 0.049842004
0.143200174 0.110436156 0.046806000
0.149272710 0.118658938 0.067172773
0.166730314 0.118911840 0.060594518
0.185452372 0.118785322 0.056167159
0.205945879 0.118785322 0.056167159
0.221631691 0.118785322 0.058697488
0.241365865 0.122074746 0.060468290
0.264642507 0.126628995 0.061226998
0.291207999 0.126628995 0.055154998
0.316508085 0.126628995 0.054901998
0.349905223 0.124604747 0.050854001
0.385578752 0.126375645 0.051865995
0.421758205 0.129664987 0.054142836
0.455913931 0.135736987 0.058949839
0.504490852 0.137001991 0.054142833
0.544465542 0.138519794 0.050853804
0.582163334 0.141555890 0.045287590
0.625680208 0.144592017 0.034155969
0.671094120 0.147627667 0.030993167
0.717393935 0.152561814 0.034408908
0.765464783 0.156609997 0.036938712
0.805566132 0.156736478 0.034029163
0.858697057 0.159266159 0.035547096
0.901960850 0.163820162 0.044655278
0.945730448 0.172548980 0.047311988
0.978873909 0.186464176 0.061733108
0.995192647 0.200758979 0.081720129
0.997470021 0.210246831 0.103351995
0.127767086 0.131309539 0.057685453
0.130423933 0.127893597 0.055787612
0.143074006 0.125237226 0.062365547
0.152308553 0.122580834 0.061986003
0.146995559 0.119164996 0.040354453
0.153067559 0.125237003 0.058570452
0.168501094 0.126628548 0.055913776
0.184693277 0.127893716 0.054648869
0.199873209 0.130550444 0.059203450
0.218089968 0.130550444 0.059203450
0.237444550 0.130550444 0.058823999
0.259708941 0.134218991 0.059329737
0.285894990 0.137254998 0.059709001
0.315749049 0.138014033 0.054902032
0.348766685 0.138393551 0.055281546
0.382922232 0.141176298 0.054143000
0.416318744 0.144212186 0.053383809
0.452118635 0.147501543 0.051359549
0.500695586 0.153573558 0.051359545
0.543326735 0.154838547 0.048956349
0.583175004 0.157115743 0.045540806
0.621884763 0.159392968 0.042125128
0.667678893 0.162428588 0.039216001
0.710942805 0.165464908 0.033650000
0.761037529 0.170398548 0.033270258
0.809487581 0.174825996 0.033523135
0.849968195 0.175205544 0.032511484
0.895509303 0.175205544 0.041619085
0.940670311 0.182795823 0.041619293
0.976723135 0.195698947 0.050474614
0.995951653 0.212144077 0.073371515
0.992915988 0.224288091 0.097659551
0.145983875 0.146489933 0.048577067
0.145983875 0.140417159 0.054649062
0.152941167 0.139151990 0.057052772
0.161037177 0.138646066 0.059076775
0.162175938 0.137381002 0.052498449
0.162175938 0.131309003 0.049462065
0.173307925 0.134851322 0.057558708
0.186464056 0.135736927 0.059456155
0.199114203 0.137001902 0.062239062
0.212017983 0.139658064 0.062239062
0.238962874 0.139658064 0.059329934
0.262744933 0.141682327 0.052751746
0.288171709 0.141809002 0.049083002
0.315749049 0.138014033 0.048830032
0.340037793 0.147122413 0.057938412
0.377861828 0.152308926 0.051107135
0.413282633 0.156356677 0.049588807
0.448577017 0.159392595 0.051612578
0.491587967 0.162681952 0.054395933
0.531815290 0.168753937 0.054395933
0.575585186 0.173813924 0.050095003
0.617584050 0.176344126 0.044528935
0.658570528 0.174573347 0.039216001
0.710183799 0.177608967 0.039216001
0.753447533 0.180645287 0.033650003
0.799367607 0.186970234 0.030487265
0.843896210 0.193548054 0.029475128
0.889437318 0.196457937 0.038583472
0.932321608 0.201770931 0.047691077
0.971789837 0.208348975 0.051233280
0.996963620 0.218216211 0.065275244
0.998987973 0.230360866 0.094623938
0.166730314 0.156609684 0.047059000
0.166730314 0.155597553 0.048071001
0.168880537 0.155977100 0.051992226
0.174699485 0.156356648 0.053763356
0.177735776 0.155977100 0.053130772
0.179885998 0.152055323 0.056546710
0.182416320 0.145983323 0.053510323
0.196205020 0.149019718 0.056293678
0.209234640 0.149905324 0.059202995
0.221378982 0.151170164 0.062744997
0.237950876 0.156356648 0.059835870
0.265275240 0.156356648 0.060847737
0.290069312 0.158886671 0.057178997
0.316508085 0.157748029 0.057178997
0.347628117 0.162302405 0.059456084
0.379127115 0.169006988 0.058950488
0.415306509 0.173561186 0.050095130
0.451233357 0.176597059 0.047817752
0.495635986 0.179632977 0.047058653
0.542947710 0.185452014 0.054901998
0.582415998 0.191524476 0.051107004
0.626692057 0.197596639 0.045035001
0.669829249 0.199241325 0.038836498
0.723845720 0.199873745 0.031625681
0.768627524 0.207463339 0.029348390
0.808349311 0.212397337 0.026312357
0.849462330 0.219860956 0.025426742
0.890954971 0.224921092 0.030487122
0.936369538 0.228083313 0.047185145
0.973561108 0.237697735 0.061606400
0.998608351 0.248829931 0.077292882
1.000000000 0.264263332 0.109297998
0.174826279 0.167362422 0.048703291
0.184693277 0.172295704 0.043770004
0.186843917 0.169512764 0.054142930
0.189879864 0.172549158 0.057178866
0.192536697 0.172549158 0.055660866
0.194307476 0.169512764 0.052878167
0.205566019 0.165591404 0.054648969
0.198734984 0.161163703 0.056546707
0.213915378 0.163440987 0.058823608
0.226945013 0.163440987 0.065780997
0.245287865 0.165970981 0.063124865
0.263630539 0.169639707 0.057558741
0.292093605 0.170778066 0.059456002
0.318152726 0.173813730 0.059456002
0.351549506 0.176850110 0.059456002
0.384946495 0.182289690 0.060341805
0.421378881 0.189879894 0.057305805
0.456293255 0.193801686 0.049715418
0.499810278 0.197849467 0.046679035
0.544845045 0.203668416 0.046552654
0.592662692 0.211385176 0.047818009
0.635167480 0.215433702 0.041746005
0.681214690 0.220114186 0.035927005
0.729791105 0.221631989 0.031372804
0.775331855 0.226818398 0.028463129
0.819228232 0.237318024 0.028209735
0.857432127 0.243896693 0.028462704
0.898039103 0.249968693 0.030360445
0.937887430 0.255028576 0.041745670
0.973055124 0.260088414 0.058317401
0.998481989 0.271347582 0.080961563
1.000000000 0.287286699 0.114358000
0.180139184 0.181784093 0.051739097
0.194560081 0.188614815 0.047185481
0.202023864 0.188488200 0.050600998
0.202783167 0.187729165 0.062492162
0.207337543 0.188868001 0.064769454
0.209235102 0.184693158 0.051107068
0.220619991 0.181657225 0.050347771
0.223023385 0.178621382 0.055028319
0.213156089 0.177102998 0.058823999
0.228336498 0.177102998 0.067931622
0.247058779 0.176344097 0.066919774
0.268564165 0.178368151 0.062112745
0.288298279 0.181404456 0.054901998
0.319165051 0.184693098 0.054901998
0.353067458 0.188235417 0.054901998
0.387223393 0.194434091 0.056546707
0.420620173 0.201265201 0.055787809
0.461986095 0.209740996 0.054016415
0.501834154 0.215813026 0.051233027
0.545603871 0.221885011 0.046173092
0.591903508 0.229854733 0.041998643
0.639721513 0.236686081 0.037950903
0.687919497 0.236939073 0.031878911
0.729791105 0.240607291 0.030613905
0.772295713 0.246679097 0.029095907
0.816950977 0.254016429 0.030487224
0.861480057 0.265149087 0.034534968
0.903731763 0.271221101 0.035294000
0.943200588 0.277293086 0.044781819
0.972802103 0.285642147 0.058950178
0.993168890 0.293358684 0.079443559
0.999240935 0.302467078 0.112839997
0.210499972 0.203036502 0.054775480
0.213535592 0.203036502 0.063883863
0.217204258 0.203415990 0.059329703
0.216445491 0.206957817 0.056420159
0.213409558 0.213156000 0.058697455
0.228589937 0.201012015 0.055661060
0.233017176 0.196837187 0.054649003
0.231752008 0.193801254 0.058064483
0.228336498 0.192283392 0.061859611
0.234408513 0.195319012 0.058824010
0.246678993 0.192409888 0.062112615
0.269323260 0.193548232 0.062871516
0.292852968 0.196584165 0.060215000
0.313093036 0.199873507 0.054901998
0.349525779 0.205945492 0.054901995
0.385832071 0.214294806 0.054902002
0.417584181 0.221758485 0.051992521
0.449842095 0.227956995 0.047944415
0.498418987 0.234029025 0.050980031
0.546616256 0.240101025 0.048197351
0.594939947 0.248070747 0.045034744
0.642504811 0.255155146 0.040986512
0.687919497 0.258191466 0.034914516
0.727387905 0.264263511 0.028842511
0.769260049 0.272485673 0.023023520
0.814547777 0.280075818 0.021378836
0.861480057 0.286401480 0.025426580
0.900948405 0.292473465 0.034534954
0.945856988 0.298545480 0.048576806
0.976850152 0.309930682 0.067046158
0.993042350 0.323845953 0.091587566
0.996204555 0.335863471 0.124983996
0.214674130 0.215559989 0.049083002
0.229348481 0.218469128 0.055281520
0.225932866 0.218469128 0.051486354
0.231752157 0.219734296 0.052498288
0.237950876 0.224794418 0.060974129
0.240480930 0.225300729 0.055408064
0.250601321 0.218216091 0.059961997
0.252751738 0.216444865 0.060720995
0.251486629 0.213914990 0.063504092
0.255407870 0.210499391 0.064769484
0.261479884 0.204806879 0.064642996
0.273624390 0.203795001 0.063630611
0.294244349 0.207083866 0.060467999
0.315749168 0.212397039 0.054648966
0.352181911 0.221125871 0.051992130
0.386211514 0.227197871 0.061606731
0.425174356 0.237317979 0.059076678
0.462618828 0.246173143 0.051613010
0.506641150 0.252245724 0.047817905
0.549651921 0.261100411 0.048070870
0.594180644 0.267298847 0.043264005
0.637697518 0.274383247 0.036179617
0.679570138 0.279443860 0.026438650
0.727387905 0.285515845 0.023149999
0.771410286 0.293864578 0.023908708
0.814547360 0.300189555 0.022517130
0.858570337 0.305250049 0.024541128
0.898039281 0.313725859 0.031246316
0.937507629 0.322454005 0.048323832
0.977229476 0.328778982 0.065527946
0.997976005 0.338772744 0.091840297
0.998987854 0.348892987 0.131309003
0.237950742 0.237824246 0.045034744
0.238962382 0.240860373 0.057178997
0.251233518 0.243769497 0.048450224
0.247691497 0.241239503 0.044402160
0.257558703 0.241998792 0.055028457
0.259202987 0.245035186 0.053889744
0.266793311 0.246552855 0.051866006
0.272612691 0.242125213 0.053004298
0.273751169 0.240227565 0.052624751
0.276786774 0.234155238 0.054395981
0.280708522 0.230107501 0.062619001
0.288804263 0.224035501 0.062619001
0.304364353 0.226312503 0.061859611
0.325363308 0.232384503 0.058949992
0.351170063 0.239721656 0.057684835
0.389247119 0.246426240 0.056546606
0.424162090 0.252498239 0.059582621
0.465654850 0.262997836 0.051612753
0.508159339 0.270461917 0.045540743
0.548639774 0.279317170 0.047059000
0.589247227 0.288424790 0.035673529
0.631625533 0.295635402 0.028083622
0.672359467 0.302719980 0.017204273
0.719038486 0.308791965 0.012270912
0.765338540 0.315116942 0.013788715
0.810878873 0.324224889 0.016824679
0.854522169 0.328526318 0.020493262
0.897027314 0.334598690 0.032637637
0.936495781 0.343706399 0.049336217
0.970651329 0.354585677 0.067552201
0.995952010 0.362049133 0.089310437
0.995952010 0.371157259 0.127261266
0.266793638 0.264010280 0.045413997
0.261859477 0.264769375 0.053763390
0.266413540 0.266666889 0.051992226
0.276913643 0.269323260 0.044402160
0.277672648 0.264010280 0.046679452
0.281467348 0.266287565 0.048197068
0.287286311 0.270461947 0.046173327
0.295382708 0.271347344 0.044275939
0.299937099 0.269070625 0.042757548
0.303731799 0.263756931 0.043137003
0.307906508 0.258317500 0.050221451
0.313852012 0.254395992 0.056546710
0.321821272 0.249462634 0.056546710
0.342567652 0.255028635 0.059835423
0.359898806 0.259329617 0.061606646
0.390385777 0.267678648 0.060341805
0.428336382 0.274889261 0.055787615
0.466666698 0.282226264 0.047817603
0.509677649 0.291840613 0.040227648
0.550537646 0.300948977 0.040227719
0.594560146 0.311195523 0.032258175
0.634029388 0.320303410 0.021125520
0.676534116 0.329285264 0.012650362
0.722074568 0.335357279 0.006578352
0.766476810 0.342567891 0.007337352
0.810879171 0.348892927 0.011511670
0.855913758 0.356989205 0.016572060
0.900822282 0.360025436 0.034155622
0.939911425 0.368374437 0.058064636
0.972928345 0.379253417 0.079696581
0.993548393 0.390512615 0.103225812
0.993295372 0.399620295 0.134092629
0.288805008 0.289058030 0.049715035
0.285768688 0.286527634 0.046932388
0.290196061 0.285389066 0.044655260
0.295509160 0.286401212 0.042378098
0.306009054 0.289310992 0.045161452
0.312081039 0.289310992 0.042125065
0.314357728 0.293864995 0.039089259
0.322200775 0.296901017 0.038456969
0.329538137 0.296647996 0.037697874
0.338646531 0.296647996 0.040733486
0.345604062 0.288678139 0.041871969
0.351676077 0.283617854 0.045666996
0.357495010 0.280581683 0.050474003
0.363567084 0.277040005 0.050727032
0.378747463 0.277040005 0.056799799
0.402782828 0.285641998 0.058064967
0.434661418 0.296774179 0.055281617
0.472485662 0.306262016 0.048576567
0.518026948 0.318406045 0.033396930
0.561037719 0.327767402 0.028589644
0.607969761 0.338519990 0.020367006
0.656293392 0.350158125 0.012523903
0.696015477 0.359393001 0.015180040
0.741555929 0.365718067 0.009108031
0.785072625 0.373561293 0.009867257
0.827324271 0.381277978 0.015307022
0.869576097 0.387096941 0.023656061
0.912080824 0.390132576 0.038836434
0.949019611 0.398481846 0.069196798
0.980645120 0.409108013 0.099304140
0.998861432 0.420872688 0.127261177
0.995825052 0.429981083 0.163694009
0.319164962 0.322454393 0.034535438
0.316129357 0.325489998 0.034535438
0.328146815 0.322960168 0.038204014
0.329917639 0.321821809 0.032258105
0.325110525 0.322833836 0.021125732
0.351549387 0.325742960 0.023909084
0.342441380 0.325742960 0.020872697
0.354838490 0.328652650 0.024414884
0.368500799 0.329538286 0.025553498
0.359898895 0.327007949 0.013409128
0.374826252 0.327007949 0.025173606
0.382036805 0.323086649 0.028715853
0.386970162 0.320050567 0.035800014
0.390891463 0.316508353 0.044655040
0.396964222 0.307399958 0.047691420
0.414547801 0.307399958 0.048956588
0.443769783 0.317520142 0.047438398
0.480834931 0.330170542 0.044402003
0.521062553 0.339658380 0.042504527
0.566603661 0.349019736 0.030107563
0.605819464 0.358127654 0.023656003
0.649462700 0.369892120 0.016318996
0.696015477 0.383680999 0.012144431
0.741555929 0.395825773 0.006072420
0.787096858 0.399873525 0.006831130
0.829222023 0.405565977 0.016824909
0.869323075 0.411637992 0.033523407
0.909044445 0.417456955 0.057052411
0.943580031 0.425806224 0.080202609
0.977609098 0.434914589 0.109930314
0.998229027 0.446426392 0.134345189
0.992789388 0.460341811 0.151550010
0.354332596 0.358254611 0.019355204
0.348893195 0.361290216 0.012144405
0.354459584 0.360025376 0.012144405
0.368121445 0.362049460 0.018975573
0.363946587 0.364326328 0.012144262
0.373054713 0.359266460 0.007084140
0.384313583 0.359772384 0.007463686
0.383681297 0.361416668 0.006072009
0.401138574 0.363693774 0.010626210
0.398861587 0.362302095 0.003668523
0.408096462 0.364579380 0.005060013
0.415180326 0.358507127 0.009108014
0.423149794 0.356989443 0.015180204
0.429474622 0.355724335 0.026818208
0.429095626 0.344465196 0.032004818
0.442378551 0.340164393 0.037445009
0.456040382 0.337128401 0.040481005
0.485135883 0.347375154 0.037571251
0.524604797 0.363567561 0.028716005
0.567236066 0.372675329 0.024794191
0.614674449 0.383681446 0.020240201
0.656167090 0.394307375 0.017204195
0.703099191 0.407843083 0.014168192
0.746362925 0.417710572 0.012650184
0.785072625 0.425300777 0.011132186
0.831625462 0.431245893 0.022390638
0.873624086 0.437823862 0.041113246
0.911195219 0.441998571 0.059708972
0.947754443 0.453130603 0.088804618
0.977609098 0.462238967 0.113092922
0.999114394 0.472232759 0.145730153
0.994560182 0.485894978 0.173054978
0.384693384 0.396205187 0.008729003
0.386211187 0.397722989 0.005692611
0.389373779 0.399494141 0.001518192
0.397217333 0.396458209 0.001518192
0.406072021 0.403415382 0.008349454
0.409487367 0.397723109 0.001518066
0.415559500 0.396205187 0.000000000
0.421631902 0.397849858 0.000000000
0.429222286 0.399367452 0.000000000
0.434535384 0.398608357 0.000000000
0.446552843 0.401518226 0.000000000
0.456167281 0.401012301 0.001518192
0.459202915 0.394180924 0.001518192
0.469449401 0.395699173 0.010879166
0.468943805 0.386084735 0.013156003
0.475774974 0.382669151 0.017710427
0.489437163 0.378115356 0.023782814
0.500442505 0.371410787 0.029222229
0.533713102 0.383807987 0.019354835
0.571410775 0.396964043 0.013788645
0.616192222 0.411005467 0.011132197
0.664769053 0.420114130 0.015180193
0.710562468 0.430740178 0.016824687
0.751675963 0.441239893 0.012650003
0.789626777 0.449589163 0.012650003
0.828842461 0.457052827 0.025173634
0.875648260 0.465654552 0.046679061
0.913092852 0.469702810 0.063883431
0.948007405 0.480708361 0.093864419
0.979126930 0.489563376 0.126755118
0.999367416 0.497786164 0.152814358
0.997596204 0.508665204 0.192789197
0.414042085 0.434408545 0.003289424
0.422517300 0.436306119 0.005692622
0.429474682 0.438456893 0.005060199
0.433649302 0.439595520 0.003289424
0.439722061 0.436938703 0.003289424
0.448576778 0.436938703 0.000506065
0.454522133 0.436306119 0.000000000
0.460847259 0.437318236 0.000632576
0.465148628 0.440101594 0.000000000
0.468185037 0.437065214 0.000000000
0.480961233 0.439215988 0.000632576
0.493485034 0.441493094 0.002656670
0.504111469 0.440987051 0.003922000
0.507653177 0.437697679 0.003668968
0.511448503 0.431625694 0.000632584
0.516888082 0.428463101 0.003036218
0.524731100 0.425427109 0.005060430
0.535610080 0.419987530 0.009867433
0.553826928 0.410879165 0.012903045
0.581530988 0.418342918 0.008855005
0.621884882 0.434788138 0.005945744
0.666539848 0.448576689 0.004807441
0.714863539 0.451992542 0.016824950
0.754838705 0.464136571 0.010752676
0.792662978 0.474003851 0.012270555
0.832511246 0.483112067 0.022264205
0.873498023 0.492220461 0.049082696
0.912713408 0.498418957 0.070461579
0.946236372 0.509171546 0.101074927
0.976723135 0.518406153 0.135609925
0.996963620 0.524478137 0.171536759
1.000000000 0.530550122 0.201897576
0.462619007 0.467805058 0.000253035
0.468690991 0.476913422 0.000253033
0.475015968 0.480961770 0.000506002
0.477292806 0.482732981 0.000253035
0.476154149 0.482479960 0.000253035
0.482226938 0.482479960 0.000253032
0.486021638 0.479949653 0.000000000
0.494243979 0.478810996 0.001644707
0.504870176 0.479823112 0.002909869
0.513725519 0.482606471 0.000000000
0.519671023 0.482479960 0.002909867
0.528526247 0.486781001 0.005692703
0.539026022 0.490069985 0.006451673
0.550158024 0.489310950 0.003668965
0.559266448 0.483238965 0.000632583
0.565465033 0.474763155 0.004806993
0.571537018 0.467932016 0.004554033
0.578114986 0.462492406 0.000759033
0.584187031 0.459456027 0.000759035
0.596837819 0.447565019 0.001012002
0.629728556 0.454775780 0.002403743
0.671474159 0.467172980 0.002909880
0.711827993 0.473245025 0.001644557
0.754332840 0.485389024 0.010752965
0.794307292 0.495256305 0.025173983
0.836306036 0.504364312 0.040480651
0.879570067 0.513472140 0.058191128
0.912966430 0.522580504 0.082479879
0.944212615 0.531435847 0.109171763
0.974825859 0.540797234 0.140544116
0.996963620 0.548766971 0.175079197
1.000000000 0.554839015 0.211006030
0.508412361 0.529032111 0.002783357
0.506135762 0.527008474 0.000000001
0.514357984 0.529665112 0.002150774
0.521062374 0.529538572 0.002783357
0.523718834 0.528020382 0.002403809
0.529791594 0.528020382 0.000000000
0.533333421 0.530550718 0.000000000
0.542947471 0.529665112 0.000000000
0.554712117 0.530423999 0.001138643
0.561796248 0.533459902 0.000126516
0.576344132 0.536369741 0.000126514
0.582416117 0.538393497 0.001138643
0.590765357 0.541429400 0.002276996
0.600759089 0.541176438 0.001138643
0.607337177 0.537634790 0.000632583
0.623655736 0.531562746 0.002403804
0.629727960 0.524351716 0.003542160
0.635167658 0.518912017 0.000000001
0.643390477 0.515876114 0.000000003
0.655028462 0.512839735 0.002783357
0.665275455 0.502593517 0.004680613
0.696015358 0.508665621 0.010752643
0.733839035 0.516761422 0.017330511
0.776343822 0.528906107 0.031751923
0.816571832 0.536496103 0.047691584
0.853257418 0.545098066 0.068690687
0.891208053 0.553699911 0.089563504
0.924604416 0.560531497 0.113852248
0.952687800 0.564326227 0.148766980
0.979380012 0.574952364 0.181783617
0.997090399 0.586843610 0.218848541
0.994433999 0.598608375 0.259076387
0.552055478 0.579506457 0.002024260
0.552814841 0.576470852 0.000885613
0.554585755 0.577482700 0.002150774
0.559898496 0.578747869 0.002656839
0.565464556 0.576976657 0.002024260
0.574573338 0.575458467 0.000506065
0.574320138 0.579886079 0.001897740
0.582289457 0.581277728 0.001897740
0.596457899 0.580518842 0.002656642
0.604807198 0.581277728 0.003794995
0.619607568 0.580518544 0.001897740
0.632511199 0.583554924 0.000000000
0.639721513 0.586590528 0.000000000
0.649082780 0.587349474 0.000000000
0.658444226 0.585958123 0.000000000
0.662745237 0.584313750 0.000506064
0.676406980 0.578241706 0.002024260
0.683364868 0.572169185 0.000000000
0.696268439 0.567868412 0.000000002
0.704364419 0.562934816 0.000885617
0.712713420 0.556103468 0.005819256
0.722833693 0.546995580 0.011890996
0.752055228 0.550790250 0.024920506
0.789247274 0.561163783 0.050727375
0.829474866 0.568754017 0.071979553
