Assets/Resources/EldamarStudio/100 Horror LUTs Pack/LUTs/cube/Nayar LUT.cube
LUT_3D_SIZE 5
DOMAIN_MIN 0.000000 0.000000 0.000000
DOMAIN_MAX 0.903226 0.903226 0.903226
0.086274996 0.003922000 0.000000000
0.186337993 0.023529001 0.043136999
0.340037793 0.075900987 0.071979985
0.522960126 0.165844128 0.142315120
0.791524589 0.261732817 0.232890800
0.138266698 0.149398699 0.062112994
0.184060708 0.147754416 0.066033997
0.317141384 0.188994408 0.108285688
0.502340257 0.258317560 0.170398548
0.784566879 0.334218651 0.253510684
0.153573588 0.315243810 0.143832996
0.200379714 0.320809692 0.158253998
0.297533393 0.323086798 0.161543414
0.493485123 0.393674642 0.212523997
0.774446607 0.477419615 0.287792623
0.195193127 0.552435100 0.244276121
0.251486689 0.554965019 0.262871981
0.371916533 0.566476882 0.270841390
0.527893245 0.573940337 0.278684258
0.783680975 0.655028343 0.376217812
0.419101387 0.844908476 0.484376729
0.464895546 0.851486564 0.492219716
0.560784161 0.848829567 0.505249739
0.696774244 0.859076262 0.531435728
0.858190596 0.855281770 0.560404539
0.114358000 0.029728293 0.144212693
0.172928691 0.041871995 0.126249403
0.278557986 0.108918272 0.167109281
0.440480530 0.202403277 0.236432537
0.739531875 0.283238798 0.310689390
0.148387000 0.126881406 0.127261102
0.186337993 0.161543399 0.159898698
0.270082384 0.187729403 0.179253399
0.442125261 0.256040275 0.237065256
0.741176605 0.342061967 0.324857473
0.174193710 0.293611377 0.204680830
0.203668281 0.296267986 0.209614113
0.279190421 0.307400376 0.219734401
0.454016387 0.377735704 0.271727115
0.749652028 0.477166474 0.360531211
0.212776706 0.529537976 0.304743975
0.253130972 0.536116302 0.312333673
0.357242405 0.541682422 0.317267835
0.510942280 0.555344284 0.329031825
0.766476572 0.649715245 0.422264278
0.427450985 0.838203728 0.515875757
0.459455967 0.836812258 0.511069000
0.556230187 0.843010724 0.530044138
0.691840589 0.849462628 0.556862593
0.844149292 0.857684731 0.581404090
0.128146991 0.068690568 0.328905374
0.195446000 0.096141994 0.307653278
0.279822975 0.131435573 0.282479823
0.433649242 0.211258575 0.334598094
0.710436463 0.309424400 0.435041189
0.162428722 0.188614696 0.277546108
0.197090283 0.193548411 0.274636388
0.262492120 0.204047978 0.268437684
0.419354826 0.272359550 0.334851414
0.697659433 0.368247986 0.444781780
0.179759577 0.300189376 0.296900809
0.221631989 0.316508383 0.306008548
0.313219368 0.359645814 0.350537777
0.439215958 0.393042386 0.381657273
0.708412170 0.487286210 0.473624587
0.249462545 0.515749514 0.406830966
0.282479376 0.520936012 0.412650406
0.363314122 0.529791296 0.415053964
0.491587371 0.547121942 0.429348558
0.743706167 0.649462402 0.526881516
0.438329786 0.823403001 0.575458646
0.471094161 0.821125746 0.592030168
0.559266150 0.823276341 0.602403343
0.689184189 0.838077068 0.627703726
0.835294008 0.848197162 0.651612580
0.116634868 0.169766128 0.577862144
0.211511701 0.182795867 0.565085292
0.348260701 0.206325278 0.536369264
0.479823142 0.239341989 0.507274151
0.715369880 0.317014515 0.580898225
0.166730002 0.268817246 0.532068551
0.220366985 0.277546138 0.519670963
0.337887108 0.283870846 0.509550869
0.460847378 0.297913134 0.494497240
0.707779884 0.382289618 0.582542658
0.205945417 0.389120668 0.493231833
0.253004402 0.394686937 0.492219955
0.343706548 0.409740686 0.499430507
0.458570659 0.413029939 0.499177814
0.706135452 0.509551048 0.595825374
0.252119154 0.529791296 0.518026292
0.298798382 0.537254691 0.522833705
0.399620384 0.566982806 0.551676095
0.561163962 0.623909295 0.612144291
0.741429269 0.674003780 0.668058097
0.486527443 0.818469405 0.697532952
0.519544125 0.820746422 0.703226030
0.593674898 0.824035168 0.717141092
0.690196037 0.832257748 0.724098802
0.830739558 0.847691417 0.750916600
0.167615786 0.307653457 0.863250911
0.266666681 0.312839925 0.854142725
0.438962340 0.333080173 0.844908476
0.627703905 0.367488921 0.829348564
0.807210565 0.405818611 0.818848729
0.225932613 0.397469670 0.843643606
0.301075369 0.400758743 0.840480745
0.449462622 0.416824758 0.833523095
0.625300348 0.436812043 0.820114017
0.799114287 0.458064586 0.813662589
0.322200745 0.554206133 0.813408971
0.373813987 0.556103766 0.818722308
0.482858777 0.560025394 0.808348715
0.628715932 0.564579189 0.807336807
0.783681393 0.573813975 0.801264942
0.406198442 0.697659910 0.809740424
0.439974427 0.698924482 0.809867084
0.531941772 0.701201677 0.804806888
0.649968326 0.704110920 0.800632417
0.786084712 0.708032906 0.807083726
0.520935595 0.834534764 0.813535750
0.541682422 0.834914327 0.822264433
0.611132383 0.834534764 0.821505427
0.724731147 0.844655454 0.833143771
0.861985743 0.885515451 0.877672434
