Assets/Resources/EldamarStudio/100 Horror LUTs Pack/LUTs/cube/Nayar LUT.cube
DOMAIN_MIN 0 0 0
DOMAIN_MAX 1 1 1
LUT_3D_SIZE 32
0.086274996 0.003922000 0.000000000
0.092346996 0.000885613 0.006072000
0.098419003 0.000000000 0.009993774
0.109550998 0.001265161 0.015559838
0.128146544 0.005060451 0.025047095
0.149398938 0.014168063 0.037191868
0.168121636 0.020746000 0.041745678
0.186337993 0.023529001 0.043136999
0.204554006 0.025047194 0.043896098
0.222770005 0.031119972 0.046932489
0.249715596 0.037192002 0.049968131
0.272992253 0.041239738 0.053004257
0.294244349 0.048829637 0.056040641
0.315749049 0.063756995 0.059835996
0.340037793 0.075900987 0.071979985
0.361922771 0.088045605 0.081720799
0.384693384 0.103225991 0.092346996
0.409614533 0.119544566 0.103225991
0.436939001 0.128652975 0.109298013
0.464263380 0.137760654 0.118153363
0.491587728 0.150663733 0.129158989
0.522960126 0.165844128 0.142315120
0.562048972 0.180897981 0.157495499
0.592409849 0.193042010 0.172675908
0.627324581 0.207463279 0.183301702
0.665148616 0.219860658 0.193801329
0.704617202 0.229474992 0.205945998
0.744086266 0.241618991 0.218089983
0.791524589 0.261732817 0.232890800
0.836559296 0.281214386 0.255155146
0.879949510 0.299430966 0.280708581
0.925490022 0.317647010 0.301961005
0.092346996 0.000885613 0.006072000
0.098418996 0.000885613 0.003036387
0.102340221 0.006451774 0.013409387
0.113851771 0.011638386 0.022896999
0.133080095 0.016445450 0.031878386
0.146363318 0.020240065 0.028083481
0.162555054 0.026818644 0.042757936
0.183554634 0.037824057 0.047817677
0.205313101 0.044781387 0.046932101
0.225806400 0.046299584 0.040860489
0.249842122 0.052372351 0.046806000
0.272992253 0.060468122 0.051992383
0.291967362 0.067805029 0.057178997
0.309677064 0.078431390 0.062365610
0.333965808 0.085009366 0.068943597
0.358253986 0.097153381 0.078684412
0.380138785 0.110815801 0.089310609
0.403541923 0.125616565 0.101454601
0.430867016 0.134724990 0.112333633
0.458191365 0.154965371 0.126754984
0.487412989 0.165085509 0.136369348
0.517899990 0.174952760 0.146363124
0.553320885 0.184187368 0.157495499
0.592409849 0.202150404 0.172675908
0.629601240 0.212017670 0.181024998
0.668184578 0.225680038 0.192157030
0.708159506 0.238583386 0.205945998
0.750158250 0.250727385 0.218089983
0.789626718 0.260215223 0.230233967
0.831752181 0.279949546 0.248576775
0.872106552 0.300316572 0.273371160
0.913345993 0.320683390 0.298924595
0.100569226 0.012902999 0.014294773
0.102340221 0.017204547 0.011258612
0.106261998 0.015053771 0.014674225
0.114357933 0.024162158 0.020493388
0.133839324 0.031119775 0.028210001
0.151296869 0.035926610 0.032763999
0.168121442 0.043643415 0.040101320
0.184946179 0.049715769 0.045414291
0.205945671 0.060341451 0.046679001
0.224414721 0.061732780 0.041745715
0.248576984 0.067551970 0.047185224
0.268817186 0.073624730 0.053257737
0.288804740 0.081467547 0.058191124
0.305755764 0.089816771 0.063504033
0.330044031 0.099683769 0.071473770
0.356482983 0.108412541 0.079949573
0.377735376 0.122074351 0.090575770
0.399620295 0.135989577 0.103352338
0.426945150 0.145097986 0.117014572
0.458570600 0.158886597 0.129791141
0.483997703 0.172548965 0.135483772
0.514863908 0.181657344 0.145857126
0.548513710 0.189247489 0.157495499
0.587982178 0.205439776 0.172675908
0.625300229 0.218975276 0.181024998
0.667551935 0.229474977 0.192662969
0.708539069 0.242884293 0.208602294
0.749399066 0.253383994 0.222390980
0.789247513 0.269323051 0.230233967
0.834029078 0.283744633 0.251233160
0.874636531 0.304617584 0.275015563
0.914104998 0.325870007 0.302340001
0.109677158 0.036179319 0.022138000
0.109677158 0.038456932 0.021631936
0.111827932 0.041872546 0.022517323
0.118659161 0.041366156 0.028589323
0.133459985 0.049715545 0.026692159
0.152055770 0.054902159 0.037065160
0.170778155 0.064769320 0.040354323
0.187729090 0.069702990 0.046679452
0.206704780 0.075774997 0.045161065
0.222896531 0.079316683 0.045667004
0.244275749 0.085262157 0.051486321
0.263251126 0.091334350 0.056293350
0.284882784 0.097407117 0.062365834
0.303985000 0.103479154 0.065780997
0.328272969 0.113599136 0.073877253
0.353699952 0.124604791 0.084250800
0.375205368 0.134219110 0.094876997
0.395319521 0.148133725 0.106388576
0.422643989 0.157241985 0.120303981
0.454269528 0.170398161 0.132701010
0.484503299 0.180644885 0.141050160
0.511827946 0.189753279 0.146110028
0.545350850 0.198988140 0.160910860
0.583680928 0.213029906 0.172675908
0.622137725 0.224668160 0.181024998
0.661479950 0.236812145 0.192662969
0.704997063 0.248956159 0.209867001
0.742947400 0.258823425 0.224288270
0.786211252 0.275901288 0.235293984
0.830993116 0.294117391 0.249968320
0.876028001 0.312333971 0.274636149
0.915117025 0.333206862 0.300822020
0.118405998 0.066160545 0.028209999
0.118405998 0.063883930 0.032005388
0.120556772 0.065401994 0.032511450
0.127388000 0.070588388 0.034282450
0.138772994 0.073624097 0.039216001
0.150916994 0.076660484 0.045288000
0.167742088 0.086527541 0.043137453
0.183934271 0.092472993 0.042884447
0.200632095 0.094370544 0.048956450
0.221884489 0.100442551 0.051992066
0.240227729 0.105755538 0.057179190
0.256799698 0.111827537 0.061227284
0.275775105 0.117520280 0.065780997
0.302593499 0.124352030 0.072106026
0.326754987 0.130803540 0.078304544
0.351802588 0.140923530 0.088425055
0.372296184 0.151549742 0.100569442
0.389627010 0.161037505 0.112081021
0.416951448 0.170145139 0.121189430
0.446679652 0.184060469 0.132701010
0.477419555 0.195445731 0.143327191
0.508412123 0.204933673 0.154079869
0.542061508 0.214295015 0.169006497
0.578747392 0.226692006 0.175332263
0.617457271 0.236179829 0.182163447
0.657938302 0.246679530 0.192662969
0.699684083 0.258064538 0.209867001
0.733080387 0.270208538 0.222010985
0.778241575 0.287286639 0.236811802
0.826438785 0.305123478 0.254142851
0.871473670 0.323339522 0.272359520
0.907906473 0.341555536 0.290575534
0.124477997 0.093484931 0.034281999
0.124477997 0.096521318 0.043390386
0.126628771 0.089943156 0.042884223
0.133459985 0.089690000 0.041619062
0.144845009 0.094876483 0.042251613
0.150916994 0.097912870 0.039216001
0.165591314 0.103478931 0.047817677
0.179633051 0.108918220 0.049462065
0.194560096 0.112966090 0.052751161
0.215812489 0.121694930 0.061100446
0.234155729 0.121947929 0.061226934
0.252371997 0.127007931 0.064263314
0.271220714 0.131941572 0.069576286
0.293485105 0.136496037 0.078178033
0.314737469 0.151676401 0.087286413
0.343706578 0.158127934 0.093484931
0.368501186 0.166730121 0.103605054
0.389373958 0.176470906 0.115116626
0.413915068 0.188361928 0.124225043
0.441239446 0.197470233 0.133333430
0.472865343 0.207590118 0.144844994
0.504743934 0.217710257 0.156483054
0.535989523 0.229475394 0.169006497
0.575458765 0.244655028 0.178114906
0.614421189 0.252498567 0.188994050
0.653890014 0.261859924 0.198734730
0.693865061 0.272991925 0.209867001
0.733080387 0.279316932 0.222010985
0.769133568 0.294117749 0.236811802
0.812903106 0.309804171 0.255534172
0.856293261 0.326375902 0.275395274
0.892726064 0.344591916 0.293611914
0.130549997 0.125869319 0.050474640
0.130549997 0.126375377 0.051992707
0.137001768 0.127260998 0.056799546
0.140797168 0.121821478 0.055787317
0.149146318 0.123339638 0.056166865
0.159519330 0.124225251 0.057432253
0.165591314 0.127260998 0.054395996
0.182415992 0.131688699 0.061859317
0.197849199 0.135483637 0.064389415
0.217330813 0.142820805 0.069955803
0.233143747 0.145730644 0.070335321
0.253384262 0.147754386 0.072359063
0.273244947 0.154458970 0.077672318
0.294497341 0.160784349 0.087033316
0.315749705 0.171410725 0.098418407
0.334598303 0.181783512 0.105122991
0.359898865 0.189500198 0.111195385
0.382416219 0.198608577 0.120683052
0.408602029 0.208855331 0.129790977
0.438203692 0.218216673 0.141429678
0.469323039 0.229222313 0.152435318
0.504743814 0.238962770 0.164579317
0.539784551 0.249336302 0.176343828
0.574446738 0.257305741 0.180645227
0.616192579 0.272485912 0.192030311
0.657305658 0.280708611 0.205565974
0.698419154 0.291713983 0.217963383
0.739911675 0.301833987 0.232131630
0.781783879 0.313346148 0.249462113
0.823529363 0.328526497 0.266413718
0.867298901 0.345477909 0.286906987
0.905376017 0.365338653 0.306767672
0.138266698 0.149398699 0.062112994
0.138266698 0.149398699 0.060468286
0.143073767 0.152687699 0.065907933
0.149652168 0.151422858 0.067678705
0.153826997 0.148766696 0.067678705
0.165970981 0.148766696 0.069449931
0.174699694 0.148007378 0.069070384
0.184060708 0.147754416 0.066033997
0.199999809 0.152308598 0.072865099
0.215559989 0.159265980 0.077672482
0.232511148 0.160784155 0.081087992
0.251739562 0.167109445 0.084756441
0.271853596 0.171283707 0.087792344
0.293106019 0.179886028 0.096141703
0.317141384 0.188994408 0.108285688
0.337634683 0.198102608 0.115622692
0.357368886 0.208728403 0.123212889
0.379886240 0.217330694 0.129411995
0.407210678 0.225426972 0.137507752
0.435673743 0.236179635 0.146109998
0.467931718 0.247185692 0.158254281
0.502340257 0.258317560 0.170398548
0.541049719 0.267552286 0.182416186
0.575964689 0.276660681 0.188488185
0.614547849 0.286274552 0.195066705
0.657052517 0.300063610 0.208602011
0.699557424 0.309930384 0.223276407
0.742062092 0.322074383 0.237318426
0.784566879 0.334218651 0.253510684
0.828842819 0.343200445 0.273371398
0.871726692 0.360151857 0.288931370
0.910436034 0.381404281 0.307146996
0.144338906 0.166097105 0.071980089
0.145098001 0.167615101 0.068184800
0.149398997 0.169639200 0.071473874
0.154206172 0.173434153 0.077546000
0.158001453 0.170398548 0.076787002
0.169765905 0.170019105 0.076028004
0.178621322 0.169006780 0.075268909
0.189374000 0.165970817 0.076660387
0.202277094 0.164453000 0.074383095
0.211385503 0.173560604 0.083491489
0.228463098 0.175458282 0.088931099
0.247944251 0.180771440 0.095003091
0.268058091 0.187982097 0.101454549
0.286527842 0.194307134 0.104743972
0.312840194 0.203415513 0.115876079
0.336116672 0.212523907 0.121695094
0.357369095 0.222390980 0.129285097
0.380519032 0.234535128 0.139026046
0.407970011 0.240860209 0.145351112
0.435294360 0.251739085 0.152181998
0.466413736 0.263124466 0.161290079
0.501581192 0.274257064 0.172675252
0.538140416 0.283364654 0.184819981
0.575205803 0.294876695 0.194560200
0.613156378 0.305502892 0.202150568
0.654016376 0.316761434 0.211638391
0.696521103 0.328400016 0.226818159
0.739025772 0.340290993 0.239215881
0.781530559 0.352435172 0.254016817
0.825806499 0.362555176 0.275016069
0.871727049 0.374572754 0.292726457
0.908159077 0.395825177 0.301834077
0.141302526 0.187349498 0.093232490
0.144338906 0.193421498 0.087160483
0.149398997 0.192789286 0.085515976
0.154206172 0.192662820 0.087160334
0.158001453 0.194686562 0.088931009
0.167109072 0.191650957 0.082859010
0.173814148 0.193801180 0.079569697
0.183302000 0.193295211 0.083238237
0.196205109 0.191777408 0.089563489
0.211385503 0.194813013 0.089563489
0.226312876 0.201012239 0.092852876
0.243643478 0.206831455 0.098039486
0.261985987 0.211891338 0.105249844
0.280455053 0.215559527 0.113851592
0.301707417 0.224667907 0.119924359
0.325616628 0.233776301 0.121442497
0.348260701 0.242884293 0.126249298
0.371410638 0.252751142 0.135989666
0.401771456 0.264895946 0.148134470
0.429222345 0.274003625 0.157242149
0.460341722 0.283238232 0.166223735
0.495762110 0.292473137 0.175458610
0.535104036 0.301581442 0.184819996
0.574573278 0.310689062 0.196964011
0.611638546 0.322201073 0.206704780
0.650980771 0.335610628 0.217077971
0.693485498 0.349652410 0.229854554
0.735989451 0.358760029 0.245034918
0.778494179 0.370651662 0.260088801
0.822770119 0.382795930 0.284123927
0.869196713 0.399114549 0.307906121
0.917267501 0.426185995 0.317014486
0.152814746 0.208601862 0.099936999
0.141302526 0.208854869 0.090955131
0.152940914 0.214926869 0.099936903
0.158760011 0.214168161 0.099936835
0.162049219 0.214294747 0.096394546
0.178747803 0.218848810 0.097912870
0.180265740 0.213282868 0.099430546
0.190512687 0.215180025 0.098797865
0.203921869 0.214674085 0.102593094
0.216951475 0.213409260 0.104743868
0.223403007 0.216444865 0.101833992
0.240607113 0.222517639 0.108918376
0.259961784 0.229728222 0.117014647
0.279949069 0.236305907 0.125616699
0.298545271 0.240101278 0.129031956
0.319797665 0.251612872 0.137507930
0.348134190 0.261227190 0.142061993
0.375585139 0.269702733 0.149145856
0.401391953 0.277292967 0.156736091
0.428969353 0.289436996 0.166097492
0.460088730 0.300568849 0.173307866
0.495509118 0.310689121 0.183428109
0.534724534 0.319923967 0.196204990
0.568627715 0.331814975 0.202783018
0.605818987 0.343200445 0.212650269
0.646426201 0.353953183 0.224541649
0.690449297 0.365591258 0.237697810
0.732953846 0.377103299 0.248070568
0.772801638 0.388867736 0.263250947
0.816824555 0.402783155 0.283744514
0.861480176 0.416065842 0.308285862
0.906009018 0.433270007 0.323466003
0.154838741 0.235926494 0.106008992
0.152814746 0.233902231 0.102972865
0.151928782 0.236179501 0.107021026
0.160784006 0.242251500 0.114611089
0.162302107 0.240733683 0.108918250
0.177229881 0.238582984 0.113598920
0.186337739 0.240607247 0.112587184
0.189626738 0.236179531 0.113978505
0.203668579 0.238456339 0.113978505
0.217077747 0.237950727 0.115749732
0.227451265 0.236685365 0.117014378
0.239594981 0.239721507 0.118026502
0.257811278 0.245793998 0.124857605
0.277925283 0.254016280 0.131941736
0.296141565 0.260594666 0.136748582
0.322833776 0.268817484 0.144591808
0.342567980 0.279443294 0.153700203
0.372169286 0.287918985 0.160278246
0.397849441 0.293990999 0.166350275
0.424921364 0.303605288 0.175205618
0.454142988 0.313852012 0.180518508
0.488425016 0.325869501 0.187476128
0.526755035 0.336116225 0.200252995
0.562049448 0.348260254 0.206325009
0.601771235 0.360404849 0.220746532
0.640986562 0.372549236 0.229854554
0.685389161 0.382795513 0.242757812
0.727893829 0.394939899 0.251865804
0.769765973 0.407083988 0.268310815
0.811005592 0.419228375 0.279949188
0.853637218 0.433270216 0.302087337
0.893864989 0.445414245 0.321442008
0.154079646 0.262871653 0.117773637
0.155977398 0.260973871 0.117773637
0.160151869 0.261100411 0.121948123
0.165338293 0.263124645 0.128273472
0.166097298 0.268817186 0.125237092
0.176723868 0.262744993 0.129032001
0.185199320 0.262618601 0.129791319
0.194939643 0.263504237 0.127261356
0.202529639 0.261226922 0.127261356
0.217330500 0.263883770 0.127261356
0.229601741 0.262239069 0.130170763
0.243770003 0.262112528 0.134345248
0.257811278 0.265148640 0.133965999
0.276028007 0.271220654 0.137001678
0.294243962 0.279443383 0.142188281
0.320935935 0.289690137 0.151802450
0.346362978 0.298798442 0.159772187
0.366476536 0.307906210 0.167615592
0.393800974 0.314484268 0.173181653
0.422264427 0.323339641 0.182036713
0.453763634 0.334724754 0.190765545
0.487159759 0.343833119 0.196837276
0.523592532 0.355724126 0.205945626
0.559013486 0.366856277 0.212017640
0.597722948 0.380139202 0.221505567
0.641366303 0.393422276 0.238962948
0.683871150 0.405566275 0.248576641
0.726375818 0.417710274 0.258317441
0.768880606 0.429854274 0.274256617
0.810246706 0.441998392 0.291713834
0.855408132 0.455914170 0.307020813
0.893105984 0.468564272 0.329032272
0.156609967 0.284883082 0.137760997
0.157115966 0.284883082 0.138520032
0.161923036 0.284630030 0.140670255
0.168248132 0.285136044 0.142947167
0.176976964 0.284756541 0.145477489
0.183048964 0.287792921 0.142441094
0.189879999 0.289058030 0.144718319
0.198482037 0.288805008 0.144718319
0.210372999 0.288552016 0.141935036
0.222517014 0.288552016 0.141935036
0.235420704 0.288805008 0.145350903
0.249336243 0.288805008 0.149651989
0.263884008 0.290196389 0.151929036
0.276281029 0.292726040 0.146363035
0.294496983 0.298798025 0.149399415
0.319417804 0.309424013 0.159139991
0.343706220 0.320050210 0.168247998
0.366223574 0.329158604 0.174193576
0.393548012 0.338266999 0.177229971
0.423655778 0.347375393 0.185578689
0.458064467 0.360278279 0.196331471
0.495003104 0.373181194 0.207969993
0.534345031 0.382542521 0.219987497
0.567868650 0.391903877 0.226186037
0.604553998 0.405313313 0.230487242
0.644907951 0.420240670 0.239975005
0.689437151 0.434915006 0.257431984
0.731941819 0.447059005 0.269576013
0.774446607 0.459203064 0.284123838
0.815180123 0.471599996 0.302846193
0.857431769 0.485262185 0.326755136
0.909044981 0.503479004 0.357115954
0.153573588 0.315243810 0.143832996
0.159645587 0.315243810 0.152941391
0.168754131 0.313093036 0.155850634
0.173308238 0.314484417 0.155091420
0.173940584 0.317773372 0.151675999
0.180012584 0.312080920 0.151549473
0.193674907 0.320177317 0.156103417
0.200379714 0.320809692 0.158253998
0.206831321 0.318406045 0.156103417
0.216445014 0.315876395 0.151043415
0.237317875 0.318785518 0.159772292
0.250601083 0.319164962 0.159519151
0.265654981 0.321441948 0.160657644
0.282353014 0.326122403 0.161543414
0.297533393 0.323086798 0.161543414
0.318153203 0.331562012 0.166982979
0.340670586 0.341302574 0.174319983
0.363187969 0.350410968 0.181024566
0.390512407 0.359519362 0.189373970
0.420620173 0.368627757 0.195192993
0.456673145 0.381530643 0.203795150
0.493485123 0.393674642 0.212523997
0.528272986 0.400759280 0.219987497
0.564705789 0.415938914 0.229095906
0.609614134 0.427577555 0.237571120
0.652877688 0.440354347 0.246805906
0.695003092 0.453130960 0.260721326
0.731941819 0.465274960 0.275647998
0.774446607 0.477419615 0.287792623
0.815180123 0.491334558 0.305882573
0.855534196 0.505882025 0.329791367
0.899936557 0.521694958 0.360151559
0.160151809 0.343200773 0.161922783
0.163819999 0.340796977 0.163820386
0.167741776 0.345097959 0.166476995
0.175332353 0.342820942 0.167994797
0.175332263 0.345857024 0.165717795
0.179380000 0.349904776 0.169765785
0.197849318 0.344465315 0.174825788
0.209740698 0.348639995 0.171030790
0.215053990 0.346362859 0.167994797
0.222517326 0.343327254 0.165211797
0.240859866 0.346109897 0.166476876
0.258064270 0.347121775 0.173561007
0.270588458 0.347121775 0.173940435
0.286274821 0.350157768 0.176976755
0.303605407 0.349272400 0.179126993
0.323592782 0.351043820 0.186337784
0.343326986 0.358633608 0.190891981
0.364958733 0.367488772 0.194181025
0.392283201 0.378367960 0.196204975
0.422390938 0.389880151 0.204933807
0.452751666 0.402783036 0.211005792
0.490702122 0.417962909 0.220620006
0.527134478 0.428336471 0.229474977
0.565844595 0.438962668 0.236306101
0.602276802 0.451865584 0.245414481
0.648956180 0.465401620 0.255913794
0.691967010 0.478051841 0.268058300
0.730297029 0.488298565 0.281341165
0.772042811 0.498038828 0.298671633
0.814547539 0.515496314 0.316129148
0.855534196 0.531941354 0.340038180
0.898038983 0.547121763 0.370398611
0.164706007 0.369006991 0.178620994
0.166223809 0.370524794 0.186211184
0.169259578 0.369386375 0.177103192
0.177355960 0.375458390 0.180898026
0.182163358 0.373181611 0.181656986
0.187476248 0.377735227 0.185451999
0.198102325 0.377229184 0.186970189
0.212776706 0.377482563 0.189247191
0.224161997 0.376723468 0.180139184
0.233269989 0.373687655 0.180139184
0.244907990 0.373434305 0.180139184
0.262618452 0.375964373 0.185705379
0.277798831 0.375964373 0.188361734
0.291082025 0.375964373 0.190385997
0.310563147 0.375964373 0.192156777
0.326628774 0.378368199 0.195445806
0.346362978 0.381404191 0.204554185
0.365844131 0.388108760 0.207590416
0.392283171 0.399367392 0.206325039
0.422390938 0.409993917 0.211385354
0.454269469 0.422517627 0.220114186
0.488678247 0.436685383 0.227198064
0.528273165 0.451359689 0.238582984
0.563567340 0.463251084 0.244654998
0.603794992 0.474636197 0.254522473
0.641618967 0.488171846 0.266413838
0.686907053 0.503352284 0.278178304
0.728399396 0.514484584 0.289310694
0.769006789 0.523592710 0.303731769
0.811511517 0.533712327 0.326755345
0.854901731 0.554079413 0.348007768
0.898038983 0.569892347 0.376471013
0.164706007 0.394560128 0.192662552
0.167868569 0.401264697 0.204047978
0.169386372 0.401517868 0.199367553
0.174952149 0.401012123 0.189373985
0.189753100 0.405945599 0.197722614
0.199114516 0.402909189 0.197975576
0.205692589 0.403035700 0.196078315
0.214041695 0.405059963 0.195319563
0.224794582 0.409488022 0.195319563
0.243010581 0.406451643 0.195319563
0.250853568 0.404047847 0.194686994
0.265022069 0.405692369 0.200759232
0.282732606 0.407590121 0.205945924
0.297913015 0.407843083 0.203162566
0.318406373 0.408222526 0.203162566
0.333712965 0.409993768 0.203794986
0.348260552 0.411764920 0.205819190
0.366476536 0.414800555 0.213030010
0.390765369 0.423908949 0.216065615
0.420620143 0.432384908 0.219101772
0.452878147 0.442757964 0.226565719
0.488045663 0.456167132 0.235673860
0.530297399 0.468311131 0.244908005
0.561669588 0.482985467 0.251992136
0.600505590 0.496521145 0.263251126
0.642251372 0.509424210 0.274889648
0.681720614 0.523592651 0.289563984
0.727007985 0.538519979 0.298798114
0.767235816 0.550284743 0.311827540
0.808475733 0.560025275 0.330296993
0.849968553 0.570524752 0.357115984
0.895509005 0.588741541 0.378368437
0.164706022 0.424921006 0.213914976
0.179886386 0.434029371 0.210879371
0.183048978 0.436432958 0.211511999
0.184566796 0.436179996 0.207464010
0.189753115 0.436306447 0.203795418
0.201897889 0.433270067 0.206831023
0.208728984 0.435294300 0.207084000
0.218089968 0.436432958 0.208475754
0.230740115 0.436939001 0.210500002
0.246046990 0.436812490 0.210500002
0.258443981 0.436685979 0.207590133
0.274130493 0.440480977 0.212903276
0.292346984 0.444023013 0.218596011
0.310057044 0.444275975 0.218342975
0.325237453 0.447311580 0.218342975
0.343327016 0.447691023 0.220746174
0.359519213 0.446426272 0.220493227
0.375584960 0.445161402 0.219102025
0.393801033 0.448197037 0.219102025
0.423655808 0.454522789 0.222137630
0.455913782 0.462745279 0.230866522
0.490322292 0.475142300 0.241745889
0.527261019 0.492599964 0.250980020
0.563693821 0.504743993 0.263124824
0.601897240 0.519418299 0.277040243
0.643010259 0.532953978 0.287792981
0.684756219 0.544845104 0.295635998
0.724225342 0.553953469 0.307779998
0.764199734 0.571536958 0.324983954
0.805439353 0.585452020 0.340923190
0.846173227 0.597343266 0.360657632
0.883365035 0.609994054 0.387476057
0.175838009 0.471979737 0.226818711
0.177103028 0.472738773 0.226565748
0.187982410 0.475395381 0.227830589
0.191144854 0.475395381 0.225933015
0.195319116 0.475395381 0.220999569
0.207463890 0.474762797 0.224035785
0.214547992 0.474256724 0.227071404
0.225553706 0.477040082 0.227324367
0.239595443 0.478937656 0.228463024
0.254775852 0.480961382 0.228463024
0.269829035 0.483744740 0.228336498
0.286021531 0.483744740 0.229348630
0.303099632 0.484883100 0.232384726
0.319671363 0.483238399 0.230740011
0.337381423 0.483744323 0.230740011
0.359772623 0.486780554 0.237950817
0.381783694 0.488677919 0.241745532
0.401391506 0.488804400 0.242504597
0.419608086 0.489689797 0.244655371
0.446173459 0.489942759 0.247438714
0.470841467 0.499810517 0.248577073
0.500695825 0.509803951 0.256167233
0.535483837 0.522580504 0.265274882
0.574572802 0.537381411 0.274762809
0.613282800 0.551802695 0.286907017
0.655534327 0.566983044 0.302972972
0.698924541 0.580012798 0.315623373
0.738393664 0.589121163 0.327767372
0.775205314 0.600885689 0.342568189
0.816318274 0.615306675 0.362428874
0.855281174 0.630107343 0.382289678
0.887919009 0.647944391 0.407716393
0.186084732 0.512966454 0.235167995
0.186084732 0.512966454 0.238962993
0.190638766 0.516761482 0.243010953
0.198481992 0.516761482 0.243516564
0.202909291 0.516381919 0.238835976
0.213535875 0.514863729 0.240354180
0.226312727 0.514863729 0.245288149
0.237318426 0.516508400 0.246679470
0.251739711 0.520303726 0.245920375
0.265781462 0.524478018 0.244781733
0.280961603 0.521821558 0.240986735
0.301960498 0.526628733 0.248703241
0.316761643 0.525490344 0.248323992
0.331436008 0.522960186 0.245540768
0.354585707 0.524604499 0.250474483
0.371916592 0.523213267 0.250094801
0.397723198 0.527767479 0.257685006
0.421758294 0.530550241 0.260467738
0.441239953 0.530550241 0.262238979
0.462112606 0.532447457 0.261480361
0.489436984 0.532447457 0.264516264
0.513725460 0.542567968 0.266540259
0.546109974 0.550916791 0.274889022
0.580265701 0.564326406 0.285768628
0.621631861 0.577609062 0.300948739
