Assets/Resources/EldamarStudio/100 Horror LUTs Pack/LUTs/cube/Nayar LUT.cube
LUT_3D_SIZE 8
DOMAIN_MIN 0.000000 0.000000 0.000000
DOMAIN_MAX 0.903226 0.903226 0.903226
0.086274996 0.003922000 0.000000000
0.128146544 0.005060451 0.025047095
0.204554006 0.025047194 0.043896098
0.294244349 0.048829637 0.056040641
0.384693384 0.103225991 0.092346996
0.491587728 0.150663733 0.129158989
0.627324581 0.207463279 0.183301702
0.791524589 0.261732817 0.232890800
0.118405998 0.066160545 0.028209999
0.138772994 0.073624097 0.039216001
0.200632095 0.094370544 0.048956450
0.275775105 0.117520280 0.065780997
0.372296184 0.151549742 0.100569442
0.477419555 0.195445731 0.143327191
0.617457271 0.236179829 0.182163447
0.778241575 0.287286639 0.236811802
0.144338906 0.166097105 0.071980089
0.158001453 0.170398548 0.076787002
0.202277094 0.164453000 0.074383095
0.268058091 0.187982097 0.101454549
0.357369095 0.222390980 0.129285097
0.466413736 0.263124466 0.161290079
0.613156378 0.305502892 0.202150568
0.781530559 0.352435172 0.254016817
0.154079646 0.262871653 0.117773637
0.166097298 0.268817186 0.125237092
0.202529639 0.261226922 0.127261356
0.257811278 0.265148640 0.133965999
0.346362978 0.298798442 0.159772187
0.453763634 0.334724754 0.190765545
0.597722948 0.380139202 0.221505567
0.768880606 0.429854274 0.274256617
0.164706007 0.369006991 0.178620994
0.182163358 0.373181611 0.181656986
0.224161997 0.376723468 0.180139184
0.277798831 0.375964373 0.188361734
0.346362978 0.381404191 0.204554185
0.454269469 0.422517627 0.220114186
0.603794992 0.474636197 0.254522473
0.769006789 0.523592710 0.303731769
0.186084732 0.512966454 0.235167995
0.202909291 0.516381919 0.238835976
0.251739711 0.520303726 0.245920375
0.316761643 0.525490344 0.248323992
0.397723198 0.527767479 0.257685006
0.489436984 0.532447457 0.264516264
0.621631861 0.577609062 0.300948739
0.780897915 0.629727960 0.360025555
0.246679276 0.685135841 0.316255569
0.265148371 0.682858586 0.324730992
0.314358264 0.681973338 0.328652561
0.389753282 0.686780572 0.331941545
0.468817264 0.690701962 0.335610539
0.564452708 0.692093730 0.352055550
0.661606848 0.694623590 0.364579558
0.788741589 0.723339438 0.418216050
0.419101387 0.844908476 0.484376729
0.445793390 0.850221395 0.486906767
0.474256724 0.853510320 0.493737906
0.526502371 0.850347936 0.498924792
0.601517916 0.853130639 0.509297788
0.676533699 0.858570516 0.529917717
0.761796474 0.860594749 0.540543556
0.858190596 0.855281770 0.560404539
0.102720000 0.016065547 0.065401547
0.130930007 0.012903451 0.062239543
0.184946090 0.042631548 0.084503196
0.245288089 0.082985289 0.106514990
0.327008009 0.122453727 0.142820731
0.439342201 0.172928482 0.182542995
0.587349534 0.217330545 0.224035278
0.763820350 0.268564254 0.271347523
0.115243092 0.054775093 0.057938091
0.138773009 0.066919535 0.081087545
0.176723555 0.091208443 0.097533442
0.238583535 0.118658826 0.117520183
0.321568549 0.156609997 0.146109745
0.432384282 0.199367732 0.177482724
0.575837970 0.238456547 0.220113799
0.750031769 0.290955096 0.269955546
0.149778903 0.138140544 0.111954190
0.158001453 0.147248194 0.111195192
0.183807537 0.148386747 0.108792089
0.241366193 0.174193755 0.131562084
0.321568549 0.211764634 0.158127993
0.438709587 0.253763288 0.198988184
0.583301544 0.303478658 0.233396381
0.758633554 0.349525630 0.286401272
0.156736091 0.244275987 0.143959180
0.173687547 0.241999075 0.155092001
0.200632185 0.244276077 0.154712439
0.247944534 0.248956278 0.156230450
0.326248944 0.286653966 0.182922542
0.425933093 0.326881707 0.210246637
0.575838208 0.374572903 0.246046618
0.745224535 0.424668103 0.298292071
0.170904189 0.363567173 0.196963742
0.188488543 0.357495010 0.202529758
0.222264439 0.361037284 0.201265097
0.271853179 0.364959091 0.205186293
0.332195163 0.370777816 0.211764738
0.435294271 0.411891371 0.243263543
0.592030585 0.465528011 0.277039558
0.759645879 0.517393708 0.330423564
0.192916006 0.497532994 0.252624929
0.204554290 0.497532994 0.256166995
0.251106620 0.499177903 0.258444190
0.309297979 0.507400453 0.266666621
0.386464119 0.509297907 0.273371160
0.468058258 0.519165277 0.276027918
0.610120296 0.566223621 0.312207460
0.771789730 0.621505320 0.375332087
0.241492823 0.666287243 0.330044121
0.263504058 0.667299569 0.328399807
0.307779819 0.664769530 0.331435621
0.375585288 0.667172849 0.340038091
0.450347990 0.673497856 0.346995443
0.547375023 0.676786721 0.359771907
0.644782007 0.682605982 0.371031284
0.773560882 0.710689366 0.417204231
0.409487575 0.838709474 0.492979020
0.438203394 0.836685658 0.482732594
0.456166834 0.836306155 0.485768318
0.509550989 0.835041225 0.491714150
0.581277490 0.841998816 0.500822127
0.671347320 0.845540762 0.521315098
0.759519339 0.853763282 0.545983613
0.848070800 0.853510439 0.570904613
0.111321993 0.027450999 0.171537101
0.149399459 0.035673548 0.164958656
0.188109085 0.054775096 0.154333100
0.246046990 0.090069897 0.166476741
0.316508174 0.144971296 0.200632200
0.407336980 0.193801731 0.234914467
0.544844627 0.237318084 0.278937280
0.728905499 0.290575653 0.328905672
0.137254998 0.093232088 0.139911547
0.156863004 0.096394897 0.135230646
0.176723525 0.108159088 0.147754550
0.226439074 0.132827446 0.166097194
0.308285624 0.173181295 0.201770753
0.405059993 0.215812638 0.238962799
0.539152265 0.261353523 0.283491582
0.724731326 0.308538735 0.335863054
0.152941003 0.151170179 0.160658091
0.169386089 0.164958656 0.175585076
0.202277094 0.188109100 0.185705096
0.237444893 0.191904098 0.190386102
0.307147175 0.226439103 0.219481081
0.405439645 0.264389843 0.254269749
0.551170468 0.310942084 0.289057374
0.734851241 0.361543328 0.345603883
0.177229896 0.247565091 0.195445642
0.185452446 0.253890097 0.207717001
0.211638004 0.254649103 0.210753009
0.249588728 0.258949637 0.214294657
0.316508174 0.286274612 0.231878370
0.408728600 0.327008009 0.268311411
0.556230247 0.375078976 0.303099066
0.727766931 0.431498975 0.355597764
0.196078002 0.348640084 0.244402185
0.197849646 0.355724186 0.244276077
0.222517282 0.357242167 0.248324186
0.269576162 0.356356561 0.253383845
0.327514082 0.362681985 0.260088354
0.425679803 0.406072021 0.285515636
0.570777655 0.464516282 0.325869381
0.743579745 0.522706926 0.379885972
0.212017745 0.494623661 0.318405718
0.223655924 0.494623810 0.306641430
0.259708732 0.496141732 0.308285832
0.311701179 0.500442564 0.311701357
0.380518377 0.504364371 0.320430160
0.460341454 0.512081087 0.325489849
0.600759029 0.563693643 0.362428635
0.763946712 0.626185715 0.422770411
0.260847270 0.660974443 0.381277651
0.280075997 0.666919887 0.380897820
0.322580367 0.666540325 0.389247388
0.387096822 0.670082152 0.393169016
0.459456295 0.673624277 0.397849262
0.549272656 0.674003839 0.403289080
0.640607357 0.682226419 0.412523568
0.776217282 0.716002226 0.471979618
0.437571317 0.839468777 0.526248932
0.457305133 0.840227962 0.527767241
0.483491480 0.841872275 0.533080459
0.534598291 0.842504680 0.544338942
0.599620581 0.846046567 0.549272478
0.678178251 0.847185254 0.563693762
0.758507073 0.855028391 0.582668841
0.846173406 0.860974073 0.595572591
0.116002284 0.039342638 0.269702643
0.154459000 0.054648992 0.260341734
0.201770738 0.077419281 0.245414540
0.247185633 0.102087632 0.234914273
0.315749168 0.144465640 0.256546438
0.404553831 0.195319727 0.289310634
0.534345210 0.243263647 0.333586276
0.710815549 0.304490983 0.396963984
0.141050100 0.122074276 0.232637361
0.152308643 0.122833282 0.215433031
0.187982187 0.129917994 0.223909184
0.232637286 0.140543640 0.223149985
0.303225994 0.174193546 0.246553078
0.396205097 0.218469292 0.289310545
0.529158831 0.264642447 0.335104197
0.692472935 0.324983984 0.393421918
0.157874644 0.178494290 0.220999733
0.178747907 0.187856078 0.223023385
0.202909276 0.194560647 0.226186171
0.238963097 0.202783197 0.234914362
0.301581264 0.234155282 0.266287178
0.391271710 0.271347433 0.302340299
0.523339689 0.321189284 0.350410998
0.700189948 0.381783605 0.413409233
0.173687637 0.239974633 0.239974648
0.190512195 0.248197183 0.246299624
0.227703646 0.274889201 0.270588636
0.267931998 0.297153622 0.287033647
0.305376172 0.301454961 0.288424820
0.393421829 0.335863382 0.319923937
0.524351537 0.381277561 0.361669570
0.698292196 0.436306298 0.416318744
0.199873194 0.350031376 0.310815841
0.213535547 0.351549447 0.293485254
0.246046990 0.363441110 0.312207550
0.278431624 0.362934709 0.312080622
0.323845804 0.371157467 0.311321795
0.407084376 0.406830907 0.340670377
0.550790727 0.459709257 0.382922381
0.721821547 0.526122749 0.444275886
0.228716075 0.475268543 0.354459107
0.242884189 0.479569823 0.359392554
0.269449979 0.483112067 0.354332626
0.316761523 0.487792492 0.361416727
0.374952346 0.495762259 0.369259715
0.446552694 0.505376160 0.375458717
0.583175361 0.561037183 0.420746177
0.748133957 0.624414742 0.484756380
0.273624629 0.647058904 0.434535265
0.296267927 0.646173298 0.431246251
0.324098825 0.645034611 0.430740207
0.377988577 0.649841845 0.435167581
0.455913901 0.655407846 0.446678996
0.535736978 0.662112594 0.450853825
0.623529196 0.672232926 0.459835619
0.756230056 0.713978589 0.518026710
0.445920229 0.823655784 0.569512963
0.455914021 0.829095364 0.566856146
0.479696512 0.828968704 0.574572921
0.529159069 0.829854488 0.577862024
0.592030287 0.833269835 0.584439814
0.668564260 0.837950766 0.594940066
0.751169980 0.845920324 0.614294589
0.838709772 0.856546223 0.635673463
0.123972192 0.098671801 0.395825177
0.158001453 0.110436186 0.386338085
0.216445088 0.126122996 0.374573082
0.272359639 0.144086197 0.359139711
0.321947962 0.164453179 0.340038180
0.410373360 0.203668475 0.361289918
0.544212461 0.249968290 0.412017673
0.715875924 0.308791816 0.473497599
0.154838547 0.161416993 0.353194177
0.174573347 0.168880552 0.348133832
0.214800999 0.172422186 0.345477253
0.258570164 0.184187099 0.338140547
0.309551179 0.191904187 0.327514201
0.393548727 0.223655924 0.354838490
0.527387679 0.274130285 0.407716632
0.699430585 0.321694970 0.467805177
0.174699381 0.222517282 0.324225068
0.192915902 0.235167891 0.335483998
0.219607994 0.234282270 0.332321078
0.257431716 0.238203987 0.322707087
0.304744154 0.243643090 0.321948200
0.389500201 0.281593859 0.360657722
0.525363564 0.322707087 0.415812731
0.701075256 0.384946018 0.481594056
0.182289630 0.286274433 0.326628476
0.203921914 0.291460991 0.336875379
0.229221836 0.300442666 0.335230976
0.274889261 0.313345999 0.350158274
0.313978165 0.322327644 0.358760178
0.398102671 0.352814853 0.385325372
0.525996327 0.397469908 0.426565468
0.684250414 0.457052261 0.495129794
0.199747190 0.356609792 0.354205966
0.223908737 0.361163974 0.348640203
0.250727177 0.372928172 0.365085393
0.308665156 0.409740388 0.395951718
0.368121356 0.430866361 0.419101983
0.433522910 0.435040921 0.422264159
0.545603752 0.474636197 0.453510374
0.704617381 0.534977853 0.516887963
0.237571195 0.485515475 0.414547980
0.252245277 0.487919152 0.418595731
0.286653996 0.493864775 0.425300449
0.340290844 0.508286059 0.439089119
0.389626890 0.512713492 0.447691441
0.461859465 0.522074759 0.452245533
0.586717010 0.569259524 0.492852926
0.738393486 0.630866408 0.556609809
0.304743797 0.639848471 0.498039275
0.318912297 0.647058845 0.503352344
0.349272460 0.648576617 0.505250037
0.391144723 0.649715245 0.506388426
0.456420243 0.654902279 0.510056853
0.535610437 0.658317804 0.519670784
0.615433276 0.665022135 0.523213148
0.758127689 0.718279302 0.586590707
0.457305580 0.820872784 0.628589392
0.474762857 0.827956855 0.627071559
0.496521264 0.821378827 0.627450824
0.545098066 0.826945007 0.635293961
0.602023780 0.833016932 0.641366303
0.677039742 0.838456750 0.656166613
0.749904990 0.841998637 0.662112713
0.831119239 0.848703206 0.682226241
0.119671263 0.152561471 0.532321453
0.160784289 0.160025433 0.528020024
0.227956980 0.172169477 0.518532693
0.300695986 0.186337993 0.502972722
0.371916264 0.206830993 0.483238459
0.438330442 0.223149985 0.467805207
0.548766553 0.252498507 0.493232250
0.714357734 0.316761822 0.558633685
0.148007363 0.199873731 0.500568986
0.176850259 0.207463294 0.492852658
0.227577537 0.213282526 0.494750351
0.293358654 0.222011641 0.482226431
0.362049103 0.230234176 0.468564093
0.426691979 0.245414734 0.457558930
0.533586323 0.276787013 0.482226461
0.701834083 0.331435561 0.548766494
0.169006839 0.272359192 0.467299342
0.188361734 0.281467557 0.469196618
0.236306354 0.280329078 0.463757217
0.290954739 0.281467646 0.459203094
0.351928890 0.287413090 0.453257382
0.411258698 0.294117630 0.452498466
0.532700956 0.329664439 0.489437252
0.707273841 0.395192653 0.558760524
0.194813356 0.336495578 0.453510195
0.211891443 0.339784980 0.447564632
0.249083087 0.343706459 0.448450357
0.295635641 0.348007709 0.445287526
0.345857173 0.350664169 0.444148988
0.406451792 0.357874483 0.444528461
0.520682871 0.397596389 0.489563733
0.692473114 0.457684785 0.562808335
0.206072181 0.410626113 0.454775453
0.229095727 0.411511719 0.452498376
0.265148610 0.418595701 0.465022445
0.314104974 0.430233926 0.472991586
0.382289559 0.444781661 0.483491510
0.446679205 0.456546545 0.489690125
0.556989253 0.494623899 0.534851253
0.705502450 0.550411344 0.599873424
0.238962993 0.489310473 0.475521743
0.259076297 0.491587639 0.479443222
0.292220086 0.503099144 0.492473364
0.348513335 0.521948099 0.505123436
0.436559141 0.560025156 0.540796757
0.520683467 0.585452259 0.567615509
0.604174733 0.598734677 0.586843789
0.736875534 0.649209499 0.640480518
0.303225994 0.635673583 0.561290026
0.316634983 0.640860260 0.559898734
0.355977446 0.643137097 0.564579368
0.414421111 0.651486337 0.579380155
0.490955383 0.664895535 0.593042135
0.547501266 0.667931795 0.594686806
0.627071559 0.677672088 0.607463717
0.755470872 0.727893710 0.657938004
0.485262424 0.819228470 0.685894728
0.499430656 0.813156128 0.689183891
0.521568477 0.815180361 0.686021388
0.565970957 0.821505368 0.697027147
0.606831074 0.823908627 0.700316072
0.671220660 0.830486715 0.704617441
0.746109605 0.839595437 0.717140734
0.829980671 0.848703444 0.738519728
0.108159281 0.215306699 0.701834559
0.159266099 0.217330545 0.694117546
0.245287806 0.226186082 0.696268260
0.339785010 0.241619334 0.685641885
0.429728389 0.254396200 0.667805552
0.524857700 0.268563986 0.652119100
0.610626280 0.284250557 0.644275546
0.720556140 0.325742960 0.650474370
0.132194743 0.257305533 0.677672565
0.173181280 0.259456277 0.671979845
0.246805891 0.264389753 0.674762845
0.337507993 0.272991538 0.664516032
0.424414992 0.278431654 0.653257370
0.512840152 0.296014994 0.645667255
0.601264775 0.304996520 0.629095256
0.709297895 0.335863173 0.640480518
0.163061291 0.329664439 0.656166852
0.201771021 0.333206832 0.657938063
0.255914360 0.336875290 0.652371526
0.339531928 0.339531720 0.647564650
0.418848544 0.345351100 0.639595270
0.508285701 0.349146366 0.633776009
0.596331537 0.362555087 0.623908699
0.706641138 0.397723258 0.643896282
0.202403635 0.411005557 0.633649468
0.222770348 0.411891192 0.632764280
0.273244977 0.409867227 0.625047088
0.340923637 0.410373271 0.622390866
0.420493186 0.414927274 0.619734168
0.493484914 0.420493275 0.616951346
0.572675467 0.425047547 0.609613776
0.698671579 0.464895636 0.641872406
0.228589460 0.486400992 0.617457271
0.255787551 0.490069568 0.632258236
0.301454991 0.494117677 0.623908639
0.357495010 0.495382845 0.615812838
0.422770381 0.498165756 0.618469477
0.499936908 0.499557167 0.617330790
0.577735662 0.502846241 0.616192520
0.709677219 0.553320825 0.665148973
0.269955754 0.574066937 0.627704024
0.289816290 0.574826062 0.636306226
0.329032063 0.576723814 0.630487025
0.390385717 0.585452318 0.637697399
0.462365627 0.597975731 0.644908309
0.539911270 0.608222902 0.650094569
0.620619774 0.614168286 0.657558501
0.740796685 0.663504303 0.705376029
0.306135267 0.650853574 0.636432588
0.320935994 0.649588823 0.629980862
0.361796379 0.649209261 0.635926604
0.415939301 0.657558620 0.640733838
0.494876772 0.669829547 0.655534267
0.594180763 0.703352451 0.689942837
0.684503257 0.729285538 0.716888011
0.770904601 0.751675785 0.739405513
0.482858956 0.809361279 0.733839571
0.499430627 0.812523723 0.744844615
0.518279612 0.816951513 0.738393605
0.569006741 0.821631789 0.749272346
0.626944900 0.824920893 0.756989181
0.692599773 0.834788084 0.773181319
0.749019146 0.839721620 0.782669306
0.831625342 0.851107001 0.793295622
0.167615786 0.307653457 0.863250911
0.208096355 0.306641340 0.855787158
0.287919074 0.316129029 0.854901791
0.391018093 0.327008128 0.848829746
0.496268153 0.343326598 0.846299767
0.599620402 0.361669660 0.836685717
0.707020938 0.382036805 0.821885049
0.807210565 0.405818611 0.818848729
0.177356333 0.340923309 0.848450422
0.228842616 0.342188150 0.841745794
0.295888782 0.350031465 0.847438574
0.392030269 0.358001143 0.841998875
0.490196079 0.366982937 0.835040927
0.594180703 0.382669032 0.829348505
0.696521103 0.399746716 0.815306902
0.791397750 0.416192591 0.802909136
0.233016863 0.418975055 0.838836551
0.273244590 0.424288452 0.841366291
0.327387869 0.420240223 0.833649397
0.410752714 0.431499064 0.833143473
0.502466798 0.434535027 0.828083277
0.598987758 0.448703378 0.819860816
0.698418856 0.458191097 0.810120165
0.795825362 0.472738624 0.809614062
0.290322572 0.503731608 0.815939605
0.319797426 0.507779777 0.819101572
0.361796290 0.510562956 0.818975568
0.428842455 0.511321843 0.811258793
0.507273793 0.513598859 0.813029408
0.598608553 0.516761184 0.804933488
0.687539339 0.523592710 0.795445800
0.775205433 0.528020382 0.791144729
0.348892927 0.588235140 0.812144399
0.360657752 0.597469807 0.808349133
0.401011854 0.597975850 0.806957245
0.457052410 0.596457899 0.805692613
0.525996149 0.596837163 0.804427207
0.605439603 0.602150261 0.802403331
0.691207707 0.600379646 0.794813514
0.772422254 0.606957495 0.787729383
0.398355484 0.677166402 0.813029528
0.409361035 0.678431273 0.811637998
0.443516493 0.677672207 0.809867084
0.495129555 0.679696441 0.809361041
0.554838717 0.682732344 0.803541839
0.624667645 0.684882760 0.803668499
0.705376565 0.688677788 0.800632417
0.781783640 0.688804746 0.802529693
0.438203841 0.752308905 0.806451619
0.451612681 0.750031710 0.805692315
0.477672398 0.749019146 0.800252795
0.525490046 0.755091548 0.802403331
0.581150889 0.750916660 0.803035915
0.651612639 0.760658085 0.808981478
0.717899621 0.763314068 0.806831300
0.797216594 0.771790028 0.820367038
0.520935595 0.834534764 0.813535750
0.527008235 0.839089274 0.827830553
0.553320467 0.838456750 0.824794471
0.589879572 0.834534705 0.822643936
0.638962388 0.836052895 0.821505606
0.703478575 0.843137383 0.831372380
0.782669365 0.862112522 0.853004336
0.861985743 0.885515451 0.877672434
