Assets/Resources/EldamarStudio/100 Horror LUTs Pack/LUTs/cube/Necevor LUT.cube
LUT_3D_SIZE 5
DOMAIN_MIN 0.000000 0.000000 0.000000
DOMAIN_MAX 0.903226 0.903226 0.903226
0.007843000 0.007843000 0.007843000
0.107273981 0.023529001 0.017330708
0.299556971 0.034661576 0.023529001
0.559266269 0.084376998 0.045160998
0.860720634 0.167615786 0.123086803
0.111827992 0.118405983 0.006198711
0.146489412 0.116761692 0.016698286
0.320809692 0.142567992 0.025806291
0.567109287 0.185072824 0.069955997
0.868817329 0.251233369 0.142061800
0.297659397 0.303478807 0.044528987
0.326375782 0.301201671 0.050727699
0.389879793 0.288425356 0.089057818
0.607336938 0.332574099 0.124983981
0.898038983 0.410120368 0.202277213
0.583807349 0.549525261 0.146363124
0.614800870 0.556103528 0.149525538
0.674383283 0.565212250 0.161796242
0.730803132 0.543580234 0.215939254
0.924983919 0.614927232 0.332321078
0.847438455 0.860720634 0.446679235
0.863250911 0.866666436 0.453636914
0.909551024 0.866540134 0.476027787
0.953952789 0.875395417 0.510056555
0.984566569 0.854142725 0.586590350
0.043136999 0.038582996 0.066413701
0.113472700 0.032384705 0.062491700
0.274383098 0.082100123 0.086021282
0.514104843 0.156989411 0.138393536
0.835799932 0.222137824 0.208096370
0.084376991 0.115749404 0.061479993
0.142567977 0.134724975 0.080455408
0.281214386 0.166477099 0.104996696
0.526628673 0.214547813 0.151422694
0.849588752 0.283997387 0.223782390
0.272106379 0.288424969 0.126628682
0.311701089 0.292346388 0.121315695
0.369260073 0.290069669 0.140290692
0.587096512 0.340417534 0.186084956
0.879316926 0.433396488 0.271473974
0.568754137 0.547248423 0.209993392
0.594940126 0.548260689 0.223402694
0.660974026 0.555723965 0.228083521
0.722959936 0.544971645 0.268311232
0.916002393 0.626692057 0.387096763
0.844528913 0.860973895 0.494876564
0.855028331 0.856293499 0.479570091
0.897786200 0.867172778 0.508285701
0.949652076 0.876913369 0.549778461
0.988234878 0.857684731 0.604933441
0.100063413 0.030740418 0.230233967
0.161543399 0.054648697 0.215812817
0.291081369 0.098798409 0.209993392
0.529538155 0.155344710 0.222517222
0.833269775 0.244149208 0.310816050
0.154079676 0.160910815 0.195319086
0.193295524 0.170398280 0.197217107
0.295635790 0.185072407 0.197849691
0.528272986 0.236053243 0.241366401
0.835294068 0.327134639 0.341176510
0.225047797 0.302846372 0.193547994
0.280961096 0.313599110 0.214927107
0.406198382 0.342694819 0.262997806
0.581530631 0.381024659 0.304870248
0.855407774 0.475015581 0.407716155
0.532447875 0.540037930 0.336622089
0.560911000 0.545604050 0.340543926
0.635420322 0.558633685 0.352688372
0.705376327 0.558633685 0.383175105
0.892473221 0.654395938 0.491587490
0.813535571 0.858064592 0.570019007
0.822517157 0.850474238 0.567235708
0.868310988 0.863883376 0.586211443
0.933712661 0.874636352 0.617330849
0.976217389 0.864515781 0.668058157
0.203162119 0.099177867 0.459329247
0.261353701 0.121315703 0.449462235
0.378115386 0.156356573 0.435800254
0.569133282 0.184439987 0.424035251
0.854522288 0.263756812 0.475269109
0.258696973 0.225679979 0.425933242
0.302846402 0.229221687 0.425047576
0.396458089 0.248197705 0.417457253
0.570145488 0.259709269 0.426945120
0.851233304 0.348766625 0.484756649
0.328399837 0.357115388 0.416951090
0.380392522 0.363693655 0.429601341
0.479190081 0.394433647 0.427577376
0.622390985 0.412144423 0.450221628
0.857685089 0.515496612 0.533838987
0.458191127 0.568121433 0.440733373
0.490828574 0.574952245 0.450980514
0.594180942 0.596837521 0.493611932
0.732701123 0.638709426 0.569133282
0.889942765 0.705629408 0.636432767
0.750411332 0.864895582 0.646679461
0.772042871 0.864010036 0.664642394
0.826185882 0.873118162 0.700316310
0.905629218 0.881214321 0.714737594
0.954585791 0.882099748 0.757747889
0.350663960 0.221252620 0.803288579
0.406830966 0.230866492 0.796710730
0.520682752 0.263124615 0.791397750
0.671600282 0.322453916 0.791650414
0.899936557 0.370524585 0.776976585
0.409867316 0.332700670 0.785325706
0.453763336 0.336622357 0.788235605
0.556356668 0.360910892 0.785325587
0.687033474 0.403162479 0.782415867
0.891966760 0.438583165 0.782669187
0.533206999 0.507653594 0.773181558
0.571789980 0.524478078 0.775584877
0.638456583 0.540543556 0.780518830
0.730170488 0.559772313 0.775458336
0.893231750 0.586970150 0.777229548
0.600379765 0.699936807 0.787349641
0.626565576 0.702593207 0.788994014
0.696521163 0.702846348 0.788235545
0.786717236 0.729664922 0.786970437
0.902213871 0.748260736 0.799746633
0.702593446 0.886780620 0.775711417
0.719038486 0.889057636 0.789120793
0.769006789 0.890701950 0.797343135
0.851992786 0.899177730 0.825173914
0.941555738 0.923339784 0.884250581
