Assets/Resources/EldamarStudio/100 Horror LUTs Pack/LUTs/cube/Necevor LUT.cube
LUT_3D_SIZE 8
DOMAIN_MIN 0.000000 0.000000 0.000000
DOMAIN_MAX 0.903226 0.903226 0.903226
0.007843000 0.007843000 0.007843000
0.037950546 0.016445000 0.005060451
0.130803093 0.025047192 0.020366903
0.238836274 0.028589644 0.023529001
0.368754178 0.045287993 0.019608000
0.520809472 0.074256994 0.037065253
0.684503257 0.112713285 0.077419288
0.860720634 0.167615786 0.123086803
0.045034546 0.046173092 0.004301451
0.065781087 0.049335998 0.011385452
0.143327087 0.069702990 0.018848903
0.249842092 0.080708191 0.012903354
0.372675568 0.100316092 0.025174003
0.521189034 0.125237286 0.046552740
0.694244027 0.155851007 0.083744571
0.864642620 0.199494258 0.133585960
0.130044192 0.146489099 0.004680903
0.151170105 0.140923187 0.004553995
0.172296196 0.142568097 0.024288097
0.261985838 0.153574005 0.023782546
0.382922381 0.176217377 0.042251807
0.528146744 0.197217092 0.071220897
0.700189829 0.234914467 0.100063086
0.870841503 0.272485971 0.151676059
0.227071270 0.245540634 0.025806289
0.252498716 0.238456726 0.024921093
0.281214207 0.244275987 0.029221738
0.303858280 0.233775914 0.054395642
0.402024001 0.258064657 0.074636444
0.550411463 0.283491284 0.096647732
0.715369940 0.317393929 0.130802915
0.881467223 0.361669451 0.186717436
0.370525181 0.356356382 0.064009994
0.384440392 0.363820553 0.076660186
0.412650257 0.361796170 0.070335187
0.442378372 0.362175733 0.087918736
0.473750561 0.347628385 0.113472186
0.591144621 0.374320179 0.139405385
0.743832946 0.414927185 0.170398280
0.900569201 0.466540158 0.232890636
0.540290475 0.504996479 0.125110477
0.553953171 0.510563195 0.123971924
0.577356100 0.505755544 0.127513990
0.615180254 0.516635418 0.132194892
0.649335444 0.511195242 0.157242179
0.683238208 0.499051183 0.187602460
0.791524053 0.528526306 0.228842542
0.921442032 0.583301544 0.308285743
0.710942507 0.694623590 0.236812264
0.719797254 0.694750071 0.230613381
0.742694438 0.692852736 0.242125362
0.776344240 0.701960921 0.253257185
0.807590485 0.703099549 0.262618750
0.832637787 0.698039293 0.296647727
0.864263296 0.679569542 0.330550522
0.934345365 0.697786272 0.399240911
0.847438455 0.860720634 0.446679235
0.857684851 0.864895344 0.452877820
0.869829178 0.871473670 0.460215122
0.895508945 0.864136636 0.465907395
0.927640617 0.872612417 0.487286210
0.951169908 0.878178537 0.504996479
0.976217628 0.871094584 0.546742678
0.984566569 0.854142725 0.586590350
0.027450999 0.020746548 0.025047095
0.046552546 0.023529001 0.012903451
0.135104537 0.029348547 0.026565190
0.225553185 0.065781094 0.046932187
0.338267177 0.090828992 0.061353736
0.490196198 0.118532531 0.090196185
0.666287482 0.151170000 0.120556571
0.849841833 0.193548515 0.161163971
0.037191547 0.050094996 0.014421546
0.065781087 0.054016095 0.025806095
0.128020540 0.074762642 0.037570998
0.222391099 0.101454638 0.045414191
0.345730662 0.125363901 0.068943992
0.498292178 0.151549548 0.088424988
0.672485828 0.178114831 0.125490114
0.851107001 0.218216047 0.171030939
0.114737540 0.138646185 0.034788448
0.137128204 0.136242986 0.044655096
0.159772098 0.139025643 0.059203357
0.243517086 0.153447196 0.060594544
0.366856754 0.183681443 0.082605645
0.503731728 0.211005643 0.107147180
0.683111966 0.239974827 0.134598285
0.857431591 0.287665904 0.184313715
0.222770646 0.233775914 0.061733186
0.232511193 0.236938730 0.072485544
0.265021801 0.241619542 0.071600445
0.288045257 0.233396366 0.080581993
0.395825744 0.255281299 0.102466993
0.536622286 0.285515517 0.129664645
0.703984737 0.322580576 0.159519181
0.865401566 0.361543268 0.206451550
0.362428367 0.350410998 0.103225991
0.368627548 0.354459018 0.098545186
0.400126368 0.352308452 0.104870088
0.435041010 0.357874453 0.121315375
0.466413736 0.346110195 0.135736823
0.584187269 0.373054922 0.164832652
0.742947161 0.417710096 0.194433838
0.889436781 0.472359180 0.252751261
0.528146923 0.500948429 0.152308732
0.545603752 0.501454890 0.152561277
0.567615569 0.509677231 0.157621726
0.608855128 0.512839973 0.163820729
0.644528568 0.505629480 0.181150913
0.675395131 0.496774018 0.210626289
0.781657279 0.532447755 0.247817755
0.917267501 0.585452497 0.330550224
0.698166013 0.681846857 0.240987003
0.708791852 0.681593835 0.254269361
0.718279660 0.678431273 0.245034799
0.751929164 0.687286615 0.258317500
0.793295026 0.691967130 0.272359103
0.823023140 0.681087971 0.299304128
0.846047044 0.668058515 0.332068115
0.923465729 0.682099640 0.392409533
0.847185135 0.855787158 0.455660760
0.850474179 0.857811332 0.460215122
0.861985981 0.852371633 0.450347513
0.887792528 0.858570397 0.470588148
0.921315432 0.865401685 0.493105769
0.948893249 0.874762952 0.522327602
0.966856301 0.865274906 0.552814722
0.989500046 0.848071098 0.586211205
0.044654999 0.042378098 0.088424996
0.070841543 0.036053095 0.083744094
0.134725094 0.040734001 0.083744094
0.229095623 0.062239353 0.092473097
0.339911282 0.099430896 0.104997002
0.465781450 0.148386836 0.141176000
0.638836324 0.191018179 0.180771381
0.830486715 0.232004791 0.226818651
0.059835639 0.073244549 0.078684546
0.090828992 0.075901188 0.067172989
0.141809002 0.086147994 0.085389100
0.225173727 0.110815637 0.093990996
0.328020364 0.141682282 0.112333730
0.471347272 0.181277722 0.148386925
0.648197353 0.212271094 0.184186921
0.837318361 0.253510654 0.232763886
0.100316100 0.137001991 0.075142190
0.119417734 0.144845098 0.092473000
0.169892192 0.159772098 0.097912908
0.239215732 0.172296107 0.105629094
0.344592005 0.198102280 0.134598181
0.488171846 0.226691827 0.160025358
0.660721004 0.262365639 0.196331277
0.850853860 0.309550822 0.245794073
0.200379282 0.240860626 0.117899738
0.221631989 0.234534815 0.116635092
0.252119184 0.245540723 0.122453734
0.282606274 0.238456726 0.129538432
0.387349844 0.265148640 0.157874733
0.523086488 0.297912717 0.178747833
0.689943373 0.334724814 0.215053737
0.859202802 0.386843443 0.267931610
0.341303170 0.349399000 0.151802391
0.359012812 0.346869290 0.161290184
0.388361394 0.353953362 0.163567185
0.425553620 0.354332715 0.168247998
0.451107204 0.347754270 0.180898294
0.569006860 0.376217812 0.207716823
0.729032338 0.425933093 0.246426448
0.883870840 0.483111978 0.313092977
0.517900109 0.499936819 0.212017477
0.526122689 0.500569105 0.210499376
0.555471182 0.503478467 0.216571465
0.592536390 0.504617095 0.221505180
0.627577186 0.508538842 0.231245816
0.662745118 0.497153461 0.255155176
0.780392289 0.533839285 0.303858012
0.913472414 0.597343504 0.385831773
0.683871269 0.686148226 0.307400465
0.697406709 0.680455446 0.304237545
0.719165087 0.688298762 0.309677571
0.751675963 0.689943433 0.324984014
0.788741410 0.697027385 0.330044270
0.815180063 0.692346513 0.350411385
0.847944438 0.676660478 0.381783754
0.924477994 0.702972829 0.451233298
0.838203609 0.859202623 0.503731370
0.845161259 0.857178867 0.497786045
0.854016423 0.859076738 0.498798251
0.883871257 0.864895344 0.515243530
0.912333906 0.869576395 0.532953739
0.944339097 0.876154423 0.550284445
0.962428868 0.869576395 0.585325599
0.982669055 0.861226916 0.613282621
0.079063997 0.033017002 0.178873926
0.106135450 0.025806289 0.177355736
0.159013093 0.052877743 0.166350543
0.229854643 0.076787002 0.160910636
0.355976939 0.105249636 0.160784438
0.480708361 0.142441466 0.183807641
0.644275546 0.180518627 0.224920928
0.821378827 0.242757961 0.282352924
0.106514990 0.091587894 0.153447181
0.126881897 0.096268088 0.150284380
0.157748550 0.108791992 0.150284275
0.227830276 0.116635084 0.146742642
0.342567831 0.150411084 0.164832443
0.480835170 0.181404442 0.193421990
0.646805763 0.216571823 0.231372640
0.813282728 0.282985687 0.297280014
0.126375645 0.158633649 0.156610087
0.158633634 0.160910651 0.153826728
0.185958520 0.180518642 0.160531193
0.249335721 0.187476441 0.160405084
0.357495040 0.214674294 0.180898175
0.484630257 0.248323902 0.208475724
0.648197532 0.293738365 0.262112558
0.828083456 0.343579978 0.321568638
0.169892281 0.241619632 0.149778634
0.191777185 0.243137538 0.159392640
0.249841988 0.268691093 0.179380000
0.315116882 0.284756631 0.198481634
0.393422008 0.289690256 0.210120022
0.513472497 0.319544375 0.240607008
0.672865212 0.352687925 0.283238292
0.836306036 0.409361064 0.334851444
0.315875709 0.355091840 0.207210630
0.335104167 0.357874572 0.209234729
0.377861947 0.365338564 0.225806624
0.421252489 0.366476983 0.231245816
0.458823383 0.362934798 0.242124826
0.574826181 0.399747014 0.278304815
0.716761291 0.445034832 0.315370053
0.877799034 0.506008804 0.379000604
0.496774197 0.495256215 0.287792623
0.508159339 0.498292089 0.278304726
0.533712745 0.502213836 0.280076146
0.576976538 0.507273495 0.287160277
0.614801109 0.512460589 0.297659814
0.658570588 0.507273495 0.322454274
0.768753886 0.549146116 0.361290455
0.897532880 0.617583573 0.443769932
0.665401936 0.676786900 0.371790290
0.673118293 0.681594014 0.375205934
0.692346632 0.675648272 0.371536672
0.727640569 0.683491588 0.382036924
0.767995000 0.687412858 0.390891641
0.800632536 0.689816535 0.407083899
0.833523273 0.675015807 0.433017224
0.910309970 0.709803820 0.496521086
0.819481313 0.857937992 0.545351088
0.823529303 0.857937992 0.545730233
0.844528615 0.856166780 0.543959439
0.865401804 0.860088408 0.554206252
0.898545086 0.865528166 0.565971076
0.928399622 0.877419412 0.591271162
0.954079568 0.873371303 0.615559876
0.981150925 0.865148783 0.646552563
0.122833379 0.043769803 0.281847000
0.150663823 0.056293186 0.277166367
0.198102280 0.081341095 0.269323289
0.256419837 0.108412638 0.259835571
0.355471373 0.121315181 0.253763199
0.497912645 0.150790736 0.265528202
0.661479890 0.187855691 0.292725980
0.840227544 0.247691497 0.349145979
0.150284290 0.125363901 0.258191258
0.168627650 0.126502350 0.251612723
0.207463279 0.139025733 0.257685184
0.265907735 0.151929095 0.254142851
0.351169914 0.155724093 0.250980526
0.492852718 0.188741088 0.268943757
0.662871778 0.221632004 0.298671931
0.829980969 0.272738725 0.352941453
0.191144899 0.194181085 0.241998985
0.204174265 0.207210630 0.241113275
0.241366178 0.205945298 0.241239890
0.279063821 0.214168444 0.244655624
0.363946557 0.222517282 0.250474185
0.500316262 0.251865745 0.274383634
0.666287541 0.291208178 0.316888154
0.839342177 0.350411117 0.380139232
0.211005837 0.270967960 0.245035186
0.234914377 0.273624539 0.252877980
0.281340837 0.280329019 0.259455919
0.343706459 0.300695986 0.267298818
0.422897279 0.308538973 0.272232562
0.539025903 0.339152396 0.306768060
0.687286556 0.377356380 0.348260432
0.829601526 0.446552902 0.419734269
0.287286192 0.362682164 0.258317381
0.307779998 0.367995203 0.258696914
0.350031376 0.384566456 0.270841300
0.431119621 0.406831026 0.313472807
0.506641388 0.418216377 0.337381184
0.592283368 0.433776379 0.354332596
0.716002524 0.472991467 0.389879555
0.854775429 0.534471750 0.460721165
0.444528550 0.506514668 0.309424520
0.466160893 0.512460530 0.327134669
0.508918345 0.513599098 0.352941185
0.564832091 0.528905809 0.378494829
0.616318464 0.531182945 0.380771935
0.659456193 0.525616705 0.400379926
0.767615557 0.577735662 0.446426213
0.888425231 0.638456762 0.517014503
0.634788394 0.682858706 0.447944462
0.648576796 0.683744431 0.450094849
0.671473503 0.682985485 0.454902053
0.702087045 0.686400950 0.463124633
0.755344391 0.694876552 0.471094549
0.792663038 0.699936569 0.483238459
0.818089843 0.691081464 0.508286059
0.908791721 0.735104322 0.570777833
0.799873412 0.860720634 0.598228753
0.797343254 0.860720813 0.598861575
0.817963183 0.859329522 0.609361053
0.844275773 0.862365425 0.616192222
0.881973565 0.869576395 0.621884704
0.916634917 0.878178418 0.642884076
0.946868956 0.876913369 0.664642692
0.965464413 0.871094584 0.685009658
0.190006256 0.086021475 0.410752445
0.210626289 0.096268184 0.414927453
0.255534738 0.117014728 0.408475429
0.320177287 0.137381539 0.398102611
0.394433677 0.162175804 0.385831654
0.518532753 0.172295988 0.383554459
0.678810596 0.196964025 0.407336980
0.854016423 0.257684797 0.440101296
0.209740281 0.159013093 0.393042296
0.231372729 0.160910726 0.394433469
0.271600306 0.167615086 0.392789453
0.328273028 0.184819892 0.386211216
0.394433647 0.198988184 0.382795662
0.521695197 0.204806924 0.384946257
0.670715034 0.226312473 0.402277291
0.839341938 0.279696703 0.433396697
0.260214835 0.238583341 0.374320000
0.271220833 0.241998911 0.366223574
0.301328063 0.243137449 0.368880093
0.349905372 0.252245277 0.367741466
0.414547712 0.261985838 0.377609193
0.530423701 0.261985838 0.377356172
0.683491468 0.297660112 0.410499722
0.850980282 0.365718007 0.464516163
0.284376711 0.302972883 0.371916294
0.305376261 0.304490983 0.377356172
0.349525839 0.322201043 0.372042984
0.399241269 0.331182331 0.378747553
0.448450357 0.345856816 0.380645186
0.547754526 0.344845116 0.384946346
0.694370508 0.377988666 0.424035341
0.843263686 0.446173102 0.484250456
0.325996101 0.414168358 0.399114639
0.346742451 0.410499901 0.394686997
0.389120579 0.416571647 0.398228854
0.457305551 0.426059365 0.412017941
0.537508070 0.453004807 0.431246370
0.618216217 0.465148360 0.438330173
0.737128258 0.504237652 0.483744472
0.852624774 0.564072967 0.539025843
0.420746207 0.520556509 0.393168718
0.433396727 0.524478495 0.391650915
0.471094191 0.531182826 0.414294720
0.528652370 0.547248542 0.432384700
0.614168167 0.580265701 0.485262662
0.693232477 0.591144443 0.514484167
0.775332034 0.616572082 0.541682422
0.887918770 0.675268829 0.603289068
0.564958990 0.689690053 0.461353987
0.577103257 0.691714227 0.479822785
0.613536000 0.693611503 0.491207927
0.664895535 0.699557304 0.526249111
0.725742936 0.707906425 0.562934756
0.780645311 0.714231312 0.570524752
0.811005950 0.711321831 0.583807766
0.898418784 0.757242382 0.639342070
0.769133806 0.862871766 0.648956537
0.773308218 0.864010215 0.648956537
0.789500535 0.861226857 0.667425871
0.821125865 0.868311226 0.675015867
0.847564816 0.872738540 0.688298345
0.898039281 0.878178537 0.696774364
0.930170298 0.884376884 0.724983990
0.959139466 0.880075753 0.741555750
0.259076297 0.136875272 0.601138532
0.286021531 0.142821029 0.603415847
0.334977537 0.155723989 0.595572591
0.404300928 0.174446285 0.592156887
0.486147970 0.201897368 0.584566772
0.574446440 0.219607830 0.581024408
0.724351823 0.231625274 0.572675824
0.869196653 0.275521755 0.588235378
0.291966975 0.190891802 0.591777265
0.306262016 0.197722837 0.590259254
0.354712069 0.205945387 0.590765238
0.418595821 0.220113799 0.584313989
0.489310652 0.233270079 0.580012679
0.575205743 0.256040454 0.571789980
0.715369821 0.253636986 0.566603243
0.845793545 0.294244260 0.568247795
0.333459377 0.279443383 0.576849878
0.356989086 0.284250379 0.579759479
0.387349457 0.289690197 0.573434591
0.441872090 0.297533363 0.570778072
0.508032441 0.308412164 0.571283877
0.587982237 0.320936352 0.568121493
0.726628542 0.325616360 0.573687553
0.857052326 0.375585049 0.583934367
0.388108850 0.368374318 0.559772193
0.406704903 0.369512975 0.560151637
0.442251563 0.379253834 0.560151637
0.486653894 0.384060919 0.564705849
0.542567670 0.392662913 0.564705908
0.605186582 0.406451285 0.565085411
0.722707272 0.408222646 0.563061118
0.855154812 0.459329545 0.587349892
0.420366734 0.451739371 0.566223919
0.441619366 0.455028176 0.578494787
0.477545649 0.457052648 0.568121433
0.539531648 0.483111978 0.580898523
0.594560385 0.492473364 0.576090932
0.646805704 0.503605425 0.578494549
0.746489346 0.513725281 0.579380393
0.862112761 0.574320138 0.615559936
0.466666758 0.599367321 0.589247525
0.482985258 0.600885510 0.590512276
0.514484525 0.600379586 0.592536271
0.571283996 0.601644397 0.596837103
0.643643200 0.609993696 0.607843161
0.710942447 0.633902669 0.626312494
0.792536259 0.653889775 0.634914577
0.887033343 0.699051261 0.673877358
0.549272299 0.700189829 0.570145249
0.562049270 0.699810266 0.574067295
0.586717308 0.703478813 0.576470435
0.626565576 0.712460637 0.595319271
0.685895085 0.720809579 0.615812778
0.761037469 0.744592309 0.655281723
0.821505547 0.763946533 0.693358541
0.896647334 0.792536080 0.717394233
0.699430764 0.869829416 0.657811284
0.710563064 0.870208919 0.667172432
0.729917526 0.872106135 0.680961370
0.766223550 0.875015616 0.702846408
0.816318512 0.881340683 0.738519907
0.869323313 0.888551533 0.783428073
0.912460506 0.893358767 0.778114796
0.942188680 0.889310598 0.797722697
0.350663960 0.221252620 0.803288579
0.367741823 0.222011626 0.797975540
0.421505183 0.235167518 0.798734665
0.480328798 0.252245784 0.792789459
0.563693643 0.282099783 0.795445561
0.646805644 0.313851774 0.797469795
0.751043499 0.345857054 0.787602603
0.899936557 0.370524585 0.776976585
0.376976579 0.264768898 0.792029977
0.393801332 0.267425627 0.789880037
0.430107564 0.277545899 0.793042243
0.495635748 0.290702224 0.782795846
0.569006681 0.308032811 0.787602603
0.647311926 0.337887287 0.782922089
0.741429090 0.365464956 0.765717864
0.887666225 0.383301735 0.770778000
0.427830875 0.353699863 0.779506445
0.449841917 0.352940977 0.788488328
0.478304625 0.364705831 0.783681273
0.534345090 0.376596868 0.787223220
0.599114299 0.389753163 0.778494418
0.674889386 0.414041638 0.778620958
0.754332602 0.439215660 0.775964439
0.891966760 0.454775423 0.776091278
0.508032739 0.457811236 0.773307562
0.518532872 0.459076673 0.775584996
0.540543854 0.467678487 0.777482569
0.581783473 0.475774825 0.773181379
0.634155631 0.481593668 0.767741859
0.692473173 0.497786164 0.769639254
0.766224146 0.513851702 0.770525038
0.885009348 0.522327900 0.763314247
0.538646579 0.542694271 0.775837600
0.561796248 0.550537407 0.780771673
0.595825434 0.566349983 0.776217461
0.637950778 0.583554685 0.775837600
0.678684175 0.584945917 0.773181379
0.727893710 0.597090721 0.769386530
0.786084771 0.612523735 0.770651400
0.889689744 0.622896791 0.775205374
0.590512335 0.665528357 0.782795548
0.602150500 0.668564200 0.786843836
0.627071619 0.666160583 0.788235188
0.668817222 0.667678595 0.786337435
0.719038427 0.687412679 0.785705328
0.767741561 0.705629468 0.784187317
0.815053701 0.716761231 0.790638685
0.901707530 0.723466516 0.796457767
0.606577694 0.796837330 0.793674529
0.623276472 0.797090530 0.792283416
0.641493082 0.796710730 0.792156577
0.684629738 0.794180632 0.795825243
0.723592579 0.792789102 0.793421745
0.787476420 0.789373815 0.793674886
0.841872394 0.800505877 0.804680169
0.912713826 0.818469524 0.814294636
0.702593446 0.886780620 0.775711417
0.712333739 0.889436781 0.782795429
0.726122558 0.886780620 0.788867772
0.754079580 0.893358767 0.793927789
0.785072625 0.890954971 0.800632417
0.837824345 0.899683774 0.820113778
0.884883225 0.904617012 0.851233304
0.941555738 0.923339784 0.884250581
