Assets/Resources/EldamarStudio/100 Horror LUTs Pack/LUTs/cube/Necevor LUT.cube
DOMAIN_MIN 0 0 0
DOMAIN_MAX 1 1 1
LUT_3D_SIZE 32
0.007843000 0.007843000 0.007843000
0.007843000 0.007843000 0.001771000
0.012143999 0.009993774 0.002150774
0.022011161 0.013029839 0.003922000
0.037950546 0.016445000 0.005060451
0.059202932 0.022516999 0.014168063
0.082985640 0.023529001 0.015686000
0.107273981 0.023529001 0.017330708
0.130803093 0.025047192 0.020366903
0.152055502 0.031119965 0.023402516
0.184945866 0.025553260 0.020619871
0.212270498 0.025553256 0.021631740
0.238836274 0.028589644 0.023529001
0.269197017 0.031625967 0.023529001
0.299556971 0.034661576 0.023529001
0.332321405 0.037697803 0.021125808
0.368754178 0.045287993 0.019608000
0.408855110 0.056166992 0.021505568
0.451359957 0.062239006 0.030613970
0.485515386 0.065528356 0.031373002
0.520809472 0.074256994 0.037065253
0.559266269 0.084376998 0.045160998
0.601770997 0.090701982 0.051612500
0.644275784 0.102845997 0.066792905
0.684503257 0.112713285 0.077419288
0.726754963 0.121821657 0.085135989
0.772296071 0.131942064 0.092726059
0.817836404 0.147122443 0.107906431
0.860720634 0.167615786 0.123086803
0.903225303 0.185325727 0.143579930
0.943959177 0.203162193 0.166982591
0.980391979 0.227450997 0.188235000
0.013915000 0.010879387 0.004807387
0.007843000 0.013915000 0.004807387
0.012143999 0.011764774 0.000885613
0.023276322 0.016824998 0.003415613
0.040607385 0.024414837 0.007716612
0.059202932 0.022516999 0.014168063
0.088045642 0.026059322 0.013156323
0.111701697 0.031499092 0.015939385
0.133839488 0.034914680 0.018848905
0.155091897 0.034155581 0.017330520
0.185072392 0.040227611 0.023275999
0.216318503 0.038709387 0.024667868
0.242631286 0.039595000 0.025426742
0.269703001 0.040986612 0.023782032
0.305628955 0.046805575 0.026565386
0.331182569 0.049841806 0.021758391
0.364199966 0.054395996 0.019608000
0.402783096 0.061606579 0.021505570
0.445288002 0.065275408 0.030613979
0.487792730 0.079696752 0.039721645
0.523845851 0.085642383 0.044275612
0.561290503 0.092473254 0.050221130
0.601897538 0.096900493 0.054648884
0.647312224 0.111954384 0.069829293
0.689816356 0.121821664 0.078178383
0.731435299 0.132321358 0.086527660
0.774825752 0.143579990 0.096268386
0.817836404 0.156230062 0.113978431
0.863377452 0.168754265 0.131814957
0.900948524 0.190638930 0.143832818
0.940543771 0.210499600 0.163567185
0.983428419 0.230487391 0.191271394
0.019987000 0.016066000 0.003922000
0.016065774 0.019101612 0.003922000
0.016445000 0.017836774 0.001771226
0.026312159 0.019861162 0.003795161
0.044402320 0.029981226 0.008855226
0.066160776 0.030486841 0.006072000
0.092346638 0.032511096 0.019607548
0.116128989 0.035547063 0.013282940
0.136875317 0.042125326 0.016065903
0.158127725 0.041872293 0.015812518
0.188108772 0.047564771 0.017204000
0.216445014 0.053636771 0.021252256
0.246679276 0.053889770 0.022011356
0.273497999 0.053889770 0.019228000
0.306134969 0.056166764 0.020366643
0.339405358 0.061985806 0.020493230
0.365211964 0.068058185 0.023529608
0.401644528 0.074130349 0.024162211
0.445667237 0.077166751 0.024162211
0.486021727 0.087033592 0.037571426
0.522833705 0.094623961 0.044781767
0.561037481 0.102467000 0.051865902
0.601770997 0.109044768 0.057432245
0.645287991 0.118152902 0.068564132
0.692852736 0.130929515 0.079063997
0.735356987 0.141429558 0.087918982
0.777355850 0.153067708 0.098292224
0.818215847 0.163566992 0.113219202
0.861226678 0.180012658 0.137887508
0.906767786 0.193928182 0.150790304
0.943453372 0.215306744 0.165211573
0.986464262 0.233523220 0.194307223
0.029854160 0.027197998 0.003922000
0.025553387 0.027703933 0.005186839
0.031878546 0.028968772 0.004301226
0.036179319 0.028463159 0.003795161
0.050980158 0.036812451 0.012523999
0.071726710 0.039848063 0.007843226
0.098545156 0.044149481 0.012649998
0.120936148 0.048450608 0.021125713
0.139911264 0.052245319 0.013535904
0.161163673 0.055787645 0.015559516
0.189879745 0.059203159 0.015686000
0.219481409 0.064009994 0.015180256
0.246805802 0.068943642 0.018216355
0.277293026 0.069323190 0.015686000
0.308665127 0.070335321 0.015686000
0.338899225 0.076407149 0.019481160
0.374320328 0.080202185 0.017963219
0.403542101 0.089310564 0.030107822
0.447185040 0.093611978 0.025427043
0.485894918 0.100948811 0.034788202
0.522833705 0.108791895 0.043010995
0.558254123 0.111828029 0.051106997
0.600885332 0.123213008 0.060594819
0.646805763 0.131562322 0.070841096
0.691334546 0.139658302 0.078684449
0.735863090 0.150537163 0.090448983
0.778873980 0.162681967 0.102087066
0.819860578 0.172548860 0.113472149
0.861985803 0.188361794 0.135104135
0.902466595 0.207337335 0.151802763
0.945351243 0.224288747 0.167994574
0.984440148 0.242884323 0.196078002
0.045034546 0.046173092 0.004301451
0.040480543 0.043516930 0.008096160
0.047564771 0.044402320 0.007463549
0.060468089 0.047817707 0.010246612
0.065781087 0.049335998 0.011385452
0.077925093 0.052371614 0.017457452
0.100821868 0.058317643 0.017457224
0.123212859 0.063630991 0.017330708
0.143327087 0.069702990 0.018848903
0.164579511 0.075774997 0.015812516
0.191271424 0.076786995 0.015686000
0.220619962 0.078810833 0.013282712
0.249842092 0.080708191 0.012903354
0.277672529 0.084250517 0.016445031
0.311068922 0.087539859 0.016824547
0.340037793 0.095382728 0.022137798
0.372675568 0.100316092 0.025174003
0.411511958 0.101834111 0.022137985
0.447944075 0.110942513 0.034282006
0.484376758 0.118026555 0.041619003
0.521189034 0.125237286 0.046552740
0.558633685 0.133080408 0.052245546
0.598355055 0.136369050 0.064136535
0.649462283 0.148260817 0.075774550
0.694244027 0.155851007 0.083744571
0.736116171 0.163693860 0.092473298
0.776217163 0.172928125 0.108159058
0.821758270 0.185072884 0.117267437
0.864642620 0.199494258 0.133585960
0.903605342 0.217837155 0.147627756
0.940417647 0.238710031 0.162681565
0.976850450 0.259962440 0.196078002
0.060214929 0.070461869 0.007337064
0.066286936 0.070461869 0.016445450
0.066033930 0.069955930 0.009487935
0.076154321 0.072991870 0.010752774
0.090069868 0.076660387 0.020493064
0.090069868 0.067552000 0.008349065
0.102213867 0.075648256 0.016951388
0.120176926 0.079317003 0.019101935
0.141429245 0.081846997 0.018848903
0.170651495 0.087919004 0.015812516
0.194813743 0.093990996 0.015686000
0.223655924 0.097027257 0.011638004
0.252877712 0.096647866 0.010626063
0.280708164 0.093358904 0.016445031
0.314105302 0.102466509 0.025553409
0.345097899 0.110562861 0.021125939
0.376470566 0.116635121 0.023655998
0.411511958 0.119797856 0.027703991
0.447944075 0.126122907 0.034282014
0.484376758 0.138013929 0.046426009
0.522707224 0.143453673 0.055660736
0.561670065 0.149525806 0.063757122
0.601391494 0.157621443 0.073244929
0.646932721 0.166729838 0.079316944
0.691207886 0.174066991 0.088678218
0.735103965 0.182921976 0.094497323
0.779127061 0.194054008 0.102593057
0.821758270 0.203288883 0.123339437
0.864642620 0.215432972 0.135103971
0.903605342 0.231625468 0.151802406
0.940923572 0.250347972 0.170271903
0.979886055 0.269070059 0.196078002
0.088045642 0.092220321 0.007843000
0.086527318 0.094749995 0.011891387
0.090449095 0.096900769 0.016698226
0.094623476 0.098545156 0.012776837
0.107526772 0.101454549 0.020619776
0.111828320 0.092346705 0.014927000
0.119417995 0.090828642 0.010373322
0.134851411 0.098292314 0.016192291
0.153826743 0.100822218 0.019354772
0.178874299 0.105123006 0.023402832
0.195825741 0.111195639 0.015686000
0.224161983 0.111195385 0.017710255
0.255660921 0.115496643 0.017710319
0.286274672 0.117141284 0.023276320
0.319671243 0.121694885 0.025553409
0.348260790 0.128399312 0.027450999
0.378494710 0.135863379 0.026186192
0.411511958 0.140544310 0.031878732
0.447944075 0.146616340 0.039848011
0.489436775 0.153194338 0.051486652
0.525869489 0.161543325 0.059835639
0.563693941 0.166223988 0.066287190
0.601897538 0.173813820 0.072359182
0.647438765 0.182922229 0.080835007
0.692979276 0.192030609 0.089184284
0.737128258 0.199746951 0.099683978
0.782669365 0.210246384 0.107653312
0.827197850 0.219354764 0.122833423
0.864642620 0.231119305 0.138646290
0.907147348 0.245034501 0.157874703
0.947754562 0.263377577 0.178494900
0.990512013 0.283238322 0.201138645
0.111827992 0.118405983 0.006198711
0.118659019 0.116508305 0.010879387
0.114990473 0.121188760 0.015559934
0.119291693 0.120429985 0.011005548
0.126881406 0.123086244 0.012523846
0.130423859 0.121568628 0.014547777
0.145604074 0.113472700 0.013156323
0.146489412 0.116761692 0.016698286
0.165465102 0.120556600 0.016698096
0.186717495 0.121821225 0.020493489
0.205439851 0.126122743 0.018722130
0.227450967 0.132701159 0.017710255
0.256672919 0.130803406 0.020746354
0.288805008 0.138140693 0.025806291
0.320809692 0.142567992 0.025806291
0.351043791 0.149651691 0.032384705
0.382922381 0.155724078 0.033902511
0.414801121 0.161796689 0.038203858
0.451233476 0.167868704 0.047311749
0.488298446 0.170651704 0.057558712
0.528652489 0.180012688 0.065907992
0.567109287 0.185072824 0.069955997
0.605313003 0.190891877 0.072738692
0.652372062 0.203035891 0.083364896
0.694624007 0.212144271 0.094117567
0.737381339 0.219860971 0.106008932
0.782416463 0.229221821 0.117900051
0.827957094 0.239468843 0.128905684
0.868817329 0.251233369 0.142061800
0.907147348 0.263503879 0.160910666
0.948766589 0.280455291 0.186084852
0.992789030 0.301707715 0.208855286
0.130044192 0.146489099 0.004680903
0.143706396 0.141935095 0.010752902
0.147628099 0.142188191 0.015306904
0.144338995 0.146995291 0.017836835
0.151170105 0.140923187 0.004553995
0.152688190 0.148133934 0.012523836
0.164326310 0.143327087 0.011765001
0.173055083 0.137254998 0.015939385
0.172296196 0.142568097 0.024288097
0.193548590 0.139531702 0.015180483
0.213282764 0.140796870 0.016951224
0.237318158 0.147122145 0.020746253
0.261985838 0.153574005 0.023782546
0.289816946 0.154333040 0.026818160
0.320682943 0.160911098 0.027324094
0.351802707 0.167868286 0.034661602
0.382922381 0.176217377 0.042251807
0.418089986 0.182289988 0.046552569
0.454269797 0.188362002 0.055660978
0.490196288 0.190385997 0.064010262
0.528146744 0.197217092 0.071220897
0.567868412 0.207843229 0.077546000
0.610373080 0.210879579 0.077672511
0.657684922 0.223529205 0.087919094
0.700189829 0.234914467 0.100063086
0.741176605 0.244149178 0.112080745
0.781657159 0.250727266 0.127767086
0.827198267 0.262618989 0.137634441
0.870841503 0.272485971 0.151676059
0.910057008 0.286907047 0.167615250
0.948766589 0.301707685 0.188361570
0.988234997 0.322960109 0.215685993
0.148260981 0.167741492 0.007716520
0.157368600 0.167741492 0.013788516
0.166729793 0.165338278 0.015559517
0.170145333 0.167742148 0.018342515
0.169386104 0.174320370 0.022769993
0.181530878 0.168247595 0.022769999
0.180518657 0.170398325 0.015559845
0.181783721 0.166223794 0.015054002
0.187476605 0.160784110 0.021252485
0.202656999 0.163820505 0.027324487
0.218089625 0.160784125 0.026945004
0.241619274 0.164073005 0.031119483
0.267678976 0.169133171 0.035926647
0.292852551 0.172549039 0.038962938
0.326248884 0.181657419 0.041998550
0.359519392 0.185831696 0.044908293
0.389753699 0.192156702 0.048323814
0.418089986 0.200506002 0.052624580
0.448450059 0.206578031 0.061732981
0.490195781 0.212650016 0.068058006
0.532320976 0.220366746 0.074256524
0.573687375 0.229601622 0.081340656
0.613409460 0.238203973 0.089816518
0.655914247 0.241239607 0.092852913
0.698672056 0.251613051 0.103099480
0.742441595 0.263630956 0.113852151
0.787729144 0.275016040 0.124731481
0.833270252 0.284124404 0.142947480
0.878810704 0.288045645 0.163440794
0.917140603 0.302087158 0.180771664
0.951675713 0.322960079 0.197090462
0.988234997 0.344212472 0.215686008
0.181024864 0.191903740 0.013661999
0.178494483 0.191903740 0.013915000
0.185451865 0.194054514 0.017836774
0.191271171 0.191271424 0.014800710
0.193421736 0.191397682 0.013408999
0.205565870 0.192915872 0.023528999
0.207589984 0.191903740 0.023529001
0.211511567 0.192915872 0.022137836
0.217077956 0.189120650 0.026944997
0.223656341 0.187855482 0.033016998
0.230107874 0.185072869 0.033269998
0.243263736 0.186084479 0.033269998
0.267299384 0.191271156 0.037570998
0.295888901 0.196078703 0.042378161
0.329285234 0.199873418 0.045414448
0.357874632 0.208981797 0.053257670
0.390259326 0.216065928 0.058823865
0.422264248 0.224541724 0.064516149
0.457178921 0.230613738 0.073623978
0.495888233 0.233902395 0.077166356
0.536369205 0.241745606 0.085009605
0.577862144 0.249841869 0.091081612
0.619354963 0.257178962 0.096520983
0.661859810 0.268563956 0.107906029
0.704364598 0.269322872 0.110942408
0.749652267 0.277545780 0.122580647
0.795192957 0.289183974 0.137254983
0.833523273 0.305502564 0.160277978
0.876407623 0.314610958 0.170524821
0.919924200 0.325237036 0.188994408
0.957621694 0.343326837 0.207969844
0.994054019 0.362554997 0.230233863
0.204300985 0.218216240 0.019733995
0.209361106 0.214168251 0.015686000
0.206704244 0.218342751 0.017836774
0.215306565 0.217583984 0.019608000
0.221378952 0.212270498 0.015053799
0.231878236 0.213662192 0.025553511
0.237950742 0.218216240 0.027577514
0.242884040 0.216571957 0.024288097
0.250474334 0.215433404 0.026944937
0.253510714 0.212397009 0.033017263
0.257431984 0.209360868 0.037318256
0.265528232 0.208348989 0.043389991
0.279949248 0.212523535 0.046805635
0.306008756 0.218343213 0.053004280
0.332321107 0.221378833 0.052498668
0.362934768 0.229222044 0.058317795
0.394813359 0.236812234 0.067425802
0.428715795 0.244149566 0.072738737
0.463756979 0.248830244 0.077672049
0.502972901 0.256166905 0.085262358
0.544338942 0.261100262 0.088298738
0.583934367 0.270082116 0.097153865
0.625426948 0.277166247 0.102339983
0.667931795 0.285515249 0.110688999
0.710436583 0.296647251 0.128146276
0.755724311 0.300821900 0.132574335
0.801771045 0.310436249 0.145351246
0.836685598 0.325616241 0.163567245
0.878431320 0.335863084 0.182669073
0.913852096 0.346742213 0.193548217
0.952688277 0.361669570 0.212144330
0.987981975 0.378747255 0.235293999
0.227071270 0.245540634 0.025806289
0.235041022 0.240607277 0.022011288
0.237824142 0.240860283 0.021252416
0.242251605 0.244149283 0.025300641
0.252498716 0.238456726 0.024921093
0.258570343 0.237697631 0.030993288
0.265148640 0.241619289 0.033650000
0.270588577 0.245034710 0.031499226
0.281214207 0.244275987 0.029221738
0.285768479 0.242378145 0.035673968
0.287665755 0.238203406 0.040607356
0.294749886 0.234914273 0.047565024
0.303858280 0.233775914 0.054395642
0.322327316 0.239595592 0.063504033
0.343579680 0.242631212 0.064010419
0.369765580 0.249335796 0.069323629
0.402024001 0.258064657 0.074636444
0.438456774 0.264136642 0.082479224
0.472359300 0.267678976 0.082985297
0.510183454 0.275142282 0.090196006
0.550411463 0.283491284 0.096647732
0.591904104 0.290575415 0.101708122
0.631498992 0.299683750 0.110689275
0.674003780 0.306767642 0.116761290
0.715369940 0.317393929 0.130802915
0.758380651 0.328146279 0.145097703
0.805945516 0.337760776 0.152688429
0.841239393 0.349904925 0.165464997
0.881467223 0.361669451 0.186717436
0.919165015 0.372548878 0.208349243
0.952182233 0.387349516 0.222264245
0.986084640 0.403035909 0.243263632
0.258191049 0.273118079 0.032384999
0.263251007 0.270082414 0.032637969
0.267678797 0.269197017 0.032891002
0.275269181 0.268944025 0.034155965
0.289184481 0.268817514 0.039595485
0.286148101 0.265781134 0.036559097
0.289437056 0.267805338 0.039089352
0.295129746 0.270841360 0.038330324
0.300190002 0.274383008 0.038330127
0.315369606 0.280455023 0.047438521
0.317014098 0.275142074 0.050980195
0.322833300 0.269576043 0.056293480
0.331688672 0.264136642 0.061227381
0.341303051 0.261101007 0.064769067
0.362555414 0.264136612 0.073877446
0.385452062 0.269323021 0.081720799
0.413788557 0.276913226 0.088045828
0.447312117 0.285389036 0.091334574
0.483745009 0.291461051 0.094370976
0.520430028 0.297280073 0.099936977
0.558760166 0.305249751 0.106767990
0.598229110 0.314358145 0.113599092
0.637823999 0.323592991 0.122833982
0.680328786 0.332827121 0.129159033
0.720809340 0.344212592 0.139531985
0.761416316 0.354965329 0.149399042
0.803921163 0.364579171 0.156736106
0.846425831 0.376723945 0.171916470
0.886527419 0.391271204 0.194307625
0.923719347 0.404933453 0.220367149
0.960531592 0.419481605 0.246299997
1.000000000 0.440733999 0.264516026
0.297659397 0.303478807 0.044528987
0.291587383 0.300442427 0.047564603
0.298798174 0.299556971 0.049968340
0.306641519 0.298292130 0.047311820
0.317014843 0.296268404 0.042884123
0.325616449 0.296141893 0.045667477
0.317520708 0.298165500 0.052751727
0.326375782 0.301201671 0.050727699
0.337634474 0.304237723 0.047438502
0.342694730 0.307779402 0.056546897
0.354965210 0.305123270 0.062745407
0.360531211 0.303478807 0.070208564
0.367235780 0.298798144 0.076407209
0.374699384 0.291460991 0.079949439
0.389879793 0.288425356 0.089057818
0.406325191 0.291460991 0.086148411
0.429475009 0.298165560 0.089310996
0.458697110 0.306641370 0.094750404
0.489816993 0.312713414 0.100442976
0.529032409 0.316002756 0.103478640
0.567868114 0.323466063 0.114737310
0.607336938 0.332574099 0.124983981
0.646932423 0.341808945 0.131941587
0.689437211 0.353952974 0.144086376
0.731941938 0.365464956 0.152688116
0.772422493 0.376217693 0.163820326
0.813029587 0.385831505 0.174699813
0.855534256 0.397976279 0.187096849
0.898038983 0.410120368 0.202277213
0.932827353 0.424667984 0.226439148
0.965338588 0.440101355 0.255534559
1.000000000 0.458949983 0.285768390
0.337128401 0.329031974 0.051865995
0.335863382 0.328399390 0.057305414
0.329791397 0.325363547 0.056040574
0.338899583 0.328905731 0.061100639
0.348387241 0.330424041 0.058443792
0.353446871 0.328399777 0.051359929
0.364199907 0.328526258 0.059456315
0.363314569 0.329917580 0.061986286
0.375458598 0.331435770 0.057432089
0.380139261 0.332827091 0.063251480
0.391903758 0.334851474 0.069449991
0.397976041 0.331815332 0.073497735
0.402529955 0.330297142 0.080708288
0.407336861 0.324224830 0.085262805
0.416065991 0.321189225 0.092220411
0.431245774 0.315749794 0.101328187
0.446426153 0.318785399 0.101328179
0.472738683 0.326122552 0.107400335
0.508412778 0.333965778 0.113472812
0.539911389 0.342062145 0.121568434
0.577482462 0.346995771 0.122706786
0.615433037 0.356609583 0.133333117
0.653510511 0.367109269 0.140796795
0.693737984 0.376976579 0.148387015
0.736242712 0.389120579 0.162808478
0.778747499 0.401264966 0.173560783
0.819734156 0.411890894 0.186211258
0.862238824 0.424035668 0.200252980
0.892725766 0.436179757 0.217457592
0.935230553 0.453636944 0.236179948
0.968121350 0.471853375 0.264010370
1.000000000 0.491587609 0.297406793
0.370525181 0.356356382 0.064009994
0.372042984 0.357874572 0.068564184
0.376850367 0.354206145 0.069702767
0.373308361 0.356230229 0.070461988
0.384440392 0.363820553 0.076660186
0.390891641 0.360784441 0.064516187
0.396964014 0.361796170 0.067046121
0.405819356 0.361796170 0.072612479
0.412650257 0.361796170 0.070335187
0.419481188 0.361796170 0.072612479
0.428336591 0.364706039 0.077040188
0.435926646 0.365212113 0.082606122
0.442378372 0.362175733 0.087918736
0.446805567 0.358886361 0.093611829
0.452877998 0.354585618 0.095888995
0.464642555 0.350664377 0.104364187
0.473750561 0.347628385 0.113472186
0.489563346 0.349398971 0.117646776
0.522833765 0.354965150 0.121062949
0.556989193 0.364073545 0.131435841
0.591144621 0.374320179 0.139405385
0.628589272 0.381404340 0.141429380
0.665527999 0.393168867 0.150284693
0.703605115 0.405060261 0.160531387
0.743832946 0.414927185 0.170398280
0.786337614 0.427071512 0.185578644
0.827830374 0.438709497 0.197849184
0.868310869 0.449841887 0.212017417
0.900569201 0.466540158 0.232890636
0.929158509 0.477925360 0.249842152
0.969006777 0.500063121 0.278178513
1.000000000 0.521947980 0.314104974
0.402277082 0.387349516 0.080328576
0.405945271 0.391018510 0.083997376
0.412903070 0.387602985 0.082353011
0.419987530 0.387855977 0.084883004
0.420746535 0.395445675 0.090195999
0.432384551 0.392410040 0.079063989
0.436938852 0.393168807 0.078937255
0.442884505 0.394560128 0.081973284
0.449715585 0.395192713 0.085515566
0.458823234 0.395192713 0.085515566
0.465654701 0.397469997 0.088425264
0.471727103 0.399114519 0.091587991
0.480076104 0.398608476 0.097533353
0.491714120 0.395825118 0.106135026
0.497786105 0.390512109 0.103858419
0.509930134 0.386211336 0.112966329
0.517520308 0.384060979 0.121441752
0.520556688 0.383428544 0.129285127
0.538772762 0.380392134 0.126249537
0.569259703 0.387223333 0.135230988
0.605060041 0.396964133 0.144212723
0.643137276 0.409361094 0.152941406
0.682352602 0.418469459 0.159392908
0.718279362 0.432637870 0.174573317
0.756356835 0.443896234 0.185831845
0.795319676 0.455028266 0.196457639
0.836306453 0.466160953 0.211638063
0.872612000 0.475142092 0.223908558
0.907020867 0.492978930 0.247311622
0.938140512 0.509044766 0.269449711
0.965970993 0.520683110 0.287792534
0.999367416 0.544971168 0.333332986
0.450854003 0.420746028 0.089436986
0.456925988 0.426818818 0.095508985
0.458443969 0.424035430 0.088425033
0.459456027 0.424288213 0.084883027
0.460215032 0.431878567 0.090196021
0.466287017 0.428842902 0.090196013
0.470335364 0.425806671 0.089184023
0.478305012 0.424921006 0.091081694
0.489184111 0.425680101 0.094876982
0.498292476 0.428589970 0.100695983
0.507400095 0.428589970 0.103605106
0.514231563 0.430866718 0.102593310
0.522580981 0.432511032 0.102593377
0.534219027 0.432258010 0.106135048
0.540290952 0.432258010 0.109171435
0.555976987 0.426945001 0.126122802
0.566097200 0.422643840 0.138772950
0.569133580 0.419860661 0.144465551
0.572169900 0.416824996 0.147501960
0.587602556 0.419354618 0.150031641
0.615939200 0.424794525 0.153826773
0.652625263 0.434408844 0.159392893
0.694497406 0.448829532 0.168500543
0.727893829 0.457937926 0.183680952
0.763820529 0.469829023 0.196584627
0.799114645 0.483111620 0.207084268
0.833270073 0.496521026 0.217710093
0.866666436 0.502593100 0.232890472
0.902972579 0.514231682 0.258443803
0.937381148 0.530676961 0.287286401
0.968500614 0.547248662 0.312839985
0.996331036 0.563188016 0.333333045
0.496647358 0.462491721 0.106894016
0.499936759 0.465781182 0.110183366
0.499556959 0.465401620 0.109803595
0.502719522 0.465022057 0.104617015
0.507273734 0.470335543 0.106135011
0.508538723 0.462492347 0.101328008
0.517141044 0.464516044 0.106388010
0.522327781 0.463630378 0.108538717
0.532953858 0.464389473 0.110816017
0.546110272 0.467425883 0.112840012
0.558001280 0.467552394 0.116002843
0.565085113 0.469576657 0.117014721
0.570019007 0.472612441 0.117014721
0.576976776 0.474256724 0.120303363
0.585579097 0.474256724 0.125869423
0.598861277 0.469449729 0.133712813
0.609107971 0.464895546 0.148892999
0.612776756 0.461859316 0.156862587
0.617963374 0.458823711 0.159898981
0.629348397 0.455787390 0.162934646
0.640733480 0.455028504 0.169765741
0.670082271 0.461480498 0.177608997
0.712207496 0.476534069 0.188614383
0.745603919 0.488298625 0.201138631
0.779000819 0.501960993 0.216319010
0.813535988 0.513219357 0.228969350
0.847438455 0.525616467 0.241492793
0.883112133 0.538519740 0.261227161
0.916508496 0.552561522 0.281720549
0.947501481 0.564832330 0.307020634
0.974446356 0.582795620 0.338013768
0.996078014 0.603668749 0.369513094
0.540290475 0.504996479 0.125110477
0.541429102 0.506135106 0.122454122
0.549652219 0.506767690 0.124983959
0.547880948 0.506261647 0.124477893
0.553953171 0.510563195 0.123971924
0.553953171 0.504490793 0.116381735
0.563440740 0.507400155 0.126122475
0.569260180 0.505502462 0.127260759
0.577356100 0.505755544 0.127513990
0.592536211 0.508791924 0.125236988
0.599114478 0.510815740 0.128146857
0.609108210 0.514737725 0.131056249
0.615180254 0.516635418 0.132194892
0.619734466 0.518659174 0.135483727
0.630487144 0.518659174 0.141555727
0.638709664 0.515749454 0.148133799
0.649335444 0.511195242 0.157242179
0.655281246 0.508159041 0.167109326
0.665148497 0.505123436 0.170145705
0.672991514 0.502087116 0.180771381
0.683238208 0.499051183 0.187602460
0.692346632 0.495003432 0.193674728
0.724478245 0.503732204 0.202403232
0.754332662 0.514104962 0.216318801
0.791524053 0.528526306 0.228842542
