Assets/Resources/EldamarStudio/100 Horror LUTs Pack/LUTs/cube/Onixath LUT.cube
LUT_3D_SIZE 8
DOMAIN_MIN 0.000000 0.000000 0.000000
DOMAIN_MAX 0.903226 0.903226 0.903226
0.117647000 0.039216001 0.047059000
0.121948451 0.043516546 0.051359549
0.134092093 0.055661097 0.062744997
0.155218005 0.070082352 0.074510001
0.177103192 0.098671801 0.094750188
0.213535741 0.131182730 0.119671263
0.280328989 0.163693696 0.151929289
0.399240762 0.225047812 0.200126827
0.121569000 0.067425996 0.063883543
0.125489995 0.071726546 0.067425996
0.142694086 0.079949096 0.079569645
0.165464908 0.096015349 0.094876900
0.183427989 0.113978542 0.103478998
0.222896919 0.145730481 0.128526181
0.288045555 0.182795539 0.165591449
0.393675029 0.237570792 0.204174638
0.132574096 0.109677091 0.086906999
0.140796557 0.113978542 0.100695543
0.149020001 0.121442094 0.106641099
0.162302002 0.136369199 0.112839997
0.186463997 0.151169986 0.127008185
0.231119469 0.180139095 0.155471355
0.296647400 0.224668086 0.184187278
0.419734359 0.279822916 0.229601815
0.140037641 0.170398638 0.128905639
0.141176000 0.179379985 0.128399998
0.150158450 0.181277722 0.137128189
0.165338278 0.194560632 0.145224646
0.197849557 0.211385190 0.162555441
0.241492718 0.242378548 0.182163343
0.318532258 0.284376919 0.209740579
0.446552575 0.346109897 0.271220624
0.130044192 0.260088384 0.165970996
0.137001649 0.266666859 0.182542995
0.148893088 0.265401483 0.191903993
0.174825996 0.278684199 0.194560632
0.216951385 0.299051195 0.217584178
0.271979898 0.331182659 0.233016923
0.359898657 0.374067247 0.264642358
0.494117767 0.445161343 0.333712995
0.109803997 0.389373720 0.246552974
0.122327998 0.392662913 0.252878189
0.156230256 0.400632471 0.258317471
0.197343379 0.413662106 0.267678469
0.253384173 0.431246161 0.287918955
0.320809424 0.461986452 0.313219458
0.427451015 0.497153729 0.354332536
0.554711998 0.565085530 0.425553501
0.171789974 0.572042823 0.363946557
0.193801105 0.569512963 0.375964522
0.235800356 0.576849878 0.377862155
0.290195912 0.588235199 0.396584272
0.350790739 0.602023721 0.410752535
0.431751847 0.619734049 0.437697798
0.513219237 0.638077259 0.474003851
0.619354725 0.676027775 0.529538512
0.429601550 0.760151565 0.586337388
0.455407828 0.763061166 0.572169304
0.464642644 0.767994583 0.581783652
0.505882144 0.772928357 0.592536390
0.556736231 0.782289624 0.613915265
0.620619535 0.795192719 0.642884314
0.686527133 0.809614122 0.672485471
0.761669397 0.824161768 0.689689696
0.121569000 0.039216001 0.059582997
0.125489995 0.043895997 0.063883543
0.141555548 0.063503996 0.072106093
0.155218005 0.080708288 0.088551998
0.179886445 0.105376445 0.113219544
0.215053529 0.134345546 0.138646185
0.274130285 0.172169283 0.171537280
0.387349606 0.225806817 0.207590088
0.125110537 0.064642541 0.068564542
0.129791453 0.075648546 0.076407544
0.138772994 0.077545993 0.081846640
0.154079646 0.100695640 0.100316092
0.175964534 0.117393985 0.114737637
0.217836797 0.148386732 0.137128294
0.277419537 0.186337993 0.169766277
0.382036448 0.240480676 0.217077509
0.130550444 0.113219544 0.100315996
0.136875451 0.119165100 0.103858449
0.145477548 0.118658639 0.108918093
0.162302092 0.134725004 0.121442087
0.186084643 0.155471534 0.139911547
0.223276272 0.182036832 0.156609893
0.291208267 0.224541560 0.187096983
0.412903488 0.281594247 0.239721790
0.131309450 0.163946643 0.141050100
0.137254998 0.175458193 0.133080289
0.150158450 0.181657284 0.140543744
0.165338293 0.194181085 0.151549637
0.197469994 0.214927629 0.172801644
0.243643284 0.240733728 0.189500183
0.316888273 0.288045496 0.222643837
0.440227568 0.345350802 0.273371279
0.130676553 0.260721177 0.182163358
0.136242643 0.267425835 0.188488543
0.148513645 0.266539991 0.192283541
0.177103072 0.283491403 0.203668281
0.208349183 0.300189823 0.220366836
0.264136702 0.326375455 0.236811817
0.365464538 0.379253745 0.277166188
0.494749963 0.446046829 0.340038002
0.116635263 0.386211216 0.255914092
0.130423740 0.390512258 0.261732906
0.148766369 0.398355335 0.263377517
0.192030430 0.412017822 0.279063910
0.249209434 0.428589731 0.293864608
0.315622836 0.450727463 0.316634804
0.421884924 0.495889008 0.360025227
0.549905062 0.564705968 0.431372464
0.174067065 0.562302113 0.374320090
0.195572406 0.562681556 0.377609104
0.222011387 0.565464914 0.382922083
0.277925432 0.575331748 0.395319104
0.344591945 0.593042195 0.414800465
0.425047278 0.610373318 0.438456714
0.509424269 0.632637501 0.469955802
0.612649977 0.669323325 0.528526306
0.425552934 0.750790298 0.586716950
0.434661299 0.755977094 0.570777833
0.454269499 0.757621765 0.575458407
0.495002896 0.763440609 0.589753211
0.545350909 0.775458336 0.605186462
0.612396955 0.786970317 0.632511318
0.683111489 0.803036034 0.666539967
0.751549661 0.823782325 0.693611383
0.126249090 0.041492902 0.088551901
0.127893999 0.051739097 0.094117999
0.141176000 0.065022089 0.099556997
0.151297003 0.084629998 0.115243196
0.177988797 0.114484094 0.130044177
0.217457250 0.140670449 0.153447092
0.275522202 0.180139184 0.187223092
0.390638828 0.230360657 0.237824053
0.124351546 0.074889451 0.100063458
0.130929902 0.073624097 0.093611546
0.141555548 0.085389093 0.104237996
0.151676461 0.103858449 0.121821538
0.184313804 0.128526092 0.139152348
0.222517371 0.156736180 0.163314551
0.282226741 0.195066288 0.199367538
0.391397834 0.248703241 0.246552765
0.132574096 0.113599092 0.121442094
0.136875451 0.124225453 0.126628548
0.149778903 0.130803093 0.129285082
0.162681550 0.146109745 0.135104537
0.187223092 0.166097283 0.155091986
0.229095727 0.190259099 0.182416081
0.292725980 0.229348555 0.213788882
0.413535774 0.287665904 0.268943727
0.134471640 0.183681533 0.159772083
0.139658093 0.184061080 0.168121442
0.150158450 0.195066184 0.166350529
0.170524642 0.204427183 0.175837636
0.193927839 0.224035174 0.194307193
0.238836184 0.245414540 0.212144077
0.320177257 0.292346746 0.248197377
0.447817743 0.351296455 0.299430817
0.124731094 0.268691093 0.209234893
0.130550355 0.272865623 0.205819175
0.148134187 0.280329198 0.214547992
0.173560828 0.288930982 0.224794373
0.213914990 0.305376381 0.241998985
0.269576013 0.335483730 0.261100829
0.363946527 0.383554548 0.299051166
0.497533232 0.449082851 0.362681776
0.117267452 0.398482054 0.284124076
0.126249000 0.399620712 0.283491373
0.156989351 0.406325400 0.289310753
0.194939986 0.418342799 0.300189614
0.252751291 0.436053276 0.316255450
0.320683450 0.457938462 0.336495459
0.424414784 0.502846003 0.385325998
0.556356728 0.569892347 0.453004420
0.184946269 0.571410239 0.397469580
0.196205005 0.574699461 0.406831443
0.236685753 0.580898166 0.407716542
0.289563805 0.586337805 0.420240462
0.357368737 0.601264834 0.434408426
0.430233717 0.615812898 0.462112606
0.514990270 0.640480816 0.492346257
0.624667883 0.680455446 0.551422954
0.435294271 0.757368565 0.586843669
0.440860093 0.764958560 0.596711040
0.466666490 0.764579356 0.595951855
0.506135285 0.772295713 0.612017810
0.554712296 0.781150937 0.627197742
0.616318464 0.792409778 0.644275486
0.682226539 0.808222532 0.673877478
0.756356418 0.820113599 0.706641614
0.122707352 0.053257290 0.118279286
0.126249090 0.063503996 0.119797185
0.136369094 0.071726643 0.120556280
0.154079646 0.091334641 0.134471640
0.179506987 0.113978639 0.154332995
0.214421347 0.143959373 0.176217467
0.275901616 0.181024998 0.213029996
0.392662585 0.235294014 0.272991419
0.128652990 0.081087641 0.119038284
0.130550444 0.078684546 0.128905639
0.139911547 0.096394993 0.130423546
0.152814910 0.109297536 0.142568007
0.179886341 0.130423635 0.164199740
0.213156104 0.156609908 0.186337903
0.284503639 0.198229000 0.229348361
0.398482054 0.248703331 0.277419627
0.128146544 0.118279189 0.145350739
0.130044088 0.122580543 0.145604074
0.149019808 0.134725094 0.157874733
0.161543101 0.147627637 0.164453000
0.186843544 0.168374196 0.185958445
0.234282091 0.194939986 0.212144271
0.298671633 0.238330007 0.247817844
0.419354707 0.290448964 0.302087158
0.132194638 0.182795629 0.178873926
0.136495903 0.184820086 0.187602744
0.151676357 0.197722629 0.193801641
0.170398653 0.216445640 0.212523639
0.195825279 0.234535009 0.223908991
0.243390262 0.258823633 0.245793894
0.321948200 0.297786236 0.280961275
0.445793867 0.355344653 0.335610449
0.126376003 0.275901526 0.237191483
0.125869632 0.281847179 0.234029174
0.151043445 0.289690077 0.253763169
0.172296003 0.299051285 0.256040394
0.211764827 0.319038838 0.273624629
0.273118377 0.342062056 0.299051166
0.369386226 0.390259087 0.337887645
0.496015370 0.455028266 0.401138395
0.107779734 0.403795242 0.311195612
0.125237182 0.405439526 0.317900091
0.153447092 0.414800644 0.319670886
0.195698887 0.425427020 0.329917729
0.258570820 0.441492677 0.348260462
0.330929458 0.464895576 0.373814106
0.429728091 0.508412302 0.416318685
0.562175810 0.570651412 0.480708182
0.182542548 0.569765806 0.420113564
0.197343454 0.574572742 0.427197754
0.231372282 0.576344192 0.430740207
0.286274165 0.586590886 0.441998541
0.351296455 0.599620581 0.463630736
0.428463012 0.616192341 0.482732534
0.515496552 0.638077497 0.515370190
0.620872796 0.682099700 0.569006979
0.431878567 0.758507192 0.610752463
0.434155643 0.759519398 0.600759029
0.456925958 0.757747948 0.608601749
0.498039186 0.769765615 0.624794424
0.548766792 0.779380023 0.636179447
0.616065502 0.790512323 0.658950090
0.683617830 0.806451559 0.685894728
0.752688050 0.827703536 0.709297776
0.124604993 0.066666998 0.161416799
0.125869542 0.070967548 0.164199546
0.136369184 0.083871000 0.168374196
0.151676446 0.100315996 0.175078824
0.174067184 0.120682992 0.188867807
0.215053543 0.148766473 0.213409454
0.278684258 0.186337888 0.255028546
0.401770771 0.239215612 0.325236797
0.127893806 0.099177547 0.162175894
0.132827356 0.096015446 0.177988797
0.139152348 0.104617350 0.173940197
0.156483471 0.116381735 0.182922348
0.180265799 0.133586541 0.193421990
0.215812534 0.161290079 0.218342990
0.283365190 0.201391578 0.265780985
0.398734987 0.252119154 0.321315706
0.133332998 0.134092093 0.186464190
0.134092197 0.137128100 0.186464071
0.143453285 0.144212186 0.188741088
0.161922649 0.157115638 0.204047740
0.186464190 0.174699381 0.221632093
0.226312265 0.200506181 0.248703539
0.300568998 0.239595175 0.290575385
0.424541354 0.295762062 0.352687985
0.125616908 0.189879835 0.222137630
0.134218916 0.196963623 0.227198094
0.145350829 0.203162625 0.228968918
0.169386178 0.222391099 0.246679187
0.202150181 0.236812010 0.261859626
0.250094801 0.268564373 0.287286371
0.329411656 0.304870427 0.321315736
0.455155104 0.356862456 0.379506439
0.122454002 0.274003953 0.271600187
0.127260908 0.283744544 0.280075818
0.144971281 0.295256108 0.287413090
0.179506809 0.318279833 0.306135148
0.229348168 0.344591975 0.331941366
0.287665904 0.364452928 0.346489638
0.378747731 0.397722989 0.381277472
0.502086937 0.459203005 0.436938822
0.106261544 0.407210469 0.353699714
0.116761282 0.412144125 0.357748270
0.149145931 0.423149914 0.372295797
0.201012179 0.444402009 0.387476355
0.263757378 0.457305461 0.403921455
0.339911014 0.481467485 0.425047457
0.441619009 0.522960186 0.463377655
0.569260061 0.576976418 0.520430148
0.184946463 0.577103078 0.466540545
0.202783018 0.580518961 0.472865373
0.233649552 0.588867843 0.477545649
0.288804650 0.593927860 0.488551348
0.355724454 0.609993815 0.500189424
0.437065214 0.625300288 0.522201180
0.517394185 0.643643320 0.547248244
0.637571394 0.692726016 0.603668451
0.424288183 0.761037588 0.627197742
0.433902383 0.760278404 0.628842175
0.452624679 0.766223729 0.636685491
0.492472887 0.771410286 0.644655406
0.546236396 0.783934295 0.655913651
0.616445005 0.795698881 0.681087732
0.687286258 0.810246646 0.708412409
0.758380771 0.828083396 0.736875176
0.113724999 0.082099989 0.223023474
0.121948451 0.086527541 0.229348272
0.134977996 0.097533256 0.232510984
0.161163747 0.114737637 0.240733728
0.184946194 0.133206993 0.252119184
0.223402992 0.158507243 0.266160488
0.286147803 0.191397727 0.307274014
0.405059665 0.243896216 0.379633069
0.116508357 0.109297730 0.227324530
0.124098808 0.108791798 0.231498927
0.137634456 0.119797282 0.231625468
0.159519449 0.129538447 0.245287821
0.190132543 0.147881091 0.257937938
0.226818532 0.171916723 0.276786745
0.286780715 0.205186576 0.315496475
0.405059874 0.250980526 0.379253596
0.125996262 0.154712349 0.254269570
0.130550012 0.150663823 0.252371907
0.141555831 0.156610087 0.255407929
0.158380911 0.168753654 0.262998164
0.193168834 0.187602818 0.275648266
0.232890725 0.209487826 0.302973002
0.300189823 0.245920375 0.338646710
0.430486739 0.297659695 0.408728868
0.110689096 0.210499465 0.288045466
0.113852002 0.213662267 0.283744544
0.138519540 0.220366746 0.290448993
0.160278350 0.232511282 0.298545033
0.196584374 0.250094622 0.313345879
0.254016638 0.268058091 0.334471822
0.330803275 0.306388527 0.373181373
0.463251203 0.360025346 0.438456506
0.098039463 0.296647668 0.331561923
0.101454817 0.303225905 0.337760836
0.129285261 0.310436517 0.344718814
0.166097194 0.324477941 0.354459256
0.223529458 0.350411117 0.377609104
0.288172126 0.371916384 0.402277172
0.385199040 0.403542131 0.437950909
0.513092637 0.459456176 0.494243979
0.082226478 0.416698188 0.399114460
0.099177539 0.421884745 0.407463908
0.138519987 0.431246370 0.418722451
0.196837544 0.448576450 0.431625813
0.274888933 0.476280928 0.462998182
0.357874691 0.510815740 0.495256215
0.459329754 0.535610259 0.517899990
0.581783414 0.582036674 0.568121433
0.175838009 0.580012560 0.514231265
0.190765351 0.584440053 0.515622973
0.230866551 0.585452437 0.524731040
0.294497252 0.599620461 0.539784789
0.366603643 0.621758580 0.556988955
0.445288002 0.638457000 0.575838208
0.532321274 0.658823550 0.597216785
0.650221288 0.697406471 0.646805525
0.421505392 0.760657787 0.665275276
0.437444776 0.760531127 0.662238896
0.451739401 0.765970826 0.665528238
0.490701914 0.774319649 0.676533818
0.544085860 0.786211193 0.685641527
0.609487355 0.795192719 0.704237640
0.687033296 0.816318929 0.731941760
0.762175620 0.835926414 0.758507013
0.091208294 0.104237705 0.341049552
0.099177718 0.112080708 0.339152277
0.122580513 0.119038478 0.342567563
0.159139708 0.130044281 0.346109927
0.199747190 0.150411278 0.362934649
0.251613021 0.178494275 0.374319792
0.313598961 0.207463264 0.402782857
0.417837024 0.248956352 0.447564900
0.092093915 0.125996277 0.332447857
0.102466717 0.132194757 0.343579978
0.119291514 0.137001798 0.341556013
0.155218303 0.152435258 0.350790739
0.198102474 0.168374479 0.364073306
0.249589175 0.190259099 0.379380286
0.321062535 0.223529726 0.402150244
0.405059963 0.259203076 0.442884535
0.078810908 0.165971011 0.352814347
0.089310743 0.174193740 0.357242078
0.120935999 0.182542801 0.366223842
0.152814910 0.189373791 0.368500680
0.199620470 0.209993988 0.385578662
0.262871444 0.234281987 0.403668374
0.332321346 0.261480272 0.426185757
0.435926527 0.306388497 0.470967829
0.044908449 0.237697914 0.384187251
0.063504539 0.235547274 0.384566814
0.099683560 0.243896335 0.392409831
0.146742702 0.254016638 0.395446211
0.206071898 0.273624539 0.415939182
0.278178543 0.296647638 0.434282243
0.353952914 0.324098587 0.458697230
0.468311071 0.366982728 0.501454592
0.013029722 0.331056178 0.431246370
0.016698275 0.330676913 0.437823981
0.072738729 0.338140309 0.438836336
0.140037835 0.346869081 0.450221390
0.216192484 0.360151470 0.465022147
0.300189823 0.383175105 0.485641807
0.396584362 0.412523746 0.507906556
0.523719251 0.464895844 0.559013486
0.001897740 0.457179159 0.498418748
0.032131366 0.459456444 0.506641269
0.104996905 0.466919929 0.508918345
0.181530669 0.474889100 0.519417882
0.268943667 0.491208136 0.540543795
0.365717709 0.510942698 0.559013486
0.469070017 0.542188048 0.585452199
0.587982059 0.584566712 0.625173807
0.173687547 0.594307303 0.580265582
0.187602818 0.590638876 0.577229559
0.227830648 0.598987699 0.585831881
0.288425267 0.612270892 0.594307542
0.362049431 0.626565456 0.609993815
0.458697289 0.653636992 0.639595270
0.559645832 0.682858586 0.663251519
0.670841515 0.713345885 0.700948834
0.416950941 0.761796296 0.712080836
0.430613339 0.761163890 0.707653284
0.450980544 0.767362475 0.711195350
0.494243979 0.774446368 0.721568823
0.549398899 0.787096560 0.730423689
0.620619595 0.804554045 0.754838824
0.688171685 0.819481432 0.766097009
0.778115034 0.840101242 0.793042243
0.003922000 0.133459821 0.535483539
0.004301451 0.133080274 0.540037513
0.038836520 0.139025822 0.542820632
0.141303018 0.153067827 0.551549375
0.227704167 0.177229628 0.557748377
0.316634834 0.208981648 0.570018649
0.411638081 0.244528815 0.587349892
0.517140746 0.289183795 0.608602226
0.005060025 0.150663823 0.530297399
0.000379548 0.154459000 0.535989821
0.024921052 0.163693994 0.540670335
0.137634560 0.174319834 0.549146116
0.222011164 0.194307193 0.558633685
0.310436457 0.223402902 0.568500757
0.404807091 0.254648805 0.584819853
0.512839854 0.304364055 0.604933321
0.000000000 0.203921735 0.547501385
0.001897737 0.202783093 0.548387051
0.014927291 0.211258844 0.553953409
0.127893925 0.225173637 0.561416805
0.224668086 0.243769914 0.571157396
0.321695000 0.271093994 0.584313631
0.416951239 0.303984910 0.599114656
0.526122689 0.347754657 0.621758282
0.003668657 0.270208776 0.564579189
0.004048201 0.274636269 0.571410239
0.001138644 0.281340629 0.571537077
0.101834491 0.295635641 0.576597035
0.223655969 0.310562789 0.587602615
0.324731082 0.336495548 0.597976089
0.429474860 0.367741644 0.617583752
0.539785147 0.405186623 0.637444317
0.001138640 0.381404191 0.604300916
0.003795180 0.379127204 0.607969582
0.002276991 0.378368109 0.609993458
0.060341787 0.386843801 0.606957555
0.222137973 0.402150542 0.611511469
0.343580008 0.427197963 0.631498873
0.455660969 0.455787480 0.645540953
0.571410358 0.497533321 0.666287303
0.008222749 0.514104545 0.655155241
0.004427752 0.521948159 0.656419754
0.051612906 0.519924283 0.652245283
0.171663091 0.521568716 0.658444107
0.270841122 0.527640641 0.661859632
0.385452330 0.541935265 0.671347380
0.503984869 0.569006622 0.693105400
0.618722260 0.604301035 0.706641376
0.224035621 0.655028522 0.707906008
0.246805817 0.656672776 0.699683905
0.280202329 0.657432020 0.707147062
0.335863471 0.661353707 0.714104891
0.394307166 0.668564498 0.717014194
0.475015998 0.673244596 0.723845661
0.573814273 0.689816236 0.743453324
0.681846976 0.718405783 0.762049377
0.456040323 0.787602603 0.765211582
0.458317637 0.785705388 0.774320006
0.475268483 0.792156637 0.777861834
0.520177007 0.790385962 0.784313798
0.559013426 0.797722995 0.785199165
0.623909116 0.815306485 0.803288519
0.708791852 0.832510591 0.825047135
0.798228562 0.859455705 0.856925726
