Assets/Resources/EldamarStudio/100 Horror LUTs Pack/LUTs/cube/Onixath LUT.cube
LUT_3D_SIZE 5
DOMAIN_MIN 0.000000 0.000000 0.000000
DOMAIN_MAX 0.903226 0.903226 0.903226
0.117647000 0.039216001 0.047059000
0.131056279 0.052624710 0.060468286
0.167361990 0.085009828 0.081087999
0.224668115 0.140291125 0.120683126
0.399240762 0.225047812 0.200126827
0.128778994 0.101327993 0.077799000
0.142188698 0.108538993 0.092219993
0.175838411 0.129158705 0.114105120
0.245287985 0.177608684 0.158253998
0.411638349 0.269196540 0.219481677
0.137254998 0.213915378 0.143832996
0.146110117 0.219101816 0.156609699
0.186337575 0.239341974 0.174573407
0.269829124 0.291714370 0.211258829
0.468564421 0.395192742 0.298418790
0.112840123 0.429854244 0.271853119
0.153446957 0.440354079 0.279064119
0.240860403 0.464516222 0.306894392
0.361290246 0.501455128 0.342568099
0.572169602 0.596963942 0.449841946
0.429601550 0.760151565 0.586337388
0.458823323 0.767994583 0.581277370
0.535610259 0.775079012 0.604680538
0.635799706 0.800252914 0.648450553
0.761669397 0.824161768 0.689689696
0.125489995 0.041492712 0.077166408
0.132067993 0.060468286 0.088930994
0.165717706 0.094497278 0.113472275
0.231119707 0.147501543 0.159519419
0.391397744 0.227324516 0.231245935
0.131056279 0.096141987 0.108538993
0.144465417 0.114104696 0.120935991
0.173561126 0.138013974 0.133080274
0.239722103 0.186717540 0.175585121
0.406451434 0.274762809 0.254522532
0.130676582 0.219734401 0.170651406
0.144086286 0.223023415 0.182795689
0.184693277 0.248197526 0.200758994
0.270208806 0.297280103 0.235167682
0.472485572 0.401391506 0.325869381
0.120050542 0.437444776 0.291713834
0.157748252 0.443263948 0.301707834
0.238583356 0.459329665 0.327767223
0.362934917 0.499177814 0.366097510
0.573813915 0.596963763 0.471473634
0.430487037 0.755850732 0.587602556
0.456799239 0.759772301 0.585831583
0.522833526 0.772169292 0.606198490
0.628715634 0.795951605 0.649082720
0.752814472 0.820872784 0.698545098
0.122201420 0.062112574 0.142567992
0.132321283 0.075521708 0.141555712
0.166729569 0.103984572 0.153700411
0.229348108 0.156609714 0.206071973
0.396584600 0.236811802 0.298418641
0.131688699 0.121947698 0.154332832
0.140923291 0.124224991 0.159898698
0.167994574 0.145477697 0.183428109
0.234787986 0.192662954 0.225300282
0.416192174 0.280961663 0.317647070
0.129411995 0.227577820 0.223655984
0.139532119 0.241365969 0.229854688
0.194180578 0.276660383 0.266160399
0.278051823 0.313978374 0.300189793
0.480328590 0.410246372 0.387982368
0.111574702 0.444782019 0.362049103
0.151802406 0.451739520 0.366603553
0.240480945 0.476534128 0.384313524
0.370398283 0.514484525 0.422644228
0.581404150 0.603415787 0.518153191
0.419733971 0.759393036 0.625553608
0.444275707 0.763314605 0.615686178
0.515749574 0.772422135 0.633902192
0.629221857 0.797975540 0.671853602
0.754458964 0.826059163 0.714990139
0.111700997 0.091208130 0.245287985
0.130423859 0.100062996 0.250221133
0.171283990 0.128146991 0.267552227
0.235547245 0.171663120 0.291461140
0.407083750 0.246679381 0.393548101
0.117899865 0.137254998 0.262618542
0.128399700 0.149778411 0.267552257
0.172928691 0.172296122 0.284882694
0.249841854 0.212271124 0.320177138
0.424414873 0.292093515 0.419354647
0.093991429 0.254775554 0.328779519
0.120177165 0.267931700 0.330044538
0.184060544 0.290702075 0.355218232
0.286906689 0.324478000 0.393168688
0.494749725 0.406577915 0.484882772
0.086274996 0.459203273 0.443643272
0.133206695 0.468690693 0.454395950
0.249968231 0.498165935 0.488045216
0.405439347 0.555344284 0.536749125
0.603288889 0.610879242 0.603036284
0.423529536 0.761669755 0.673877418
0.449462116 0.766223907 0.677419424
0.521062553 0.781277418 0.692346513
0.630486727 0.802276909 0.717646956
0.763187528 0.834914267 0.765085459
0.003922000 0.133459821 0.535483539
0.021126226 0.134724990 0.539278746
0.183048829 0.167488813 0.550537765
0.338140070 0.216571972 0.574066997
0.517140746 0.289183795 0.608602226
0.001265167 0.187476352 0.544971228
0.008349022 0.194560692 0.548893213
0.183807403 0.220493540 0.561922669
0.345730454 0.264010191 0.587349534
0.521062374 0.335104376 0.619987309
0.002656833 0.319291651 0.577102721
0.006831295 0.325490236 0.586337864
0.167488977 0.345477611 0.602023780
0.366603464 0.389373630 0.625932872
0.559645772 0.453510165 0.659582615
0.027198188 0.551549435 0.665275276
0.085262306 0.555597603 0.666160464
0.250474364 0.560025275 0.667299211
0.432258099 0.579633236 0.687792659
0.632890582 0.630613804 0.721568763
0.456040323 0.787602603 0.765211582
0.474509507 0.787349701 0.769765675
0.538266480 0.792789578 0.781656981
0.647185564 0.817836821 0.809107959
0.798228562 0.859455705 0.856925726
