Assets/Resources/EldamarStudio/100 Horror LUTs Pack/LUTs/cube/Onixath LUT.cube
DOMAIN_MIN 0 0 0
DOMAIN_MAX 1 1 1
LUT_3D_SIZE 32
0.117647000 0.039216001 0.047059000
0.114610612 0.036179613 0.044022612
0.115875773 0.037444774 0.045287773
0.118912160 0.040480837 0.048323840
0.121948451 0.043516546 0.051359549
0.124984063 0.046552934 0.054395933
0.128020316 0.049588677 0.057432320
0.131056279 0.052624710 0.060468286
0.134092093 0.055661097 0.062744997
0.137128487 0.058697488 0.062745005
0.145983875 0.061733127 0.068563998
0.151043743 0.064769253 0.072612256
0.155218005 0.070082352 0.074510001
0.161290005 0.078937069 0.075015999
0.167361990 0.085009828 0.081087999
0.171030805 0.091081992 0.087159999
0.177103192 0.098671801 0.094750188
0.186843976 0.107779562 0.103858411
0.198988020 0.116887972 0.112966038
0.205566019 0.123213001 0.119291715
0.213535741 0.131182730 0.119671263
0.224668115 0.140291125 0.120683126
0.240101486 0.149272993 0.129917979
0.261353910 0.155345008 0.142062008
0.280328989 0.163693696 0.151929289
0.302719623 0.175584644 0.162428975
0.330550134 0.191271126 0.175079063
0.360910892 0.209487885 0.190259427
0.399240762 0.225047812 0.200126827
0.436938345 0.241998941 0.216319159
0.476913154 0.262871563 0.237571582
0.525489986 0.290196002 0.258823991
0.117647000 0.042251613 0.056167386
0.114610612 0.039216001 0.053130999
0.120176770 0.042631388 0.050094612
0.123718992 0.045288000 0.050094616
0.124984160 0.046552837 0.051359549
0.128020450 0.049588550 0.054395933
0.131056070 0.052624937 0.059961997
0.134092331 0.058950089 0.063504316
0.137128294 0.063251287 0.065781385
0.140164107 0.061733104 0.065781392
0.146110356 0.067678608 0.071600385
0.151043743 0.070841253 0.071600132
0.156356648 0.076154642 0.077166252
0.164073363 0.084756739 0.086907029
0.167361990 0.088045441 0.090196386
0.173434600 0.094117604 0.096268386
0.180139199 0.100189604 0.099304385
0.188614607 0.107146993 0.103225991
0.195951626 0.113851599 0.109930426
0.208096325 0.131309330 0.119038746
0.216571644 0.136495650 0.125363991
0.227703735 0.143326744 0.127767250
0.242884114 0.152435124 0.132953629
0.258317500 0.161417007 0.145098403
0.281847149 0.172042996 0.157242388
0.304364353 0.183301374 0.167109668
0.330044061 0.196837068 0.177609384
0.357874483 0.212523490 0.190259427
0.390892059 0.228083417 0.205439806
0.433143497 0.243263796 0.218849182
0.479569763 0.262871563 0.236685976
0.534598351 0.290196002 0.255787611
0.117647000 0.043136999 0.054522451
0.121062383 0.046552613 0.057938386
0.115875773 0.049968775 0.050600998
0.121188998 0.052245613 0.052624937
0.122327551 0.051360000 0.055661000
0.128905937 0.052624840 0.058696933
0.136242673 0.057811324 0.062112771
0.135989711 0.057558712 0.063251063
0.138772994 0.063883997 0.066034228
0.143200293 0.065022297 0.068817236
0.151296735 0.072865002 0.076787002
0.155344740 0.076913260 0.080835260
0.159519002 0.081087999 0.081467547
0.167109266 0.088678256 0.092599742
0.170145348 0.091714352 0.095635645
0.175584823 0.097153768 0.101075217
0.181657210 0.103225768 0.104111224
0.191397563 0.110562757 0.105376214
0.202023789 0.119670793 0.111448236
0.209360942 0.128272951 0.118153363
0.217710227 0.138899222 0.125363991
0.229601249 0.145224258 0.131435990
0.245793760 0.155344769 0.135863274
0.258949906 0.162428916 0.145983815
0.278810769 0.173813999 0.158127993
0.301707864 0.185957983 0.168880671
0.326755077 0.198102131 0.179506987
0.357368410 0.211638212 0.194939986
0.394307464 0.233269796 0.203289032
0.436559319 0.250221401 0.222011387
0.482479334 0.268437743 0.238836423
0.535104215 0.294496983 0.257052779
0.118912160 0.050727319 0.054775160
0.122454152 0.051739324 0.057052772
0.122454159 0.055281550 0.056167386
0.120177001 0.062618837 0.053384159
0.120556548 0.059582546 0.061733447
0.127893925 0.058697160 0.064769059
0.134471685 0.062491998 0.066540159
0.140796557 0.067425549 0.070082292
0.140796930 0.065907933 0.068564095
0.147374988 0.071474001 0.074130170
0.152561709 0.076660290 0.079316869
0.160151914 0.084250420 0.086907260
0.163187519 0.087286517 0.089943349
0.168880031 0.092979029 0.095129870
0.171916410 0.096015416 0.096141741
0.177355990 0.101454996 0.101581156
0.183427989 0.107526995 0.104617156
0.190765142 0.114863984 0.107147142
0.205313146 0.127008006 0.114484169
0.213409007 0.133586004 0.120556556
0.222011313 0.139658317 0.125363991
0.229095191 0.146742195 0.132447869
0.246679321 0.158507347 0.139025852
0.262239009 0.165718004 0.149272904
0.282479405 0.176343992 0.160657987
0.301201820 0.187223151 0.170145512
0.323466241 0.200379163 0.178747833
0.355344564 0.214041725 0.193927824
0.395319432 0.233016953 0.206578165
0.437571317 0.256293416 0.224035323
0.487033546 0.275395602 0.244402140
0.533333004 0.299304157 0.262618840
0.121569000 0.067425996 0.063883543
0.122327998 0.062112998 0.060847834
0.121948451 0.060721450 0.060721450
0.122454390 0.063377835 0.061733447
0.125489995 0.071726546 0.067425996
0.128526390 0.068690933 0.070461608
0.132321224 0.070335224 0.071346998
0.136621997 0.074636094 0.074256547
0.142694086 0.079949096 0.079569645
0.151802480 0.082985483 0.082606032
0.152941003 0.083871000 0.083491549
0.158254251 0.089184254 0.088804707
0.165464908 0.096015349 0.094876900
0.168500513 0.099051028 0.097912520
0.171536863 0.102087416 0.095129870
0.177355990 0.107906543 0.099683993
0.183427989 0.113978542 0.103478998
0.190765142 0.120176986 0.104490988
0.202909946 0.132321015 0.116635010
0.212270647 0.139278546 0.123592548
0.222896919 0.145730481 0.128526181
0.234408870 0.152814865 0.132827416
0.244022489 0.161922514 0.141935050
0.265274912 0.171030909 0.153826818
0.288045555 0.182795539 0.165591449
0.308918655 0.193168670 0.174952522
0.326882064 0.203795090 0.182163000
0.354206413 0.222011074 0.188235000
0.393675029 0.237570792 0.204174638
0.436559319 0.257684827 0.226945147
0.480202556 0.281088024 0.251233518
0.531814992 0.302340448 0.269449562
0.121569000 0.073497996 0.072991937
0.127640992 0.073497996 0.069955550
0.126249224 0.074636221 0.073371068
0.123719223 0.075901061 0.073371068
0.122454390 0.077798545 0.070461608
0.125489995 0.080834940 0.073497996
0.133586377 0.080329001 0.076533616
0.138393223 0.082479648 0.079063714
0.141935095 0.086021766 0.082606032
0.145730481 0.089057490 0.085642420
0.151929006 0.095002994 0.091587931
0.154965267 0.098039255 0.094623677
0.160152003 0.102087349 0.096394710
0.165464908 0.105123028 0.094876908
0.168500513 0.108159415 0.097912520
0.176343858 0.116002798 0.104743861
0.183427989 0.123086929 0.111827999
0.190765142 0.128526345 0.115622997
0.202909946 0.132321015 0.116635017
0.212270647 0.141682357 0.125996351
0.221378729 0.150284678 0.134598196
0.232005060 0.158886865 0.140670195
0.244022489 0.167994499 0.144971445
0.265274912 0.177102908 0.154079854
0.284250557 0.190765277 0.163693696
0.304870635 0.201264918 0.171916395
0.327135056 0.209867135 0.179506868
0.360278428 0.228083849 0.194306999
0.392915756 0.243642986 0.205692664
0.434914619 0.262365162 0.224162161
0.478178561 0.284123659 0.244655594
0.519671023 0.305376083 0.260341942
0.124098673 0.089690000 0.074510001
0.125110671 0.087160319 0.079063937
0.129032448 0.089310549 0.080329090
0.129285157 0.089816481 0.083491646
0.129158676 0.088931091 0.079949543
0.130044058 0.091966935 0.076533616
0.133080319 0.095003322 0.079570003
0.138899282 0.096647605 0.082606032
0.143453091 0.099683769 0.086401321
0.150031492 0.102719836 0.091208488
0.150916994 0.103605315 0.097153999
0.154965267 0.107653059 0.101201735
0.161416993 0.110689320 0.103098996
0.170019031 0.113725349 0.101960704
0.173055217 0.116761737 0.104996897
0.178494632 0.122201316 0.110436313
0.187476128 0.132700995 0.116382189
0.195192575 0.140164584 0.121442311
0.205439627 0.143200696 0.125237331
0.219860971 0.149272680 0.133586034
0.228969052 0.158380568 0.142694414
0.239089310 0.167488798 0.149778455
0.251233310 0.176596820 0.152941316
0.265274912 0.185705230 0.159645915
0.286527276 0.197090313 0.168754280
0.309171289 0.212017655 0.179253623
0.334724844 0.223529309 0.188109070
0.368121743 0.241745546 0.199241176
0.404047757 0.257305443 0.211764649
0.444528550 0.274256706 0.229222164
0.491840750 0.296521217 0.251359969
0.537887633 0.321062654 0.271473676
0.128778994 0.101327993 0.077799000
0.128778994 0.103225671 0.087159991
0.127640769 0.101201929 0.087792769
0.133206829 0.102972701 0.090828836
0.135862991 0.101075441 0.091208287
0.133332998 0.104111053 0.087665834
0.140797019 0.103858314 0.089184023
0.142188698 0.108538993 0.092219993
0.144465417 0.110815704 0.094497278
0.150917202 0.112966478 0.098798290
0.152941003 0.114737704 0.103225991
0.156609550 0.120050438 0.105629444
0.158507288 0.121947698 0.107526705
0.168627352 0.124730989 0.108285740
0.175838411 0.129158705 0.114105120
0.179633275 0.132953987 0.117899984
0.188741282 0.139025986 0.122454181
0.197975576 0.150284573 0.126755401
0.207083985 0.155344978 0.133839294
0.220113650 0.161164001 0.141050071
0.233143732 0.167488948 0.150157735
0.245287985 0.177608684 0.158253998
0.258696973 0.187476009 0.162175789
0.270841002 0.198102608 0.169765994
0.289816290 0.209487692 0.174826279
0.312460303 0.221631691 0.183934301
0.341555744 0.236559063 0.195825413
0.377229601 0.253636688 0.206072450
0.411638349 0.269196540 0.219481677
0.453383535 0.287792385 0.236938864
0.498039156 0.307779938 0.259076655
0.547375262 0.334345281 0.283364713
0.132574096 0.109677091 0.086906999
0.133332998 0.114990190 0.096774101
0.131941676 0.116128765 0.097406775
0.132447928 0.114357993 0.098418832
0.140796557 0.113978542 0.100695543
0.135862991 0.116255254 0.100316092
0.139658555 0.115749314 0.100569323
0.146742910 0.116128996 0.105123289
0.149020001 0.121442094 0.106641099
0.149020001 0.121442094 0.106641099
0.152688220 0.125110865 0.110309869
0.156230107 0.129917830 0.111322001
0.162302002 0.136369199 0.112839997
0.162555039 0.136875197 0.112587027
0.173181728 0.142947197 0.119671412
0.180392191 0.146615818 0.124731287
0.186463997 0.151169986 0.127008185
0.198608145 0.157242149 0.132574558
0.207843080 0.166224077 0.141935229
0.220493197 0.174067095 0.148260713
0.231119469 0.180139095 0.155471355
0.244529083 0.186717078 0.163567096
0.262871563 0.198734596 0.169639081
0.276913196 0.210246816 0.178114906
0.296647400 0.224668086 0.184187278
0.319291413 0.236812070 0.190006495
0.345604092 0.249462157 0.200632185
0.384819388 0.264642507 0.213282883
0.419734359 0.279822916 0.229601815
0.460974067 0.299304157 0.248324156
0.505629182 0.322201043 0.269703031
0.548133969 0.346489102 0.293991089
0.129538476 0.124857478 0.105123006
0.132574096 0.127893880 0.108159393
0.133332998 0.131056190 0.105123490
0.134471685 0.132573992 0.105502844
0.137760937 0.132194549 0.112839542
0.140796542 0.129158944 0.109803930
0.133333310 0.131435663 0.104364492
0.133333504 0.132574007 0.106894292
0.139911607 0.133586109 0.112713106
0.149020001 0.136622488 0.109677494
0.154839009 0.142441481 0.115496486
0.156736493 0.144339010 0.117394008
0.160404831 0.145857140 0.119671002
0.168627024 0.149019986 0.124731027
0.171663404 0.155091986 0.121695429
0.182289496 0.158760190 0.126376003
0.191017985 0.163314015 0.129285499
0.198608145 0.169386163 0.132574573
0.210752964 0.175458953 0.147754982
0.225553855 0.187223494 0.154332981
0.234914958 0.195319489 0.160404995
0.244276121 0.201391488 0.166603491
0.259835958 0.207843006 0.172675475
0.281088382 0.216951400 0.178747505
0.304237962 0.235294268 0.187223300
0.328399807 0.251992464 0.196078673
0.354712486 0.264642537 0.206704974
0.391144454 0.279822916 0.224920943
0.427703589 0.295003295 0.245540798
0.471093833 0.315496385 0.266540170
0.517773211 0.340543568 0.287792593
0.560277998 0.367741495 0.309171468
0.132321119 0.134218872 0.111700997
0.138266623 0.140164375 0.120556384
0.134851009 0.141049996 0.112839997
0.134598166 0.142061874 0.105250001
0.138014004 0.142820880 0.105755873
0.143579930 0.147374943 0.110309929
0.139025867 0.144339323 0.117394321
0.138520002 0.148260742 0.119797863
0.144591987 0.150790751 0.124604642
0.151549608 0.151676357 0.121568479
0.151929140 0.151802883 0.121441990
0.158001125 0.157874867 0.127513990
0.162049115 0.160784215 0.130423635
0.168880031 0.163820162 0.133965835
0.171916410 0.167236000 0.130929545
0.184566796 0.173307985 0.137507930
0.194180861 0.178367868 0.144085988
0.201517850 0.185072437 0.147501588
0.213662088 0.193421945 0.153573990
0.225806847 0.196711361 0.160405010
0.238962993 0.210373119 0.168374747
0.249082983 0.219481260 0.174446732
0.262618601 0.225680217 0.178873986
0.283871025 0.234787911 0.190512002
0.307400674 0.246173576 0.198861286
0.330297530 0.262745172 0.209360972
0.354586065 0.277419150 0.220493257
0.388614833 0.295003295 0.233902857
0.433016628 0.315496653 0.249462679
0.473750353 0.329411834 0.266666621
0.519164801 0.350917041 0.282985359
0.563693881 0.380265743 0.298165977
0.137380987 0.151423246 0.119797252
0.137381256 0.155470982 0.118785396
0.136875004 0.155218259 0.118911736
0.135862991 0.157748252 0.114358060
0.139278740 0.158886701 0.113599248
0.142061740 0.160025001 0.122960247
0.142061740 0.162555307 0.121442318
0.142568156 0.161163986 0.127261281
0.147881165 0.165718079 0.132194832
0.152687997 0.166983247 0.131688759
0.154965267 0.169006988 0.133585989
0.156989008 0.171031237 0.131562263
0.163060993 0.177103251 0.137634262
0.169639051 0.181024462 0.141808987
0.177988663 0.184060410 0.144085839
0.184566796 0.187476248 0.146616057
0.196711197 0.195066452 0.155724049
0.203921676 0.201011926 0.161036998
0.214674011 0.207336962 0.162681714
0.224794447 0.216951609 0.168501258
0.238836467 0.219987512 0.170778260
0.251107007 0.233649239 0.178494990
0.263883471 0.241872221 0.182795733
0.288930893 0.250980347 0.193042010
0.310436279 0.264389575 0.202909291
0.338899344 0.277925640 0.217583641
0.364199877 0.292599499 0.232131317
0.396078408 0.307779908 0.245793879
0.434029013 0.326628536 0.258570552
0.477798611 0.349652112 0.277292877
0.520303428 0.364579231 0.293864429
0.564706028 0.390385717 0.308286250
0.140037641 0.170398638 0.128905639
0.138140380 0.172295898 0.125110641
0.137381226 0.175584763 0.124604508
0.135862991 0.174066991 0.123086311
0.141176000 0.179379985 0.128399998
0.141176000 0.177102685 0.137508005
0.141176000 0.177988306 0.136748999
0.143326774 0.180518627 0.133333281
0.150158450 0.181277722 0.137128189
0.153953165 0.184314132 0.140544131
0.156989232 0.187349766 0.145856768
0.160025388 0.190385908 0.144844905
0.165338278 0.194560632 0.145224646
0.171663240 0.200126633 0.150537610
0.182922184 0.202276871 0.153953001
0.190259352 0.206451446 0.158760160
0.197849557 0.211385190 0.162555441
0.207590342 0.219228581 0.171030626
0.217204049 0.222264335 0.172042653
0.228589356 0.233649701 0.177609056
0.241492718 0.242378548 0.182163343
0.257685274 0.248450294 0.186211601
0.270208746 0.260467768 0.192536622
0.293484926 0.269576162 0.200632393
0.318532258 0.284376919 0.209740579
0.343073905 0.298418641 0.220999286
0.376470357 0.314105123 0.241239712
0.407463521 0.327514261 0.256420076
0.446552575 0.346109897 0.271220624
0.486527324 0.367868036 0.289816439
0.529917777 0.391271234 0.313725233
0.572675645 0.409740269 0.332953990
0.137254998 0.186591029 0.137760997
0.137507960 0.186337993 0.137507960
0.138646260 0.192283288 0.141809031
0.140417039 0.197849035 0.146109998
0.140923038 0.197849035 0.146363035
0.140923038 0.197849035 0.146363035
0.141682059 0.197596058 0.145857036
0.142820716 0.199493751 0.144718319
0.147122055 0.202024058 0.143453151
0.156230450 0.205060452 0.149525926
0.160278127 0.208602160 0.158507168
0.163061231 0.211385265 0.159266263
0.168627650 0.215307042 0.159646004
0.177229956 0.221125990 0.165465027
0.186337575 0.221125990 0.162428647
0.193548054 0.226186022 0.166603059
0.201138198 0.232005045 0.171410218
0.210626021 0.238203615 0.174825981
0.222770050 0.241240010 0.180898011
0.237697408 0.252119035 0.186717033
0.252624720 0.262365788 0.193042055
0.269070208 0.271980017 0.200632259
0.287413448 0.284377009 0.212776989
0.302846134 0.293864906 0.219101995
0.326881349 0.309298009 0.227704242
0.354711980 0.325237036 0.237950981
0.383555084 0.337887138 0.250601083
0.416951418 0.356103897 0.265781432
0.459961802 0.376976788 0.283870995
0.503478348 0.400000006 0.304870397
0.548133790 0.423402667 0.331436008
0.593675017 0.444655061 0.361796051
0.137254998 0.213915378 0.143832996
0.140290618 0.210878998 0.140796602
0.134092346 0.212776750 0.144845128
0.131309420 0.217077658 0.152182251
0.132068425 0.219101399 0.158633545
0.137887418 0.219101399 0.161543414
0.145477742 0.216571718 0.156483412
0.146110117 0.219101816 0.156609699
0.146615997 0.222264305 0.157621413
0.153194085 0.220240057 0.158633545
0.165211588 0.229095444 0.167615443
0.167361990 0.230866402 0.166603416
0.172548860 0.232637629 0.165717989
0.183301955 0.236306369 0.171537027
0.186337575 0.239341974 0.174573407
0.197849602 0.246552795 0.178747818
0.207210630 0.251992583 0.184819818
0.216318563 0.257558793 0.189626828
0.225806430 0.268564343 0.193041995
0.240733787 0.274383396 0.196331352
0.254016429 0.283618122 0.203795150
0.269829124 0.291714370 0.211258829
0.290449053 0.299557388 0.218848974
0.311701477 0.317773402 0.230993003
0.333965957 0.329537988 0.241871983
0.363061458 0.345730305 0.251992226
0.396205038 0.361669809 0.262745053
0.435167372 0.374319851 0.277925432
0.468564421 0.395192742 0.298418790
0.508032978 0.418216348 0.315496594
0.554332554 0.441619396 0.338773161
0.611890972 0.462871820 0.373940825
0.130044192 0.238835976 0.152308807
0.137887418 0.235800207 0.154079407
0.136622027 0.234914601 0.153193802
0.134345189 0.238962784 0.161290511
0.136242732 0.242378056 0.170019060
0.136243001 0.240353778 0.169006944
0.142441511 0.245034903 0.174066991
0.146616191 0.240354165 0.172928706
0.145857096 0.242631078 0.174446508
0.150284812 0.242884099 0.172801793
0.162175819 0.249082655 0.179126859
0.170271799 0.252118796 0.180139244
0.173307806 0.254395783 0.179000795
0.182416186 0.258443981 0.184819758
0.187602580 0.259329379 0.187855601
0.200252801 0.267172575 0.193295792
0.210879385 0.274762779 0.196331799
0.219987378 0.279949546 0.201265216
0.229095787 0.290322781 0.207842842
0.246173367 0.299303979 0.213282347
0.261353731 0.305376470 0.216318727
0.278051794 0.314990759 0.224415123
0.300695479 0.323972285 0.232005268
0.321947873 0.335357606 0.241871998
0.347754300 0.351296306 0.254016578
0.374952495 0.366350114 0.267552257
0.408349156 0.384060860 0.280202597
0.447818011 0.398102582 0.297280222
0.481973439 0.420619547 0.312966615
0.524225295 0.440101177 0.334218949
0.567362368 0.463124722 0.357748359
0.620492995 0.485894978 0.395698994
0.130044192 0.260088384 0.165970996
0.131562397 0.258570552 0.173560798
0.141176611 0.262239367 0.175964385
0.133080229 0.262239367 0.173434377
0.137001649 0.266666859 0.182542995
0.136242747 0.263630450 0.180645242
0.142315000 0.265148640 0.183680996
0.146616191 0.269197136 0.188108712
0.148893088 0.265401483 0.191903993
0.153447300 0.268437684 0.191144690
0.159139812 0.272865385 0.190765187
0.168753996 0.276407182 0.195319250
0.174825996 0.278684199 0.194560632
0.181151032 0.284503222 0.200000152
0.188488185 0.285768390 0.203035772
0.200252801 0.291460991 0.206957594
0.216951385 0.299051195 0.217584178
0.226692170 0.305123180 0.218216598
0.236685976 0.313345939 0.225553229
0.251107007 0.320935845 0.225806192
0.271979898 0.331182659 0.233016923
0.288172185 0.340291321 0.239089176
0.311574668 0.352814853 0.248703495
0.335610092 0.361922890 0.257811487
0.359898657 0.374067247 0.264642358
0.388614327 0.390638530 0.279570132
0.419987112 0.408855170 0.296394974
0.458444118 0.425047427 0.316634953
0.494117767 0.445161343 0.333712995
0.536369324 0.465907395 0.355471343
0.582289815 0.486780554 0.375838161
0.626565397 0.511701167 0.410878986
0.136622414 0.280834973 0.184187144
0.129918009 0.281467527 0.193801150
0.136369646 0.286654323 0.200758755
0.142062277 0.291967541 0.201264992
0.129158974 0.292346984 0.196331531
0.132194638 0.289816618 0.196584553
0.139658332 0.289943129 0.197849244
0.146110147 0.290322691 0.200252697
0.150664479 0.293991446 0.203415573
0.159772098 0.297027051 0.209487572
0.161416590 0.299430847 0.205818981
0.167488843 0.301834255 0.207210571
0.176723570 0.306641132 0.212144211
0.183554605 0.312713146 0.215686530
0.193421975 0.316128939 0.219481125
0.203035980 0.320303530 0.220619798
0.217583805 0.327008128 0.229095593
0.234535396 0.333080113 0.241113409
0.246679440 0.339152098 0.244149014
0.261353552 0.345224112 0.241366133
0.278557897 0.354459018 0.244149297
0.303352565 0.366350681 0.253636986
0.321568549 0.381404549 0.265907466
0.347374916 0.391018242 0.276027858
0.373687536 0.402403563 0.282479256
0.402024090 0.417963505 0.289310306
0.433396280 0.435673624 0.308033049
0.469829023 0.453763127 0.332194537
0.504996598 0.472612202 0.352435201
0.547248304 0.491461068 0.374699712
0.593168795 0.511068702 0.401265115
0.632637978 0.538393140 0.419481158
0.133586004 0.311195046 0.202403963
0.124478415 0.314231455 0.202403963
0.124225214 0.317014813 0.209867179
0.127008051 0.319292009 0.214674026
0.126122579 0.319671452 0.214547575
0.129158974 0.322707057 0.217583954
0.134724960 0.325237334 0.215306669
0.141049996 0.324731290 0.214420989
0.147628129 0.324478030 0.215433121
0.156736478 0.330423504 0.218595982
0.162934974 0.330550015 0.221758112
0.170525238 0.330803037 0.224035278
0.180771977 0.334471643 0.227324635
0.192663014 0.343073994 0.230866954
0.207843393 0.349145979 0.239974558
0.212903172 0.350158036 0.236558989
0.222770199 0.355218202 0.240354016
0.237571046 0.363440990 0.250221044
0.249715090 0.369512975 0.250221044
0.272991806 0.375584990 0.256040722
0.288677990 0.383554697 0.261100948
0.307906300 0.392916143 0.268437862
0.336748987 0.402657002 0.278051525
0.354965001 0.414801031 0.293231934
0.383048564 0.426692009 0.305629015
0.415686339 0.443010688 0.312839687
0.451613098 0.462998092 0.320177138
0.488045841 0.478178442 0.341429472
0.519164920 0.498924822 0.365591645
0.557115316 0.519924164 0.387603164
0.599240839 0.540923595 0.411132574
0.638710022 0.562682033 0.437697977
0.116634980 0.349905103 0.223403364
0.118658669 0.352940798 0.226186022
0.120303832 0.355977178 0.228336796
0.122707352 0.357748389 0.232384726
0.123466358 0.357368857 0.232005179
0.128905937 0.355597466 0.230233952
0.134471998 0.358633697 0.233270332
0.142188698 0.360025376 0.234029010
0.150158256 0.359645844 0.236685365
0.159266129 0.363694102 0.241745502
0.168247998 0.369513094 0.236432508
0.178368002 0.371536821 0.241492361
0.188235298 0.374572724 0.246426284
0.198988050 0.381530404 0.250854373
0.214168414 0.385072738 0.252372295
0.224541813 0.388741553 0.259076715
0.235926703 0.392157078 0.259076536
0.253004342 0.400000185 0.267425507
0.269449413 0.408222437 0.276028067
0.284376740 0.419861108 0.284376711
0.308665484 0.420240372 0.286653996
0.327387869 0.428842634 0.292979002
0.352308840 0.443264216 0.303857863
0.378494710 0.452751398 0.313725293
0.412649989 0.467172652 0.331182957
0.443136990 0.479822725 0.347122043
0.473877072 0.496394515 0.359139800
0.503478467 0.513852119 0.375838161
0.545224190 0.534345567 0.402403533
0.579632699 0.553826690 0.423276335
0.619228184 0.574952602 0.450600803
0.658697367 0.598102748 0.489310741
0.109803997 0.389373720 0.246552974
0.110942349 0.390512079 0.245794088
0.118026547 0.397343248 0.254522502
0.121569000 0.394054472 0.253763735
0.122327998 0.392662913 0.252878189
0.128399998 0.395698547 0.252877802
0.136369258 0.395825028 0.251107067
0.147374958 0.398861408 0.255787730
0.156230256 0.400632471 0.258317471
0.164199501 0.404807210 0.262112468
0.171410605 0.406957716 0.262238711
0.186337724 0.412903190 0.266160458
0.197343379 0.413662106 0.267678469
0.207463771 0.417963207 0.271474004
0.225933135 0.425932884 0.279696733
0.238203794 0.425173789 0.278810948
0.253384173 0.431246161 0.287918955
0.270082325 0.437697709 0.292093307
0.284503490 0.445540488 0.300442934
0.303731829 0.455534458 0.307906389
0.320809424 0.461986452 0.313219458
0.344086111 0.461986184 0.314231306
0.365717977 0.476407707 0.323971719
0.394813657 0.487286568 0.338393360
0.427451015 0.497153729 0.354332536
