Assets/Resources/EldamarStudio/100 Horror LUTs Pack/LUTs/cube/Pecalni LUT.cube
LUT_3D_SIZE 8
DOMAIN_MIN 0.000000 0.000000 0.000000
DOMAIN_MAX 0.903226 0.903226 0.903226
0.031373002 0.058823999 0.121569000
0.077166550 0.067046449 0.122327998
0.164579093 0.083112098 0.130929992
0.241619632 0.105376355 0.138393357
0.325869381 0.139405385 0.145098001
0.411258459 0.176343992 0.152941003
0.516887963 0.215306699 0.163061291
0.676407576 0.265527993 0.185704991
0.072106093 0.101454549 0.122707449
0.119544543 0.116002090 0.132953539
0.172801644 0.127767086 0.140796542
0.247565106 0.147375092 0.144338906
0.326754987 0.169639543 0.151802659
0.415559918 0.201011926 0.157115549
0.532574534 0.237444997 0.171663284
0.672485590 0.288551807 0.189247444
0.135483995 0.188868001 0.137128085
0.161037549 0.193168655 0.139152542
0.205313087 0.190385997 0.142694190
0.270335197 0.205692649 0.144212186
0.343833119 0.223276183 0.157494992
0.436306179 0.251486182 0.165338099
0.548892975 0.290702105 0.176344097
0.692093611 0.332827151 0.199240819
0.200126633 0.264010280 0.155218005
0.211891636 0.267552555 0.154838547
0.251865625 0.270209104 0.156356543
0.303225994 0.284756631 0.161922649
0.373307735 0.297280639 0.162681654
0.457052737 0.323845625 0.173687637
0.570777833 0.356609911 0.189499989
0.710942566 0.405186623 0.216192469
0.272486180 0.358127981 0.170145184
0.282732397 0.367489189 0.169513002
0.307906300 0.364959091 0.170904279
0.358001262 0.374446183 0.170777991
0.415812582 0.387729377 0.181024790
0.505123138 0.416318923 0.192915812
0.617836654 0.451865882 0.209867284
0.745224237 0.499557376 0.246553153
0.352561474 0.489310473 0.193927735
0.362302542 0.487919182 0.194433808
0.395192742 0.495256215 0.198734835
0.440733671 0.503099203 0.206072003
0.497280180 0.512586892 0.209487736
0.569639206 0.524731457 0.229095727
0.672865450 0.559266269 0.260341734
0.782542527 0.610120475 0.309803963
0.460341275 0.645287812 0.251866281
0.475774825 0.643390119 0.269323081
0.500189662 0.644528568 0.272991836
0.542694271 0.653130829 0.282732636
0.595066369 0.658570409 0.297912568
0.658823252 0.671726763 0.322327256
0.729917526 0.685135841 0.341049552
0.822897077 0.717014670 0.416318685
0.628083467 0.800505579 0.437444568
0.637064993 0.806704283 0.452877581
0.651739419 0.805818558 0.455154806
0.685009778 0.811005771 0.469829053
0.725490153 0.817710400 0.485894918
0.777988434 0.824667692 0.511068821
0.829474926 0.834534764 0.550411284
0.896141410 0.844908476 0.577356398
0.036052998 0.070588000 0.137634456
0.077545993 0.063503996 0.130171001
0.161796555 0.096015453 0.139532000
0.229475081 0.124604903 0.146995544
0.313725531 0.156356543 0.157874644
0.405819178 0.188361540 0.171030805
0.517520547 0.224794567 0.180645451
0.673371315 0.267172664 0.197469994
0.083871000 0.112080991 0.135230556
0.116761088 0.120303541 0.134471551
0.169639543 0.132827550 0.149399444
0.238962904 0.149272650 0.151802555
0.316508412 0.177482530 0.157495171
0.406578273 0.210752800 0.168880537
0.520303547 0.238456547 0.179506704
0.670335114 0.286274523 0.203795090
0.143327087 0.182163447 0.146615997
0.165717646 0.185325652 0.153320551
0.202150196 0.190006554 0.157621905
0.262871742 0.206072107 0.157622010
0.337254733 0.230739817 0.166603461
0.424920917 0.256167203 0.170524627
0.542188108 0.287919015 0.187729254
0.690195799 0.332447618 0.206704378
0.196078539 0.263251185 0.157115549
0.222517192 0.261606365 0.168247551
0.251865715 0.269450068 0.163061097
0.301201731 0.277672559 0.167362541
0.367741734 0.296900988 0.176091358
0.457432181 0.321568608 0.183807641
0.569386482 0.359771997 0.202150390
0.711195230 0.405566454 0.224035472
0.274636537 0.362049401 0.171663180
0.289057374 0.361163974 0.184313819
0.309424192 0.363441110 0.179127350
0.358380824 0.371284097 0.179380000
0.414041698 0.384186924 0.189247340
0.499683440 0.411511928 0.201391190
0.615306795 0.449968606 0.221252650
0.742062032 0.501834154 0.259962082
0.353573531 0.480455726 0.201770931
0.362555474 0.485009521 0.201138556
0.391651005 0.489437282 0.209487736
0.434155732 0.494117469 0.213156104
0.493738145 0.507020712 0.221252635
0.565717697 0.524224997 0.231751978
0.666034102 0.558254421 0.267678559
0.783175409 0.607590437 0.328146517
0.466287076 0.632384539 0.271979570
0.471347541 0.639974952 0.271979839
0.499810070 0.640101075 0.277292818
0.540670276 0.648703218 0.290196270
0.594307303 0.657432020 0.305882186
0.655913830 0.670335591 0.328779012
0.730297089 0.683238089 0.355091572
0.826438606 0.718405783 0.426059216
0.616951108 0.798861325 0.444908291
0.633902788 0.799114048 0.452118963
0.650854051 0.802909255 0.454901665
0.680202484 0.803541839 0.468564272
0.720556378 0.812650144 0.485895097
0.772042871 0.818469405 0.509803772
0.828210056 0.830233872 0.538140416
0.889436722 0.845034599 0.584060371
0.054775096 0.072105996 0.149651989
0.097533546 0.079569645 0.147374988
0.172422081 0.100316092 0.153700098
0.242125288 0.131688997 0.165085360
0.312587202 0.163820192 0.170145184
0.402276844 0.201011837 0.182289734
0.515243411 0.234282285 0.198355094
0.675648451 0.274889171 0.219987169
0.101454541 0.129032448 0.143832639
0.132827535 0.121062540 0.147375092
0.180265993 0.143073544 0.162681639
0.246426538 0.163440645 0.165464893
0.320050538 0.192030087 0.177229807
0.405819178 0.222643808 0.185452253
0.522454143 0.251486391 0.201011822
0.678051889 0.295762151 0.224794373
0.154333085 0.188868001 0.164706007
0.183048546 0.195572555 0.166603446
0.220240191 0.202909291 0.174066991
0.267172992 0.215053752 0.172928542
0.341682285 0.238204077 0.178747892
0.427704066 0.265654981 0.192915902
0.540164351 0.292979181 0.205945477
0.694623590 0.341176242 0.231372714
0.218595996 0.274636626 0.172042638
0.235547334 0.271473736 0.170398638
0.266414016 0.281720638 0.183048531
0.311068982 0.286400646 0.186590999
0.376343936 0.303226054 0.190006450
0.455408007 0.327387482 0.201897547
0.568121314 0.366223752 0.216698438
0.709044755 0.413029611 0.249715462
0.291461170 0.362049401 0.202403814
0.297786176 0.361037254 0.201265261
0.323592305 0.368248105 0.204553992
0.362681985 0.373181611 0.201518103
0.421505362 0.386211157 0.206957802
0.505502880 0.413915128 0.220113978
0.620366752 0.453510374 0.240354270
0.744844854 0.505502820 0.290195942
0.368627727 0.488045454 0.224541441
0.371663511 0.493358582 0.220493346
0.399873644 0.493737996 0.226312473
0.442884028 0.502846360 0.235040992
0.502466857 0.511068881 0.243643075
0.568121195 0.528652489 0.258696824
0.673117995 0.562302411 0.290196180
0.783807695 0.611385286 0.345097959
0.472232580 0.638203740 0.287033349
0.486274391 0.640607357 0.300442457
0.509804070 0.646173477 0.305882484
0.546616256 0.649968505 0.314990759
0.598228633 0.658570409 0.329285383
0.660594940 0.669196904 0.348260581
0.732321322 0.681340694 0.380012751
0.825679660 0.718532562 0.438330352
0.636306167 0.799873531 0.465022236
0.636812031 0.805945277 0.477418959
0.653510332 0.804933667 0.474130422
0.683111906 0.811511517 0.490195870
0.724731088 0.813788772 0.505882621
0.779126883 0.825173736 0.528526247
0.828715920 0.833269596 0.559013128
0.888298690 0.847564578 0.596457601
0.100315996 0.084629998 0.190512002
0.127261534 0.092852548 0.183428094
0.181784004 0.111322001 0.175964639
0.239342630 0.132827356 0.180391997
0.318785191 0.165338188 0.192409635
0.409993827 0.201391384 0.202656642
0.518026590 0.234282285 0.223655924
0.675142467 0.280076027 0.257178992
0.137887195 0.130803183 0.175837740
0.152688205 0.137887090 0.181404337
0.189500183 0.146489277 0.180645332
0.245540634 0.160531193 0.179380000
0.320683032 0.187602550 0.191524446
0.406451374 0.219354898 0.200885639
0.526502192 0.254522473 0.228336647
0.672106206 0.296141803 0.253257513
0.167615190 0.199493647 0.186970457
0.192283541 0.198229089 0.180518627
0.228716075 0.210373461 0.193675086
0.277672619 0.221378639 0.189247534
0.349778742 0.240860537 0.202529728
0.429981172 0.268817306 0.216318801
0.547628105 0.302467078 0.237697631
0.691208065 0.340038091 0.266160548
0.229854628 0.273497999 0.193927646
0.244022638 0.272612274 0.196331650
0.276913524 0.288298190 0.202529743
0.323466241 0.296015263 0.210752994
0.381783634 0.312207639 0.217457637
0.465148449 0.332447737 0.227956980
0.579759896 0.367235988 0.247817934
0.716128767 0.415812641 0.286527455
0.301201820 0.362302631 0.225680083
0.307400644 0.372043073 0.222011447
0.339279085 0.374066740 0.222517177
0.378747642 0.381783843 0.234155387
0.427577585 0.393927991 0.234155387
0.512207270 0.420240641 0.253763288
0.617836773 0.454648852 0.278052002
0.746236384 0.508918405 0.319165140
0.372422636 0.487033397 0.261100739
0.383807391 0.490196288 0.254901916
0.406830937 0.494117349 0.260341734
0.446679115 0.502846360 0.265022010
0.507527053 0.511827886 0.275268823
0.574067235 0.528905690 0.287160099
0.670714796 0.562681854 0.325237125
0.783175409 0.616192341 0.380139440
0.474383295 0.635800600 0.331309259
0.486274391 0.642884493 0.337002009
0.505376160 0.643263757 0.335483849
0.543326795 0.648703158 0.350031912
0.601897597 0.660594702 0.361922711
0.665274978 0.666793048 0.380392015
0.729917526 0.685768247 0.408981562
0.824920714 0.720935762 0.469196737
0.623655796 0.796584606 0.486400753
0.633016884 0.799241006 0.490828454
0.648956418 0.804933310 0.495762169
0.682352960 0.806578040 0.510942221
0.724225342 0.813915253 0.525869370
0.772549033 0.819987357 0.547248483
0.828589439 0.834028780 0.578873992
0.890828431 0.846932292 0.613915265
0.136368990 0.101074994 0.214800999
0.160658002 0.109297544 0.216318801
0.204554185 0.127767086 0.214800805
0.261226803 0.147754550 0.215559989
0.325869352 0.173181191 0.215433195
0.413156211 0.208855256 0.235800192
0.527008295 0.238962799 0.261606544
0.675395489 0.284250647 0.301834345
0.168374375 0.147375003 0.216698438
0.187476099 0.154838547 0.221125796
0.215053648 0.164958552 0.213535547
0.269196838 0.182289645 0.218722180
0.331056535 0.196331546 0.224541649
0.419481516 0.227703929 0.241745532
0.535610497 0.258949816 0.266793430
0.680328786 0.303225666 0.304996848
0.209234893 0.209108189 0.224288091
0.224161893 0.219481096 0.213915184
0.244402170 0.224161997 0.216951191
0.295003444 0.229221836 0.226944834
0.351802170 0.249968290 0.232764080
0.439721882 0.271094173 0.245920286
0.553573608 0.303984910 0.273371190
0.698797941 0.347754568 0.316129118
0.249968290 0.275774986 0.226059631
0.268437535 0.285262287 0.233016819
0.299304098 0.290701985 0.237824440
0.340038121 0.305502981 0.242125198
0.401517838 0.314864069 0.251865625
0.478051722 0.343579829 0.266666621
0.583048940 0.372422427 0.291587532
0.718785584 0.420113832 0.333459646
0.304110974 0.369006991 0.250474364
0.320556283 0.375332206 0.261100978
0.349399209 0.384693354 0.260847241
0.398735166 0.401517749 0.276786804
0.462239355 0.411258370 0.282732368
0.528779209 0.430740386 0.300442755
0.630360723 0.460594654 0.321821272
0.752688110 0.510563135 0.373561174
0.387349933 0.496900946 0.305376172
0.389373869 0.500063002 0.302719831
0.424920827 0.503984809 0.311954528
0.461353540 0.511068702 0.317520618
0.516508698 0.522454202 0.326122910
0.586969972 0.538013637 0.337760717
0.683364809 0.572548926 0.376723617
0.787982345 0.616824746 0.429727942
0.482479364 0.643010557 0.383554727
0.494244099 0.644149184 0.389373839
0.516888201 0.647691429 0.392030388
0.551423311 0.653636932 0.398734897
0.606198609 0.663504183 0.412397444
0.666540205 0.669955969 0.424288481
0.735357344 0.689057231 0.454522729
0.830233634 0.728652716 0.510309756
0.616951406 0.804427564 0.525616586
0.630107343 0.805186331 0.524224997
0.649335742 0.803541720 0.535863400
0.676786602 0.811511576 0.546615779
0.716255784 0.815433145 0.556735992
0.772928476 0.825300455 0.578115046
0.829474807 0.835041225 0.607337117
0.892220080 0.850221395 0.638583243
0.184186995 0.129284993 0.264389724
0.200885549 0.137127995 0.267805189
0.245161071 0.149652094 0.271853179
0.297659874 0.164832532 0.273371369
0.356862724 0.187602535 0.272106737
0.428715736 0.211511984 0.276027709
0.541429102 0.244022533 0.312839746
0.691081643 0.283238739 0.361290395
0.208728746 0.166856080 0.270334989
0.218469292 0.170398563 0.251359701
0.251106650 0.180645347 0.262744904
0.302213877 0.194307193 0.272232741
0.356482923 0.207210734 0.276027739
0.429095268 0.233523190 0.282352924
0.544844627 0.261606574 0.311448485
0.690702081 0.302340090 0.367488801
0.235041082 0.231878474 0.273118466
0.252119184 0.233523190 0.281593919
0.277672350 0.236559078 0.274763077
0.324351400 0.243643180 0.281214386
0.380265832 0.257811278 0.279949546
0.454142958 0.276154339 0.292726070
0.565970600 0.305502981 0.328905374
0.708159328 0.350410908 0.380265623
0.285262376 0.296774268 0.275901705
0.292219996 0.297912657 0.285515636
0.315749288 0.306262076 0.286780626
0.356356472 0.310942262 0.290448993
0.412270814 0.328146547 0.303352416
0.487413079 0.342188269 0.315622956
0.595825553 0.372801989 0.349019557
0.732827544 0.421252459 0.401518255
0.327007920 0.383554459 0.315369934
0.339531720 0.389247388 0.311701596
0.364705801 0.399114549 0.319797546
0.410119921 0.407337248 0.324098468
0.475015730 0.420999616 0.343833178
0.546236932 0.436559111 0.355724096
0.642125189 0.467931956 0.385831743
0.761669636 0.514357924 0.435800374
0.385831743 0.499177724 0.354332745
0.404427737 0.503099203 0.356609941
0.429854631 0.512839973 0.365970701
0.475015730 0.525110781 0.379127115
0.538013458 0.543579996 0.400759161
0.603036404 0.552055418 0.414800465
0.694370747 0.581151545 0.441366166
0.798861623 0.619860709 0.491714180
0.481593996 0.645287812 0.436053276
0.497533023 0.645287812 0.438836455
0.520683289 0.651233077 0.446805656
0.561922789 0.658697307 0.465275288
0.604554415 0.669197083 0.478178442
0.671979547 0.681720078 0.490575761
0.744844556 0.696647823 0.509677112
0.837824047 0.734977961 0.569133341
0.622770429 0.799240768 0.575711429
0.634914339 0.803289056 0.582542419
0.651359797 0.805945575 0.587729275
0.675395310 0.808222353 0.595319331
0.708918273 0.815686166 0.602403522
0.763693631 0.825932860 0.621631622
0.825553358 0.837318242 0.647311389
0.891460955 0.853383839 0.683238328
0.232637569 0.159772292 0.374067247
0.253384024 0.159139708 0.368500561
0.289057374 0.171030805 0.374067247
0.347628266 0.184440345 0.375205636
0.414927363 0.205186367 0.374826163
0.498671561 0.225680172 0.385199279
0.576976538 0.251612991 0.392030537
0.702213883 0.292978972 0.443263799
0.241239995 0.192662805 0.361669868
0.259329259 0.194054559 0.369765818
0.294117808 0.201771021 0.368627518
0.357115656 0.212397188 0.369386435
0.422264040 0.225553200 0.379253626
0.497280270 0.248829633 0.385072738
0.583934247 0.269323081 0.399873525
0.701327920 0.310815960 0.437571049
0.263251305 0.249841794 0.368374288
0.276913345 0.255787730 0.369639099
0.314864099 0.254648775 0.370904535
0.368500650 0.262365460 0.378621280
0.437697649 0.277292967 0.385705352
0.514484286 0.289816558 0.400632352
0.594813585 0.316382289 0.413788736
0.715749443 0.357621729 0.453004241
0.298798323 0.322327614 0.388614923
0.312713295 0.320177287 0.386464566
0.340796888 0.330170929 0.389626652
0.390132964 0.335736632 0.393168926
0.455281615 0.346110076 0.403668642
0.534724653 0.359013021 0.412270814
0.624541163 0.381277531 0.428589553
0.738519788 0.428715914 0.477039903
0.344845176 0.417457283 0.414800644
0.359898806 0.415433109 0.420113921
0.382289559 0.422138184 0.422517329
0.428589374 0.425427198 0.424161673
0.491081476 0.435420394 0.434282154
0.569765806 0.451486439 0.446426094
0.659202814 0.476154357 0.467046440
0.767362416 0.517899930 0.516761422
0.406578273 0.529411495 0.458950281
0.419860989 0.534598231 0.460088730
0.442631185 0.539152265 0.464769363
0.486021429 0.541935444 0.469196916
0.549905360 0.555344462 0.487792552
0.621252239 0.569892764 0.501960754
0.704237521 0.592410028 0.525996268
0.804047763 0.631246150 0.568374515
0.496647567 0.656040549 0.518405855
0.507020772 0.648323596 0.514484107
0.527893484 0.659456134 0.521189332
0.565085232 0.666034162 0.537254870
0.619607449 0.679822743 0.555470824
0.690196276 0.699430764 0.577102959
0.762934804 0.716508269 0.600126803
0.843137085 0.740543783 0.635041118
0.636938810 0.801644146 0.634155750
0.632384479 0.803668559 0.637824178
0.652371705 0.808348954 0.645667374
0.679696381 0.812144399 0.657179058
0.720935881 0.823529303 0.672359228
0.770018578 0.832637310 0.683618069
0.822517514 0.841745615 0.700189888
0.893611491 0.863504052 0.732574463
0.281214654 0.184440136 0.564199388
0.301960528 0.186084539 0.558380604
0.349019736 0.196963921 0.564199388
0.410752624 0.204933837 0.564326167
0.493485183 0.227956980 0.566856205
0.581404269 0.250221729 0.574066639
0.678305030 0.283744723 0.581151247
0.781151235 0.320682913 0.592915535
0.289057642 0.211891547 0.552434683
0.310056955 0.216445535 0.557621598
0.346236348 0.225553364 0.556735992
0.418469101 0.235420629 0.558760166
0.494750321 0.254142731 0.566856205
0.584440172 0.274762958 0.571663260
0.681846619 0.303605050 0.582542539
0.772296011 0.340417653 0.597849131
0.295762151 0.279063821 0.561543226
0.319797367 0.277292997 0.556103647
0.357495010 0.291461110 0.564958453
0.424414873 0.292979091 0.565464616
0.504617095 0.304996908 0.566223621
0.594180644 0.323339671 0.575205505
0.687918842 0.351802826 0.591271043
0.783048630 0.386590630 0.606831074
0.309930146 0.355850607 0.564326227
0.333206892 0.358254105 0.564832091
0.373813987 0.360531211 0.565717459
0.440860450 0.372675270 0.575584888
0.517773330 0.382416308 0.579506814
0.604554236 0.399620533 0.590638697
0.698039293 0.425932974 0.603795052
0.787602603 0.456673265 0.613282740
0.362048984 0.458444208 0.576470792
0.366097391 0.462365806 0.590259135
0.393295288 0.461100549 0.589373410
0.453637183 0.463883758 0.592283428
0.534092128 0.474004000 0.603921771
0.619101703 0.491967201 0.614547431
0.711068630 0.515117109 0.616951346
0.803035915 0.538266778 0.637191474
0.431245834 0.585199296 0.622011483
0.448071182 0.585199296 0.622643590
0.464516163 0.586843729 0.622264326
0.510942698 0.582542419 0.624035239
0.569765806 0.585705400 0.629474938
0.645920575 0.597469568 0.639215648
0.738393545 0.612650275 0.653637052
0.825173795 0.640227795 0.674383163
0.521694958 0.708286107 0.659329414
0.540290534 0.707400322 0.672106206
0.552434862 0.707906544 0.668816924
0.591271400 0.709803760 0.672232687
0.634155750 0.716128945 0.679696321
0.695762277 0.718532503 0.688551486
0.771789968 0.730297089 0.707526624
0.858191073 0.755344987 0.731436014
0.635799944 0.821505547 0.727640569
0.635041296 0.821505547 0.729791164
0.655534565 0.823402882 0.736495495
0.682099640 0.824161768 0.737887323
0.720809937 0.830613434 0.743200421
0.775205553 0.838962495 0.761922479
0.840480924 0.856799543 0.789626598
0.909044743 0.879063725 0.815053582
