Assets/Resources/EldamarStudio/100 Horror LUTs Pack/LUTs/cube/Pecalni LUT.cube
DOMAIN_MIN 0 0 0
DOMAIN_MAX 1 1 1
LUT_3D_SIZE 32
0.031373002 0.058823999 0.121569000
0.031373002 0.058823999 0.121569000
0.039974999 0.058823999 0.119418226
0.055914160 0.061353996 0.118912160
0.077166550 0.067046449 0.122327998
0.098418936 0.070082061 0.128399998
0.119671315 0.078178324 0.134471998
0.142567992 0.082353003 0.133965999
0.164579093 0.083112098 0.130929992
0.179759502 0.086148486 0.137001991
0.203668743 0.092093997 0.134345129
0.221885249 0.098165996 0.135357261
0.241619632 0.105376355 0.138393357
0.267932028 0.114231065 0.140923038
0.283112407 0.120303832 0.137887418
0.303099185 0.128779188 0.142061993
0.325869381 0.139405385 0.145098001
0.349525541 0.151549980 0.145098001
0.370777994 0.163694024 0.145098016
0.389247000 0.170272008 0.150664002
0.411258459 0.176343992 0.152941003
0.436559141 0.183428124 0.155977130
0.463757008 0.192536503 0.164579496
0.488045812 0.201644912 0.161543101
0.516887963 0.215306699 0.163061291
0.552814305 0.229095325 0.168880671
0.594813228 0.241239995 0.176976934
0.634282291 0.253383994 0.180012539
0.676407576 0.265527993 0.185704991
0.718912303 0.277672410 0.193548203
0.762302518 0.292473346 0.203541979
0.807843029 0.313724995 0.215685993
0.034408614 0.058823999 0.121569000
0.025300227 0.067931615 0.118532613
0.046805769 0.067931615 0.120683387
0.065528162 0.069196776 0.123213388
0.082099997 0.073877543 0.126122907
0.095382549 0.082226835 0.116255224
0.119165249 0.085262455 0.129917532
0.142567992 0.090069711 0.134218603
0.166097105 0.092220291 0.133206710
0.185831502 0.095256105 0.137001991
0.203921750 0.104111485 0.143074006
0.225933254 0.110309996 0.140417129
0.244275987 0.116381995 0.142567903
0.265148669 0.123339385 0.146995738
0.283112407 0.129411444 0.143959418
0.303099185 0.135483608 0.143326998
0.324351192 0.143959194 0.145098001
0.346489161 0.154585600 0.146995559
0.367741615 0.166729614 0.154206380
0.394560695 0.170524970 0.148640394
0.417330772 0.180138990 0.155597642
0.440607131 0.189500123 0.160025135
0.464010000 0.198861495 0.164706007
0.494117796 0.213788897 0.164579496
0.520683229 0.220620006 0.166097105
0.554458976 0.232131377 0.167741612
0.594813228 0.243769690 0.171916291
0.634282291 0.253383994 0.180012539
0.673750758 0.262871832 0.185704991
0.714104712 0.279949546 0.186464235
0.757115602 0.297659963 0.194939971
0.804807365 0.316761404 0.215685993
0.039595000 0.071727000 0.121569000
0.043390159 0.074383393 0.120683387
0.053636543 0.079190545 0.126249000
0.076407321 0.077925384 0.125490218
0.090702221 0.080708548 0.127640769
0.104617000 0.093358934 0.124351673
0.126881644 0.095256455 0.126375318
0.146236703 0.098292060 0.133332998
0.167488784 0.102087229 0.134092093
0.187349498 0.106514528 0.137128487
0.205692738 0.115369871 0.138773009
0.225933254 0.118405998 0.142820746
0.244908631 0.124224998 0.140037641
0.262112767 0.130296990 0.142821193
0.280329049 0.136368990 0.143579811
0.303099185 0.144591764 0.145098001
0.322833389 0.150663763 0.146616191
0.343453318 0.159139574 0.147248775
0.364705771 0.169765785 0.151802972
0.389373541 0.175711349 0.157748237
0.414800912 0.186337724 0.153573975
0.439089268 0.196710765 0.161669642
0.462112725 0.204680502 0.166729748
0.496521056 0.215812907 0.164706007
0.528906047 0.224161997 0.169133484
0.559013426 0.234408647 0.170777768
0.596457899 0.246805832 0.173307836
0.634282291 0.255914211 0.185705215
0.675901532 0.269323051 0.187855765
0.718911827 0.283744633 0.190385774
0.759139597 0.304617584 0.195698962
0.803921998 0.324098796 0.219986990
0.051992159 0.087412998 0.121569000
0.057305384 0.092473000 0.126628995
0.067805000 0.092093766 0.122960232
0.091081321 0.095129833 0.133332998
0.101707995 0.092473000 0.128019989
0.112460218 0.103225768 0.130170777
0.137760803 0.108286157 0.131941676
0.154585540 0.109930441 0.135862991
0.170525044 0.112966254 0.135862991
0.188741177 0.118532322 0.138393328
0.205692738 0.124983869 0.137254998
0.225933254 0.131815150 0.140543908
0.247185647 0.132953793 0.141302526
0.263125032 0.138899326 0.139025897
0.282353133 0.144971311 0.143073902
0.302846164 0.152181968 0.146109805
0.324098229 0.159772158 0.146616191
0.343579978 0.165844157 0.149652421
0.365465015 0.174319968 0.150284857
0.388235182 0.183175012 0.154838666
0.412523627 0.191144899 0.160151586
0.439848304 0.204301029 0.160151839
0.465022475 0.210879013 0.168626994
0.498039186 0.221126065 0.166729748
0.530929863 0.227957159 0.169259995
0.565591455 0.236938640 0.175078988
0.598481953 0.252119064 0.175585046
0.633396685 0.262745410 0.187729433
0.675142407 0.277166426 0.192157000
0.721948266 0.291587412 0.194686994
0.764832377 0.308918595 0.198228970
0.803921998 0.329412013 0.220999002
0.072106093 0.101454549 0.122707449
0.072865091 0.112080544 0.133712992
0.077925101 0.113851763 0.127261236
0.091460869 0.113345928 0.122706994
0.119544543 0.116002090 0.132953539
0.119544543 0.116002090 0.132953539
0.142568097 0.121442191 0.133332998
0.162555382 0.125110835 0.135862991
0.172801644 0.127767086 0.140796542
0.191018432 0.130803481 0.140796542
0.206704870 0.134218663 0.137887329
0.226312712 0.140923247 0.140923455
0.247565106 0.147375092 0.144338906
0.268311471 0.150664449 0.141808584
0.289310843 0.156736448 0.147754833
0.308538973 0.163567543 0.150284648
0.326754987 0.169639543 0.151802659
0.345856607 0.175331980 0.149652421
0.370145440 0.181404009 0.152688041
0.392030388 0.192283109 0.153700009
0.415559918 0.201011926 0.157115549
0.441746116 0.207716867 0.162428558
0.475142479 0.216951013 0.168627053
0.502972901 0.229095817 0.169386089
0.532574534 0.237444997 0.171663284
0.564958930 0.245920539 0.174572974
0.601517677 0.258570611 0.180898055
0.631878436 0.273750961 0.183934450
0.672485590 0.288551807 0.189247444
0.719164968 0.301960945 0.195319429
0.766730130 0.315370023 0.203921527
0.803162932 0.330550462 0.216065541
0.084250867 0.128778934 0.131815061
0.090322867 0.128778934 0.134851456
0.099683866 0.130802929 0.130803227
0.109551027 0.131562158 0.127007991
0.122580931 0.134218872 0.132953539
0.134724930 0.134218872 0.129917935
0.144844934 0.141809195 0.132447615
0.163314462 0.143833220 0.133332998
0.177735761 0.142567933 0.135104090
0.187982038 0.142947495 0.137760937
0.206198812 0.148892999 0.134851068
0.227956980 0.154458925 0.137887061
0.250600725 0.158760011 0.142820701
0.271347106 0.159772068 0.144844979
0.286527485 0.165844053 0.147881359
0.307526857 0.176723659 0.144212395
0.326754987 0.184819922 0.147248268
0.345603555 0.190259352 0.152435064
0.367109060 0.193548024 0.152688056
0.391397804 0.199620724 0.158507004
0.417077720 0.208602116 0.161669746
0.442884326 0.216192052 0.164199948
0.469070464 0.223023012 0.165591449
0.502466977 0.235167816 0.174699843
0.532574534 0.247311994 0.177735567
0.562934935 0.257052660 0.176597014
0.595825195 0.267679006 0.175079063
0.634914815 0.282859355 0.183934450
0.673244715 0.295382917 0.186970159
0.714990318 0.308032960 0.192283034
0.758127630 0.321947992 0.201897264
0.797090173 0.339658082 0.219101936
0.109045319 0.148513645 0.135863319
0.110057317 0.148513645 0.136369392
0.116129316 0.154964864 0.137254998
0.126249164 0.153573319 0.133080319
0.136116222 0.152814552 0.136242777
0.150411010 0.154965326 0.137507617
0.157494992 0.157494992 0.134471998
0.171283692 0.163314387 0.135863319
0.187855780 0.163567409 0.135863319
0.200505853 0.165338635 0.137128487
0.218343049 0.168627307 0.144465774
0.234535038 0.172675580 0.145477384
0.255028278 0.175964639 0.148766324
0.275142312 0.176723599 0.150158003
0.297153413 0.185072318 0.150917098
0.312333792 0.188741133 0.151549682
0.334851384 0.197469994 0.153320521
0.355091602 0.203541994 0.159898758
0.374446303 0.208475366 0.158001021
0.395951718 0.216824710 0.163567007
0.422137707 0.222896993 0.163946748
0.448450238 0.230360314 0.166730002
0.473118484 0.236685336 0.169765994
0.506514966 0.248830125 0.171663582
0.537634552 0.260974318 0.178494677
0.572169602 0.273118287 0.181783676
0.606451392 0.283365071 0.180139318
0.641871989 0.294497430 0.183175445
0.683870792 0.307020992 0.186970159
0.721568346 0.322706938 0.191776976
0.765211761 0.338140190 0.203162193
0.811258614 0.356356651 0.224667996
0.124857992 0.168374702 0.135610282
0.129791290 0.166729987 0.142188698
0.132448003 0.173181638 0.140543997
0.139785156 0.177229241 0.138014004
0.148513421 0.172295704 0.138393551
0.159898654 0.174066931 0.143959478
0.169133410 0.173814088 0.137001604
0.181783393 0.175205410 0.138899282
0.197722688 0.179000691 0.138899282
0.213788494 0.182922482 0.138899282
0.226945028 0.187602818 0.142694458
0.246426418 0.188994259 0.146110043
0.260467708 0.192030638 0.148007303
0.277672350 0.193042696 0.148513362
0.299177706 0.200758994 0.151296720
0.319544494 0.205059797 0.152941003
0.340796888 0.209613979 0.155976996
0.363314569 0.215686142 0.163693860
0.380518705 0.221758425 0.162681758
0.404807091 0.230613351 0.163061023
0.428209722 0.237823978 0.168374032
0.454522252 0.244908109 0.167362422
0.479063988 0.251992196 0.172548994
0.510942698 0.265654802 0.172548994
0.545350850 0.274509996 0.177102998
0.578494608 0.286653966 0.181783676
0.616192102 0.298292071 0.184819937
0.648450136 0.307400435 0.185958281
0.689816356 0.319164991 0.191903859
0.732068062 0.334851354 0.201644376
0.768500924 0.353067398 0.209487379
0.816318989 0.371284008 0.230739996
0.135483995 0.188868001 0.137128085
0.142314702 0.187349796 0.142441586
0.146362782 0.190638870 0.146869227
0.153447151 0.196204931 0.144845098
0.161037549 0.193168655 0.139152542
0.165971100 0.192789197 0.146742836
0.176850319 0.190259323 0.142694443
0.189373985 0.188868001 0.138140187
0.205313087 0.190385997 0.142694190
0.223529086 0.196457997 0.142694190
0.236052960 0.201771080 0.143453091
0.250980258 0.203795090 0.142694190
0.270335197 0.205692649 0.144212186
0.282732159 0.208729044 0.144212186
0.300442725 0.214295089 0.149272829
0.321821779 0.218722388 0.153700292
0.343833119 0.223276183 0.157494992
0.370525062 0.229980752 0.161669582
0.386085004 0.236180037 0.164452970
0.410879374 0.243516743 0.163440645
0.436306179 0.251486182 0.165338099
0.459835351 0.258570313 0.168121129
0.484503567 0.267678648 0.171536982
0.515496850 0.281593919 0.174066991
0.548892975 0.290702105 0.176344097
0.585325301 0.299557060 0.182542577
0.621758103 0.311701089 0.186084896
0.652624846 0.321062446 0.189373538
0.692093611 0.332827151 0.199240819
0.737634301 0.349272490 0.208855182
0.776091099 0.368248165 0.224667966
0.812523901 0.386464179 0.236811996
0.159772009 0.207084015 0.152308494
0.159772009 0.210120410 0.137128115
0.160151511 0.210752994 0.140290812
0.166603178 0.212397337 0.146363169
0.179253548 0.214421049 0.148260936
0.176217943 0.211385444 0.145224541
0.191271499 0.208475664 0.150284514
0.205818996 0.207084015 0.150664210
0.217457086 0.208602011 0.148766965
0.226565495 0.214673996 0.148766965
0.247691363 0.217836872 0.151676089
0.262365490 0.218975499 0.150537744
0.277166307 0.221252501 0.151043966
0.294876903 0.226945043 0.156356975
0.310056508 0.229981422 0.156356975
0.332574099 0.235547498 0.161416993
0.353699982 0.241492972 0.165844291
0.373560667 0.248197541 0.167741567
0.397849500 0.257305920 0.164705962
0.418975383 0.260721117 0.167488649
0.442378491 0.267805219 0.170271724
0.465655118 0.276787102 0.170398489
0.487539947 0.285895437 0.165464997
0.520936370 0.295003057 0.177608997
0.551928937 0.304364264 0.177862287
0.585325301 0.314737439 0.180771783
0.621758103 0.326881468 0.189120516
0.658190846 0.339025468 0.195192516
0.694370568 0.351043642 0.209107801
0.741682291 0.368501127 0.216951206
0.787855566 0.389627069 0.224920973
0.815559506 0.410752982 0.242883995
0.169512868 0.225300744 0.150031880
0.169512868 0.225427270 0.149399355
0.175964639 0.226312876 0.147121966
0.179506585 0.227577716 0.152182162
0.186969995 0.229854405 0.154080003
0.191524073 0.226818815 0.148513928
0.203668445 0.223782554 0.145477548
0.216571689 0.225679874 0.147121996
0.227450877 0.228209868 0.146869227
0.238709494 0.229980856 0.149020001
0.250727743 0.233143732 0.151929125
0.267931610 0.238203853 0.154965267
0.282099634 0.241113216 0.154839009
0.298545182 0.244907990 0.156863004
0.316382289 0.245287538 0.156863004
0.331561923 0.253130913 0.164073184
0.355850697 0.262744993 0.167615131
0.378241718 0.270334989 0.168626994
0.397975981 0.272612095 0.167868093
0.422264725 0.278937846 0.170398489
0.443643630 0.287792742 0.171536863
0.468944013 0.295888752 0.173561126
0.496015131 0.301201642 0.173434868
0.521062911 0.310309976 0.174446881
0.556736529 0.321694851 0.179759577
0.588361681 0.332827300 0.184946105
0.622770131 0.344465673 0.194560051
0.664009869 0.354205847 0.198228866
0.697785735 0.371663511 0.201644704
0.733965456 0.384313822 0.212270617
0.779126883 0.401264966 0.222896710
0.818595827 0.420493126 0.243137002
0.182669252 0.243516997 0.151043743
0.188741505 0.245541245 0.155091733
0.187096760 0.243516997 0.153194487
0.193675160 0.244782150 0.153700098
0.197849512 0.247438505 0.155218288
0.207210511 0.246047184 0.154080003
0.214800566 0.247058913 0.152561933
0.228336245 0.244022951 0.149525538
0.237824082 0.248956501 0.150664002
0.248703271 0.251486510 0.154965222
0.260847479 0.252372116 0.153953388
0.277040243 0.257432222 0.156989008
0.292219877 0.262365609 0.157748386
0.307653069 0.265401274 0.157621965
0.325869799 0.267172515 0.162934735
0.343706429 0.270335287 0.160025194
0.360404640 0.277925491 0.167614996
0.384946555 0.287159920 0.169259563
0.404554278 0.288551241 0.170651257
0.426312715 0.296141684 0.171410352
0.448703736 0.302213967 0.172548994
0.470968008 0.313093126 0.172548994
0.499430478 0.318279505 0.174699724
0.529411554 0.325490147 0.178494737
0.558760285 0.338899493 0.186843693
0.593801379 0.351043463 0.188487992
0.626312196 0.362682045 0.197596073
0.667299092 0.371790051 0.203668445
0.703858256 0.384819627 0.206704825
0.744338572 0.401265144 0.215053946
0.781530440 0.416318834 0.226185843
0.823655963 0.435673505 0.245161265
0.200126633 0.264010280 0.155218005
0.205819383 0.265908033 0.159013003
0.207463861 0.265781492 0.157495141
0.209234804 0.265275180 0.157874838
0.211891636 0.267552555 0.154838547
0.220999643 0.266793638 0.156356946
0.230360642 0.269323319 0.156863004
0.239721626 0.270208716 0.156356931
0.251865625 0.270209104 0.156356543
0.261353493 0.276660651 0.162808001
0.271094263 0.276913643 0.160151884
0.285009533 0.278684646 0.158886746
0.303225994 0.284756631 0.161922649
0.318405658 0.287286252 0.159140006
0.335736811 0.288551420 0.165591225
0.355091631 0.293864816 0.167235643
0.373307735 0.297280639 0.162681654
0.392789483 0.303352624 0.168753639
0.414548010 0.306894302 0.172295958
0.434661716 0.314357996 0.174825996
0.457052737 0.323845625 0.173687637
0.481341243 0.329917639 0.174699500
0.506135225 0.338899493 0.175205499
0.538519502 0.345983624 0.182289645
0.570777833 0.356609911 0.189499989
0.602529943 0.369259953 0.199493647
0.636432409 0.381404132 0.200505644
0.675268948 0.391145080 0.208981454
0.710942566 0.405186623 0.216192469
0.749272704 0.420240462 0.224541605
0.794813156 0.437191874 0.238456622
0.832005024 0.458444268 0.253890008
0.220619991 0.288045973 0.161037043
0.220619991 0.288552016 0.161543041
0.221379027 0.288045973 0.156230047
0.224921152 0.289057851 0.154964998
0.233396992 0.291840553 0.161922544
0.233396992 0.288804919 0.158886939
0.242758036 0.290828735 0.158381000
0.255155057 0.291967034 0.156863004
0.266793042 0.293991119 0.159392938
0.278937042 0.303099513 0.168500543
0.285515696 0.303479016 0.165970832
0.295889020 0.303732038 0.163440779
0.310057014 0.305756003 0.162428647
0.327514052 0.311575025 0.165212005
0.342694432 0.308538646 0.165212005
0.362681806 0.314610809 0.169512987
0.382416010 0.320936233 0.170524999
0.401391149 0.324605018 0.166982993
0.425680012 0.330677032 0.173055008
0.444655091 0.336749047 0.177862048
0.466919512 0.346110016 0.179253697
0.493232220 0.356483072 0.178241894
0.523719490 0.362681538 0.181277514
0.554206073 0.371789902 0.190132871
0.586843848 0.381151319 0.195192739
0.620240688 0.390765399 0.200758666
0.653637111 0.400126129 0.208855003
0.690069854 0.412270904 0.214926988
0.723845720 0.429475009 0.226565614
0.759013295 0.447185367 0.237950966
0.797849536 0.466540605 0.252371967
0.843390048 0.487792999 0.270588011
0.232763991 0.309297562 0.164073423
0.232763991 0.315370351 0.170145407
0.239215761 0.311574847 0.157748416
0.245161384 0.309297562 0.150917262
0.251865983 0.310309529 0.156862557
0.257684976 0.313092917 0.177102923
0.260215312 0.315117300 0.176596984
0.271727085 0.314864099 0.166730002
0.283997804 0.314737409 0.159898996
0.291081786 0.321315467 0.171536922
0.300315976 0.321694970 0.169006541
0.312839806 0.323719233 0.170018837
0.327387601 0.326122761 0.170651406
0.342694432 0.329790980 0.171283990
0.351802796 0.332827389 0.171283990
0.371790171 0.334598005 0.171283990
0.391524374 0.340417355 0.175584987
0.409740537 0.345857382 0.179126978
0.428716391 0.351929367 0.185198978
0.450221807 0.358001381 0.177356333
0.474636555 0.364073396 0.182795674
0.502340436 0.372422546 0.187349707
0.532827079 0.380898297 0.190385893
0.566224217 0.390005916 0.193421513
0.598988116 0.401391536 0.202276871
0.632384658 0.414295048 0.208728403
0.665275097 0.427198142 0.214420989
0.696141839 0.436558872 0.214926988
0.729917765 0.451359808 0.228968799
0.765085340 0.465401351 0.236432791
0.803289175 0.482352734 0.247564971
0.846426427 0.506008983 0.270588011
0.249715596 0.335357398 0.167109191
0.247311801 0.343832761 0.163567200
0.255913794 0.337001979 0.169639200
0.261480004 0.336748719 0.162302345
0.265275002 0.339025855 0.164579242
0.271346986 0.333965719 0.169639125
0.279696316 0.339405298 0.173181191
0.284376979 0.339152694 0.173181191
0.295762300 0.338393569 0.164073184
0.303478986 0.344465584 0.169639185
0.317267746 0.347121775 0.169639125
0.328399599 0.347121775 0.166603267
0.339784801 0.348639995 0.168880343
0.351423055 0.350663781 0.170651242
0.366983205 0.355850399 0.174952805
0.380897969 0.358886778 0.174952805
0.400632590 0.363440573 0.176470608
0.420113742 0.369512975 0.181024581
0.441872150 0.375584960 0.185325816
0.465275377 0.384060770 0.189500332
0.488424957 0.392030537 0.182289988
0.514231443 0.397596478 0.189879805
0.541935265 0.404047996 0.196963996
0.575331867 0.415433496 0.197722912
0.604174435 0.424541086 0.205313101
0.638709486 0.436559319 0.211638123
0.673118055 0.450221777 0.217710122
0.705376029 0.461227149 0.225300595
0.733586550 0.478051603 0.236179605
0.768753707 0.493231982 0.251359969
0.806957364 0.506894171 0.263124734
0.849462211 0.526628792 0.287412792
0.272486180 0.358127981 0.170145184
0.270967990 0.367235988 0.170145199
0.272612363 0.365844190 0.172675192
0.282226384 0.360025346 0.168627188
0.282732397 0.367489189 0.169513002
0.286527395 0.361796439 0.167615250
0.292093307 0.363820195 0.168626994
0.301075190 0.367994905 0.171663374
0.307906300 0.364959091 0.170904279
0.317014694 0.368753999 0.170145184
0.331942052 0.371916503 0.170145184
0.343579978 0.374446183 0.172675252
0.358001262 0.374446183 0.170777991
0.366350412 0.374699205 0.173181191
0.383302003 0.379506379 0.176723629
0.399114370 0.383175194 0.179506987
0.415812582 0.387729377 0.181024790
0.434661746 0.393168777 0.184060559
0.458064437 0.398355186 0.187096968
0.479316711 0.405692339 0.188361824
0.505123138 0.416318923 0.192915812
0.529411435 0.424415171 0.190892071
0.553953171 0.428462893 0.201897666
0.585958362 0.441998988 0.206071988
0.617836654 0.451865882 0.209867284
0.645161033 0.460973829 0.218975663
0.681214333 0.472991973 0.223276317
0.715622783 0.485136002 0.234408692
0.745224237 0.499557376 0.246553153
0.777862072 0.517520368 0.265022159
0.814294398 0.533586204 0.282859176
0.855534196 0.549398959 0.307147384
0.294750392 0.379506528 0.172548994
0.296647966 0.387349933 0.178620994
0.297912955 0.388488352 0.183428004
0.299810559 0.386717141 0.183174983
0.305882573 0.390132993 0.167994991
0.306388557 0.390638977 0.168500975
0.309550822 0.392536223 0.169133246
0.315243274 0.394939691 0.173181400
0.324351668 0.397723019 0.177609473
0.333460063 0.394686639 0.174573079
0.347122282 0.396204859 0.174446568
0.359519273 0.400505841 0.178494573
0.370777845 0.403035700 0.182289571
0.388741523 0.403035700 0.182795569
0.403921813 0.405692548 0.183554560
0.419101745 0.408728778 0.185325786
0.435167372 0.412650526 0.187729374
0.453384131 0.418089956 0.189499989
0.474636585 0.421125591 0.192536384
0.494370580 0.426944733 0.191903785
0.517014325 0.436179429 0.194560140
0.544591844 0.446299940 0.199999675
0.569007099 0.452498466 0.205945924
0.598861814 0.466666877 0.214041680
0.630234301 0.477292836 0.219860852
0.661480248 0.487665772 0.225680068
0.689310610 0.497280121 0.235294536
0.725490272 0.509424150 0.244528681
0.756609499 0.522833645 0.258191198
0.789246917 0.538520098 0.275521904
0.825679779 0.556103706 0.299810171
0.862112582 0.574319720 0.324098974
0.297786057 0.412903041 0.172549009
0.306894451 0.415939391 0.178620994
0.313093036 0.417331040 0.180392012
0.317394197 0.415812820 0.180898011
0.321063012 0.414421082 0.180139020
0.327135026 0.420493066 0.186211020
0.332700998 0.420999020 0.181657016
0.338519961 0.421252012 0.181277692
0.345604092 0.422264159 0.183808014
0.354712486 0.425047487 0.183681488
0.363820136 0.422011107 0.183554977
0.377482325 0.427577317 0.187602982
0.391018271 0.433902591 0.191397980
0.403921962 0.436432928 0.191903979
0.419101566 0.436432958 0.197975963
0.434281856 0.439089179 0.198734969
0.449462205 0.442125231 0.198988006
0.465528190 0.445414424 0.198608413
0.483744979 0.448450029 0.195572019
0.507780015 0.454269707 0.201391757
0.529664755 0.462239176 0.206704944
0.554459214 0.470588028 0.211764812
0.584187448 0.476786554 0.215053558
0.611511827 0.485894948 0.218089968
0.639089227 0.495509326 0.226186261
0.668311298 0.507400632 0.234788284
0.698419034 0.521569014 0.244402185
0.728778958 0.533712983 0.256546944
0.759645641 0.551169932 0.276407778
0.790006340 0.568880439 0.293358743
0.822644174 0.586211622 0.311954230
0.859076977 0.601644993 0.336243033
0.328652382 0.449082762 0.183681011
0.323845387 0.449335784 0.181404352
0.332953781 0.452372164 0.187476352
0.338393539 0.453004748 0.188741356
0.342568398 0.452245533 0.189500362
0.353447378 0.455913752 0.195572361
0.354459375 0.451865762 0.194054037
0.363314390 0.454648733 0.191524014
0.371663362 0.456925750 0.193421751
0.378747523 0.457937866 0.195446014
0.393421859 0.460721225 0.195446014
0.406578004 0.461732835 0.195446014
0.419481397 0.465907365 0.197723001
0.430234373 0.467805028 0.197976053
0.445414633 0.475395381 0.201518357
0.458191067 0.475395381 0.200379550
0.474509716 0.479569733 0.206071988
0.491587520 0.482605994 0.210499600
0.509804308 0.481341124 0.207463771
0.525237024 0.487160087 0.212776721
0.551423192 0.493232369 0.218849003
0.576470852 0.502466738 0.225933135
0.604933858 0.512207210 0.232637718
0.632258236 0.521315634 0.238330275
0.657305300 0.530423999 0.239089370
0.685515285 0.540923715 0.250853986
0.715370059 0.554712474 0.264642507
0.743453324 0.569133699 0.276787281
0.771157146 0.581277728 0.294244349
0.801391304 0.595698714 0.310056955
0.832637608 0.611891270 0.330423534
0.867172658 0.628969371 0.362302363
0.352561474 0.489310473 0.193927735
0.354079455 0.485515475 0.190891638
0.358760238 0.491461247 0.196204990
0.360278308 0.489437312 0.195951834
0.362302542 0.487919182 0.194433808
0.375964731 0.490954787 0.198988006
0.374193728 0.490195721 0.201265156
0.384060711 0.490702152 0.198228762
0.395192742 0.495256215 0.198734835
0.401264757 0.495256215 0.201771230
0.412270606 0.498165578 0.203795001
0.425553262 0.501201928 0.203795001
0.440733671 0.503099203 0.206072003
0.451612979 0.503099203 0.207589984
0.465148658 0.507273853 0.208981663
0.483617991 0.511068702 0.211005926
0.497280180 0.512586892 0.209487736
0.515116870 0.518279433 0.218216151
0.533333659 0.519038677 0.217710227
0.550664127 0.520556748 0.223023742
0.569639206 0.524731457 0.229095727
0.594940126 0.529791296 0.234155595
0.620367050 0.539278746 0.241492763
0.645920634 0.550157905 0.249336004
0.672865450 0.559266269 0.260341734
