Assets/Resources/EldamarStudio/100 Horror LUTs Pack/LUTs/cube/Pecalni LUT.cube
LUT_3D_SIZE 5
DOMAIN_MIN 0.000000 0.000000 0.000000
DOMAIN_MAX 0.903226 0.903226 0.903226
0.031373002 0.058823999 0.121569000
0.142567992 0.082353003 0.133965999
0.283112407 0.120303832 0.137887418
0.436559141 0.183428124 0.155977130
0.676407576 0.265527993 0.185704991
0.124857992 0.168374702 0.135610282
0.181783393 0.175205410 0.138899282
0.299177706 0.200758994 0.151296720
0.454522252 0.244908109 0.167362422
0.689816356 0.319164991 0.191903859
0.232763991 0.309297562 0.164073423
0.271727085 0.314864099 0.166730002
0.351802796 0.332827389 0.171283990
0.502340436 0.372422546 0.187349707
0.729917765 0.451359808 0.228968799
0.374826252 0.526755154 0.203036129
0.400253236 0.528146505 0.208349288
0.486021250 0.542568088 0.220746115
0.611132145 0.563188255 0.245287985
0.789373636 0.635420799 0.329032093
0.628083467 0.800505579 0.437444568
0.644402623 0.808095813 0.455913872
0.703099191 0.814927399 0.478557974
0.792662799 0.828968763 0.518152714
0.896141410 0.844908476 0.577356398
0.048703291 0.072865292 0.149652004
0.145856977 0.091208287 0.150664285
0.272991717 0.143200412 0.158507288
0.427071422 0.206578419 0.186337993
0.674130321 0.272106111 0.209613949
0.139911413 0.168374702 0.160152003
0.195192680 0.177862003 0.161163718
0.291334689 0.210246682 0.169639289
0.441113114 0.254016280 0.179759562
0.685262322 0.324730933 0.224288419
0.246173277 0.312586963 0.183681414
0.284503400 0.313219398 0.179759577
0.362302393 0.331561953 0.191523999
0.507906497 0.374446660 0.209867418
0.731941998 0.454902083 0.257684827
0.383807987 0.521695018 0.224288404
0.414041847 0.522327662 0.228336409
0.490575820 0.537002087 0.244655252
0.610878825 0.563820660 0.272865415
0.794686794 0.636432648 0.361290246
0.630487144 0.797343433 0.456925988
0.643137455 0.802403629 0.471347243
0.700569332 0.811005771 0.488677889
0.789753199 0.825679898 0.529285252
0.887539446 0.849841833 0.593674541
0.115749411 0.093485415 0.196078002
0.177861989 0.112460412 0.198482126
0.278557986 0.151043415 0.193547994
0.436559141 0.211511716 0.220114112
0.674383163 0.277292997 0.274003565
0.181404278 0.190259412 0.196457714
0.215433285 0.193169117 0.200379714
0.302087396 0.215433285 0.203289002
0.456799537 0.262238830 0.231752113
0.694749713 0.330929637 0.285515487
0.274635971 0.313219398 0.220998988
0.306008548 0.328905821 0.224920988
0.386464387 0.352435380 0.240606993
0.522580624 0.385831416 0.264895797
0.729917586 0.459835202 0.325869620
0.400506139 0.526501834 0.289437145
0.422137707 0.530423701 0.292346567
0.497027278 0.544844866 0.307779700
0.620620012 0.568374276 0.334977806
0.800885379 0.644908249 0.423149765
0.624161720 0.797217011 0.507273972
0.638077319 0.799240768 0.515369892
0.694496810 0.806325138 0.535357416
0.788741171 0.825047374 0.569765866
0.892726183 0.850221395 0.628336370
0.193295121 0.136369124 0.280581981
0.241619542 0.151676416 0.286527246
0.337128550 0.181783572 0.291081578
0.461100280 0.223655984 0.300316274
0.695382774 0.283491701 0.379759967
0.231498823 0.215433702 0.294117689
0.272359133 0.222644120 0.289689988
0.359012991 0.242631406 0.299557418
0.484250546 0.274636418 0.320809126
0.708665431 0.339785099 0.393927664
0.304996699 0.345350951 0.313345969
0.340038002 0.349525690 0.319544137
0.418848515 0.370145798 0.332953811
0.544845223 0.393042386 0.357874662
0.742947638 0.467046380 0.433396548
0.410120279 0.537634254 0.388741255
0.450854093 0.545730352 0.400632560
0.528652728 0.568627119 0.425173819
0.645541251 0.594560266 0.458317369
0.809234619 0.649462342 0.524351954
0.627830803 0.802782893 0.592409909
0.648323834 0.807716489 0.600632429
0.692599595 0.811258435 0.617330849
0.779126942 0.828715742 0.637064874
0.891714096 0.852877557 0.696394563
0.281214654 0.184440136 0.564199388
0.334851384 0.195192710 0.564199388
0.449336231 0.216445401 0.566856205
0.603415787 0.256799519 0.574066997
0.781151235 0.320682913 0.592915535
0.296521127 0.262618542 0.557748377
0.345350802 0.269449651 0.561922729
0.460467964 0.285515696 0.563820243
0.612650335 0.314990669 0.574952543
0.781783581 0.372928649 0.602783084
0.334218383 0.401644647 0.573181629
0.370398551 0.405186504 0.580518603
0.484630227 0.421252608 0.584439993
0.635167599 0.450727642 0.602783024
0.798608124 0.497912169 0.630866587
0.449209243 0.617836773 0.628842592
0.480455279 0.617204070 0.630613565
0.554965377 0.616192222 0.638330162
0.678304791 0.629601359 0.650094748
0.833270013 0.665527880 0.688045502
0.635799944 0.821505547 0.727640569
0.644655287 0.825426638 0.735736847
0.698544979 0.825426757 0.744591534
0.790385723 0.844275594 0.769006729
0.909044743 0.879063725 0.815053582
