Assets/Resources/EldamarStudio/100 Horror LUTs Pack/LUTs/cube/Rahu LUT.cube
LUT_3D_SIZE 5
DOMAIN_MIN 0.000000 0.000000 0.000000
DOMAIN_MAX 0.903226 0.903226 0.903226
0.133332998 0.058823999 0.066666998
0.160152003 0.081720419 0.087919287
0.214420989 0.120303832 0.121569000
0.296267986 0.171663120 0.164832264
0.475142419 0.251233637 0.242124781
0.163061291 0.136621997 0.123213284
0.176470995 0.147754416 0.126502275
0.224541292 0.169007123 0.149019584
0.309045136 0.218090117 0.196204826
0.478937596 0.296647519 0.262997806
0.190259412 0.253763795 0.185704991
0.208601981 0.259962112 0.195192710
0.255661398 0.281214803 0.219101399
0.353194386 0.328020275 0.253763407
0.529285192 0.406198382 0.332320958
0.255154997 0.442505121 0.306135237
0.277039677 0.456293374 0.313345969
0.339531809 0.475522012 0.337887555
0.447438270 0.513093114 0.371916384
0.614927173 0.588741183 0.469449937
0.510562539 0.736495733 0.586337388
0.540670395 0.749904692 0.586590707
0.584946394 0.762049198 0.603794992
0.674256861 0.782922149 0.644402444
0.774572730 0.805818558 0.680455446
0.139531717 0.074510001 0.109170996
0.161796287 0.085641995 0.114104696
0.204301119 0.129791275 0.142188698
0.288804561 0.182415992 0.196837410
0.454016626 0.262997985 0.271473825
0.156863004 0.135357410 0.137001693
0.179126993 0.154332399 0.148133695
0.222643703 0.175584689 0.173940405
0.299810141 0.218089700 0.214168534
0.476027876 0.301581234 0.289563477
0.189879715 0.256040663 0.211511701
0.204301119 0.259961665 0.221379116
0.256293386 0.281214386 0.233143687
0.348007411 0.322454244 0.275015950
0.528273106 0.412144363 0.356230497
0.259329557 0.447438657 0.323466122
0.283870995 0.451739520 0.340164244
0.335989952 0.470714539 0.353573531
0.442884237 0.503352523 0.390259385
0.615180194 0.589373827 0.480961233
0.507526815 0.739278734 0.581657171
0.528273404 0.746489406 0.587729216
0.587096572 0.756229997 0.608222306
0.669829309 0.776470542 0.642251551
0.773054719 0.805312812 0.692599714
0.149020001 0.096773997 0.174573407
0.166982710 0.105249576 0.174193710
0.205945417 0.135357410 0.196837410
0.293611556 0.186084867 0.243010536
0.461985767 0.268817395 0.324477792
0.164072990 0.152309000 0.190891996
0.174826294 0.156862989 0.192536294
0.217330709 0.178494409 0.214420989
0.301454842 0.229221866 0.265527964
0.478557765 0.308032960 0.346995682
0.186969995 0.262871832 0.258949965
0.214421406 0.271347404 0.271347404
0.263504416 0.302086979 0.298165828
0.360784531 0.340417117 0.329664797
0.531815231 0.417963237 0.410120368
0.256673157 0.459203243 0.377988398
0.281846881 0.459455997 0.384566993
0.344339132 0.479064137 0.407463670
0.451360255 0.516634881 0.442504525
0.620872617 0.599240780 0.527640522
0.489436775 0.737128139 0.618975580
0.520303547 0.744971156 0.615306854
0.577102542 0.755470991 0.633269787
0.666413426 0.776723444 0.661353588
0.787096798 0.812397420 0.720430017
0.150031865 0.119670995 0.283491135
0.172928274 0.130423695 0.288424999
0.222643703 0.158254415 0.296015143
0.300316274 0.203036129 0.326755136
0.471094579 0.271473974 0.416698247
0.163693875 0.173181415 0.297532976
0.185072571 0.183428273 0.306135237
0.234408706 0.201771125 0.318279535
0.311701566 0.240987122 0.344085813
0.488677949 0.318153143 0.432131767
0.185325861 0.285136402 0.350537419
0.208222717 0.294876516 0.361037254
0.270335257 0.316508800 0.378368258
0.364073515 0.349905401 0.407210529
0.543959498 0.425173789 0.493232250
0.268817246 0.470968008 0.465022236
0.293612003 0.480075985 0.470209002
0.362681508 0.510815978 0.500316381
0.483744383 0.546489358 0.536749125
0.641872048 0.607336938 0.599241257
0.505502880 0.748386562 0.673877418
0.524098754 0.752814353 0.674130499
0.571536720 0.762934744 0.683238328
0.666792870 0.781024575 0.711448431
0.784692883 0.820999563 0.758886576
0.114864022 0.159519166 0.538013577
0.166350543 0.171663702 0.538013577
0.264262974 0.202150390 0.543200433
0.399494112 0.248956099 0.562049389
0.557621598 0.320682913 0.599367559
0.112207353 0.217836812 0.540670395
0.168627575 0.224667862 0.543832719
0.273370981 0.246932521 0.552941024
0.410626113 0.292473078 0.575838149
0.571030855 0.363187611 0.611764371
0.119291790 0.342188209 0.573181570
0.172801882 0.343073934 0.572801828
0.291713953 0.366350651 0.588994443
0.440101326 0.410246611 0.613029957
0.608602166 0.467172623 0.646426380
0.281088114 0.546363056 0.651486456
0.306008816 0.550284803 0.656925857
0.379886091 0.554838777 0.654902041
0.505756199 0.575964570 0.676407456
0.678810894 0.629601955 0.714231789
0.519797564 0.767994583 0.757495463
0.531941652 0.770904481 0.754712164
0.585704982 0.780392051 0.769259751
0.687412679 0.806830764 0.797090411
0.824288607 0.851612747 0.850347579
