Assets/Resources/EldamarStudio/100 Horror LUTs Pack/LUTs/cube/Rahu LUT.cube
LUT_3D_SIZE 8
DOMAIN_MIN 0.000000 0.000000 0.000000
DOMAIN_MAX 0.903226 0.903226 0.903226
0.133332998 0.058823999 0.066666998
0.145857006 0.067425996 0.075268999
0.165464908 0.087033898 0.090955094
0.193927646 0.105376355 0.113219641
0.232005194 0.130044192 0.133965805
0.280075729 0.160530984 0.156736001
0.347627997 0.201264992 0.191144705
0.475142419 0.251233637 0.242124781
0.152561545 0.092472993 0.094117999
0.146236554 0.103099450 0.095256448
0.170904189 0.115243092 0.111701444
0.198355287 0.128905550 0.119923994
0.231245995 0.148892999 0.137128085
0.287286729 0.178621188 0.166476741
0.355091542 0.213789001 0.203288838
0.461606324 0.264642358 0.245034665
0.161543101 0.145730197 0.127007991
0.173308089 0.157115638 0.133206993
0.180265889 0.160658091 0.137128085
0.210499644 0.170398548 0.145350635
0.245288000 0.188741297 0.159772292
0.294117630 0.216571748 0.193421990
0.373561174 0.253004283 0.224921092
0.483744502 0.304491073 0.270334870
0.169259995 0.210752994 0.164199650
0.176344097 0.220240280 0.165338293
0.202656448 0.221252635 0.181024894
0.225300640 0.235420629 0.187729344
0.263630629 0.255028635 0.204553992
0.313978463 0.274383634 0.220113993
0.389753282 0.310689270 0.245667264
0.506261587 0.366223633 0.302466810
0.195192993 0.297786176 0.214168191
0.206831202 0.305629194 0.224035189
0.216192290 0.305503100 0.221632093
0.249968186 0.314864188 0.230992988
0.291460991 0.331309170 0.249209374
0.352688134 0.361416936 0.274130166
0.434408665 0.396964103 0.302973181
0.551422954 0.455281287 0.361164004
0.238962993 0.411132455 0.285894990
0.247185543 0.416318923 0.287792742
0.269449890 0.422390729 0.294876635
0.303605616 0.436559200 0.307779968
0.351929128 0.453383982 0.324604541
0.411005467 0.475648195 0.348639995
0.494496793 0.511195481 0.383934289
0.602782607 0.562428713 0.448956370
0.318532258 0.562302291 0.384566277
0.340417564 0.565211535 0.397596270
0.352814347 0.571536720 0.405313164
0.395951837 0.581404209 0.418975174
0.440354347 0.591271460 0.435167551
0.501834273 0.605313301 0.459835738
0.565211535 0.627956510 0.486780554
0.665654421 0.668817341 0.545983493
0.510562539 0.736495733 0.586337388
0.529159009 0.753193855 0.586591005
0.542694449 0.749651730 0.587602556
0.572801590 0.759898901 0.600758970
0.611891031 0.768121421 0.612776637
0.664895296 0.778367639 0.638330281
0.713472307 0.793675005 0.662365735
0.774572730 0.805818558 0.680455446
0.140796542 0.067046449 0.083491549
0.145098001 0.071346998 0.087792993
0.167741999 0.092093550 0.101075090
0.191650644 0.118406095 0.121062540
0.218216538 0.137507543 0.142568201
0.273750931 0.168753937 0.174446538
0.346868992 0.205186576 0.202403545
0.457178921 0.254143089 0.251233637
0.149399459 0.095256448 0.096015446
0.161163554 0.107779540 0.103858545
0.170904085 0.116002090 0.116381638
0.190891653 0.128905639 0.131688997
0.227703840 0.150031537 0.152814999
0.275015980 0.177862003 0.176344186
0.341049850 0.213789001 0.205945581
0.445161611 0.260847390 0.251992643
0.162681550 0.145350650 0.132447988
0.179253548 0.152814984 0.143453196
0.183048546 0.153953448 0.141429543
0.204554006 0.169639543 0.150790632
0.240986750 0.187602639 0.174319819
0.290702075 0.214294642 0.196710899
0.364579558 0.254016697 0.232257828
0.479443461 0.305502892 0.274509609
0.173181280 0.207083926 0.170778096
0.182289645 0.212650642 0.171157643
0.199114189 0.217330739 0.178241640
0.222896740 0.229854643 0.192789197
0.263251096 0.248703539 0.204047829
0.308918536 0.267425656 0.226691723
0.382669270 0.311954647 0.260594577
0.507147312 0.371789962 0.312080920
0.196078196 0.290575296 0.212270990
0.205312982 0.298039377 0.228969187
0.216951296 0.302340299 0.231119275
0.249968186 0.310942382 0.240480989
0.286780179 0.327767015 0.256546527
0.345730722 0.351170123 0.275648355
0.430234075 0.393927902 0.312080741
0.547375083 0.455534369 0.366729707
0.230107278 0.404427528 0.292726249
0.244402081 0.407463759 0.298671514
0.262365460 0.415306717 0.299430728
0.291208267 0.425933272 0.305755824
0.343326926 0.443643004 0.325363636
0.399493992 0.461100638 0.348260462
0.490448803 0.501454711 0.391018182
0.601644278 0.562175691 0.450727433
0.324730992 0.555724263 0.401518285
0.330424011 0.563567281 0.404301077
0.356736243 0.569386065 0.410499811
0.392662823 0.575331867 0.422896922
0.437571079 0.591398001 0.443264008
0.502719700 0.608222663 0.467552096
0.577482522 0.636432528 0.497153789
0.677419305 0.678178072 0.561163902
0.499936700 0.732448041 0.578114867
0.520809293 0.737761021 0.577988446
0.525743127 0.742947280 0.581657171
0.560657620 0.749651730 0.595698774
0.602150798 0.758507013 0.607337236
0.651865780 0.770904183 0.628842354
0.711701274 0.786211431 0.655281126
0.780518353 0.808222651 0.693485320
0.138013899 0.075268902 0.114484094
0.146615997 0.086274996 0.116002098
0.170145184 0.091714002 0.128525987
0.194434002 0.119165093 0.144971281
0.229728088 0.147375092 0.168501094
0.273118347 0.173560828 0.190006256
0.347754478 0.213156089 0.224161789
0.454775542 0.262239069 0.275522053
0.151802555 0.109424450 0.125490099
0.157622010 0.113725096 0.132068440
0.166982993 0.116002187 0.142314643
0.197975740 0.139152452 0.158760458
0.228462741 0.163440540 0.175964653
0.278557718 0.190765351 0.201011926
0.351296753 0.227198288 0.235420540
0.458190888 0.276786834 0.280328989
0.159139901 0.151296914 0.155218095
0.169386089 0.163061112 0.166224003
0.190512091 0.174826100 0.170904085
0.211258650 0.181404456 0.178747892
0.244528905 0.197470084 0.196710989
0.297027111 0.225680098 0.224541441
0.365591466 0.262365460 0.252245396
0.484123766 0.313472718 0.304491073
0.181024998 0.224920988 0.200252742
0.184187099 0.229601189 0.209740549
0.205060363 0.236685902 0.207717001
0.230866641 0.245288089 0.216698542
0.265654773 0.256546438 0.227577627
0.313725531 0.279949456 0.249082983
0.389500111 0.317520440 0.282352656
0.507400155 0.369259626 0.332321286
0.209361002 0.299937189 0.246046886
0.210879087 0.305502981 0.250727385
0.224162191 0.313346088 0.250727177
0.258317530 0.320429981 0.264516354
0.293864787 0.332827389 0.275016099
0.351676166 0.362302542 0.294876635
0.436938554 0.399367273 0.329664469
0.551675797 0.459456146 0.390512347
0.246173099 0.423402727 0.320935726
0.252245367 0.424541354 0.322453737
0.270968080 0.427197725 0.324983984
0.305123538 0.438203633 0.338393360
0.352055818 0.451486647 0.348766625
0.409487486 0.472232461 0.367994994
0.493611634 0.507779837 0.408602148
0.605818987 0.567615569 0.470588446
0.331815273 0.562175572 0.419607848
0.345224380 0.565717995 0.425300270
0.366350353 0.574699283 0.430613339
0.397090197 0.581024468 0.440607369
0.441239536 0.593548357 0.453889906
0.502846062 0.608349323 0.480961323
0.572928607 0.630233586 0.512713552
0.670967460 0.679190159 0.566097081
0.508538663 0.744844675 0.592030346
0.522453904 0.748387039 0.594434023
0.540670633 0.754079521 0.601897597
0.569892228 0.756103754 0.610752702
0.612650037 0.764832318 0.625047326
0.659456134 0.774952352 0.642757714
0.716508329 0.789753139 0.671979904
0.773054838 0.804553747 0.691334367
0.143453285 0.087413348 0.150790647
0.153320551 0.092093639 0.149145633
0.173687637 0.104237996 0.161416993
0.190512002 0.122707352 0.166476652
0.225679994 0.146868840 0.190386087
0.275395632 0.171157628 0.209866986
0.346489638 0.215812638 0.250601262
0.461859614 0.269323170 0.308159620
0.157242462 0.113219544 0.154332891
0.155977204 0.118279189 0.155850902
0.172042727 0.125743449 0.166097194
0.189247549 0.138646290 0.175078645
0.222517386 0.162175894 0.192283452
0.273371369 0.187982187 0.223276183
0.347375005 0.224794373 0.260341644
0.459709138 0.276660591 0.309044629
0.163061097 0.157874733 0.177103087
0.174825996 0.159772083 0.185958624
0.190512091 0.172042653 0.197849542
0.212017640 0.180518642 0.201644734
0.243263721 0.200506091 0.218848735
0.294876546 0.228716180 0.244655550
0.370777845 0.266793460 0.280329108
0.483491689 0.318279535 0.326375663
0.177609354 0.220872983 0.216951281
0.189753100 0.222391084 0.211258367
0.205313087 0.234155372 0.234914273
0.227577642 0.248956293 0.245034993
0.259962261 0.261480272 0.260721207
0.311195612 0.287792534 0.277545750
0.394813210 0.326881915 0.318532556
0.513345838 0.383554637 0.375711650
0.208981648 0.310183376 0.273877442
0.213156089 0.313598722 0.279190630
0.231119275 0.321821392 0.283111811
0.257305533 0.326122820 0.285388738
0.300316453 0.342567831 0.304996610
0.357494891 0.364452809 0.326628566
0.436812371 0.403289080 0.362934828
0.553699970 0.460594803 0.422011256
0.244275883 0.421252489 0.339784980
0.248576835 0.423529267 0.342062294
0.273750752 0.430234104 0.354712248
0.308412284 0.441619277 0.363693714
0.354964912 0.454522789 0.377735823
0.413409442 0.473624349 0.396710724
0.494750261 0.512081146 0.432131559
0.605439246 0.568753898 0.490322739
0.323592633 0.565211833 0.445161223
0.339405626 0.571410239 0.446046650
0.359898835 0.575331867 0.450474083
0.398228556 0.582036912 0.464895546
0.445414364 0.593801200 0.479063839
0.508665264 0.612523794 0.500316262
0.578241825 0.636432886 0.531182528
0.677925408 0.685009420 0.590891719
0.508918583 0.734977543 0.606831014
0.508539140 0.740417480 0.600632310
0.533586085 0.745603919 0.611764848
0.559392512 0.751043379 0.616065383
0.598608434 0.760531425 0.634155214
0.647311568 0.769133210 0.647944450
0.708538830 0.788488626 0.676533878
0.781657219 0.810246527 0.701707721
0.149020001 0.100442812 0.199114382
0.154459193 0.107400186 0.201518193
0.170145184 0.112080894 0.202277094
0.195698559 0.132068440 0.207337454
0.224162191 0.149652183 0.224162176
0.272232741 0.183681443 0.249715179
0.346995562 0.220113888 0.288804561
0.460214913 0.270840973 0.351170003
0.156356543 0.126249000 0.201391205
0.161163568 0.126628548 0.203035995
0.181151092 0.138013899 0.207716897
0.201138556 0.150917366 0.218722090
0.230613798 0.166097194 0.230360374
0.280075729 0.195066288 0.257305503
0.353573740 0.233143553 0.298418999
0.461227149 0.282606155 0.349272668
0.174193710 0.166856185 0.224162191
0.177735552 0.174825996 0.228589445
0.190639004 0.180265889 0.235167906
0.214927092 0.188868091 0.241366282
0.248450086 0.207716897 0.255408108
0.293864816 0.231878266 0.282479614
0.371157378 0.269450009 0.320430189
0.487792641 0.316382080 0.376597047
0.181530446 0.229980826 0.250980616
0.190512195 0.236306250 0.262871563
0.206957906 0.239721984 0.264769286
0.232764095 0.254269660 0.274130195
0.266413987 0.271853268 0.292599559
0.321821570 0.295635849 0.316635013
0.400505900 0.332827389 0.349525660
0.519165039 0.383934081 0.410499781
0.205439806 0.309551179 0.296900779
0.213535532 0.317014515 0.307906359
0.231246099 0.325869381 0.315749258
0.268817216 0.349019557 0.340797007
0.314990371 0.366603166 0.357242376
0.366097420 0.382289559 0.371916384
0.450221360 0.416571468 0.405566156
0.558254182 0.470461845 0.457431972
0.251106918 0.429222196 0.385452181
0.258064538 0.435167640 0.386084467
0.279190630 0.443643093 0.395951837
0.317267269 0.455914170 0.403289199
0.362681985 0.469576001 0.419354737
0.424794734 0.488298744 0.440986663
0.506261766 0.521821916 0.475268751
0.614168167 0.577862382 0.533206701
0.335104465 0.574699521 0.476786554
0.348260462 0.580265462 0.486401290
0.366982520 0.583428502 0.492473155
0.399873465 0.590006173 0.501454771
0.451486528 0.608349383 0.512713313
0.510562718 0.619987369 0.532953739
0.586084783 0.643390357 0.568121672
0.687413216 0.687792063 0.617583513
0.500063419 0.741555810 0.629601657
0.510436416 0.746995270 0.625426829
0.529917598 0.750916600 0.626691759
0.557874680 0.757748187 0.640480697
0.601391435 0.765464962 0.654901743
0.650727391 0.776849806 0.669829011
0.715876043 0.792789102 0.693990946
0.788108528 0.814041793 0.719923735
0.149020001 0.113598995 0.260214716
0.156863004 0.119417734 0.262238979
0.177988991 0.129158989 0.266919553
0.204174742 0.146109834 0.268943846
0.233396471 0.165717736 0.283111721
0.282099992 0.189879730 0.299430728
0.351549566 0.225932732 0.338140458
0.471600324 0.270967960 0.403289080
0.156356543 0.140290812 0.257178754
0.163946822 0.144591749 0.266160458
0.179506794 0.147627831 0.264136732
0.203795090 0.158127889 0.271979928
0.237318084 0.175331980 0.282606095
0.283491284 0.202529743 0.299810261
0.352688044 0.233016819 0.337887764
0.473497897 0.286906987 0.400000244
0.167488649 0.184819996 0.282858700
0.172801822 0.185958356 0.282479435
0.190638900 0.190765440 0.288172096
0.215053737 0.202909276 0.293611377
0.252624750 0.219734445 0.307400525
0.293990850 0.243263826 0.321315825
0.374952555 0.275648355 0.362048984
0.488677859 0.325236917 0.422264308
0.179506898 0.241113380 0.312586814
0.189753085 0.247058630 0.313219368
0.204554096 0.249715269 0.314990610
0.232131734 0.261859715 0.328779370
0.272612363 0.275521904 0.341303170
0.321821481 0.302340358 0.360657632
0.406831026 0.335483730 0.399114639
0.527514279 0.394560337 0.462239295
0.199114382 0.322454393 0.352182150
0.216951191 0.331309289 0.359519184
0.231119379 0.334345400 0.370651633
0.265654922 0.347754180 0.382036656
0.313978344 0.366097629 0.396457940
0.371031195 0.384440392 0.420872927
0.453257352 0.422390759 0.452877909
0.566350162 0.476786643 0.509171069
0.250600994 0.434535474 0.430613458
0.254775554 0.440354198 0.428589702
0.282226622 0.449715197 0.443137378
0.316634834 0.464263469 0.456040740
0.379380107 0.488171935 0.481973708
0.444275707 0.507020772 0.499304205
0.522707045 0.535483778 0.522201419
0.621631503 0.576723754 0.568121254
0.336875111 0.578747332 0.521315575
0.341556013 0.573940575 0.522074580
0.368374646 0.585705400 0.533713043
0.406325191 0.601011932 0.551296532
0.459708989 0.615054011 0.564705551
0.518785715 0.631625533 0.575838089
0.598229110 0.656420052 0.604680598
0.701454878 0.699177921 0.655028343
0.500442445 0.746362805 0.660215259
0.504364491 0.744465470 0.655028522
0.526375771 0.752308607 0.659709036
0.551928997 0.759139836 0.666919589
0.588361800 0.765211761 0.673877239
0.649841726 0.774446607 0.693232059
0.713219047 0.794686556 0.717393816
0.783427835 0.821758389 0.752055407
0.142820716 0.135610282 0.359392554
0.156863004 0.141176000 0.363946557
0.181909993 0.147248566 0.368627459
0.215180352 0.162555352 0.369513273
0.258444101 0.185705274 0.380265564
0.314358026 0.206072286 0.390132815
0.379632980 0.235927001 0.417204261
0.477292866 0.277672529 0.456673086
0.151296705 0.155977294 0.350916803
0.162808269 0.159898698 0.360151559
0.184693247 0.163820103 0.360910535
0.214674190 0.178241730 0.371790171
0.261100829 0.196204931 0.384566724
0.319291443 0.222137824 0.401138723
0.386843801 0.251739711 0.420872569
0.486274421 0.292726040 0.469070345
0.154712200 0.203668565 0.374067098
0.165464908 0.205313280 0.377229333
0.193674996 0.211638093 0.380392075
0.224541545 0.222770333 0.387476563
0.271727085 0.238836274 0.396837562
0.328779370 0.258443981 0.416824907
0.402909338 0.286527485 0.443769664
0.498545021 0.331056237 0.482985348
0.165844351 0.264010280 0.405439556
0.180265456 0.264642566 0.404680461
0.202403620 0.274130255 0.407843262
0.235926703 0.280328989 0.414420903
0.292093247 0.300189614 0.431119442
0.349398881 0.319418162 0.444402456
0.431245953 0.351043910 0.473877192
0.537760735 0.396963984 0.519417822
0.191270992 0.352182180 0.438456744
0.199620456 0.353699952 0.452118814
0.225047171 0.360278159 0.451739371
0.261226803 0.363693893 0.461986363
0.318659186 0.379000366 0.473497570
0.385072678 0.402403563 0.490449011
0.471726567 0.429728389 0.521189153
0.575078845 0.480202287 0.564958572
0.246300027 0.460973710 0.502593279
0.258317530 0.466919541 0.515116930
0.278557748 0.475395471 0.519544542
0.318153083 0.484503537 0.522453964
0.376976818 0.496900827 0.541808546
0.444655180 0.511068702 0.561923027
0.527640522 0.538013518 0.580139220
0.634661615 0.584440231 0.623908520
0.344971567 0.592662573 0.582163095
0.349905103 0.588108838 0.581783593
0.373813808 0.597975612 0.584693253
0.414547831 0.610120177 0.599493802
0.466287166 0.628463030 0.616951227
0.540037513 0.654902041 0.639595509
0.621378541 0.681846857 0.673371255
0.714231074 0.710436344 0.702972770
0.502593100 0.746995568 0.700442553
0.506008685 0.750916600 0.689689875
0.520176649 0.752940834 0.700442910
0.555470824 0.759392858 0.709550977
0.598987937 0.772548974 0.721568704
0.653383851 0.786970198 0.737254977
0.719418287 0.804427385 0.754585624
0.805566072 0.827324510 0.792156816
0.114864022 0.159519166 0.538013577
0.132701010 0.164832145 0.531815290
0.180265903 0.174699560 0.539278746
0.231878474 0.186843634 0.540670395
0.298418999 0.212270990 0.550158083
0.376976550 0.239595070 0.554965377
0.465908051 0.273750931 0.575837553
0.557621598 0.320682913 0.599367559
0.114864022 0.185325637 0.532700658
0.133080453 0.186843544 0.533080161
0.176344097 0.191903993 0.535863280
0.234029263 0.206198514 0.541176379
0.307527184 0.230486810 0.554711938
0.388488203 0.260594457 0.569892466
0.473118305 0.296015084 0.585831583
0.568121374 0.343073815 0.605439544
0.112207383 0.232004791 0.537887573
0.136875644 0.238962978 0.543074012
0.180265903 0.236811906 0.544591606
0.241745830 0.252498418 0.550537586
0.310310036 0.270461828 0.559013426
0.392662525 0.297280163 0.577103019
0.483364701 0.334471911 0.595319629
0.578620911 0.374067008 0.619354665
0.115875840 0.296900809 0.555850744
0.138393655 0.300695986 0.558886707
0.183681130 0.306135476 0.564073384
0.251359999 0.319038421 0.575078845
0.324351788 0.338266760 0.580265343
0.406957567 0.367109358 0.596457601
0.500063479 0.398734897 0.615180194
0.599746764 0.437824279 0.637697577
0.156862527 0.394054204 0.589120746
0.168754026 0.396837443 0.585578442
0.202277109 0.393168807 0.593927741
0.261732996 0.402656615 0.597090602
0.345857143 0.419986993 0.607590139
0.429222196 0.446173370 0.626059413
0.524984181 0.475395113 0.639088988
0.622137785 0.510689020 0.659582198
0.250980556 0.517267466 0.635041356
0.261859745 0.520050824 0.633269727
0.285262734 0.520936251 0.639721334
0.324225098 0.525616705 0.637571156
0.384566724 0.524857581 0.640733778
0.467299432 0.540037572 0.660468102
0.561290264 0.567868054 0.677672267
0.662365317 0.603542030 0.699557245
0.384566844 0.651106834 0.697533011
0.388361812 0.649588764 0.696268141
0.406072080 0.651106596 0.695002913
0.444023013 0.656166613 0.701834261
0.491334647 0.663124800 0.711195171
0.558380723 0.673371255 0.720809519
0.633902490 0.692979276 0.733333051
0.732447565 0.729411721 0.771157265
0.519797564 0.767994583 0.757495463
0.525616586 0.768374145 0.760404706
0.541555822 0.773181438 0.756989121
0.571916163 0.773054957 0.767868340
0.612017393 0.784060478 0.777355790
0.667678297 0.801264822 0.791524589
0.739658535 0.822137594 0.817330837
0.824288607 0.851612747 0.850347579
