Assets/Resources/EldamarStudio/100 Horror LUTs Pack/LUTs/cube/Rahu LUT.cube
DOMAIN_MIN 0 0 0
DOMAIN_MAX 1 1 1
LUT_3D_SIZE 32
0.133332998 0.058823999 0.066666998
0.133332998 0.058823999 0.066666998
0.137633994 0.063124999 0.070968002
0.142441168 0.066666998 0.074510001
0.145857006 0.067425996 0.075268999
0.151929006 0.073497996 0.081340998
0.155471325 0.077039681 0.084883317
0.160152003 0.081720419 0.087919287
0.165464908 0.087033898 0.090955094
0.168500513 0.090069525 0.093991488
0.174446732 0.096014999 0.099936999
0.182542726 0.100063257 0.106008992
0.193927646 0.105376355 0.113219641
0.208349004 0.114231065 0.121569000
0.214420989 0.120303832 0.121569000
0.222896799 0.123972185 0.126375988
0.232005194 0.130044192 0.133965805
0.242378563 0.139152572 0.141808584
0.257558972 0.148260966 0.144844979
0.267172664 0.151802644 0.150664002
0.280075729 0.160530984 0.156736001
0.296267986 0.171663120 0.164832264
0.314231008 0.180771500 0.176723987
0.326375812 0.189879909 0.182796001
0.347627997 0.201264992 0.191144705
0.371916294 0.212017670 0.200252667
0.397723049 0.221631989 0.209867001
0.431119412 0.233775988 0.222010985
0.475142419 0.251233637 0.242124781
0.513599098 0.271221161 0.263377160
0.551423132 0.294244558 0.286400557
0.600000024 0.321568996 0.313724995
0.139404997 0.064895995 0.078811005
0.142441392 0.064895995 0.072738998
0.140290618 0.071347229 0.074889228
0.142441168 0.077039778 0.080075935
0.145857006 0.078811005 0.083238840
0.151929006 0.079569995 0.081340998
0.160531327 0.083112314 0.087412998
0.161290288 0.089437060 0.094244316
0.164705798 0.095382616 0.099304385
0.174573287 0.096141517 0.100063488
0.177608892 0.099177867 0.103099123
0.187602609 0.105123378 0.111068860
0.196584284 0.110310003 0.118152991
0.205060348 0.117267385 0.124351636
0.208349004 0.123339444 0.121569000
0.219227999 0.127008408 0.126375988
0.230486989 0.131562382 0.130929798
0.241113409 0.139152572 0.137001574
0.251486212 0.148260981 0.144844979
0.269449919 0.160152018 0.150664002
0.281214386 0.165844381 0.158633739
0.296267986 0.173687384 0.165844396
0.314357489 0.180897981 0.173940584
0.329411417 0.192915529 0.185831621
0.350664198 0.204301193 0.194180906
0.376344025 0.216445372 0.204680368
0.403289139 0.228210062 0.215939119
0.434155792 0.242884383 0.228083760
0.462239176 0.257685184 0.240227744
0.501960695 0.273751169 0.260341555
0.541429400 0.293358952 0.282479346
0.587855995 0.318532616 0.307653010
0.141176000 0.073118225 0.082353003
0.139911398 0.075268999 0.078431234
0.145098001 0.075268999 0.078811005
0.144591942 0.081846938 0.083111778
0.147628233 0.084883228 0.088425227
0.151929006 0.086654000 0.087160066
0.162681550 0.087033547 0.089563772
0.166856229 0.091714226 0.093991064
0.166603193 0.099556997 0.101328224
0.175964966 0.102339998 0.104111232
0.183681116 0.105249867 0.109171130
0.188740984 0.110309996 0.114231512
0.197216645 0.115243644 0.118659131
0.202530265 0.120303772 0.121694997
0.209361359 0.126375765 0.124351643
0.221758544 0.132194802 0.130676985
0.230866536 0.136748984 0.136748984
0.241113409 0.142188579 0.139784768
0.250221044 0.148260981 0.144338980
0.267678708 0.160152018 0.150664002
0.283997715 0.168500990 0.158633739
0.297406644 0.174572989 0.167742133
0.314484000 0.181024492 0.175205752
0.331688672 0.195192784 0.187349781
0.349398792 0.205186576 0.195066288
0.375078857 0.215939313 0.204174668
0.402909368 0.228336349 0.217077836
0.433270097 0.245161444 0.234155878
0.467425764 0.260341823 0.241998971
0.501834095 0.279064149 0.264769375
0.544844747 0.298545569 0.286274761
0.592916012 0.324098796 0.308032781
0.144971162 0.082226165 0.086148165
0.138140380 0.083997391 0.083111778
0.144085988 0.087412998 0.084376939
0.145098001 0.088678166 0.086148165
0.148893386 0.091334999 0.091081612
0.153700233 0.093485221 0.090195999
0.161796153 0.096521154 0.096521154
0.168626994 0.098544993 0.099557452
0.170145184 0.103098996 0.102593064
0.176217958 0.108158998 0.108159006
0.182669133 0.111321867 0.112966157
0.192283005 0.116381995 0.116508350
0.198355287 0.122454002 0.122580834
0.201771170 0.125363842 0.120430030
0.209867418 0.129411831 0.125490159
0.222517624 0.136748984 0.131435633
0.233143821 0.142820984 0.139025822
0.241113394 0.148892984 0.145730406
0.251486212 0.152561814 0.147628009
0.270208716 0.162682012 0.153193995
0.283997715 0.172296152 0.161163732
0.298165977 0.179380029 0.169259995
0.313345641 0.185705021 0.178241819
0.332700819 0.197470069 0.190385848
0.353446990 0.209361285 0.199240997
0.373307616 0.219734475 0.206704661
0.400126129 0.229348153 0.215813071
0.428968877 0.246046722 0.234029427
0.465907425 0.261606663 0.245793834
0.504111230 0.280328989 0.260974228
0.543579698 0.303352386 0.289563805
0.593674839 0.330676854 0.308538824
0.152561545 0.092472993 0.094117999
0.141556010 0.092472993 0.092220157
0.145857006 0.096394546 0.092726223
0.152308553 0.100063160 0.095256448
0.146236554 0.103099450 0.095256448
0.155344933 0.103099450 0.092220061
0.161923006 0.108159542 0.101074994
0.166350290 0.112586834 0.108285703
0.170904189 0.115243092 0.111701444
0.176976964 0.115243092 0.114737064
0.180139124 0.118152864 0.117014416
0.188487992 0.122833543 0.118405998
0.198355287 0.128905550 0.119923994
0.204680964 0.134471551 0.125743032
0.210879445 0.134471551 0.128779411
0.221378997 0.141302809 0.132194743
0.231245995 0.148892999 0.137128085
0.239215553 0.154964983 0.143832579
0.254396021 0.161037028 0.152940989
0.273624390 0.169892371 0.159645572
0.287286729 0.178621188 0.166476741
0.298545420 0.187349871 0.175331995
0.310689449 0.196457505 0.181403995
0.331182897 0.202783272 0.193042010
0.355091542 0.213789001 0.203288838
0.377988189 0.225553527 0.211258680
0.400505662 0.237697542 0.221505523
0.424794406 0.249841526 0.230613902
0.461606324 0.264642358 0.245034665
0.500695527 0.282985151 0.261985838
0.540164530 0.305249542 0.281593949
0.579632998 0.332573980 0.305882007
0.149525940 0.110688999 0.094117999
0.146489546 0.110688999 0.100189999
0.148387000 0.112839773 0.098292165
0.156736165 0.112586930 0.100063063
0.161416933 0.109171450 0.104364060
0.155344933 0.112207063 0.104364060
0.161923006 0.117267706 0.108917996
0.166350290 0.121695220 0.114357710
0.171663180 0.124731027 0.118152991
0.183048964 0.127387866 0.123845451
0.186211124 0.130296990 0.121062808
0.191270992 0.133333251 0.123086669
0.198355287 0.138013929 0.124477997
0.204680964 0.143579930 0.125743032
0.213788569 0.143579930 0.128779411
0.222390860 0.148386925 0.134218991
0.233522996 0.154964998 0.141303137
0.245287567 0.161036998 0.149905279
0.260467976 0.167109013 0.159012988
0.270082355 0.175964355 0.168121368
0.281214744 0.183174998 0.171030924
0.294370860 0.189753056 0.176596999
0.313725084 0.196457505 0.187475994
0.325869888 0.205565915 0.193548009
0.350917280 0.218722343 0.205186576
0.374952555 0.230613664 0.211258948
0.397723049 0.240733936 0.215812996
0.427830786 0.252877921 0.233649507
0.460088700 0.267678738 0.248070866
0.496268272 0.284629852 0.265021861
0.534092546 0.304237574 0.284123659
0.573561013 0.326501995 0.305882007
0.159140006 0.126375318 0.111828320
0.156103611 0.123845637 0.110309996
0.159519002 0.128146648 0.116381995
0.163060993 0.131562158 0.113219313
0.167615220 0.130423546 0.113851868
0.167994991 0.133459702 0.116002642
0.169513315 0.131435320 0.116002642
0.173940599 0.135863379 0.120429926
0.176976413 0.138899416 0.123466089
0.183807984 0.141935810 0.127767310
0.194813445 0.139911443 0.130170539
0.199873328 0.144971311 0.133206666
0.207083970 0.149652004 0.137887284
0.214294955 0.155471042 0.140417606
0.218848571 0.157748327 0.138899416
0.225553602 0.162555322 0.144338995
0.236053318 0.167109504 0.150410995
0.248197302 0.172802046 0.157242268
0.261479974 0.180771336 0.162555382
0.271094352 0.189626679 0.171663687
0.287792742 0.198735058 0.180771574
0.300442994 0.206451505 0.183681130
0.317014307 0.213914827 0.191144824
0.333965480 0.218216226 0.199620649
0.357495546 0.231878594 0.210246637
0.383428276 0.245667294 0.218216315
0.407337129 0.256419986 0.221884742
0.437697858 0.268563986 0.238076985
0.473245084 0.283364803 0.253636807
0.506641448 0.302087158 0.270588398
0.548513770 0.323718876 0.289689988
0.597849667 0.348260313 0.310941994
0.163061291 0.136621997 0.123213284
0.163314328 0.140164375 0.125110611
0.163440719 0.140290990 0.125236988
0.169512704 0.143832996 0.127514154
0.170271710 0.146109700 0.123339698
0.172042936 0.147880942 0.127640933
0.178368315 0.149146095 0.126502290
0.176470995 0.147754416 0.126502275
0.181783706 0.151549697 0.128778994
0.187476486 0.155471489 0.130929768
0.195951998 0.154332832 0.133965835
0.204048008 0.154079691 0.137380987
0.208981648 0.159013048 0.142314643
0.217330992 0.164579064 0.147881284
0.224541292 0.169007123 0.149019584
0.231625602 0.172801986 0.149904996
0.242252186 0.180392191 0.157495201
0.254522681 0.184313983 0.164326295
0.266666710 0.192409739 0.169386685
0.274383366 0.199873358 0.176344365
0.287792742 0.208981723 0.187096953
0.309045136 0.218090117 0.196204826
0.323466212 0.227197886 0.200632691
0.343200415 0.233269900 0.208222896
0.364958853 0.242125273 0.216318995
0.390891969 0.255913973 0.227071658
0.416192144 0.268058121 0.231625348
0.446552873 0.280202419 0.244528413
0.478937596 0.296647519 0.262997806
0.520177126 0.313725144 0.273371398
0.555344820 0.336748570 0.295129955
0.608476043 0.364073008 0.318658710
0.161543101 0.145730197 0.127007991
0.165338397 0.154079482 0.133079991
0.165464908 0.155976996 0.134092093
0.167995095 0.156736091 0.136622161
0.173308089 0.157115638 0.133206993
0.173308089 0.157495201 0.137760997
0.178621322 0.159266412 0.137001768
0.182542995 0.159898996 0.135610089
0.180265889 0.160658091 0.137128085
0.192409903 0.166730091 0.137128085
0.197975993 0.167741999 0.140037954
0.204807103 0.168501094 0.141555831
0.210499644 0.170398548 0.145350635
0.213535964 0.173434153 0.148387030
0.224161893 0.179000735 0.153953090
0.235420704 0.183428392 0.155976996
0.245288000 0.188741297 0.159772292
0.261100948 0.196584523 0.168880507
0.273497999 0.202530012 0.177988872
0.282353073 0.209361106 0.185072988
0.294117630 0.216571748 0.193421990
0.309804022 0.224921018 0.203036129
0.330929905 0.234282404 0.212144479
0.351549894 0.244655192 0.218848899
0.373561174 0.253004283 0.224921092
0.396205068 0.263504177 0.232384562
0.421505243 0.276660204 0.243011028
0.451865971 0.289310902 0.252877712
0.483744502 0.304491073 0.270334870
0.519924223 0.325743020 0.287286311
0.565970838 0.345856756 0.298925042
0.605440021 0.373181194 0.329285085
0.164579496 0.163946971 0.133080006
0.170651481 0.170018956 0.139152005
0.170145214 0.169765726 0.138772771
0.171030834 0.169386178 0.142188489
0.176344484 0.172296047 0.151422992
0.176344484 0.175332442 0.145351008
0.176344499 0.175711975 0.144845009
0.180013001 0.174193785 0.144718498
0.186337888 0.172802106 0.146236494
0.195445523 0.175838485 0.152308494
0.198861390 0.179000616 0.155218363
0.206072256 0.181910276 0.154206231
0.213915482 0.185958505 0.154838488
0.219607949 0.191650942 0.160531044
0.222643584 0.194686547 0.163567424
0.235673308 0.200253144 0.166729674
0.246046513 0.206198975 0.171157390
0.255028158 0.211764932 0.177988902
0.273244977 0.214800537 0.187096536
0.288425356 0.223529369 0.196204871
0.303225726 0.230613500 0.203289002
0.318405658 0.236812010 0.208602130
0.333965510 0.243390024 0.212144479
0.352182329 0.258570433 0.221252099
0.375078976 0.266666472 0.227957085
0.399240822 0.275648326 0.235420793
0.424541622 0.288804948 0.246046647
0.454902381 0.307020932 0.264263421
0.490575433 0.317014813 0.276786953
0.524984121 0.338899404 0.296394408
0.563314617 0.366982669 0.319923699
0.611512005 0.391397953 0.344465464
0.170524999 0.173434868 0.147880867
0.173687860 0.176596999 0.151043743
0.173308089 0.180518776 0.148513749
0.174066857 0.182795733 0.148513868
0.180139124 0.187096864 0.156989321
0.185199127 0.187602937 0.163566992
0.187729448 0.188108996 0.157495007
0.188108996 0.188108996 0.156736001
0.192410082 0.187096864 0.155977100
0.201518252 0.187982485 0.155597866
0.204806864 0.191018119 0.158759996
0.207843274 0.194054261 0.161796391
0.215180352 0.198229000 0.163946882
0.223276153 0.203795001 0.169259831
0.231625453 0.204174459 0.166982546
0.239468679 0.212017670 0.174825937
0.253637046 0.221632004 0.183427870
0.264516175 0.229854569 0.192283288
0.275901079 0.232890785 0.199114785
0.291334480 0.235926390 0.202656388
0.306514859 0.242883980 0.207716733
0.320682853 0.249968112 0.211764738
0.334218472 0.258064359 0.214927122
0.355217934 0.267678767 0.221252099
0.377988666 0.280581862 0.230360284
0.402276844 0.292093515 0.241239771
0.428083301 0.305755973 0.253889859
0.460847884 0.319164991 0.267299026
0.488551766 0.337381661 0.288171917
0.525996029 0.349019825 0.299304187
0.566982865 0.371663421 0.317899823
0.617583990 0.397976011 0.342188120
0.168501005 0.190639243 0.156989008
0.179633379 0.197722852 0.160025388
0.176344484 0.194686770 0.156610012
0.173308089 0.198987991 0.154332846
0.177861989 0.203921542 0.160025299
0.187223002 0.202277258 0.169133320
0.190765321 0.204300985 0.171663508
0.195446000 0.202656701 0.168880507
0.197723001 0.203795254 0.168880507
0.205566227 0.206325248 0.167109728
0.208855391 0.207210630 0.167868629
0.213915259 0.212270513 0.172928512
0.219228640 0.215306893 0.174826249
0.228336468 0.220240474 0.178874210
0.237444401 0.222011253 0.179379836
0.246552795 0.229222044 0.185958058
0.254143000 0.233776242 0.190512255
0.267805308 0.243263811 0.198734850
0.279696316 0.249083206 0.203415960
0.292346358 0.250095159 0.208728909
0.309424460 0.258823514 0.213662267
0.324731141 0.264136374 0.215812996
0.338140011 0.271220505 0.217963248
0.357495159 0.280328870 0.224035263
0.379000545 0.293738246 0.234408289
0.406072289 0.304490894 0.247691333
0.432637513 0.318406194 0.262998253
0.464516044 0.332067966 0.275142252
0.494623810 0.349525630 0.291208059
0.527261317 0.367741942 0.308918417
0.566476822 0.383048594 0.322074831
0.613535702 0.408096015 0.345224530
0.169259995 0.210752994 0.164199650
0.178747743 0.216445252 0.166097403
0.182290003 0.218216285 0.166097641
0.178621471 0.214927286 0.162682131
0.176344097 0.220240280 0.165338293
0.186210990 0.217963576 0.172169566
0.190765321 0.219987318 0.176217675
0.194307357 0.222011343 0.178747997
0.202656448 0.221252635 0.181024894
0.209867001 0.227324635 0.182163343
0.211891219 0.227577627 0.179886341
0.218089998 0.230486989 0.183934331
0.225300640 0.235420629 0.187729344
0.234408960 0.238457024 0.188235402
0.243516564 0.241492867 0.192156866
0.252624780 0.248197451 0.198861450
0.263630629 0.255028635 0.204553992
0.271600187 0.255661070 0.205818981
0.286780626 0.263757318 0.209361330
0.299177647 0.267931998 0.214041993
0.313978463 0.274383634 0.220113993
0.333207130 0.285515517 0.228209987
0.348892778 0.289057136 0.228969008
0.368121445 0.298165530 0.235041276
0.389753282 0.310689270 0.245667264
0.412903279 0.324225277 0.257178962
0.442252129 0.333839625 0.274383634
0.471347243 0.348386794 0.286527634
0.506261587 0.366223633 0.302466810
0.540164351 0.386717230 0.322201163
0.579253793 0.405818880 0.340923548
0.619228244 0.427071273 0.362681985
0.181151032 0.229475066 0.173560992
0.180139035 0.229475066 0.173814029
0.182795733 0.231625766 0.175458729
0.185579032 0.233144030 0.177482992
0.184946492 0.233144030 0.177229956
0.187982097 0.233144030 0.177229956
0.191777319 0.235673711 0.180012673
0.195066318 0.238709748 0.183048710
0.200126126 0.241745993 0.186843932
0.215306520 0.247817993 0.195951551
0.216445029 0.248576999 0.191524044
0.222517282 0.250347763 0.193295062
0.231372640 0.253383666 0.197090060
0.240481019 0.256926060 0.197849020
0.249588624 0.259962440 0.203921795
0.258949816 0.265148997 0.209994033
0.270588219 0.271221012 0.214294866
0.285515577 0.276913434 0.218216017
0.300696015 0.279949069 0.224288031
0.313598990 0.288298368 0.227071390
0.327893764 0.297659785 0.232511029
0.344845116 0.306767911 0.240101025
0.366097510 0.315749049 0.252118528
0.387349904 0.324730963 0.258317798
0.410879046 0.336116076 0.268691033
0.435167313 0.348260343 0.279443622
0.460215092 0.360658020 0.289817005
0.484503835 0.372802019 0.301961005
0.523718953 0.389752984 0.318911970
0.562934339 0.411258370 0.342947215
0.601264775 0.434914619 0.369765610
0.646806002 0.456167012 0.397090048
0.190259412 0.253763795 0.185704991
0.178115413 0.253763795 0.188741386
0.183554649 0.255914032 0.186843634
0.192662910 0.256420135 0.187602744
0.199620858 0.254396379 0.189247444
0.191018477 0.254396379 0.186337575
0.201644421 0.256926060 0.191397578
0.208601981 0.259962112 0.195192710
0.213282496 0.261480302 0.197469994
0.218342900 0.259961963 0.198987931
0.224794403 0.266033977 0.205186412
0.231625661 0.266792983 0.206704676
0.239595413 0.268564045 0.209234834
0.246553034 0.272106439 0.209993795
0.255661398 0.281214803 0.219101399
0.267172813 0.284250587 0.225174174
0.277166575 0.289436966 0.228210405
0.288172394 0.295508951 0.230740234
0.300696015 0.301201433 0.239468411
0.318659008 0.307020396 0.237191767
0.335610449 0.317520440 0.244908407
0.353194386 0.328020275 0.253763407
0.372169495 0.337001413 0.261226892
0.393421888 0.343074203 0.270335287
0.416951537 0.354332834 0.278811276
0.441239804 0.366476804 0.288551688
0.467046052 0.379127026 0.299683630
0.499683470 0.394054383 0.320176959
0.529285192 0.406198382 0.332320958
0.567488492 0.424920559 0.358127564
0.605439186 0.447691172 0.386717409
0.643769562 0.471347421 0.409234822
0.192157000 0.278051972 0.205059782
0.187223196 0.275648773 0.198482201
0.190132961 0.277799010 0.203668803
0.195445806 0.282099783 0.203921437
0.201897740 0.282099962 0.205818981
0.200885877 0.278051972 0.200758860
0.202277005 0.280582249 0.202909604
0.207843006 0.281973571 0.205692604
0.213156104 0.283491790 0.207969710
0.219481483 0.282100081 0.209613994
0.225427002 0.282985598 0.213029802
0.235546991 0.289057612 0.215053797
0.245034844 0.290954947 0.218849003
0.252625048 0.294243991 0.221884996
0.261733413 0.301201582 0.228842378
0.273244977 0.305502981 0.235546798
0.285388976 0.311574966 0.240101382
0.296015173 0.317900002 0.240986988
0.308159232 0.322200775 0.244781852
0.323466003 0.330676585 0.254775345
0.343579739 0.338646322 0.257431984
0.362302452 0.348260790 0.266539991
0.380518764 0.355977118 0.272612005
0.399493903 0.364326596 0.279443681
0.425300270 0.377229482 0.290828794
0.452498496 0.389500320 0.301454961
0.479316860 0.402150661 0.312586874
0.508918226 0.417331010 0.330044210
0.542061627 0.432257771 0.345730573
0.572422385 0.447944194 0.359645784
0.610879004 0.471220553 0.391018569
0.650347769 0.498544961 0.421379000
0.195192993 0.297786176 0.214168191
0.195192993 0.300822586 0.215686381
0.197722763 0.299051434 0.214294985
0.206831157 0.300822198 0.220366985
0.206831202 0.305629194 0.224035189
0.206451938 0.301834196 0.222517177
0.212523669 0.303352505 0.219481319
0.215433195 0.304744184 0.220872998
0.216192290 0.305503100 0.221632093
0.223782673 0.306261986 0.224667892
0.229981199 0.306261986 0.224667862
0.240101188 0.308792204 0.228715986
0.249968186 0.314864188 0.230992988
0.258949995 0.318026394 0.236812025
0.269323200 0.321568400 0.241619185
0.279316992 0.328273207 0.246173367
0.291460991 0.331309170 0.249209374
0.304237545 0.340417564 0.253510594
0.317267209 0.345224410 0.256166995
0.333712757 0.350790352 0.262745172
0.352688134 0.361416936 0.274130166
0.371916264 0.370525062 0.281214327
0.389879793 0.377103001 0.287792385
0.410879195 0.384820074 0.293864787
0.434408665 0.396964103 0.302973181
0.460341334 0.410752356 0.313725471
0.489943057 0.423909128 0.326755136
0.517267406 0.440101624 0.342947602
0.551422954 0.455281287 0.361164004
0.581530333 0.473750412 0.377862155
0.614547789 0.492852598 0.396584541
0.656420171 0.521315157 0.433522999
0.201897576 0.315496534 0.218089968
0.205566376 0.322707355 0.228336543
0.207337216 0.325743347 0.231878549
0.211005598 0.323339552 0.233776122
0.220113978 0.323719084 0.238330036
0.215306982 0.323972136 0.243389994
0.219987258 0.325869858 0.240606979
0.226438701 0.326628983 0.237823978
0.230740085 0.328020453 0.237950504
0.233776480 0.331056058 0.240986899
0.239721999 0.330550134 0.238836110
0.249209568 0.332574219 0.241872147
0.260341555 0.336748987 0.248576552
0.266919553 0.342821062 0.254142553
0.279063553 0.343580127 0.256799400
0.288171768 0.350158334 0.261733353
0.299430549 0.356230348 0.263251543
0.310309559 0.358633548 0.262618959
0.325489998 0.367741942 0.271726608
0.344086111 0.372548789 0.277166337
0.362935156 0.379380047 0.283997566
0.383428454 0.391145021 0.295129538
0.398861051 0.400252640 0.304111421
0.422643811 0.406831354 0.310183585
0.446299970 0.417457551 0.319797695
0.471853524 0.431499094 0.330803424
0.497659624 0.443643123 0.340923190
0.525236964 0.461606860 0.359013438
0.559266150 0.478431255 0.379253745
0.591650665 0.497153282 0.400000066
0.622517169 0.517773151 0.420872688
0.661986411 0.539025545 0.448197126
0.211005986 0.342821002 0.248450026
0.217077971 0.342821002 0.251486421
0.216445237 0.350031793 0.253131002
0.215180010 0.353067815 0.254396141
0.217077613 0.351043552 0.256546855
0.226185977 0.354079902 0.250474095
0.226439029 0.354332983 0.250474006
0.230486989 0.352941304 0.249968022
0.237065122 0.352435052 0.249968022
0.245920524 0.358380526 0.250094533
0.251866043 0.355597883 0.250221044
0.259962291 0.356862724 0.254016519
0.270462006 0.361037076 0.261227310
0.282100022 0.367109150 0.269322991
0.294243991 0.373181909 0.269322991
0.301580995 0.378748000 0.279190630
0.312460214 0.383554816 0.284503996
0.325489998 0.385958016 0.283871412
0.331562012 0.385958016 0.280835062
0.352308393 0.395066410 0.292726010
0.369512767 0.399873734 0.298418760
0.387223184 0.406705022 0.304237872
0.407969475 0.418469489 0.313219070
0.429221898 0.427577883 0.319291860
0.450727314 0.438710034 0.332194686
0.476407379 0.455028653 0.348260403
0.506768107 0.474003971 0.365212053
0.540164351 0.486147940 0.380392402
0.570398569 0.506767869 0.398481965
0.603036106 0.527514160 0.420493394
0.637697518 0.547881007 0.445161551
0.677165985 0.566350043 0.472486019
0.225680366 0.378494740 0.267678708
0.228969008 0.381277382 0.270714402
0.230740011 0.381277382 0.267299026
0.230866536 0.385958165 0.267299175
0.232384726 0.386337757 0.269955993
0.234282285 0.386970311 0.268690825
0.243390024 0.390006691 0.272738725
0.247438431 0.388615042 0.273244739
0.253510714 0.387855738 0.274762750
0.260594845 0.393927753 0.278810740
0.272359401 0.396837622 0.278810740
0.280455649 0.397849470 0.280835003
0.288425386 0.399746746 0.282732725
0.297280371 0.402529746 0.285009354
0.309424371 0.408601880 0.290069371
0.321568370 0.414674640 0.297280163
0.329917550 0.419228554 0.306008995
0.342567921 0.422264338 0.309171617
0.355091751 0.424415082 0.310436785
0.372295767 0.432763755 0.321315765
0.393548131 0.439974874 0.323971987
0.410499513 0.445920616 0.328273267
0.428462863 0.456166893 0.339152545
0.455028266 0.465275288 0.347880810
0.478557914 0.481214404 0.363061577
0.501707673 0.492979050 0.378747731
0.528779030 0.506641448 0.395066649
0.557621419 0.516508698 0.410246432
0.588361621 0.533965647 0.428083658
0.618722379 0.555091560 0.449841648
0.651992559 0.577229559 0.478557765
0.689563751 0.599241138 0.513472736
0.238962993 0.411132455 0.285894990
0.238203615 0.416065812 0.281341076
0.246679470 0.418848455 0.293105483
0.245414317 0.415053606 0.287033468
0.247185543 0.416318923 0.287792742
0.248703733 0.420872718 0.287792742
0.252498418 0.421505302 0.289057732
0.264895439 0.422896981 0.295129716
0.269449890 0.422390729 0.294876635
0.272106260 0.428462744 0.297533005
0.283997715 0.433523327 0.301580995
0.292220265 0.434661925 0.303605258
0.303605616 0.436559200 0.307779968
0.312207699 0.437065184 0.307526737
0.322706997 0.443137169 0.311954439
0.336748719 0.447311610 0.318532526
0.351929128 0.453383982 0.324604541
0.362808436 0.457431853 0.330929577
0.376723707 0.461733431 0.336495966
0.392789483 0.466540128 0.340291023
0.411005467 0.475648195 0.348639995
0.430233866 0.481720716 0.349651873
0.445920199 0.489816457 0.360910982
0.473244637 0.497153640 0.371789843
0.494496793 0.511195481 0.383934289
