Assets/Resources/EldamarStudio/100 Horror LUTs Pack/LUTs/cube/Rezixed LUT.cube
DOMAIN_MIN 0 0 0
DOMAIN_MAX 1 1 1
LUT_3D_SIZE 32
0.066666998 0.043136999 0.043136999
0.063630611 0.040101387 0.040101387
0.067046002 0.043517001 0.043517001
0.074383162 0.048323840 0.048323840
0.082353003 0.050980002 0.050980002
0.082353003 0.050980002 0.050980002
0.089943320 0.053510323 0.056040645
0.097406998 0.054901998 0.060468286
0.103478998 0.056419998 0.062744997
0.109551005 0.062491998 0.062744997
0.121441990 0.062744997 0.065654866
0.129538000 0.066792995 0.070714995
0.139025643 0.074003644 0.076787002
0.153700039 0.082606032 0.082859002
0.162808418 0.085642412 0.088930994
0.169512987 0.086274996 0.092599802
0.180139184 0.090828799 0.095635802
0.194686979 0.099303991 0.099936567
0.206831023 0.105376005 0.109044969
0.218975008 0.111448005 0.109803997
0.233016729 0.119417734 0.117393985
0.247185260 0.128526121 0.126502126
0.259709477 0.137507990 0.129917979
0.280961901 0.143580005 0.142062008
0.299936980 0.154205993 0.151929289
0.319544643 0.166350335 0.161037311
0.340797067 0.178494990 0.170145065
0.362049431 0.190638989 0.179253444
0.391271621 0.208095953 0.193674803
0.419861138 0.226312399 0.212397158
0.447185576 0.248070955 0.232763961
0.474510014 0.278430998 0.250979990
0.066666998 0.049209002 0.046173386
0.063630611 0.040101387 0.040101387
0.071346998 0.043517001 0.043517001
0.076660000 0.047059000 0.047059000
0.080075711 0.048703384 0.048703384
0.085389383 0.054016385 0.054016385
0.090449385 0.054016385 0.056546707
0.100695990 0.058190994 0.063757285
0.108033001 0.060973998 0.067299001
0.109551005 0.062492006 0.062745005
0.121441990 0.068563998 0.068563998
0.131562248 0.070841253 0.071726866
0.140923396 0.075901389 0.076787002
0.153953001 0.082859002 0.083112031
0.165844023 0.088678025 0.091967382
0.174952418 0.091714412 0.098039381
0.184692994 0.095382996 0.100189999
0.197090194 0.101707809 0.102340378
0.206831023 0.105376013 0.109044977
0.218975008 0.117014714 0.115370005
0.231119469 0.123592764 0.119670987
0.246173367 0.131562263 0.127513990
0.262492090 0.140543640 0.132700607
0.277925521 0.146616399 0.139025614
0.301454604 0.157242388 0.153446883
0.321188927 0.170778051 0.164073288
0.341302991 0.184060931 0.173181459
0.365085036 0.193674609 0.182289839
0.386337399 0.211132258 0.199367359
0.413788795 0.229348332 0.214927182
0.443769932 0.248450205 0.232763961
0.477545619 0.272359014 0.250979990
0.064516224 0.055281550 0.049209226
0.067931615 0.050474387 0.047438227
0.075648546 0.047818001 0.047818001
0.082732551 0.051360000 0.051360000
0.083871000 0.051739547 0.051360000
0.091714092 0.056040771 0.053889997
0.093485229 0.061353773 0.057432320
0.099557221 0.061353773 0.060468286
0.109171227 0.064895771 0.067046091
0.111954235 0.064895779 0.065148778
0.125742987 0.072865002 0.072865002
0.135863245 0.076913260 0.076913260
0.142694637 0.079949647 0.079949647
0.151802778 0.085009769 0.085009769
0.163946763 0.091081768 0.092220411
0.173687577 0.094750032 0.094623990
0.184313774 0.100822419 0.102213800
0.196457759 0.106894419 0.104111224
0.207083985 0.109930038 0.107147232
0.218975008 0.117014721 0.115370005
0.234914467 0.125363991 0.119544737
0.247564986 0.132447869 0.126375645
0.263503999 0.141555503 0.133712500
0.280708700 0.149652034 0.141808778
0.302719772 0.160278216 0.154712051
0.322833419 0.172422558 0.165717766
0.340797067 0.186844066 0.174572989
0.363440752 0.199241087 0.185325667
0.387222797 0.216318637 0.198102742
0.417330325 0.234534934 0.216318727
0.445793778 0.254522175 0.233649582
0.478430986 0.277039796 0.253130764
0.069070160 0.061353996 0.052245162
0.072612159 0.058317609 0.050980002
0.076660223 0.058697160 0.050600778
0.086274996 0.058697160 0.053636838
0.087033994 0.059456158 0.054775383
0.095256224 0.063377932 0.057431996
0.098039001 0.067678839 0.059962317
0.102593154 0.070461839 0.062998287
0.109424256 0.071220934 0.066034093
0.116002329 0.071727000 0.069070488
0.125742868 0.076660290 0.074130289
0.138140082 0.081720419 0.080455258
0.147248477 0.084756516 0.084629998
0.151549876 0.088298872 0.087792866
0.164705992 0.095382996 0.092852995
0.175711632 0.100316353 0.097912833
0.182542995 0.105123192 0.097406961
0.194054574 0.112966575 0.105882145
0.205566183 0.116002358 0.107147172
0.221505329 0.121821716 0.116761364
0.236179307 0.129158825 0.124604732
0.251359969 0.134218961 0.126628995
0.263756990 0.142947152 0.135104150
0.284250826 0.153193906 0.145350903
0.303225815 0.164579317 0.157748118
0.325869501 0.176723316 0.170018986
0.341049910 0.188867986 0.175078988
0.360784262 0.203289270 0.184186995
0.388488293 0.222390950 0.201391652
0.413535476 0.240607262 0.213282779
0.449082702 0.258823305 0.233270019
0.477166146 0.282353014 0.254902005
0.083491549 0.067805447 0.056040544
0.083491549 0.065148607 0.053383708
0.081340775 0.065654770 0.050347775
0.082099773 0.067805447 0.049841933
0.087413445 0.068184994 0.052877545
0.093485452 0.074256994 0.061985932
0.097406678 0.077798776 0.066034317
0.103731699 0.079190098 0.068690836
0.112460546 0.079569645 0.071726546
0.121568933 0.082606032 0.074762933
0.125616670 0.083491549 0.075648546
0.134724542 0.085515708 0.079696544
0.144971192 0.088551894 0.084629998
0.154079512 0.091840543 0.090701997
0.169006854 0.100822411 0.093864866
0.182162985 0.107526995 0.101707734
0.190512195 0.113598995 0.105123192
0.194813579 0.119038574 0.103984989
0.203922004 0.122074977 0.110057011
0.223403364 0.128273457 0.120556556
0.240101248 0.135483801 0.130423725
0.254775137 0.143326685 0.137634456
0.264136493 0.146616027 0.137887478
0.287666261 0.158507019 0.149525553
0.305502683 0.170651585 0.160910547
0.323465645 0.182416439 0.172042653
0.344465077 0.194940001 0.181151003
0.359645426 0.207084000 0.181151003
0.388867915 0.226438791 0.200506076
0.416319162 0.245920390 0.217077747
0.441113561 0.264895976 0.230992734
0.474510014 0.283112019 0.255281538
0.092599936 0.076913066 0.065148935
0.092599936 0.076913066 0.065148935
0.090449162 0.074256778 0.062492095
0.091207936 0.074762836 0.061986156
0.096521065 0.077292614 0.065022320
0.096521065 0.080329001 0.068057939
0.102593057 0.083871320 0.072106317
0.109803706 0.085262865 0.073497996
0.118152991 0.085262865 0.074762836
0.124604546 0.085642420 0.077798553
0.133712932 0.091587931 0.083744802
0.143832922 0.094623677 0.088804930
0.152561575 0.097659707 0.091461293
0.157115906 0.100948937 0.090701997
0.166223511 0.107020929 0.096773997
0.181150854 0.113598995 0.104743861
0.192789197 0.119670987 0.109297931
0.200885579 0.125110567 0.110056989
0.209993988 0.128146976 0.116129011
0.224668369 0.136748657 0.119418360
0.237065256 0.141555801 0.125869930
0.251233131 0.147628069 0.133459866
0.270208508 0.155724406 0.140923083
0.285388917 0.164832026 0.146995872
0.304364055 0.176723570 0.154079944
0.323465645 0.187476307 0.163946912
0.344718069 0.198102131 0.175584987
0.365717441 0.213155985 0.187223002
0.383554637 0.227956802 0.195192829
0.411385417 0.245920390 0.212144017
0.441113561 0.265907943 0.231498793
0.474510014 0.289184004 0.258317918
0.096647680 0.088551641 0.074256673
0.096647680 0.088551641 0.074256673
0.096647680 0.088551641 0.074256673
0.096521161 0.088425159 0.074130163
0.101707771 0.091081321 0.077166550
0.108158998 0.091966935 0.080202699
0.110689320 0.095003322 0.083238319
0.116761312 0.098039284 0.084629998
0.124984093 0.098924674 0.085389093
0.132827312 0.098924674 0.088425167
0.139278874 0.099683672 0.091840416
0.146363005 0.103731930 0.095888928
0.155218005 0.107906319 0.099178001
0.160404742 0.112334028 0.098292321
0.171790212 0.116129316 0.104364313
0.180897832 0.122201316 0.110436313
0.195825189 0.128273323 0.116382189
0.206957579 0.134345308 0.118659310
0.216065973 0.139278978 0.124731325
0.228210047 0.145350978 0.128020033
0.241492659 0.152561322 0.132953659
0.253257126 0.158254132 0.141049936
0.271347016 0.167235985 0.151549637
0.288931221 0.173940420 0.157621816
0.306388319 0.185325310 0.165971279
0.324604303 0.197470009 0.172296301
0.345730186 0.208728716 0.182163313
0.371031076 0.223909080 0.194307312
0.394686639 0.244149432 0.208855137
0.419987351 0.259329379 0.223276258
0.453004569 0.279443234 0.243263513
0.489690006 0.305375993 0.268943995
0.098039001 0.100695990 0.080075711
0.098039001 0.100695990 0.080075711
0.106261700 0.102340281 0.085009411
0.103731699 0.102340281 0.083744250
0.105629444 0.104237542 0.085641995
0.112207063 0.102972701 0.087413222
0.117900029 0.107147314 0.092093676
0.119291708 0.108538993 0.093484998
0.127640605 0.111574799 0.095002994
0.138519764 0.112460412 0.098924764
0.146363005 0.114104696 0.098671839
0.150790706 0.116128951 0.101707540
0.156862721 0.118026696 0.104743928
0.163187757 0.122833669 0.105249994
0.173940822 0.125869706 0.108538993
0.185325906 0.131309271 0.114610992
0.195951715 0.137381658 0.122201189
0.209107995 0.143453687 0.124857992
0.217204273 0.149525717 0.128905997
0.232384726 0.155597702 0.135483637
0.244528696 0.161669701 0.142061695
0.258696675 0.167741701 0.148133695
0.274636000 0.176343977 0.158760279
0.292852819 0.185451999 0.164832294
0.311068982 0.196078405 0.173181564
0.327893645 0.208222389 0.180898264
0.347374767 0.220873058 0.187982410
0.374699622 0.236053437 0.200126708
0.399367660 0.254902065 0.214927092
0.423908651 0.275901437 0.226944938
0.453383863 0.292852283 0.246932194
0.489816308 0.318658710 0.271221012
0.104870088 0.112081096 0.086148098
0.100316100 0.113599092 0.086148098
0.109550871 0.114231326 0.090322778
0.115875900 0.117520094 0.095888838
0.111321993 0.117520094 0.092473000
0.114737257 0.114863932 0.091714002
0.121062540 0.117899999 0.096015096
0.124605000 0.121442094 0.099556997
0.126882091 0.121442094 0.100316100
0.142061710 0.124478482 0.106388099
0.151422873 0.127514124 0.106008872
0.156483263 0.130550265 0.107020929
0.161417097 0.133207098 0.110056639
0.167489097 0.133207098 0.112587027
0.176091403 0.135736778 0.112081096
0.187602982 0.141176194 0.117646992
0.197470099 0.147248387 0.122201189
0.210246503 0.153320998 0.131309405
0.216698021 0.159393013 0.131688908
0.232384726 0.165464997 0.140037745
0.247565091 0.172296092 0.148386732
0.260973990 0.178368092 0.155724093
0.279190004 0.184693083 0.161796093
0.297406822 0.196837097 0.167868093
0.315622985 0.208981663 0.176217377
0.333965659 0.220366985 0.183934078
0.350158066 0.233017057 0.192030087
0.376976401 0.248197436 0.204680786
0.402403533 0.265275091 0.219481215
0.428210020 0.286021143 0.233396381
0.453383654 0.307273567 0.246932179
0.480708092 0.328525990 0.271221012
0.132194489 0.121189490 0.101328492
0.113978490 0.127261490 0.101328492
0.115876265 0.126628712 0.101328492
0.118912168 0.127640486 0.102972850
0.114357620 0.132700488 0.104617007
0.120430395 0.132700503 0.098545015
0.128905639 0.132574007 0.100316331
0.134598225 0.134471714 0.103478774
0.139026091 0.136622503 0.106388099
0.148134485 0.136622488 0.109424494
0.157495096 0.139658138 0.115496486
0.162555262 0.142694280 0.119165264
0.167868644 0.145730659 0.122201324
0.176597476 0.148387492 0.124731027
0.182669476 0.148387492 0.121695429
0.193674982 0.153320983 0.128399670
0.201265201 0.159392983 0.131309196
0.207210898 0.165465012 0.131309420
0.222390532 0.171537027 0.140417054
0.234408706 0.177609012 0.149145871
0.248703733 0.185578749 0.156356484
0.263757348 0.193548501 0.161543131
0.279190004 0.199873477 0.164832503
0.297406822 0.212017477 0.170904487
0.315622985 0.224162057 0.179253772
0.335230649 0.234914795 0.186970472
0.356230080 0.245161071 0.195066482
0.377482414 0.260341436 0.213282481
0.404300779 0.275521815 0.228589326
0.433269888 0.296141416 0.245540872
0.462492049 0.319417566 0.265148938
0.489816487 0.340669990 0.289436996
0.124604873 0.136116132 0.110689126
0.123845875 0.136369124 0.110689126
0.124984100 0.140290901 0.112839900
0.127767131 0.140037864 0.113599002
0.123592414 0.142441422 0.114990413
0.132194862 0.144971743 0.116508737
0.133206993 0.144971743 0.110436097
0.141176566 0.146616027 0.113978542
0.147501871 0.149652094 0.118279643
0.154459476 0.151802868 0.121315479
0.154839009 0.151802868 0.121441990
0.161922872 0.156862736 0.123466000
0.168121651 0.159645870 0.125616774
0.177229956 0.161164001 0.128905863
0.185958117 0.166476995 0.133839414
0.196837723 0.168880805 0.133206993
0.208981857 0.175964683 0.140797064
0.216824979 0.182163000 0.144592285
0.225173920 0.183681011 0.149145931
0.240354240 0.189752996 0.155470893
0.258317709 0.197722733 0.162554979
0.274509966 0.206831127 0.169639125
0.287665844 0.214800864 0.176470518
0.300315946 0.221378878 0.179759875
0.318532705 0.233522862 0.185831875
0.336748838 0.247058779 0.194307655
0.358001143 0.260214925 0.204427943
0.386464268 0.275395304 0.225047722
0.402403682 0.290575683 0.237950712
0.432258010 0.307526797 0.249336064
0.463757187 0.331309050 0.267678946
0.493105859 0.358633757 0.296014994
0.125616997 0.149272516 0.119797252
0.125616997 0.155344248 0.123845249
0.130044490 0.155470759 0.119923770
0.132827267 0.157241985 0.121694997
0.129032254 0.157241985 0.122074544
0.139784932 0.158633679 0.125110924
0.143327251 0.161163986 0.126628608
0.148260534 0.161163986 0.125489950
0.155091733 0.163061246 0.129664987
0.158633739 0.164832473 0.131435767
0.164958984 0.169006988 0.131562248
0.166983247 0.171031237 0.133585989
0.173055261 0.174826249 0.134724632
0.181277961 0.174826249 0.137761027
0.190385580 0.177356243 0.142062247
0.201897591 0.185072541 0.145350993
0.214041978 0.188108921 0.148386985
0.225553572 0.195572242 0.155724317
0.233017266 0.198355272 0.158760309
0.245414376 0.203921258 0.166603521
0.258696973 0.209993243 0.168880507
0.277545869 0.218975127 0.176723495
0.290954977 0.227956980 0.186590731
0.306894004 0.234028995 0.189626634
0.323592573 0.246679232 0.196963996
0.340417653 0.260214895 0.204427660
0.359013259 0.275901258 0.214548051
0.386337608 0.292599440 0.232764423
0.409487814 0.309804082 0.248071223
0.429980934 0.326755196 0.260215223
0.462618530 0.347627819 0.274003923
0.494118005 0.376850009 0.302087009
0.131688997 0.164832637 0.128905639
0.131688997 0.170524895 0.132700637
0.134851351 0.174319640 0.133586004
0.139279008 0.175458282 0.131182641
0.133586451 0.175078735 0.130803093
0.141935363 0.174319640 0.132321283
0.147628322 0.176849961 0.133080319
0.151676282 0.179379985 0.136116073
0.161542997 0.180139080 0.139911547
0.163060993 0.180518627 0.140670642
0.170651510 0.184060648 0.139532000
0.175711617 0.188108906 0.141556025
0.182163343 0.192283630 0.144591644
0.188488379 0.192536592 0.147881001
0.197596222 0.193421990 0.151802763
0.207969606 0.199493825 0.155977190
0.220113993 0.205565825 0.158253998
0.230992988 0.208602220 0.163693577
0.239595339 0.214168310 0.166729987
0.253763646 0.221378654 0.174193725
0.265907645 0.226312280 0.179886341
0.280075639 0.233396411 0.181910336
0.295382500 0.242631271 0.193801373
0.312586635 0.250727296 0.199873388
0.331941575 0.262491912 0.207463279
0.348766655 0.278810620 0.217710316
0.364959061 0.293991059 0.227324635
0.388614625 0.311574608 0.241872430
0.411764652 0.329791278 0.255914152
0.437191576 0.348007560 0.272738934
0.466792822 0.367994815 0.288425177
0.500949025 0.395066291 0.312713295
0.138014033 0.186337993 0.138266996
0.138520032 0.186085030 0.138266996
0.139152259 0.188488290 0.140164256
0.142694205 0.191018164 0.142947167
0.145983487 0.193548486 0.145730510
0.142947093 0.190512091 0.142694116
0.146995604 0.192283317 0.139405355
0.152435318 0.195572317 0.140164316
0.156483054 0.198608130 0.143453151
0.168627053 0.201644525 0.149525926
0.174952731 0.201771036 0.147375166
0.179506734 0.203795299 0.148134261
0.185705036 0.207717001 0.151423395
0.197343037 0.213789001 0.154712036
0.206451416 0.216824606 0.160784036
0.215559795 0.221758023 0.166603059
0.226439029 0.226565182 0.169892028
0.237824023 0.229601577 0.170777574
0.243896067 0.232637972 0.173813969
0.260341704 0.241239727 0.179886043
0.274762988 0.247058734 0.185705066
0.288678020 0.251866162 0.192030028
0.306641012 0.261227489 0.198102057
0.321694911 0.273497999 0.209993854
0.341176331 0.285642058 0.219860733
0.359645635 0.300569028 0.230360359
0.376344085 0.318026096 0.242505029
0.397596449 0.333206445 0.254649013
0.418848813 0.351043671 0.267299026
0.444149196 0.369512975 0.283997148
0.474889159 0.389753193 0.306135178
0.517394006 0.414042026 0.330424011
0.147122413 0.210625976 0.150410995
0.153194413 0.207590371 0.150410995
0.142947629 0.211638391 0.150410995
0.141682580 0.213282645 0.151043415
0.149525866 0.211890981 0.152055547
0.158127472 0.211764455 0.154838890
0.157621413 0.211258397 0.149272829
0.167109281 0.215179980 0.152055696
0.175205499 0.219860494 0.157621413
0.174699828 0.222896889 0.158633545
0.181024820 0.223023400 0.161796451
0.189120725 0.225047663 0.161543414
0.196963638 0.228083760 0.164453000
0.206451416 0.232004985 0.169892401
0.212523401 0.238076985 0.175964400
0.221631795 0.238709390 0.179633215
0.233776182 0.243010402 0.183301628
0.247691393 0.247817561 0.186337397
0.259076416 0.250853956 0.192029953
0.267931759 0.259456336 0.200632334
0.280834973 0.268564075 0.205313146
0.293991148 0.275395244 0.211005688
0.309677392 0.282479852 0.219354421
0.321821421 0.297659487 0.225427210
0.339152575 0.309930563 0.235041112
0.356609732 0.324857771 0.245540738
0.373813778 0.342061788 0.257685393
0.400632828 0.354458809 0.269829392
0.421885192 0.372296035 0.287286371
0.450221539 0.392283559 0.300695330
0.481467366 0.414674371 0.318279177
0.514357567 0.441366404 0.342567980
0.153826997 0.234914601 0.167362601
0.159898996 0.229475170 0.160151809
0.155218229 0.230740011 0.164452806
0.151928991 0.232764140 0.166223958
0.161416724 0.230866596 0.166983053
0.166476861 0.234914601 0.165970936
0.167994797 0.234914601 0.166223988
0.167994797 0.234914601 0.163440987
0.177862093 0.238709494 0.169512793
0.181404471 0.241745472 0.172801793
0.189500183 0.241871983 0.175711662
0.195572704 0.243896246 0.176723793
0.202023968 0.246932626 0.177862152
0.208855003 0.250221580 0.182922021
0.219227985 0.256293595 0.191144794
0.230107605 0.262365580 0.192409799
0.237697795 0.262365580 0.195446178
0.250853986 0.266666591 0.199747011
0.266539991 0.271473765 0.207589805
0.273497552 0.277672350 0.209234357
0.284503669 0.284882993 0.218342721
0.299683928 0.295508921 0.224415123
0.317520767 0.306008965 0.233396590
0.329664797 0.318911880 0.239468798
0.344086051 0.331815362 0.250094980
0.363567650 0.343959749 0.260720789
0.382289588 0.360657871 0.273371249
0.407716513 0.378494561 0.287412971
0.427324772 0.393548429 0.292852789
0.450347930 0.415306687 0.314610720
0.486274332 0.437191576 0.333712369
0.525742769 0.461479992 0.359518975
0.158380806 0.256166995 0.177988797
0.167489186 0.254649192 0.176470608
0.164326221 0.255028397 0.175079003
0.157748148 0.256799191 0.179886162
0.169006735 0.254395992 0.182542995
0.176597133 0.258190989 0.180645242
0.175584987 0.257685184 0.178620994
0.180139184 0.259202987 0.181656986
0.180898085 0.259962082 0.182416081
0.188488290 0.262997895 0.187729180
0.197596326 0.263124377 0.190892056
0.204680309 0.266666442 0.191904187
0.209614441 0.269702822 0.193042547
0.212903187 0.272739142 0.196078226
0.222517177 0.277545959 0.202656612
0.234661400 0.282100201 0.204554200
0.245287985 0.288172185 0.207590178
0.251992583 0.288804591 0.211258978
0.267552197 0.293990970 0.219481230
0.279190391 0.301581204 0.221758381
0.289057463 0.310689181 0.225932926
0.301201969 0.316761434 0.235041052
0.320809782 0.330297381 0.244149297
0.335736811 0.342441380 0.251612991
0.351676255 0.354585528 0.260721177
0.368247956 0.368121624 0.274256825
0.388867944 0.381404191 0.286527365
0.411132187 0.401644409 0.300695598
0.434661627 0.417583793 0.312839806
0.459456295 0.438077301 0.323719114
0.485515326 0.462365329 0.348892748
0.530296981 0.484250188 0.376217186
0.163946569 0.276280552 0.185452133
0.173561186 0.278684348 0.190259129
0.173434600 0.281720370 0.190765142
0.169259727 0.283491135 0.191397741
0.166983038 0.283491135 0.194054574
0.181151360 0.283491135 0.194054574
0.182416260 0.282226264 0.192789242
0.185958117 0.281846821 0.194054142
0.193548486 0.283617646 0.198734671
0.196584105 0.286654055 0.201771066
0.204806879 0.288678139 0.204174861
0.213155985 0.292093545 0.206451982
0.219354615 0.297027171 0.208222926
0.222643971 0.299810529 0.211258605
0.228715971 0.302466691 0.214294985
0.238329977 0.306767762 0.214927569
0.249588773 0.310689539 0.217963561
0.258064568 0.315496534 0.223402977
0.267172992 0.318532169 0.229474992
0.280582368 0.327766895 0.232764348
0.294497401 0.337507546 0.238330558
0.306641579 0.348892808 0.245414421
0.318912059 0.354965538 0.254522055
0.336622000 0.366097569 0.263630450
0.354205996 0.378874123 0.272738844
0.373687565 0.393042177 0.283997625
0.392409652 0.408222616 0.299683958
0.410752892 0.426312119 0.312080950
0.436306179 0.442504346 0.328273118
0.466666758 0.462997913 0.347880721
0.496394932 0.486654103 0.364705712
0.526754975 0.510942161 0.392030150
0.179126963 0.303605020 0.209740952
0.179126963 0.303605020 0.209740952
0.177988812 0.306008816 0.205945954
0.175964952 0.307779968 0.202909961
0.176091433 0.307779998 0.203162998
0.179127038 0.307779968 0.203162998
0.183175370 0.310309649 0.205692679
0.188994259 0.311195016 0.208222717
0.196584150 0.310689092 0.210752964
0.199620500 0.307906508 0.210879490
0.205565974 0.316761881 0.211006001
0.215939000 0.321062714 0.215307027
0.226438642 0.324351668 0.220873028
0.234788001 0.327134997 0.226439029
0.240860000 0.327135026 0.229475409
0.246932000 0.334598184 0.230107993
0.256546378 0.340164214 0.233143985
0.267172962 0.342821002 0.238583416
0.273244977 0.342821032 0.241619036
0.282353401 0.354205996 0.244908392
0.295762271 0.362302005 0.251739770
0.309677303 0.370904297 0.260594875
0.321948439 0.382290006 0.269702494
0.337128103 0.388362020 0.278810918
0.352561295 0.401771277 0.287919283
0.372169346 0.418089956 0.298418969
0.395446062 0.435547054 0.311828017
0.416698426 0.450727403 0.330044001
0.440353960 0.468816936 0.342441678
0.471979409 0.490322411 0.365717888
0.505249619 0.513725638 0.391271174
0.532827020 0.535230994 0.410246968
0.177609354 0.333712727 0.222897008
0.180391997 0.336496085 0.225680366
0.182542771 0.338646322 0.227830589
0.185831845 0.341682553 0.227451190
0.190006196 0.342821211 0.228589833
0.188235417 0.340417385 0.226186022
0.191271037 0.342947692 0.228716344
0.195952073 0.344339073 0.228463009
0.203921616 0.344339073 0.229222119
0.211005494 0.343327224 0.231246367
0.211384997 0.351928890 0.236812383
0.217457011 0.352941304 0.236812383
0.226944640 0.355597734 0.241366372
0.236053035 0.360278398 0.246932372
0.244655356 0.362808764 0.247438431
0.255534351 0.367615759 0.252878010
0.263883531 0.373307884 0.256673008
0.274762988 0.376976371 0.261480033
0.285136014 0.381277382 0.262365431
0.296774030 0.386844069 0.270967752
0.305882424 0.400885314 0.274004132
0.318279356 0.410625875 0.281341255
0.330676645 0.420619905 0.290448874
0.348513812 0.424035758 0.299557269
0.365970701 0.434661746 0.313219666
0.384440005 0.449336022 0.326123029
0.406831086 0.465654820 0.339658737
0.428083420 0.480835170 0.353320718
0.451992631 0.501328528 0.374193519
0.481593847 0.521442235 0.390259326
0.517899930 0.543833315 0.413029581
0.552814364 0.565085709 0.431246370
0.178368255 0.365970731 0.246426463
0.179506615 0.372802109 0.245667368
0.188235030 0.372042954 0.248703688
0.186211422 0.373813719 0.249209300
0.191903740 0.375458539 0.250980526
0.196457937 0.372422546 0.250980526
0.192789420 0.378241777 0.249209300
0.194180742 0.379633456 0.250600994
0.202024356 0.380392373 0.250094712
0.213409260 0.381530702 0.254269481
0.219480991 0.384566605 0.254522741
0.223529458 0.391270995 0.260341734
0.229601473 0.390512347 0.261480093
0.237697735 0.395319462 0.266540021
0.245161414 0.396711141 0.268184751
0.256672978 0.402150750 0.269196749
0.268816978 0.408222735 0.276786923
0.279569805 0.412903041 0.283238471
0.292979002 0.420240223 0.285768479
0.301328003 0.426312417 0.292220086
0.313472480 0.432384700 0.297532976
0.324604601 0.443516582 0.301581502
0.337760478 0.450853944 0.309930444
0.354206055 0.457431883 0.320809633
0.372422725 0.465401709 0.332574278
