Assets/Resources/EldamarStudio/100 Horror LUTs Pack/LUTs/cube/Rezixed LUT.cube
LUT_3D_SIZE 8
DOMAIN_MIN 0.000000 0.000000 0.000000
DOMAIN_MAX 0.903226 0.903226 0.903226
0.066666998 0.043136999 0.043136999
0.082353003 0.050980002 0.050980002
0.103478998 0.056419998 0.062744997
0.139025643 0.074003644 0.076787002
0.180139184 0.090828799 0.095635802
0.233016729 0.119417734 0.117393985
0.299936980 0.154205993 0.151929289
0.391271621 0.208095953 0.193674803
0.083491549 0.067805447 0.056040544
0.087413445 0.068184994 0.052877545
0.112460546 0.079569645 0.071726546
0.144971192 0.088551894 0.084629998
0.190512195 0.113598995 0.105123192
0.240101248 0.135483801 0.130423725
0.305502683 0.170651585 0.160910547
0.388867915 0.226438791 0.200506076
0.104870088 0.112081096 0.086148098
0.111321993 0.117520094 0.092473000
0.126882091 0.121442094 0.100316100
0.161417097 0.133207098 0.110056639
0.197470099 0.147248387 0.122201189
0.247565091 0.172296092 0.148386732
0.315622985 0.208981663 0.176217377
0.402403533 0.265275091 0.219481215
0.131688997 0.164832637 0.128905639
0.133586451 0.175078735 0.130803093
0.161542997 0.180139080 0.139911547
0.182163343 0.192283630 0.144591644
0.220113993 0.205565825 0.158253998
0.265907645 0.226312280 0.179886341
0.331941575 0.262491912 0.207463279
0.411764652 0.329791278 0.255914152
0.158380806 0.256166995 0.177988797
0.169006735 0.254395992 0.182542995
0.180898085 0.259962082 0.182416081
0.209614441 0.269702822 0.193042547
0.245287985 0.288172185 0.207590178
0.289057463 0.310689181 0.225932926
0.351676255 0.354585528 0.260721177
0.434661627 0.417583793 0.312839806
0.178368255 0.365970731 0.246426463
0.191903740 0.375458539 0.250980526
0.202024356 0.380392373 0.250094712
0.229601473 0.390512347 0.261480093
0.268816978 0.408222735 0.276786923
0.313472480 0.432384700 0.297532976
0.372422725 0.465401709 0.332574278
0.460341632 0.527893782 0.390891790
0.171916425 0.527640820 0.355470985
0.184566543 0.533965588 0.359898537
0.202277094 0.543200612 0.360657543
0.237697646 0.555724263 0.377988577
0.288045257 0.566729784 0.392789245
0.342441410 0.583680987 0.411132008
0.415559530 0.607336879 0.445287853
0.516761482 0.647817791 0.490195900
0.284629375 0.723465919 0.535357416
0.304111242 0.730676591 0.538266897
0.326502383 0.735357404 0.545224488
0.369892031 0.737634361 0.554965377
0.426691592 0.745856941 0.570904434
0.488425165 0.763314486 0.590638697
0.565211535 0.773687601 0.616951466
0.642757535 0.786211550 0.645161390
0.081594005 0.047438450 0.059582997
0.082732551 0.047438450 0.059203453
0.104237899 0.063504092 0.068184994
0.140291095 0.080708288 0.090954997
0.177862197 0.104237802 0.106135540
0.227577537 0.129664540 0.134598181
0.294749826 0.160151735 0.161796451
0.382416070 0.210625976 0.201265275
0.076407544 0.071346998 0.063883543
0.095256448 0.072485544 0.079949096
0.116002090 0.084630094 0.085009545
0.137507647 0.096774347 0.094370544
0.179759547 0.113978542 0.116381735
0.235799983 0.138646096 0.137128294
0.292852551 0.172928289 0.165085286
0.386084765 0.222264364 0.210119814
0.102213643 0.110056639 0.091208443
0.116002090 0.116381645 0.107400000
0.134471551 0.124225453 0.104617454
0.160278454 0.131182656 0.118658729
0.193801641 0.147248283 0.132700741
0.244402170 0.173055187 0.156230360
0.308918536 0.206704378 0.189120740
0.396205246 0.266034186 0.232890502
0.127640903 0.169133186 0.125616536
0.139911547 0.173055097 0.137887195
0.160278454 0.177735284 0.144212186
0.179759532 0.185958534 0.151170090
0.218216538 0.205945373 0.166856185
0.265022010 0.225047544 0.182416081
0.324098289 0.268437445 0.214800835
0.408602029 0.331815153 0.266034454
0.159772083 0.253004402 0.180898190
0.167488545 0.255660832 0.177735284
0.184945986 0.259962082 0.191524550
0.211891443 0.267425835 0.197722822
0.244022816 0.284250200 0.210752994
0.288677901 0.307653189 0.228209734
0.344465375 0.354206026 0.266540200
0.432637513 0.420619816 0.323339343
0.181783795 0.366350442 0.253510267
0.183807731 0.372169524 0.252118975
0.200379536 0.377988636 0.256293535
0.228083283 0.387855917 0.263757169
0.269196540 0.406198442 0.285009474
0.309930533 0.426945031 0.300442636
0.370019019 0.462492168 0.340417296
0.462997943 0.531309247 0.400252700
0.163567275 0.532194853 0.361164004
0.178874299 0.536748827 0.363061249
0.196331337 0.545856953 0.371157318
0.240481004 0.551802576 0.380898267
0.283870846 0.570145309 0.395066440
0.346236527 0.586211264 0.418469340
0.425173819 0.611258864 0.455660999
0.515369594 0.650474489 0.504111350
0.277292937 0.720935583 0.530170798
0.292219937 0.725489855 0.529664576
0.320556372 0.725996077 0.541176319
0.366603106 0.731815279 0.555218160
0.421125859 0.742947578 0.572928369
0.485515624 0.755471170 0.590259314
0.561669588 0.770904183 0.614547431
0.649968386 0.786591053 0.648197114
0.087792993 0.048576999 0.085389003
0.090955094 0.051739097 0.087792903
0.112081088 0.067425899 0.100316092
0.142568097 0.081467189 0.102213547
0.183427989 0.108917996 0.124604993
0.226691723 0.134345353 0.146489471
0.293738276 0.171537280 0.183174983
0.378874034 0.217963219 0.228589550
0.088172451 0.078431100 0.098798096
0.096015446 0.076407447 0.098418549
0.116002090 0.090955094 0.107400090
0.144591749 0.101074994 0.117520280
0.187729433 0.124225453 0.136369094
0.238583446 0.148513734 0.161417007
0.301454782 0.182415992 0.196963832
0.382795632 0.233775914 0.231245890
0.112081096 0.113599092 0.112839997
0.119165100 0.119924091 0.125869542
0.137887180 0.136369199 0.137128085
0.164958745 0.142188460 0.141429543
0.197470099 0.158254281 0.154332891
0.253510654 0.182163358 0.183301985
0.311069012 0.216192096 0.212397188
0.393801630 0.266539931 0.256672978
0.136748642 0.181404442 0.158254191
0.144212186 0.185325548 0.155092001
0.162935093 0.191524640 0.163314536
0.192789286 0.198229089 0.175078735
0.222137839 0.213030085 0.184819996
0.267552346 0.236432374 0.206324831
0.328905463 0.274383426 0.236053005
0.408475518 0.332574368 0.288425028
0.166224003 0.262365282 0.206071988
0.171283722 0.260341644 0.207210645
0.188867986 0.267046392 0.211385086
0.206451535 0.276786745 0.221252650
0.242884189 0.290575355 0.232637182
0.287159830 0.313472450 0.251739532
0.345477551 0.360025197 0.286653996
0.435420454 0.425679833 0.342441529
0.186337739 0.376343727 0.278937399
0.186211258 0.376976728 0.274383545
0.206198901 0.383934200 0.281467736
0.230866641 0.397343725 0.291713923
0.263251007 0.412903190 0.306514949
0.307526737 0.432511210 0.326502174
0.367236078 0.473624378 0.355344534
0.463504016 0.535736799 0.417204440
0.167995006 0.537634254 0.378747374
0.174573064 0.540417314 0.383807808
0.199240908 0.547121704 0.388867855
0.238204002 0.556483328 0.402656734
0.285768569 0.569765747 0.417963386
0.347501338 0.587096751 0.436938912
0.420999557 0.610499620 0.467046261
0.518279433 0.650094807 0.516761363
0.286527306 0.725869536 0.549145639
0.301707834 0.728905797 0.555344820
0.328399658 0.732068479 0.559519470
0.369007111 0.739531994 0.569386363
0.424667716 0.748513341 0.588867724
0.487792581 0.758001506 0.602656543
0.564325809 0.772801876 0.627957046
0.644781411 0.789626837 0.657811463
0.101961002 0.052118644 0.122200996
0.104617447 0.055154741 0.122200996
0.120683089 0.072485544 0.130803093
0.143453285 0.091334641 0.133965999
0.182922438 0.111321799 0.152435347
0.237824351 0.135104254 0.176723734
0.294876635 0.168753922 0.204680637
0.385957956 0.219987169 0.259835452
0.108918093 0.084629998 0.126502439
0.113219544 0.087413445 0.131562188
0.127767086 0.090069897 0.128399998
0.146868736 0.105376542 0.140543744
0.186464101 0.120176829 0.153826639
0.234155372 0.148766384 0.177735373
0.299051285 0.184440255 0.214168549
0.388361633 0.237191662 0.264262915
0.130550444 0.113219447 0.143706545
0.125237092 0.111954093 0.143959284
0.148513541 0.130044192 0.155851096
0.169260085 0.146109745 0.164832547
0.203288838 0.161290288 0.178494394
0.254522294 0.186337903 0.207590178
0.316508502 0.222264290 0.240481004
0.395825505 0.271979809 0.288551837
0.140670642 0.178241640 0.177735284
0.147754550 0.176976174 0.179253384
0.163820088 0.191904083 0.194181070
0.193421990 0.211385280 0.214168638
0.225173742 0.223529443 0.217204630
0.269070536 0.242251724 0.233270362
0.328020275 0.282605976 0.275901645
0.414547592 0.341555625 0.323213458
0.166603357 0.266287267 0.234534830
0.172422275 0.265401572 0.230107456
0.190765545 0.274763107 0.246299744
0.216698453 0.287286401 0.254522204
0.249209374 0.298671752 0.263883442
0.292599529 0.327261299 0.288298279
0.347754270 0.365591377 0.319038540
0.433017135 0.428336382 0.374067247
0.177735642 0.380012721 0.300063014
0.184440196 0.387096941 0.302973002
0.203921810 0.390132725 0.309677511
0.226565376 0.401897728 0.320556611
0.266413778 0.418848664 0.338519722
0.306767642 0.438709736 0.352814466
0.368754297 0.477419496 0.390512377
0.464515954 0.538140297 0.447691470
0.165211648 0.538393557 0.403288931
0.169512898 0.542694092 0.406072170
0.194560289 0.548260391 0.414041638
0.230993286 0.556862891 0.425679564
0.280708641 0.571789801 0.440354019
0.346995533 0.590891540 0.463504225
0.419607937 0.614041924 0.495256275
0.524857879 0.657305062 0.541556001
0.280581564 0.722074211 0.558633804
0.290069580 0.724731028 0.562681377
0.320936024 0.729664564 0.571157277
0.363693744 0.736622572 0.579633057
0.419607639 0.743200064 0.592156768
0.485262573 0.755091608 0.612144232
0.560277998 0.771283805 0.638456583
0.648323596 0.794686735 0.674383223
0.126376003 0.058823999 0.165338188
0.127387643 0.064642638 0.170777991
0.139405191 0.073750906 0.171537101
0.155850813 0.092473000 0.174573198
0.190385997 0.115875989 0.191904187
0.233396277 0.140670449 0.205565929
0.301581264 0.176217377 0.241113186
0.388614774 0.226312652 0.295003146
0.132068440 0.086147994 0.174319834
0.138014004 0.088678002 0.173560739
0.145350829 0.098418646 0.173055097
0.163820088 0.112839997 0.183301806
0.195193008 0.129664540 0.196204737
0.238962889 0.153953448 0.216192201
0.304996610 0.189500183 0.252498627
0.384819478 0.239721790 0.302593321
0.143326983 0.127893806 0.191145092
0.155344889 0.129285172 0.190765455
0.153573796 0.137887195 0.195066288
0.175078824 0.150031537 0.205692545
0.201264992 0.166856200 0.213788897
0.250727296 0.189500287 0.233775720
0.315749496 0.224668100 0.274889171
0.396457791 0.279063821 0.327261060
0.143326998 0.167615294 0.216951191
0.161163568 0.173560828 0.223276287
0.179000527 0.188868091 0.230234191
0.203288823 0.206704468 0.240733832
0.226439178 0.226312175 0.252877980
0.273371190 0.250853628 0.277545720
0.335104465 0.287665933 0.307526857
0.419734418 0.340796828 0.360025167
0.168374196 0.264010012 0.274889350
0.175332353 0.265907735 0.272106618
0.192789182 0.278811008 0.283491284
0.217330635 0.293611467 0.291713715
0.260973990 0.326502144 0.328020364
0.297785997 0.342567742 0.338267177
0.352435172 0.378874093 0.363946736
0.441366315 0.432511002 0.414927363
0.173814058 0.385072649 0.339784980
0.180898353 0.388361573 0.344212562
0.196078002 0.397343516 0.348133832
0.227451101 0.414547920 0.369639337
0.260594457 0.433776379 0.386843681
0.309551001 0.457684904 0.402023911
0.375838250 0.490448922 0.431246340
0.473118126 0.546362817 0.488045394
0.144591913 0.548766673 0.435294479
0.159392819 0.548766434 0.445414454
0.182669088 0.556609631 0.454016447
0.222896725 0.569892585 0.466160804
0.278557986 0.582416356 0.478304565
0.344844729 0.595572591 0.497533172
0.425426811 0.618342698 0.528273284
0.534218669 0.665401757 0.574572921
0.266160399 0.723339379 0.586590707
0.278051913 0.728146613 0.588994145
0.310942292 0.731688857 0.595572352
0.356736064 0.738773048 0.604680240
0.415686041 0.750031590 0.616698623
0.483744562 0.760404885 0.635547042
0.564325809 0.775205433 0.657558382
0.658950210 0.797216773 0.691334426
0.154712260 0.066539995 0.232763723
0.156609997 0.072485738 0.236685723
0.171410382 0.081593908 0.241872370
0.185578898 0.101961002 0.241872370
0.211005539 0.122580729 0.254775524
0.248576730 0.146742731 0.268058181
0.304490983 0.179632828 0.291460991
0.390638739 0.230866536 0.349525720
0.153067544 0.091334544 0.229854733
0.163061187 0.096015446 0.234787971
0.173055083 0.101834185 0.236432463
0.194686741 0.118279278 0.246932521
0.213029787 0.138140649 0.255660921
0.255787730 0.168753937 0.275901705
0.307400435 0.193421990 0.294244260
0.390765250 0.244022638 0.354332536
0.179127261 0.133080080 0.259455919
0.173940465 0.137002081 0.253889740
0.186338082 0.141809002 0.258317560
0.203668281 0.156989545 0.259455919
0.224794269 0.175837815 0.271979839
0.258064717 0.202909470 0.287919104
0.316002607 0.234029263 0.317647070
0.399620712 0.279822916 0.374826074
0.187981993 0.177609086 0.282099724
0.185199350 0.188741192 0.282226622
0.199240729 0.202023983 0.289184034
0.218975633 0.217710376 0.297406375
0.243263632 0.234535009 0.309171379
0.277039856 0.259835482 0.322960109
0.335610539 0.289942920 0.354332834
0.421505332 0.347501546 0.414041519
0.174446732 0.248830169 0.324098468
0.179886267 0.256419718 0.333459646
0.198229089 0.266666830 0.334218562
0.230866641 0.288930982 0.349146277
0.262871712 0.321062386 0.362808079
0.298418790 0.343706191 0.382163346
0.353067547 0.381657004 0.407843143
0.439215630 0.434535384 0.456419945
0.164959013 0.387349457 0.391397476
0.175332442 0.386337727 0.397216737
0.191651002 0.397596449 0.400759190
0.218722090 0.413282454 0.419734359
0.256672919 0.441113025 0.436053276
0.315243721 0.481467456 0.469702482
0.382416040 0.510057032 0.492346764
0.476154447 0.547248423 0.535357475
0.135610461 0.545983076 0.481087834
0.142947719 0.544338822 0.491461188
0.165844351 0.557748079 0.495888829
0.211764634 0.570271850 0.509171069
0.275901616 0.589500308 0.531309247
0.348134160 0.611259043 0.549146295
0.430233836 0.633776307 0.577229261
0.547754586 0.676533639 0.614801049
0.261606634 0.725363672 0.618216515
0.266287416 0.727514207 0.625426769
0.299051404 0.730676830 0.630360425
0.343327045 0.738646328 0.637950599
0.407716662 0.749272466 0.650347531
0.474889398 0.763820410 0.664895356
0.567362428 0.777988136 0.686400890
0.659329653 0.799367547 0.713598788
0.204174265 0.068311289 0.341049552
0.207083836 0.076913290 0.346236706
0.220746279 0.090069704 0.345856994
0.230486915 0.106514998 0.346742213
0.258317381 0.131562188 0.357495457
0.279823005 0.166476741 0.375964522
0.333586276 0.195066288 0.392030537
0.388235241 0.235546961 0.420493335
0.201518029 0.098797999 0.336243004
0.199493825 0.101075284 0.343959540
0.216951281 0.110183261 0.345224559
0.232890621 0.129664645 0.353320628
0.258696914 0.147881001 0.365338266
0.290955037 0.180518448 0.378241777
0.333839297 0.214041546 0.400252968
0.395192742 0.249209493 0.425300330
0.209867284 0.141050100 0.351423085
0.219734460 0.145730197 0.359772444
0.229601562 0.153574005 0.353573471
0.242378429 0.169639453 0.368121296
0.263757199 0.189500198 0.377988458
0.293105632 0.216445446 0.388867557
0.345351279 0.248830080 0.416951448
0.397976100 0.288045436 0.438962638
0.218722627 0.204047918 0.382036924
0.220239997 0.205186278 0.381403923
0.230992988 0.214168638 0.378621280
0.251106620 0.228715986 0.390385836
0.275648385 0.252498358 0.407716542
0.299178004 0.276280999 0.421631843
0.348133922 0.310689270 0.444149196
0.423656136 0.349904984 0.475142449
0.213283002 0.266919672 0.426312447
0.217963189 0.267425954 0.424794674
0.234282091 0.282606125 0.429728329
0.253636926 0.307779968 0.435673743
0.279696167 0.327134550 0.442378342
0.310942262 0.359266162 0.463757008
0.356356382 0.397596449 0.488298565
0.447817832 0.435926467 0.522833526
0.157495469 0.383554459 0.482732743
0.173181370 0.387223005 0.490322739
0.186337739 0.389500111 0.492600024
0.222011179 0.404301077 0.503478527
0.273118436 0.430107832 0.511068523
0.322960019 0.477672458 0.529538333
0.385958463 0.510436416 0.553067744
0.486400664 0.552308619 0.584313869
0.113092996 0.550158083 0.562555552
0.123213284 0.546236515 0.546869099
0.151170000 0.556356847 0.561163664
0.204174563 0.567488492 0.570271850
0.268943727 0.590259373 0.584819555
0.358506978 0.619608045 0.611764967
0.458317846 0.657684803 0.644275546
0.562302172 0.688930631 0.668058395
0.244401932 0.727134466 0.665781140
0.264895678 0.730930030 0.663756907
0.293231666 0.730044425 0.669196725
0.341808856 0.739025772 0.676787019
0.397976130 0.748513341 0.687033415
0.481720477 0.768500805 0.706261635
0.572675645 0.786843598 0.726882041
0.677419424 0.811638296 0.754079640
0.269449979 0.054901998 0.523592412
0.270208985 0.066034012 0.521694660
0.285388798 0.080455266 0.527514398
0.302213967 0.105376355 0.528779566
0.322200805 0.140417516 0.534092546
0.351296544 0.182289556 0.550284326
0.384566784 0.231119424 0.563819945
0.459455758 0.282732785 0.583807409
0.271094263 0.087286822 0.532321215
0.267299086 0.093738161 0.517267406
0.285515547 0.109171435 0.523086667
0.299936652 0.130044192 0.532574356
0.324098349 0.162302643 0.541176379
0.354585469 0.202529877 0.555724144
0.386590630 0.250980347 0.570271909
0.455281317 0.299936801 0.593801260
0.267931789 0.149652004 0.536242843
0.265401363 0.155597851 0.531309128
0.279443562 0.166603372 0.540417612
0.296394795 0.184440359 0.538899601
0.317773521 0.205060184 0.550157905
0.353067636 0.244276077 0.564326406
0.385199368 0.290196061 0.575205207
0.465907782 0.335483611 0.597722650
0.260847449 0.222390786 0.545097828
0.267552435 0.226438895 0.552561462
0.275774896 0.233649716 0.552687883
0.295255989 0.250853628 0.559772432
0.321062446 0.275395274 0.569133222
0.349146158 0.311827719 0.579759479
0.396078467 0.354459375 0.600885272
0.472485602 0.399746627 0.617710412
0.240733802 0.302087367 0.583681047
0.252498150 0.307653368 0.576090932
0.265781075 0.318152994 0.578747690
0.282732278 0.333459646 0.584187269
0.316887826 0.359139651 0.595319629
0.359013110 0.393168718 0.608475566
0.404807180 0.429222226 0.624161780
0.487286597 0.475394994 0.642757595
0.186717153 0.402909547 0.625300646
0.200632155 0.403415501 0.625173569
0.233523160 0.413156360 0.634408355
0.269070327 0.430740088 0.630739927
0.310815960 0.458317906 0.634408653
0.364579439 0.495382547 0.645161510
0.430487275 0.534471810 0.656672955
0.513472259 0.572169483 0.674509764
0.123213269 0.572675109 0.679063559
0.139785171 0.571663260 0.686906993
0.172802195 0.572548807 0.684756577
0.230233908 0.579127014 0.688171804
0.293105543 0.589373648 0.697153747
0.395698518 0.614168286 0.702846408
0.492220372 0.661606848 0.712966084
0.592030287 0.698418796 0.745350599
0.279569328 0.727514386 0.736622632
0.287919104 0.731941640 0.742820859
0.310562611 0.735483766 0.736875415
0.354332566 0.746995151 0.744591713
0.413282573 0.755091608 0.752688110
0.489816427 0.771157563 0.767868578
0.595698714 0.795572281 0.793042243
0.710815549 0.830739558 0.830866396
