Assets/Resources/EldamarStudio/100 Horror LUTs Pack/LUTs/cube/Rezixed LUT.cube
LUT_3D_SIZE 5
DOMAIN_MIN 0.000000 0.000000 0.000000
DOMAIN_MAX 0.903226 0.903226 0.903226
0.066666998 0.043136999 0.043136999
0.097406998 0.054901998 0.060468286
0.162808418 0.085642412 0.088930994
0.247185260 0.128526121 0.126502126
0.391271621 0.208095953 0.193674803
0.098039001 0.100695990 0.080075711
0.119291708 0.108538993 0.093484998
0.173940822 0.125869706 0.108538993
0.258696675 0.167741701 0.148133695
0.399367660 0.254902065 0.214927092
0.147122413 0.210625976 0.150410995
0.167109281 0.215179980 0.152055696
0.212523401 0.238076985 0.175964400
0.293991148 0.275395244 0.211005688
0.421885192 0.372296035 0.287286371
0.179380134 0.401391387 0.274762988
0.194180995 0.417078108 0.271853119
0.246805862 0.433776259 0.288804561
0.329665005 0.476913244 0.325869262
0.472991645 0.558001280 0.415179938
0.284629375 0.723465919 0.535357416
0.322707087 0.734598577 0.544465601
0.396331131 0.741050005 0.564073443
0.507400572 0.765338421 0.598734736
0.642757535 0.786211550 0.645161390
0.086274996 0.047059000 0.080075711
0.105249994 0.062112994 0.088930994
0.157242283 0.094497286 0.106261700
0.242631406 0.141935408 0.153068006
0.381403804 0.217204124 0.222770527
0.102972701 0.102972701 0.102972701
0.126502290 0.117393695 0.119670987
0.173940405 0.134724990 0.134092405
0.253763407 0.174320132 0.171663284
0.396078676 0.256419957 0.243010506
0.154964998 0.211258397 0.168374702
0.161163703 0.221379101 0.178874105
0.215433285 0.239089102 0.192915991
0.293611556 0.276660413 0.230233982
0.417710334 0.372928619 0.306515098
0.185325861 0.410246253 0.295383126
0.199367419 0.412523955 0.293105394
0.248450413 0.437064797 0.314737648
0.324731141 0.471726835 0.344465524
0.470841318 0.559013188 0.432890773
0.287033558 0.724857569 0.549651742
0.316761285 0.730044425 0.551170170
0.391777366 0.741176128 0.571663260
0.502972782 0.762049198 0.602150381
0.644781530 0.788867772 0.654775679
0.111827567 0.054901998 0.143200412
0.122580700 0.071600288 0.141555712
0.162175998 0.097406581 0.158253998
0.245920405 0.146489412 0.197216704
0.386590362 0.218468979 0.274130225
0.131056279 0.110815704 0.164452702
0.143833011 0.117014408 0.164452702
0.179759577 0.140923277 0.180139124
0.261606574 0.186717540 0.216445416
0.394813329 0.264262974 0.296647519
0.158886582 0.211890966 0.223023400
0.169639274 0.225300699 0.228210405
0.228842825 0.265527964 0.262239397
0.299177706 0.296647549 0.292726099
0.424541354 0.381404191 0.366983056
0.173181579 0.413155973 0.339532018
0.192789569 0.429474980 0.351296633
0.244528994 0.448703408 0.368627518
0.324731112 0.483744383 0.403921366
0.475648224 0.574446619 0.484503508
0.263377428 0.725490153 0.571789742
0.309297830 0.729032457 0.579253674
0.380518824 0.739785016 0.592030168
0.502466261 0.760404885 0.625427008
0.650600553 0.795445561 0.677798569
0.165844128 0.069576129 0.258064121
0.176217273 0.080075711 0.260341436
0.210625991 0.110562995 0.270208806
0.266792983 0.159898862 0.294371009
0.388361722 0.232890800 0.361922801
0.176596999 0.123213120 0.268817425
0.188361838 0.131435558 0.271473825
0.218089700 0.154965416 0.281973422
0.275015742 0.200126559 0.310436130
0.399114609 0.272485703 0.386717230
0.191271544 0.212270692 0.324098676
0.206578150 0.231878683 0.330297381
0.243263572 0.266540110 0.345730126
0.296015143 0.313978225 0.374572933
0.428842515 0.384693354 0.440607339
0.154838994 0.427830249 0.428842396
0.176723450 0.433017254 0.436938703
0.229095697 0.460847378 0.457938254
0.339531988 0.523972273 0.512207270
0.494117618 0.580898046 0.567488968
0.257052392 0.728146732 0.625553608
0.290955126 0.730676889 0.636179507
0.374066800 0.743073583 0.650347769
0.494623572 0.769892395 0.680328727
0.658570230 0.802656353 0.721947908
0.269449979 0.054901998 0.523592412
0.280581981 0.076407015 0.526755333
0.310689390 0.122327566 0.531435728
0.360151798 0.193927959 0.552055538
0.459455758 0.282732785 0.583807409
0.270461708 0.132700846 0.526628733
0.277672529 0.145856813 0.535104275
0.305502534 0.179506525 0.539658248
0.360151798 0.241492644 0.559519231
0.462618619 0.322327495 0.593168855
0.256293803 0.262365401 0.566729605
0.271346986 0.274510086 0.565085173
0.304111391 0.300948769 0.571916461
0.362682134 0.357621938 0.597090244
0.475775003 0.431878626 0.622896731
0.145983398 0.435800076 0.635673583
0.189500540 0.439468920 0.644022763
0.285262376 0.471094221 0.645414293
0.387096941 0.532574236 0.655281544
0.532447875 0.600506186 0.691461265
0.279569328 0.727514386 0.736622632
0.307526350 0.736242712 0.738646567
0.385957778 0.749019206 0.748386562
0.514105022 0.777735412 0.775205433
0.710815549 0.830739558 0.830866396
