Assets/Resources/EldamarStudio/100 Horror LUTs Pack/LUTs/cube/Rezoth LUT.cube
DOMAIN_MIN 0 0 0
DOMAIN_MAX 1 1 1
LUT_3D_SIZE 32
0.066666998 0.043136999 0.043136999
0.066666998 0.043136999 0.043136999
0.066666998 0.043136999 0.043136999
0.070461839 0.044402160 0.044402160
0.078810550 0.047438450 0.047438450
0.081846938 0.050474066 0.050474066
0.089943320 0.053510323 0.056040645
0.095762290 0.053257290 0.058823999
0.099556997 0.052498195 0.058823999
0.105629005 0.058570970 0.058824003
0.114610866 0.061733127 0.061733127
0.123719253 0.064769253 0.066792995
0.135104641 0.070082352 0.072865002
0.149778962 0.078684032 0.078937069
0.158886582 0.081720419 0.085009828
0.167994797 0.084756806 0.091081992
0.178620994 0.089310996 0.097153999
0.190132573 0.094750419 0.101961002
0.199240983 0.097786039 0.101961017
0.213915363 0.103605002 0.110309653
0.225300729 0.113472477 0.115622737
0.236432865 0.124604866 0.119670995
0.251738995 0.133585989 0.125869498
0.269955814 0.139658004 0.134977907
0.285895258 0.150284573 0.144086286
0.303858638 0.161037311 0.151802987
0.324604988 0.170651123 0.158380941
0.342820972 0.182795882 0.167488530
0.371663600 0.200252965 0.181909800
0.402023911 0.218469396 0.197090179
0.433269799 0.237571582 0.214927197
0.466666996 0.258823991 0.239216000
0.066666998 0.043136999 0.043136999
0.066666998 0.043136999 0.043136999
0.073118225 0.045287773 0.045287773
0.078304939 0.044908226 0.049968548
0.084503770 0.044402160 0.055408292
0.084883317 0.047438450 0.050474066
0.090449385 0.053004384 0.056040645
0.097406998 0.058190994 0.062112994
0.101834290 0.059329484 0.063377999
0.105629005 0.058570974 0.058824006
0.120429866 0.067552127 0.067552127
0.127766997 0.068816997 0.070841253
0.134724617 0.071979612 0.074762739
0.143959284 0.078937069 0.078937069
0.155850962 0.084756799 0.085009828
0.164958566 0.087792575 0.091081992
0.174066797 0.092346609 0.094117999
0.185325563 0.098418601 0.097786412
0.199240983 0.103858039 0.104996622
0.211132005 0.109677002 0.107779972
0.226059332 0.117646731 0.116382122
0.238456607 0.124604613 0.122707382
0.251865476 0.127893493 0.128905863
0.272991419 0.142694399 0.138013527
0.288930863 0.153320387 0.147121906
0.308285922 0.165464953 0.156230286
0.331689000 0.176217705 0.164453059
0.354964972 0.185831502 0.173561305
0.373181641 0.200632423 0.182668909
0.400253147 0.216698185 0.195319414
0.432004958 0.236306176 0.213662341
0.469702601 0.261859596 0.242251620
0.068817228 0.049588773 0.047437999
0.068817228 0.045287773 0.045287773
0.070967995 0.051739547 0.049588773
0.076280773 0.050980452 0.050094839
0.081720769 0.048576545 0.054901998
0.090576001 0.055154931 0.054142907
0.093485229 0.054269772 0.053889871
0.097912937 0.058697060 0.058317933
0.104237907 0.063504092 0.063883997
0.110056527 0.063251488 0.063378006
0.122580640 0.069702901 0.069702901
0.131688774 0.076786771 0.076786771
0.137760773 0.077039778 0.078811005
0.144338772 0.081087776 0.081087776
0.156483054 0.087160058 0.087160058
0.166223958 0.090828963 0.093232222
0.175331965 0.095382772 0.096268229
0.184440181 0.102087185 0.096900806
0.196584210 0.109677009 0.102972813
0.208981782 0.113598779 0.108665355
0.224920750 0.119670764 0.115496732
0.240354121 0.128526121 0.123592995
0.253763258 0.132447749 0.129917979
0.270967662 0.145603910 0.141049877
0.291967034 0.156356767 0.150158063
0.309930414 0.167109445 0.157874763
0.332448006 0.178494990 0.167236075
0.353446990 0.189247310 0.179633439
0.378873885 0.207969576 0.188741133
0.402403384 0.223149955 0.199620411
0.431499034 0.240101352 0.216192573
0.468437761 0.264895767 0.245287776
0.069323160 0.059961997 0.050980002
0.074383162 0.052625161 0.051739547
0.075268775 0.056040771 0.053889997
0.078305162 0.060088836 0.057431996
0.078684613 0.055154707 0.055154707
0.090322770 0.062492095 0.058191095
0.095382839 0.065275319 0.057431996
0.102213711 0.065528288 0.060341544
0.106009007 0.067805000 0.063377932
0.114610687 0.070335321 0.068944007
0.124098577 0.075015999 0.072485998
0.134724826 0.079823159 0.078557998
0.141935483 0.084756516 0.084629998
0.148639992 0.085389003 0.085389003
0.160783991 0.091460995 0.091460995
0.169259965 0.093864642 0.093738154
0.178368032 0.099684000 0.100569002
0.188108981 0.106388569 0.102466568
0.197849378 0.115496360 0.106767975
0.209740713 0.119038358 0.110057004
0.221885145 0.122707151 0.116761573
0.239089027 0.129791036 0.123845972
0.254522324 0.139025852 0.129917979
0.271979749 0.151170179 0.142062008
0.290449262 0.162302285 0.150664121
0.311701655 0.170145512 0.160910830
0.331942081 0.179759830 0.166982979
0.349399149 0.191903830 0.179886445
0.374319762 0.210752785 0.194813460
0.401644140 0.230993167 0.204427257
0.431625158 0.248829961 0.220999420
0.465401828 0.270461857 0.248323843
0.068564542 0.070588000 0.051739097
0.079949550 0.063377835 0.057811771
0.083112001 0.063883997 0.060974225
0.084377162 0.066919833 0.063124545
0.087792993 0.064642541 0.063503996
0.090828605 0.067678928 0.066540383
0.093864769 0.072865546 0.065275222
0.101075441 0.076533839 0.066033997
0.111701548 0.079569548 0.071726546
0.117773555 0.079569548 0.074762933
0.124224998 0.082479417 0.075648546
0.133585989 0.085515708 0.079316996
0.144591644 0.088172346 0.084250547
0.153447002 0.091460995 0.090322547
0.165337980 0.097532995 0.096394546
0.173055053 0.099556997 0.096394807
0.181024805 0.103352189 0.099051349
0.190385595 0.112081014 0.107020564
0.202530399 0.121189423 0.116128974
0.215433463 0.124731191 0.118026547
0.226059735 0.128526181 0.121441990
0.237191960 0.133206964 0.127261132
0.252245069 0.142314568 0.130423993
0.272738457 0.154206276 0.142062008
0.291714013 0.166350543 0.150790557
0.311322093 0.176090986 0.158886522
0.332701087 0.183934093 0.170777574
0.347881436 0.196078092 0.176850334
0.370651513 0.212776646 0.194687247
0.397090137 0.232005164 0.209614292
0.425932735 0.253763527 0.222896576
0.462365568 0.278051555 0.250220984
0.083744928 0.070588000 0.057811871
0.089816928 0.076660000 0.063883871
0.090449162 0.073750839 0.063504227
0.090449162 0.074762836 0.064010158
0.093864992 0.076786548 0.066540383
0.099936999 0.079822935 0.069575995
0.102972612 0.082859315 0.072612382
0.107653059 0.083112225 0.071347229
0.114737257 0.083364934 0.072106004
0.120809942 0.088677935 0.077798553
0.129791066 0.091587804 0.083744802
0.136369005 0.094623677 0.086780675
0.144591644 0.096521065 0.088045649
0.153447002 0.097533002 0.087286934
0.159519002 0.103604987 0.093358934
0.169006795 0.109676994 0.099430934
0.179127052 0.113219187 0.103984997
0.190132573 0.117899984 0.109297931
0.199494019 0.124225028 0.110056981
0.217204079 0.127767414 0.119165361
0.230613530 0.134598196 0.122960187
0.243264124 0.141682327 0.128526121
0.258317858 0.148387343 0.136495993
0.270461887 0.157494977 0.142568007
0.288677901 0.169386640 0.156483278
0.308285713 0.180139244 0.165970922
0.330044210 0.190259129 0.174066931
0.353953421 0.208222866 0.185957953
0.374446809 0.220366850 0.194686890
0.401517838 0.235294178 0.209361240
0.430486798 0.253257573 0.224414915
0.459329933 0.275015920 0.244148999
0.091334999 0.083238319 0.068944000
0.092346996 0.084250316 0.069955997
0.094117999 0.086021319 0.071727000
0.093991160 0.085895158 0.071600161
0.097406678 0.088172093 0.074256673
0.103478678 0.086906932 0.075142063
0.109550677 0.092472993 0.080708638
0.112586707 0.093864672 0.082100317
0.117773317 0.093990996 0.081467539
0.123845644 0.100062996 0.085768327
0.132827446 0.100695543 0.089310743
0.141935572 0.103731930 0.095382996
0.148513645 0.106767669 0.098924674
0.156483322 0.108412027 0.098924674
0.167109311 0.112207316 0.100442670
0.170778126 0.115876123 0.104111478
0.181151316 0.123339444 0.111575186
0.193295300 0.128399566 0.117394321
0.204300985 0.132574335 0.117394336
0.216698021 0.140923679 0.125743032
0.234914467 0.145857319 0.131056413
0.248323992 0.153320640 0.136116445
0.261986166 0.159392998 0.145098314
0.276534021 0.166097417 0.151170328
0.293231994 0.179759592 0.159519017
0.310056657 0.190765664 0.172802001
0.329538137 0.200379640 0.181657255
0.353826880 0.214547873 0.191776991
0.383048445 0.232510984 0.206324816
0.404300839 0.248197407 0.217204407
0.434155166 0.266793281 0.232511297
0.466413677 0.289689988 0.250727326
0.095762290 0.095129706 0.077799000
0.092473291 0.098418698 0.077799000
0.100695990 0.096773989 0.079443701
0.100695990 0.096773989 0.079443701
0.103352152 0.099430829 0.082099870
0.108158998 0.098924764 0.083364703
0.114231415 0.103478700 0.088424936
0.113724999 0.102972701 0.087919287
0.121315382 0.102972701 0.089437284
0.131814986 0.107273705 0.093358517
0.137507871 0.109170996 0.096394867
0.146616250 0.112839960 0.098165996
0.154586002 0.114737704 0.103099354
0.160658002 0.117520414 0.106387995
0.170018986 0.121948116 0.109170996
0.179886088 0.126628801 0.109930091
0.185958475 0.129664794 0.114484675
0.197975978 0.137254581 0.122833990
0.210120022 0.140290976 0.124858007
0.222264424 0.148893356 0.129917651
0.234914467 0.156103998 0.138519734
0.253131002 0.162175998 0.142567992
0.266793013 0.168500990 0.150917277
0.283491611 0.177608997 0.156989291
0.299303979 0.187223271 0.166983113
0.316128641 0.201011971 0.174699396
0.333333045 0.211385354 0.186337993
0.358760178 0.224667981 0.196584255
0.385072619 0.240480661 0.209360808
0.411764592 0.258696675 0.221125692
0.433902383 0.280455470 0.235926867
0.467299014 0.306261688 0.254902005
0.101075001 0.104997002 0.084630102
0.095003001 0.111828096 0.083871000
0.102466770 0.109171227 0.086021766
0.111321993 0.110436186 0.089310996
0.112080991 0.109677188 0.089310996
0.115496151 0.111575030 0.091967158
0.118026547 0.117141090 0.096015096
0.121315777 0.117394000 0.097786002
0.119797185 0.114357993 0.093231991
0.141049579 0.114357993 0.099303998
0.145603865 0.116508223 0.102466866
0.151170254 0.120809510 0.104237899
0.159898907 0.125363901 0.105376452
0.165717945 0.125616938 0.107906066
0.171283990 0.131182998 0.112459995
0.182162985 0.137254998 0.116002090
0.192789197 0.141809002 0.119038284
0.203162566 0.144844621 0.125110894
0.215433106 0.147880971 0.131182909
0.229095608 0.157242447 0.135230824
0.241240084 0.164453089 0.142061725
0.253131002 0.170525104 0.149399087
0.271347016 0.176597089 0.155344576
0.289563805 0.187476099 0.160784006
0.307020873 0.198102280 0.170651481
0.322959751 0.209361061 0.180771977
0.338646084 0.221505076 0.187350065
0.365211427 0.236432433 0.199241087
0.390638739 0.251612812 0.212143973
0.417204380 0.269323021 0.224794284
0.439974964 0.289563298 0.237444669
0.464263022 0.319924116 0.258697093
0.113219000 0.117141016 0.093738489
0.107147001 0.126249388 0.090702102
0.111827776 0.120176934 0.092093773
0.117394000 0.118532330 0.096395001
0.118152998 0.127893984 0.101455003
0.124224998 0.121821985 0.101455003
0.120050482 0.126249492 0.101581492
0.122707218 0.127387777 0.103478774
0.131941959 0.126502007 0.105376005
0.144085974 0.132574007 0.105376005
0.150790498 0.132574007 0.108538873
0.154712260 0.134724751 0.111574739
0.160278350 0.137887359 0.114484161
0.168753549 0.140796557 0.117014453
0.171789929 0.143832952 0.113978073
0.182162985 0.149399012 0.120935798
0.192789197 0.153953210 0.128146484
0.203162581 0.156989411 0.134218514
0.218342990 0.160025030 0.140290529
0.236179501 0.171410725 0.146363229
0.250348002 0.179633483 0.154206231
0.261480361 0.185705498 0.161290139
0.271347016 0.191777498 0.164452970
0.289563805 0.197849512 0.167488575
0.310057282 0.208728492 0.175205290
0.329664946 0.222137660 0.184440181
0.347754478 0.236685485 0.193422064
0.365970492 0.248829469 0.202530444
0.392536461 0.263756812 0.217077628
0.423276603 0.282479137 0.233902395
0.451865971 0.304490656 0.252625078
0.470335007 0.329032511 0.273877472
0.116634868 0.135104001 0.099936999
0.113472000 0.132574379 0.096900612
0.116002545 0.133080214 0.096014999
0.120556869 0.132068023 0.099557132
0.120556869 0.141049996 0.104870126
0.121568874 0.140037999 0.104870126
0.132700861 0.136495680 0.112460449
0.133839160 0.139784843 0.111954287
0.139658317 0.140796959 0.112460092
0.147501871 0.144718736 0.114610866
0.148007870 0.144971743 0.114610866
0.154079884 0.149019748 0.115622997
0.160278350 0.151802868 0.117773511
0.169386029 0.153320745 0.121062867
0.177735418 0.159013286 0.125996321
0.183174998 0.164452851 0.130170733
0.198861182 0.169007063 0.135736674
0.214168131 0.172043294 0.139784575
0.227071851 0.175078914 0.143579885
0.236685529 0.180897862 0.149651885
0.252624720 0.188994125 0.153826863
0.265781105 0.196078256 0.160910740
0.277039498 0.204174504 0.167868152
0.292472929 0.213029876 0.173687831
0.312966406 0.221379161 0.183554724
0.332827449 0.231499046 0.191903859
0.352055848 0.244655073 0.200506061
0.375078857 0.264009863 0.214421451
0.395951688 0.281467497 0.228842795
0.424541473 0.298671693 0.240480483
0.455028564 0.317899853 0.257937938
0.479316860 0.338140130 0.283238858
0.123719253 0.145224512 0.112081252
0.120682865 0.146236375 0.111069120
0.124098279 0.145224482 0.112207241
0.127640739 0.144718423 0.109677240
0.128020287 0.151170254 0.113092795
0.129664987 0.151170254 0.118026502
0.137761250 0.152687937 0.117520317
0.143327251 0.151296258 0.121694997
0.147501409 0.153953090 0.121315248
0.154838696 0.156989485 0.125616476
0.155091733 0.157115996 0.125742987
0.159139737 0.159139737 0.123719253
0.165212020 0.165212020 0.125996247
0.173687503 0.167236209 0.130170986
0.184566662 0.171536982 0.136242986
0.193295509 0.177608982 0.138266981
0.203921318 0.185199186 0.144338995
0.220999151 0.188614994 0.147880837
0.230360955 0.190259308 0.150917232
0.241745919 0.196078256 0.158759981
0.254649013 0.204047993 0.162934721
0.268817246 0.210246503 0.167995125
0.281087756 0.218342751 0.176849991
0.296268165 0.227451161 0.181024536
0.313978255 0.238583282 0.193674982
0.335230649 0.247691661 0.200252995
0.354079872 0.258823574 0.206578076
0.375332236 0.280075938 0.221758425
0.396964043 0.296647370 0.234914541
0.423529178 0.318406105 0.251866132
0.453004301 0.338013828 0.266160458
0.480328739 0.357368499 0.292346716
0.130550355 0.156989634 0.121569000
0.129791245 0.160025254 0.122707352
0.132067993 0.162049279 0.124857865
0.135609999 0.162175804 0.126375630
0.135609999 0.164832637 0.121062644
0.137887299 0.164832637 0.127893925
0.144845322 0.165085316 0.128020316
0.150158361 0.167615294 0.127766997
0.152435452 0.168374196 0.129284993
0.161543161 0.171410486 0.135356992
0.165338293 0.172675639 0.134471640
0.168247640 0.174699366 0.134724602
0.175458282 0.177735269 0.135104641
0.181784034 0.183807984 0.140923604
0.193042636 0.187729210 0.146109998
0.202783152 0.190891638 0.148513645
0.212650448 0.196204841 0.151549637
0.227830201 0.205313057 0.156989068
0.235420957 0.206831008 0.160025328
0.247059003 0.212397307 0.168627292
0.262239367 0.219228387 0.173940375
0.275395513 0.228336498 0.179000512
0.287413001 0.234661490 0.187855855
0.301581264 0.243769899 0.190891743
0.319038630 0.254016638 0.201897264
0.336369276 0.267046273 0.213535637
0.357621700 0.277672619 0.216065705
0.376470894 0.298292398 0.231246084
0.398482144 0.316508383 0.244908258
0.425047547 0.335863024 0.262871385
0.456293195 0.359266222 0.281088173
0.484123647 0.380518645 0.304870278
0.134598032 0.177988991 0.123592995
0.137128428 0.181024686 0.125869647
0.139152259 0.184060767 0.128652766
0.141935036 0.185325995 0.130423993
0.141935036 0.185831994 0.130677029
0.141935036 0.185831994 0.130677029
0.146995604 0.183301747 0.130170956
0.152182341 0.183554709 0.132068336
0.155724093 0.186843932 0.135610029
0.164832488 0.189879552 0.141682029
0.173940867 0.192662865 0.139531910
0.179253772 0.195445776 0.140543774
0.184313640 0.198734641 0.144718245
0.193422034 0.201771036 0.150284961
0.202530414 0.207843035 0.153320581
0.211638182 0.209361061 0.156609848
0.220746189 0.211132228 0.161164030
0.230866522 0.214927450 0.166350484
0.246046945 0.224035084 0.169386104
0.258444011 0.230613708 0.177482352
0.274130464 0.236939028 0.182795733
0.289310873 0.244022891 0.187855929
0.298671484 0.253130525 0.196837053
0.310942024 0.262238920 0.199999943
0.327134550 0.271600276 0.209867030
0.344465613 0.283744693 0.221125692
0.360911071 0.299178034 0.230993062
0.382163405 0.317394048 0.246173441
0.405565947 0.337760806 0.261353821
0.433143348 0.358760178 0.281087935
0.464895576 0.380771637 0.304364175
0.498292029 0.402024060 0.322580993
0.149778411 0.196204990 0.147880971
0.146742791 0.199241370 0.141808972
0.140670642 0.202277049 0.141935408
0.142947420 0.201517999 0.142567992
0.151043415 0.198229000 0.142947540
0.151043415 0.204047978 0.145857409
0.156103417 0.201518297 0.140796766
0.165464982 0.201771110 0.142567992
0.171916723 0.205565989 0.147248730
0.170904472 0.211131915 0.150790408
0.180012867 0.211258397 0.153953284
0.187096983 0.211890981 0.155724153
0.192536414 0.214800403 0.159898415
0.199494034 0.219987020 0.165464565
0.208602414 0.223023400 0.165464565
0.217710182 0.226692215 0.170904592
0.226818189 0.230613813 0.176344395
0.236558974 0.235420823 0.181151405
0.249082565 0.239215463 0.181530863
0.261480302 0.248323768 0.184566468
0.275522143 0.256799728 0.188867733
0.289310873 0.265275270 0.193928123
0.298671484 0.274382889 0.202909827
0.313851923 0.283491284 0.208981842
0.326122403 0.294876397 0.218975410
0.343706220 0.309171319 0.232511058
0.364199698 0.326249480 0.245920405
0.388235390 0.341682792 0.258317411
0.406830966 0.357241958 0.273497790
0.431625158 0.375458360 0.288678169
0.463124365 0.397849590 0.309297979
0.501328409 0.426312804 0.334724993
0.162554994 0.214420989 0.160151809
0.161922559 0.215053573 0.154079810
0.152435184 0.222390950 0.154459029
0.146868989 0.224667788 0.157241985
0.153700009 0.220872775 0.158380538
0.157747999 0.218848795 0.153320938
0.165211797 0.226945102 0.165591747
0.166350082 0.223909065 0.157874703
0.174699575 0.225426883 0.160151988
0.179886311 0.229854599 0.164832309
0.186084867 0.232510790 0.167868659
0.189120993 0.232510790 0.168880790
0.195572644 0.233649433 0.171536967
0.203415811 0.238456592 0.176343799
0.214674413 0.243643209 0.180644795
0.223782793 0.246679589 0.185451791
0.234408602 0.249715582 0.188488185
0.244402364 0.254901975 0.192789346
0.254775614 0.259708852 0.196331799
0.264515936 0.268311143 0.199114442
0.276660681 0.275521785 0.205945536
0.291334867 0.284124136 0.209993646
0.303351998 0.293358594 0.216192201
0.316255718 0.304743677 0.222264796
0.333712786 0.318406045 0.232890785
0.350284427 0.332068235 0.243643463
0.371030778 0.349272788 0.257305801
0.391524076 0.366350412 0.273244798
0.412902951 0.381530702 0.285641789
0.439974576 0.400252759 0.302593410
0.471220523 0.420872986 0.321062744
0.509171188 0.448197782 0.346868992
0.165591002 0.234155178 0.167741999
0.170145184 0.235673368 0.167741999
0.164579198 0.237570956 0.165085599
0.157495201 0.245414183 0.170651212
0.159392744 0.245161191 0.176596731
0.168880388 0.239089176 0.172043115
0.169892505 0.242631510 0.172549307
0.176976666 0.249715656 0.182163477
0.176217377 0.247438371 0.174573094
0.186843961 0.249715671 0.178367987
0.191650808 0.249715313 0.180012673
0.196711197 0.253763199 0.184060797
0.201265186 0.256040186 0.186338082
0.210499987 0.259202987 0.189247340
0.220113978 0.262744963 0.191524193
0.229854792 0.267931998 0.197596192
0.237444997 0.272486180 0.200632200
0.250221550 0.276154369 0.202529758
0.261100948 0.282226384 0.209487930
0.270208657 0.289563537 0.211258829
0.279696286 0.298292398 0.221125931
0.293864787 0.305376261 0.227198184
0.309424013 0.314610988 0.230360359
0.321568787 0.326755404 0.241998792
0.338266969 0.341176271 0.249588981
0.356483310 0.354965329 0.263124645
0.377103180 0.369513184 0.270967990
0.395319164 0.385705173 0.283111989
0.419227988 0.405819207 0.299050957
0.446046561 0.426059365 0.316255212
0.478557944 0.446426392 0.336242974
0.513724983 0.469450176 0.360531181
0.162681565 0.257305115 0.176343977
0.170524955 0.260341525 0.181783557
0.168880418 0.261227131 0.182036757
0.165970996 0.263124555 0.182795972
0.166730002 0.268437535 0.190765142
0.181151360 0.262871534 0.193548515
0.180518985 0.263124853 0.188994408
0.180392414 0.267172962 0.188867986
0.187729567 0.272991955 0.194560468
0.193801567 0.272991955 0.191524073
0.196963698 0.270082265 0.191397563
0.201391503 0.272485554 0.193548158
0.209108412 0.277925134 0.199620277
0.221252471 0.283997148 0.205692992
0.228083566 0.284756124 0.203795150
0.236559212 0.288931161 0.206704572
0.245414555 0.295003533 0.211005569
0.250853956 0.300442934 0.211638138
0.266034424 0.306514949 0.220746532
0.276280791 0.312586993 0.222137988
0.285388738 0.320556730 0.230360717
0.296900570 0.330297410 0.243010983
0.314990073 0.339278549 0.243263975
0.327640802 0.350411355 0.259455979
0.344338983 0.364832252 0.270461559
0.361922741 0.380518287 0.280075639
0.380139560 0.392663062 0.294244051
0.398355573 0.404807121 0.294623554
0.425806344 0.426945180 0.310562521
0.454269350 0.450601071 0.331182301
0.485895097 0.474383175 0.353952736
0.516255140 0.492599964 0.378241539
0.171789959 0.287665963 0.194560021
0.174826354 0.290702343 0.197596416
0.171916425 0.291587949 0.198734999
0.169639215 0.292852789 0.199747190
0.172802016 0.295762002 0.202909946
0.178874016 0.295762002 0.202909946
0.183175370 0.292726308 0.198102355
0.185452297 0.293485284 0.196963772
0.191018239 0.297533035 0.201012030
0.202909976 0.303352028 0.206704512
0.206072107 0.300442904 0.206578001
0.209108248 0.301454693 0.204554260
0.214674369 0.304743648 0.205692962
0.224288106 0.308285981 0.211765036
0.236432880 0.314357966 0.217837021
0.245667145 0.317520767 0.218342990
0.256293416 0.322327971 0.221884981
0.266034395 0.327767402 0.226818562
0.269070059 0.330803037 0.229854956
0.281467766 0.336875051 0.233396634
0.291461170 0.344844818 0.239974767
0.302593112 0.354965061 0.250601023
0.318026483 0.366603017 0.261480004
0.333206892 0.372675836 0.267552048
0.350410998 0.386084735 0.281467289
0.367235661 0.404047638 0.294496983
0.383175194 0.423023134 0.306388110
0.401391953 0.435167909 0.315496475
0.432890773 0.455281734 0.331814975
0.462239116 0.476787150 0.353573382
0.492473185 0.499177933 0.378494531
0.528399885 0.522960067 0.405565977
0.175332353 0.318026751 0.209993362
0.178368032 0.318279773 0.218595743
0.183554634 0.319165379 0.219481364
0.183807537 0.320430219 0.218216196
0.186464369 0.323086351 0.217836648
0.187729359 0.323086351 0.217836648
0.193801358 0.323086351 0.220366970
0.195446014 0.321947992 0.218342721
0.198861450 0.324604362 0.220999360
0.208981991 0.330676377 0.227071360
0.212397128 0.333586246 0.224541724
0.215433270 0.334598631 0.226565465
0.221885011 0.337634444 0.228463024
0.232637390 0.340923369 0.234029025
0.242251843 0.346995354 0.235041007
0.247185200 0.350664198 0.238709822
0.258570194 0.355218381 0.243643552
0.271347225 0.361290365 0.249715716
0.278684437 0.366476774 0.250601321
0.290069371 0.372295737 0.259203017
0.296521395 0.380265504 0.262239128
0.304870337 0.389373899 0.269576490
0.318532497 0.399747074 0.279823184
0.339025915 0.411132216 0.288551360
0.356483012 0.421758384 0.301454663
0.376090616 0.436432391 0.313852042
0.395066082 0.453889817 0.325616717
0.415559560 0.468311280 0.341555804
0.444402277 0.485768348 0.355977178
0.472359419 0.506894171 0.375837892
0.502213955 0.528146625 0.397343367
0.540543973 0.550537348 0.418974996
0.182163253 0.348387003 0.234661460
0.177609354 0.352182478 0.234282121
0.190385729 0.352182478 0.240733728
0.191397741 0.352182478 0.239468560
0.192536458 0.354585648 0.237191275
0.194054261 0.356103450 0.238709465
0.195319265 0.356103450 0.235547051
0.201391682 0.356103450 0.238583013
0.203415737 0.357621461 0.240354165
0.211385489 0.363693476 0.246426463
0.214674130 0.366856337 0.247564852
0.219607517 0.369892210 0.244782209
0.226059541 0.372928619 0.248956472
0.237697735 0.375964493 0.254775435
0.245161414 0.380392194 0.256419748
0.251359940 0.385958284 0.256925792
0.261985719 0.388994277 0.262998194
0.275015593 0.394054323 0.270841569
0.281594008 0.398861438 0.272106737
0.293485016 0.406831205 0.280455381
0.307526737 0.412903219 0.287665725
0.312587142 0.420999467 0.291713983
0.324098736 0.429222226 0.299810261
0.343579888 0.439595491 0.307147563
0.362555474 0.453636706 0.320809275
