Assets/Resources/EldamarStudio/100 Horror LUTs Pack/LUTs/cube/Rezoth LUT.cube
LUT_3D_SIZE 8
DOMAIN_MIN 0.000000 0.000000 0.000000
DOMAIN_MAX 0.903226 0.903226 0.903226
0.066666998 0.043136999 0.043136999
0.078810550 0.047438450 0.047438450
0.099556997 0.052498195 0.058823999
0.135104641 0.070082352 0.072865002
0.178620994 0.089310996 0.097153999
0.225300729 0.113472477 0.115622737
0.285895258 0.150284573 0.144086286
0.371663600 0.200252965 0.181909800
0.068564542 0.070588000 0.051739097
0.087792993 0.064642541 0.063503996
0.111701548 0.079569548 0.071726546
0.144591644 0.088172346 0.084250547
0.181024805 0.103352189 0.099051349
0.226059735 0.128526181 0.121441990
0.291714013 0.166350543 0.150790557
0.370651513 0.212776646 0.194687247
0.101075001 0.104997002 0.084630102
0.112080991 0.109677188 0.089310996
0.119797185 0.114357993 0.093231991
0.159898907 0.125363901 0.105376452
0.192789197 0.141809002 0.119038284
0.241240084 0.164453089 0.142061725
0.307020873 0.198102280 0.170651481
0.390638739 0.251612812 0.212143973
0.130550355 0.156989634 0.121569000
0.135609999 0.164832637 0.121062644
0.152435452 0.168374196 0.129284993
0.175458282 0.177735269 0.135104641
0.212650448 0.196204841 0.151549637
0.262239367 0.219228387 0.173940375
0.319038630 0.254016638 0.201897264
0.398482144 0.316508383 0.244908258
0.165591002 0.234155178 0.167741999
0.159392744 0.245161191 0.176596731
0.176217377 0.247438371 0.174573094
0.201265186 0.256040186 0.186338082
0.237444997 0.272486180 0.200632200
0.279696286 0.298292398 0.221125931
0.338266969 0.341176271 0.249588981
0.419227988 0.405819207 0.299050957
0.182163253 0.348387003 0.234661460
0.192536458 0.354585648 0.237191275
0.203415737 0.357621461 0.240354165
0.226059541 0.372928619 0.248956472
0.261985719 0.388994277 0.262998194
0.307526737 0.412903219 0.287665725
0.362555474 0.453636706 0.320809275
0.450094610 0.515369713 0.377608806
0.174193710 0.514231563 0.342694283
0.184313998 0.515117049 0.341429114
0.203921810 0.525869846 0.342567563
0.240986630 0.534977913 0.359519184
0.282606065 0.550916851 0.371536553
0.335863292 0.567109346 0.398735017
0.401518285 0.591650844 0.423023254
0.503605485 0.633396506 0.480328888
0.259582579 0.703731775 0.520935595
0.286400706 0.717520416 0.520176589
0.306894422 0.715749383 0.524351478
0.355471194 0.721948147 0.536242723
0.409487396 0.730423570 0.551422954
0.473244429 0.745603740 0.570398569
0.548639834 0.757495463 0.599620163
0.632258356 0.774446547 0.633523226
0.070588000 0.047059000 0.055660997
0.072485544 0.047817998 0.056799546
0.100315996 0.060341999 0.065401539
0.131182641 0.081467196 0.088172346
0.173560739 0.097533450 0.105376445
0.225300729 0.123339735 0.134345248
0.286527276 0.156483278 0.155850708
0.370651513 0.203668371 0.193042234
0.079949096 0.064262994 0.061100997
0.094876997 0.072106093 0.072485544
0.109297641 0.077166446 0.077546000
0.139531910 0.092473090 0.092473090
0.178620994 0.113598995 0.113598995
0.225932732 0.137887090 0.135863349
0.291966975 0.166350543 0.163693696
0.370651513 0.214421347 0.202909663
0.107779637 0.106135547 0.088551998
0.115622543 0.112840094 0.096774451
0.127387539 0.113978535 0.101454638
0.155977085 0.126881987 0.114357986
0.187602639 0.142947450 0.127640992
0.236938536 0.165211886 0.153573796
0.301075429 0.199620277 0.181657284
0.391271621 0.254269540 0.222264364
0.132827342 0.163693994 0.131182641
0.138772905 0.166856185 0.128779545
0.156356543 0.171537086 0.135104552
0.175837740 0.180518627 0.146868736
0.211511895 0.196584180 0.159392551
0.256926209 0.218469292 0.179380000
0.316634804 0.260214925 0.210246846
0.402024060 0.317647249 0.255407989
0.160658002 0.238836169 0.170778185
0.161417007 0.241113171 0.172295988
0.179886341 0.244655535 0.174952552
0.206831098 0.256419748 0.189879835
0.235420629 0.270461828 0.199367553
0.278811187 0.297406495 0.217963532
0.336369514 0.339278817 0.253257543
0.422390699 0.405692726 0.312207371
0.182163253 0.347501278 0.239848018
0.184566543 0.351423293 0.238077268
0.202277094 0.358760118 0.244149461
0.226818636 0.371410638 0.256040365
0.259329259 0.389373809 0.269702822
0.301960558 0.407336980 0.288804263
0.361416906 0.448070914 0.326249480
0.449715257 0.517267406 0.386590630
0.163187712 0.518785536 0.340923518
0.182036713 0.517140806 0.352434993
0.198355094 0.528146803 0.354838699
0.238204002 0.536748827 0.366476923
0.283111751 0.552814543 0.382542431
0.336242735 0.570904255 0.403288990
0.407337010 0.597469985 0.439975023
0.504743874 0.636685491 0.488551497
0.262744963 0.704364300 0.516508400
0.269702554 0.711701632 0.515875816
0.306894422 0.713472128 0.526628733
0.346489549 0.718532324 0.540417373
0.404047906 0.729032218 0.558001399
0.471852958 0.744844735 0.578114867
0.545098305 0.753573418 0.599367559
0.631625175 0.775837600 0.634408832
0.079949193 0.051739097 0.085389003
0.091334544 0.052118644 0.084250547
0.104237899 0.064263001 0.095636003
0.134345546 0.083871096 0.101454541
0.174699381 0.107400186 0.122200988
0.220114082 0.129284993 0.140670449
0.285895258 0.163693696 0.175331995
0.367362380 0.211764812 0.219987169
0.085009553 0.074889451 0.088931449
0.094876997 0.076407447 0.098039001
0.119544543 0.084250547 0.103099450
0.141429648 0.097153999 0.111322001
0.182289645 0.119924188 0.130170807
0.226439178 0.140164286 0.151929185
0.293738276 0.174699470 0.189247340
0.374193609 0.224667981 0.229095712
0.104997002 0.112081096 0.110436186
0.108918086 0.122327901 0.119544543
0.136369184 0.122200996 0.126122996
0.159013182 0.134724990 0.134724990
0.191904187 0.149652183 0.146489277
0.236558989 0.171536982 0.171536982
0.301581264 0.206704378 0.202909470
0.386717051 0.259455800 0.249589056
0.132447898 0.173560739 0.145603985
0.143453196 0.173940197 0.147627726
0.157874644 0.179759637 0.155092001
0.182163343 0.187602729 0.163694099
0.211891443 0.200885624 0.180898190
0.261606365 0.227071181 0.198481828
0.317520618 0.261353582 0.229727909
0.401265085 0.317900091 0.275142610
0.161416799 0.253004283 0.198228985
0.171283826 0.244655520 0.196204841
0.181024984 0.256926090 0.205313101
0.206831202 0.261100739 0.210246742
0.241365984 0.278052092 0.224035278
0.281214476 0.302214205 0.243517086
0.339026064 0.345983446 0.276407361
0.418975353 0.411511838 0.327134639
0.188235104 0.359013110 0.267931998
0.186970264 0.362049222 0.260341525
0.201391473 0.369006813 0.265654743
0.228462741 0.377735734 0.277166367
0.261353731 0.394560367 0.291334271
0.299683720 0.414927453 0.310815990
0.362555474 0.451612562 0.343833029
0.451612711 0.520050585 0.406451821
0.172928721 0.518153310 0.362555265
0.180771545 0.522960067 0.365844131
0.206198707 0.528273284 0.373308003
0.233902544 0.537254870 0.383428276
0.280328989 0.551802635 0.400632650
0.335357100 0.570145190 0.419354647
0.403795362 0.596331358 0.448323846
0.508159041 0.634282231 0.501328409
0.273118287 0.710562766 0.538013577
0.286021113 0.712713122 0.532827616
0.308918506 0.715116799 0.538140595
0.350410849 0.723465919 0.549525201
0.406577915 0.730423570 0.568374455
0.469449550 0.744212210 0.585072756
0.547880948 0.760151863 0.611258507
0.629095495 0.776723623 0.640354395
0.103099354 0.052118644 0.119923994
0.104237996 0.056040641 0.115496635
0.120683089 0.071347095 0.124098539
0.136748642 0.087413348 0.130043998
0.175837740 0.104617447 0.144591644
0.225932822 0.129284993 0.163314551
0.290954918 0.164832339 0.198481634
0.375458777 0.209487632 0.249335617
0.113599092 0.073244549 0.119797185
0.102213643 0.087033994 0.124984354
0.126249075 0.088551894 0.126122892
0.145350650 0.101074994 0.134725004
0.182163447 0.121821538 0.150790647
0.227577537 0.142188549 0.171157748
0.293990940 0.180139288 0.209867001
0.378874034 0.231752068 0.259203076
0.127387628 0.107779548 0.139784634
0.123339549 0.114358090 0.139279082
0.139025733 0.129285097 0.151170090
0.161796540 0.135863557 0.162555441
0.192283541 0.154712439 0.173181280
0.239215732 0.178114831 0.192536175
0.306261778 0.216951191 0.229475290
0.385958344 0.261733025 0.278304636
0.132827342 0.170398638 0.169892296
0.138266742 0.174699187 0.173813999
0.160278350 0.180518627 0.185579002
0.191145003 0.198481634 0.205186278
0.226059631 0.214168638 0.211764827
0.264768988 0.236432463 0.228209734
0.323466271 0.271979660 0.264642566
0.400759161 0.328652650 0.309930265
0.167109191 0.253383756 0.226818442
0.171157643 0.254522294 0.221884727
0.188867897 0.263124377 0.231752187
0.207589984 0.276407391 0.237950474
0.242758006 0.286527187 0.253257543
0.285136074 0.313978374 0.272486091
0.340290815 0.352687925 0.306514829
0.425426990 0.413915157 0.361922801
0.179253638 0.364326209 0.287286371
0.186970353 0.365970820 0.290069550
0.205060363 0.372928828 0.296647459
0.228589639 0.383428365 0.306514740
0.260974199 0.401138812 0.321821362
0.307653248 0.423908830 0.342188388
0.362049103 0.456925839 0.375585258
0.452877820 0.521189392 0.432764173
0.168374434 0.522201240 0.388614923
0.179506466 0.523466468 0.392915666
0.196078092 0.532194853 0.397975981
0.227577627 0.543959260 0.408854902
0.278431445 0.556103826 0.425300181
0.337381363 0.576849878 0.449841678
0.409993559 0.599493861 0.480075926
0.509550750 0.641619086 0.527008355
0.261479914 0.710309923 0.551043391
0.275648206 0.711827695 0.549778402
0.300316244 0.713725209 0.552308619
0.346489549 0.720935583 0.568753779
0.400505751 0.729791403 0.575711370
0.469576031 0.741682172 0.596078575
0.543959677 0.760658026 0.623276234
0.630107164 0.779885769 0.652877927
0.123972192 0.056420192 0.161416799
0.123466350 0.063124545 0.160151646
0.133080184 0.074509814 0.162049189
0.151297003 0.092473000 0.170019001
0.182542995 0.112839997 0.186463997
0.224794269 0.135230735 0.199747190
0.293738276 0.168374389 0.233270183
0.376849771 0.214547977 0.283238441
0.121694729 0.079569548 0.162049383
0.126881793 0.087033994 0.165338188
0.146616101 0.095256351 0.171157539
0.157495201 0.111321904 0.177862197
0.183681339 0.125363991 0.187602639
0.232637271 0.149652004 0.205819070
0.297912747 0.182415992 0.242378339
0.381277442 0.232511178 0.293105602
0.144338906 0.123845898 0.183301896
0.150031641 0.124984451 0.185578898
0.159139901 0.134851187 0.191271186
0.170778096 0.145730197 0.196584195
0.202909291 0.161417007 0.209108174
0.244022623 0.182795733 0.227071360
0.306261986 0.217710108 0.264769077
0.388740987 0.267299026 0.316255540
0.142568186 0.158633634 0.206324831
0.158760443 0.164452985 0.212270990
0.176723540 0.179000527 0.221252441
0.197849646 0.201264992 0.232257724
0.224414825 0.217330828 0.242251635
0.264769107 0.244275898 0.262998164
0.325363517 0.276786715 0.296647668
0.408981591 0.327767283 0.349525630
0.166223809 0.248956174 0.255281389
0.170777991 0.256672710 0.256040394
0.187223077 0.262365282 0.263883471
0.214294642 0.283870757 0.279570192
0.255534172 0.314737171 0.308412373
0.289057463 0.330803126 0.323213369
0.346236467 0.363946766 0.347375154
0.429854631 0.419354647 0.398355365
0.182416260 0.368374527 0.327640921
0.181657255 0.370272160 0.324984074
0.199620456 0.376976639 0.338646650
0.224161997 0.398102522 0.352308571
0.261353523 0.417710006 0.367995173
0.303605229 0.436432719 0.385958403
0.365844488 0.472485751 0.416571736
0.458697230 0.527893782 0.470841110
0.150031716 0.533839345 0.427451074
0.161290348 0.528399825 0.433270186
0.182795808 0.539278746 0.436685532
0.222264633 0.549905121 0.446426034
0.274636179 0.564326346 0.462365776
0.339658260 0.581910193 0.480961293
0.409867346 0.603415847 0.509297848
0.517520607 0.652877927 0.556229889
0.250094563 0.711574793 0.570777953
0.255913913 0.712081075 0.573940098
0.285641700 0.716381729 0.577482581
0.337887555 0.721821606 0.590006351
0.395192742 0.734092236 0.601391435
0.467805028 0.747754276 0.621378899
0.549272716 0.761922598 0.645034671
0.636938393 0.781656921 0.674509764
0.146868736 0.062744997 0.221125737
0.152687997 0.068564259 0.223149985
0.163314342 0.081087835 0.225932822
0.179632813 0.096015260 0.229981080
0.204427272 0.119544737 0.239089012
0.240860239 0.144844994 0.256293714
0.297912717 0.173813999 0.284503728
0.382036626 0.220240712 0.330550283
0.148513734 0.092220448 0.224668190
0.163567260 0.093611732 0.221505284
0.164832339 0.101075187 0.227704078
0.185199350 0.116761282 0.236432388
0.208349183 0.137001991 0.245793983
0.245035186 0.160910532 0.264642298
0.297912717 0.183934182 0.283997446
0.380391926 0.237444803 0.340670288
0.167235836 0.129159093 0.247564718
0.166856080 0.134724900 0.239974812
0.179632723 0.140290990 0.247817740
0.199747190 0.150790632 0.253637195
0.218975335 0.170778006 0.264642358
0.254522502 0.192283347 0.279569954
0.309044749 0.224035099 0.306894392
0.390638739 0.270841271 0.360278368
0.176596731 0.172548741 0.268437445
0.184187099 0.180139095 0.272232831
0.197722733 0.193042547 0.272738725
0.213029891 0.209108293 0.282479465
0.236052930 0.227071181 0.293358564
0.271473646 0.251739502 0.309677720
0.322707087 0.277039975 0.341429383
0.413788676 0.335230589 0.400758952
0.168374479 0.246299848 0.307273924
0.186590984 0.243896529 0.317647368
0.195825279 0.254901856 0.317647278
0.228210092 0.279949635 0.332700640
0.259456187 0.308918417 0.350031435
0.289057463 0.331056178 0.366097420
0.348513365 0.367488742 0.396078259
0.435293943 0.421758324 0.445667088
0.170651257 0.369765699 0.377735734
0.181657255 0.367109239 0.383934021
0.195825264 0.377229452 0.384819716
0.217962995 0.395698726 0.397596478
0.253131002 0.421884447 0.421504974
0.309551001 0.463883728 0.453889936
0.372549266 0.490449011 0.476660281
0.465654612 0.532194555 0.521568716
0.133333281 0.530423999 0.463757277
0.138267010 0.532321393 0.472738564
0.168121621 0.539658189 0.480834931
0.209487543 0.552941203 0.493359029
0.269323468 0.576976776 0.512081146
0.338772565 0.598102272 0.530676782
0.420367002 0.620366991 0.560025036
0.537761092 0.661986291 0.601517975
0.238330141 0.709677339 0.600632429
0.249841750 0.714357734 0.609993637
0.277419120 0.716381669 0.608981669
0.325363368 0.724098444 0.617457628
0.387602389 0.735989869 0.634282053
0.462998241 0.747754514 0.649968445
0.548639953 0.764199913 0.669955790
0.642251432 0.788361669 0.700569510
0.197975993 0.070588000 0.323086262
0.198988289 0.073244736 0.326628745
0.212144181 0.084756806 0.330170751
0.224288642 0.106008634 0.331435919
0.250474364 0.127008185 0.344212472
0.273750752 0.156609997 0.351802528
0.326375276 0.190132990 0.374699265
0.381403983 0.228968799 0.403036237
0.197343573 0.095256448 0.318532258
0.197470009 0.097153708 0.330297261
0.212144271 0.106261835 0.331435829
0.227451026 0.123466350 0.335610271
0.253637284 0.144086003 0.348513633
0.281593829 0.173813999 0.360657543
0.324351549 0.202783003 0.383301854
0.384819776 0.241492808 0.408222795
0.203795284 0.137761101 0.337381542
0.215686098 0.139658347 0.339911282
0.221632093 0.151170194 0.337887466
0.235800192 0.163693786 0.350411177
0.257558286 0.181657374 0.359266251
0.284883171 0.212270901 0.376723707
0.333586097 0.240101054 0.402909368
0.394687265 0.277799070 0.427703887
0.209740564 0.196204633 0.362934560
0.218595698 0.198481917 0.363820523
0.225553468 0.203921542 0.365211815
0.245540917 0.221378922 0.373560905
0.268057942 0.242757887 0.390765280
0.298418999 0.266034365 0.409234554
0.340797275 0.297786206 0.426818192
0.412649930 0.338899434 0.464136541
0.212650001 0.252119094 0.406198531
0.211764738 0.260467857 0.409867465
0.230360463 0.271727055 0.404427737
0.251612991 0.296521336 0.419860929
0.277419478 0.314737171 0.427324533
0.307020992 0.345603913 0.447944105
0.348513335 0.378747553 0.468690723
0.437318325 0.425047278 0.506261647
0.162934750 0.367488891 0.467931747
0.163947180 0.374572933 0.471220553
0.191524297 0.376091093 0.478051633
0.223655894 0.384693116 0.482732624
0.268817067 0.418342888 0.495888919
0.320936024 0.454396009 0.509677291
0.374573022 0.496647716 0.532194495
0.471220940 0.539278686 0.566982687
0.106894292 0.536748886 0.539658487
0.121695004 0.534724951 0.535104573
0.151423007 0.540670276 0.544718325
0.202909291 0.551296413 0.558507144
0.259835392 0.571283758 0.569133520
0.341049731 0.607084036 0.597722769
0.444908530 0.644275546 0.630866885
0.550284624 0.669323564 0.659076750
0.225932449 0.712081015 0.653383970
0.239974856 0.713851571 0.648956478
0.267299265 0.716761172 0.654649079
0.320176929 0.725743175 0.661859453
0.380897939 0.741302788 0.675648212
0.464769125 0.756609321 0.693105340
0.554964840 0.773687601 0.718279064
0.663124382 0.800885260 0.747501552
0.262997985 0.056167167 0.501454413
0.265021831 0.066034012 0.503478527
0.276280969 0.079823181 0.508159578
0.295382798 0.100315996 0.510183394
0.312840015 0.136622354 0.520935595
0.341176450 0.176849887 0.527514398
0.383301646 0.223276421 0.545224369
0.447691441 0.270967782 0.564199388
0.267805278 0.086907275 0.503099084
0.261226952 0.094623558 0.497659445
0.277166367 0.105502836 0.503858089
0.288931072 0.128526390 0.512966335
0.311195493 0.158001184 0.522580564
0.348007619 0.192915723 0.534724653
0.380897999 0.238203809 0.550031483
0.447944134 0.290069640 0.570524812
0.258444071 0.145603999 0.509930491
0.263630837 0.149019435 0.511069000
0.273497999 0.159392923 0.519670725
0.290196002 0.174952537 0.521694660
0.310057074 0.198735178 0.525363803
0.345097929 0.231245905 0.541555822
0.379633248 0.281593978 0.561543167
0.452245533 0.323086739 0.580771446
0.256799638 0.209487826 0.526122749
0.261606663 0.214294836 0.530929744
0.270208895 0.227071360 0.535736680
0.292093456 0.243390471 0.543959200
0.313472182 0.264136910 0.551169932
0.344465554 0.299304187 0.562555611
0.386843473 0.340796888 0.579000592
0.463377416 0.382542431 0.602023721
0.241492599 0.290322632 0.565970957
0.247691453 0.293864846 0.557495236
0.260721266 0.304743886 0.558760285
0.281593919 0.320050359 0.565717578
0.308918357 0.346236706 0.579253435
0.351043731 0.377608925 0.593295395
0.397975802 0.417836756 0.607463777
0.471726805 0.459835529 0.629980803
0.184819415 0.387223542 0.608222425
0.201644495 0.387349635 0.609614134
0.230866328 0.399746835 0.613662362
0.263630837 0.417077720 0.614167929
0.302340060 0.445667297 0.617836714
0.358001292 0.474636376 0.629601359
0.419987440 0.514610767 0.645540774
0.502846479 0.556483388 0.662871540
0.106135450 0.560025334 0.664642453
0.124857530 0.555471122 0.665401399
0.162048921 0.559519410 0.667299151
0.216192305 0.563061178 0.672485650
0.281720161 0.577229619 0.680834770
0.386211246 0.603542089 0.690069139
0.479190528 0.648197532 0.705249906
0.569260001 0.686274350 0.730044067
0.256040335 0.718405604 0.723592401
0.264136672 0.720050275 0.721062422
0.292726219 0.720303297 0.726122737
0.336242676 0.729032159 0.732574344
0.395319581 0.741176367 0.742061734
0.474256456 0.759392619 0.754838407
0.575838089 0.782542706 0.770651400
0.696521163 0.822896540 0.805945396
