Assets/Resources/EldamarStudio/100 Horror LUTs Pack/LUTs/cube/Rezoth LUT.cube
LUT_3D_SIZE 5
DOMAIN_MIN 0.000000 0.000000 0.000000
DOMAIN_MAX 0.903226 0.903226 0.903226
0.066666998 0.043136999 0.043136999
0.095762290 0.053257290 0.058823999
0.158886582 0.081720419 0.085009828
0.236432865 0.124604866 0.119670995
0.371663600 0.200252965 0.181909800
0.095762290 0.095129706 0.077799000
0.113724999 0.102972701 0.087919287
0.170018986 0.121948116 0.109170996
0.253131002 0.162175998 0.142567992
0.385072619 0.240480661 0.209360808
0.149778411 0.196204990 0.147880971
0.165464982 0.201771110 0.142567992
0.208602414 0.223023400 0.165464565
0.289310873 0.265275270 0.193928123
0.406830966 0.357241958 0.273497790
0.187223136 0.382795244 0.264010131
0.200379282 0.394560248 0.257811666
0.246805862 0.416445524 0.279063702
0.324731141 0.453384221 0.317014396
0.460215092 0.545224369 0.402403384
0.259582579 0.703731775 0.520935595
0.299810261 0.717267275 0.522580266
0.382542551 0.723465919 0.547754169
0.489436865 0.749398708 0.576470613
0.632258356 0.774446547 0.633523226
0.082985580 0.050980002 0.075521708
0.097406998 0.060468286 0.085009411
0.153320700 0.092220411 0.103984565
0.234788403 0.138646409 0.147501543
0.370904654 0.209993660 0.213914976
0.097406998 0.100695990 0.099051282
0.124224991 0.108538993 0.112460412
0.172295704 0.133080274 0.129158705
0.246932536 0.168753847 0.165464997
0.383680910 0.248576954 0.232890546
0.148387000 0.202403694 0.164452702
0.163820282 0.209614128 0.171030685
0.208601981 0.230234399 0.188361824
0.282858700 0.265907526 0.220113695
0.409487784 0.358886629 0.294750094
0.189500004 0.391903818 0.278051972
0.201644704 0.399114221 0.281340986
0.246805698 0.417457253 0.297406942
0.322453976 0.454396099 0.331056237
0.458697051 0.546616077 0.418848634
0.273624122 0.704996824 0.530423462
0.302846402 0.711827695 0.534092546
0.377609104 0.725869656 0.555977106
0.484629810 0.747754157 0.588361382
0.629348516 0.775458395 0.638330281
0.112459995 0.054901998 0.141935408
0.119291708 0.068311289 0.141555697
0.158253998 0.093485415 0.154332832
0.237065285 0.139658540 0.189373702
0.377482355 0.211258560 0.266287208
0.127513990 0.105882414 0.151043832
0.140923694 0.111448288 0.158633694
0.178494826 0.135989994 0.176217690
0.255407691 0.178873867 0.208602250
0.384313673 0.253130823 0.284250498
0.157621413 0.200759411 0.208602414
0.169006690 0.216824681 0.219734401
0.224288404 0.256419778 0.253763795
0.289057821 0.285515696 0.275015563
0.410752654 0.366350651 0.350663781
0.179759577 0.401011825 0.324478239
0.191524163 0.413535804 0.333333552
0.240227714 0.431752205 0.348007232
0.316508412 0.467425555 0.387223423
0.462871492 0.557748377 0.472106367
0.250347584 0.713092566 0.554965258
0.288424820 0.713725150 0.559772432
0.368121386 0.725490153 0.578367770
0.487539530 0.747374892 0.612776697
0.636306226 0.782416344 0.664769411
0.158001125 0.064769000 0.241366252
0.170398548 0.077799000 0.245667532
0.202403545 0.106640995 0.255787402
0.257052243 0.156988993 0.282606006
0.379506618 0.224035680 0.348766804
0.169007137 0.118026696 0.257684976
0.180392414 0.128146991 0.258696675
0.209614277 0.150790542 0.268564552
0.269449800 0.191271544 0.299304128
0.387349606 0.262744933 0.371410459
0.185705006 0.203415826 0.303858101
0.203035876 0.220746532 0.311321825
0.238330275 0.257684976 0.329032212
0.295002997 0.296267956 0.355977416
0.418342918 0.372928202 0.430866361
0.166602999 0.407210350 0.412144274
0.182922423 0.412144244 0.424288392
0.231372416 0.442251801 0.444149226
0.327767283 0.505376399 0.498418957
0.482352912 0.569133401 0.555723965
0.229981080 0.714737475 0.608222544
0.268817097 0.715116799 0.620872617
0.355091363 0.730297267 0.636559069
0.483238399 0.753573596 0.665654898
0.646805763 0.790891767 0.712207556
0.262997985 0.056167167 0.501454413
0.271220505 0.074762724 0.507653415
0.302213818 0.115749411 0.513852000
0.351043671 0.188741118 0.528526306
0.447691441 0.270967782 0.564199388
0.258697093 0.131435990 0.507653415
0.270714819 0.140923694 0.515116751
0.298924565 0.172296122 0.523592591
0.352940917 0.230992809 0.540037513
0.450221449 0.311195523 0.578241646
0.263630390 0.251866221 0.553067803
0.262871832 0.261986077 0.541555882
0.298924387 0.289183944 0.559013247
0.358127534 0.341302931 0.576849878
0.466666847 0.416192442 0.615812838
0.148386866 0.418089837 0.617836416
0.190132961 0.425300360 0.625553489
0.276027828 0.457052529 0.628083467
0.375964791 0.516888082 0.645540893
0.518785715 0.585831761 0.680075765
0.256040335 0.718405604 0.723592401
0.285136044 0.723845482 0.723339677
0.366349936 0.732068181 0.735989988
0.500315964 0.765970767 0.762428880
0.696521163 0.822896540 0.805945396
