Assets/Resources/EldamarStudio/100 Horror LUTs Pack/LUTs/cube/Rollos LUT.cube
LUT_3D_SIZE 5
DOMAIN_MIN 0.000000 0.000000 0.000000
DOMAIN_MAX 0.903226 0.903226 0.903226
0.031373002 0.031373002 0.031373002
0.106261700 0.052624710 0.052624710
0.226312816 0.081720419 0.077165999
0.444529116 0.128526121 0.114864118
0.753573418 0.201517805 0.171410650
0.076533988 0.117014416 0.076154292
0.125236690 0.121947698 0.077799000
0.245287389 0.153700411 0.099051282
0.457052529 0.206072241 0.131435558
0.768247902 0.278684407 0.195319518
0.157621413 0.260974407 0.134724990
0.202782959 0.272106379 0.133712694
0.310056806 0.295003384 0.150410995
0.530170977 0.363314539 0.173940405
0.794687033 0.445414215 0.267045945
0.306135237 0.542568088 0.220746115
0.351675928 0.556989014 0.228083536
0.465148807 0.564200103 0.250980109
0.627957284 0.589627087 0.294497252
0.829475045 0.651107132 0.409361094
0.571789742 0.822770417 0.520935595
0.598102391 0.834408641 0.530803561
0.671094477 0.839721620 0.551675975
0.781530738 0.846932471 0.585325718
0.902466595 0.860594749 0.639974594
0.040860288 0.040860288 0.078810699
0.100695990 0.054269418 0.087286711
0.211258397 0.092220411 0.113472275
0.427197844 0.141555712 0.155344725
0.744718313 0.206704661 0.225426823
0.088298410 0.111827984 0.096141987
0.125236690 0.125869706 0.111195400
0.232511103 0.155344695 0.134724990
0.449462235 0.204047978 0.164832398
0.762049556 0.282605976 0.237444818
0.161542982 0.263883680 0.161163703
0.204047978 0.269829094 0.166729987
0.308791786 0.291081816 0.174952269
0.523972034 0.363693804 0.213915408
0.791777313 0.451359808 0.303352058
0.305882514 0.545857072 0.260721117
0.353952795 0.546869218 0.262112528
0.467678785 0.561290264 0.287666082
0.624921143 0.583807409 0.325237274
0.827956617 0.652118981 0.431119531
0.577355862 0.829601347 0.533839166
0.590259314 0.830739856 0.537381411
0.668817401 0.831878185 0.562808275
0.781150937 0.843643367 0.597723126
0.902466595 0.858696759 0.654016256
0.057558831 0.058823999 0.158886582
0.110183284 0.068311289 0.155977130
0.207337409 0.098039001 0.172043398
0.431752235 0.130803406 0.235167533
0.742441177 0.191144794 0.323972046
0.099051289 0.133080274 0.164452702
0.135989994 0.135357410 0.168753996
0.237065107 0.158886567 0.196837410
0.453636974 0.194939986 0.244022816
0.751549602 0.280329108 0.338266790
0.170018986 0.275395393 0.220366567
0.214547813 0.280581802 0.233143702
0.318532377 0.307399929 0.249841824
0.527893662 0.362428814 0.297406524
0.786844015 0.451359808 0.385957956
0.312713444 0.541556239 0.339531809
0.356356561 0.544844866 0.352688074
0.468690544 0.561163962 0.364958793
0.625300229 0.590639234 0.404047936
0.833523035 0.655028343 0.506388247
0.559266150 0.820113599 0.596077979
0.579886317 0.829222143 0.582036734
0.659962237 0.830486774 0.604553759
0.778621316 0.843263924 0.634661496
0.906388581 0.863883317 0.689563453
0.085389130 0.084376998 0.288551241
0.147501692 0.091840707 0.289563388
0.253889829 0.114104711 0.293485135
0.439721525 0.135356992 0.351296246
0.746362746 0.200632498 0.456293523
0.121315278 0.153699994 0.297913134
0.166097566 0.161163703 0.299557418
0.275774926 0.173940405 0.309171259
0.472105980 0.200126410 0.371031225
0.759013295 0.290955067 0.470335215
0.175458699 0.300948799 0.354332954
0.229601398 0.310056776 0.358127534
0.361416668 0.333585948 0.390891939
0.553067505 0.379126936 0.432764113
0.783174992 0.467678368 0.526248932
0.324857354 0.562176108 0.468184382
0.378747404 0.567995131 0.476281226
0.485642105 0.579506695 0.500063121
0.632764101 0.602403224 0.523972273
0.831878781 0.657305419 0.605692863
0.598861337 0.826312304 0.674003959
0.606324911 0.830486953 0.672738612
0.657052517 0.834408641 0.680329025
0.765211761 0.845920324 0.702593088
0.895508945 0.865527928 0.750284433
0.109803997 0.099430986 0.618975580
0.219860643 0.099051125 0.619101405
0.394560158 0.101328418 0.619733930
0.592283010 0.127261281 0.626565278
0.808602214 0.233143777 0.648956597
0.086148024 0.188361824 0.618722320
0.211005673 0.185072809 0.620366573
0.400758922 0.196837395 0.626565278
0.601897657 0.227071553 0.632004678
0.814041734 0.318532318 0.665654719
0.061479989 0.371663630 0.634661555
0.214800701 0.370651335 0.636559188
0.416065782 0.386717200 0.647185147
0.620872915 0.415180296 0.657178879
0.820746183 0.490069389 0.690828443
0.334598124 0.623149753 0.682226598
0.371790111 0.623782337 0.690322399
0.495129824 0.621379256 0.692725956
0.662871540 0.636179924 0.713345706
0.844022870 0.691334665 0.744085908
0.598102391 0.841113627 0.777102768
0.625932813 0.841745734 0.784313560
0.690828562 0.845541000 0.791397750
0.791018128 0.862871468 0.819481432
0.903731763 0.881593704 0.853004456
