Assets/Resources/EldamarStudio/100 Horror LUTs Pack/LUTs/cube/Rollos LUT.cube
DOMAIN_MIN 0 0 0
DOMAIN_MAX 1 1 1
LUT_3D_SIZE 32
0.031373002 0.031373002 0.031373002
0.034408614 0.034408614 0.028336613
0.039595000 0.037444774 0.029601775
0.049462158 0.039216001 0.033902999
0.064262994 0.039974999 0.039974999
0.076407000 0.046046998 0.046046998
0.091081321 0.049588677 0.049588677
0.106261700 0.052624710 0.052624710
0.121442094 0.055661097 0.056419998
0.136622503 0.058697488 0.062491998
0.151802868 0.061733127 0.062744997
0.169006988 0.066792995 0.064769253
0.186084643 0.072865002 0.067805350
0.202024072 0.078684032 0.071093999
0.226312816 0.081720419 0.077165999
0.250600964 0.087159999 0.083238609
0.276407182 0.094750188 0.090828799
0.303099126 0.103858411 0.098039001
0.327387989 0.112966038 0.098039016
0.360025376 0.116508357 0.106388360
0.401012182 0.121441990 0.109803997
0.444529116 0.128526121 0.114864118
0.484123975 0.137634501 0.129411995
0.526628792 0.146742910 0.129411995
0.569133520 0.153574005 0.136242703
0.615812957 0.161037311 0.142567679
0.665908039 0.171157062 0.147121996
0.708411932 0.186337441 0.159265995
0.753573418 0.201517805 0.171410650
0.799114525 0.216698185 0.188868165
0.844655514 0.232763961 0.210120589
0.890196025 0.250979990 0.231372997
0.028336613 0.043517001 0.025300227
0.025300227 0.037445001 0.034408614
0.047691159 0.038330387 0.039974771
0.058317386 0.041745998 0.042251840
0.065022089 0.046046998 0.043390159
0.082479768 0.052118998 0.052118998
0.092093445 0.055661321 0.050600678
0.107906409 0.057052772 0.054269418
0.122960292 0.058697291 0.057179291
0.133586109 0.061733104 0.056420006
0.148766473 0.067678608 0.065401867
0.170019105 0.070841253 0.067805126
0.189121038 0.075901389 0.070841253
0.204554394 0.081973389 0.074130386
0.223276421 0.087792411 0.080202386
0.245161399 0.090828806 0.083871193
0.274889380 0.096268386 0.087792799
0.305502951 0.103858411 0.093231998
0.327388018 0.112966046 0.098039016
0.365591377 0.122074358 0.106388360
0.399493724 0.125616729 0.109803997
0.438456595 0.131562263 0.112840123
0.478304982 0.140796632 0.123719469
0.526628792 0.152814910 0.132447615
0.571410239 0.161922693 0.137001619
0.616065562 0.171536937 0.145350665
0.663377643 0.181783766 0.152688071
0.708411932 0.189373836 0.162302390
0.750916600 0.201897368 0.171790212
0.797849357 0.214926958 0.190638930
0.842884541 0.230613187 0.214041814
0.884124041 0.250979990 0.237444997
0.031751998 0.051360000 0.027830549
0.037318163 0.049588997 0.036938388
0.040733542 0.049968772 0.037444774
0.060973998 0.049968772 0.044022836
0.064642541 0.053890225 0.043895997
0.081088096 0.058190998 0.051233158
0.096015446 0.066034317 0.052371677
0.105123058 0.065781288 0.052624710
0.121821642 0.066793226 0.058950320
0.135104299 0.071220525 0.061480291
0.150031641 0.075015776 0.063630871
0.167235762 0.079064034 0.072738737
0.188994512 0.080961771 0.074889004
0.205693036 0.085262746 0.077419259
0.225806758 0.093231998 0.085388996
0.248576790 0.101201802 0.086907037
0.272865176 0.102720000 0.089943416
0.306135356 0.108159572 0.093611762
0.331942022 0.117267594 0.099683791
0.365591377 0.126375362 0.104237586
0.405060202 0.135483727 0.115243703
0.437950552 0.141050130 0.116255775
0.474509716 0.150158018 0.122074984
0.525110841 0.160278037 0.133206874
0.571410239 0.167995244 0.140037775
0.616950929 0.178494528 0.146109760
0.662492037 0.190133065 0.155471072
0.708032370 0.197849765 0.167868450
0.755218148 0.209234744 0.174826041
0.797722816 0.228462696 0.196331576
0.844655514 0.241239354 0.215180159
0.886654019 0.257431775 0.230613455
0.040353999 0.062491998 0.037697840
0.044402387 0.061227158 0.041745774
0.051360000 0.062112771 0.044781610
0.059961997 0.063883997 0.043010838
0.067552090 0.063883997 0.046426095
0.083618097 0.066034220 0.052498322
0.095003322 0.072865322 0.053510323
0.110689446 0.079190448 0.055154707
0.119038165 0.076913163 0.058191091
0.135230809 0.081973165 0.066287480
0.149272874 0.083870873 0.065401837
0.169006988 0.089437261 0.071473897
0.189500287 0.092473350 0.078304514
0.207463995 0.092852861 0.078431003
0.225680232 0.099936731 0.084503248
0.251866132 0.109044962 0.090195999
0.276407182 0.113599159 0.091714188
0.304996520 0.115496568 0.095382996
0.335989803 0.124604814 0.101455010
0.367868364 0.133712813 0.107273646
0.403795034 0.144085735 0.114737317
0.443263948 0.151170135 0.121821970
0.475141972 0.159898981 0.122074984
0.525616586 0.170145258 0.134219006
0.571410239 0.178241566 0.139279008
0.616950929 0.184566975 0.149146155
0.662492037 0.197217062 0.156230167
0.708032370 0.207843453 0.170651436
0.754965067 0.218343139 0.180391982
0.801265299 0.233775914 0.193042353
0.844655514 0.254522204 0.223402947
0.890196025 0.264010161 0.229854152
0.050980002 0.080328546 0.050980002
0.049462385 0.076913387 0.049462385
0.052878000 0.076027997 0.050347771
0.061480090 0.075648546 0.051359549
0.072865091 0.076407544 0.052118547
0.091081865 0.076407544 0.058191322
0.099936999 0.081087999 0.059962451
0.112207539 0.086780541 0.061227284
0.127766997 0.090954997 0.064263090
0.133839011 0.090954997 0.067299478
0.146110192 0.091334544 0.064895675
0.165591523 0.097027250 0.069576249
0.189500287 0.104237899 0.076407447
0.213283002 0.107273571 0.079443067
0.225679994 0.110309958 0.079569548
0.251486599 0.118153244 0.086400799
0.279569983 0.123086996 0.092852637
0.304617077 0.124984503 0.096141994
0.338013560 0.134092152 0.102214016
0.368627280 0.143579900 0.110689200
0.403541982 0.153826550 0.119417734
0.440986693 0.163693681 0.125237122
0.480581522 0.166983023 0.122580990
0.528652370 0.178874001 0.134219006
0.573054552 0.188741282 0.138393551
0.617330492 0.196457982 0.143833101
0.662112594 0.204048067 0.158886999
0.707652926 0.219228432 0.171030983
0.753193855 0.229095817 0.183174968
0.798355460 0.241745830 0.196078420
0.843137503 0.256799191 0.212017953
0.888678014 0.268943995 0.242377996
0.050980002 0.095508933 0.050980002
0.060088385 0.089436933 0.060088385
0.065021999 0.088171996 0.060720995
0.073624313 0.086907156 0.058696933
0.085009865 0.085515931 0.055154931
0.091081865 0.091587931 0.061226934
0.104237996 0.094117612 0.067299061
0.117014699 0.097659707 0.069070064
0.131182849 0.099683844 0.070335090
0.139911011 0.097027004 0.073371485
0.154711872 0.099936873 0.073497996
0.171410576 0.104490928 0.077039935
0.191777587 0.111069001 0.082479641
0.213283002 0.116381966 0.085515834
0.231498986 0.119418353 0.088551447
0.253510594 0.127261117 0.093484931
0.281847000 0.133333251 0.100062996
0.309930146 0.137128577 0.104996637
0.334977925 0.146236926 0.108286008
0.365591675 0.158127889 0.114358008
0.403542399 0.165970936 0.120935924
0.444023043 0.174067050 0.126502126
0.483617902 0.182163402 0.128652990
0.526122749 0.191271037 0.134724990
0.571916163 0.200885296 0.144086286
0.618342638 0.208601981 0.148893252
0.664896011 0.216192067 0.155977130
0.704617321 0.231372446 0.171030983
0.750157654 0.241239816 0.183174968
0.793927372 0.253890187 0.198861405
0.836052954 0.269955844 0.216065973
0.876533985 0.287160009 0.236305997
0.061100643 0.108158998 0.066160642
0.065148383 0.104617320 0.067678705
0.074256778 0.104996547 0.068184547
0.080708325 0.105375998 0.069070160
0.090322673 0.103605226 0.067931771
0.100695677 0.103225999 0.071852997
0.106767677 0.106767677 0.070335321
0.120556377 0.109803706 0.073118322
0.136495873 0.113598995 0.075395413
0.150917158 0.115875833 0.081973799
0.158254191 0.116128862 0.082100317
0.179506317 0.119165249 0.084124058
0.197596312 0.124731317 0.088551641
0.216571704 0.131056353 0.091334999
0.241618976 0.138646737 0.092093900
0.262238801 0.141682506 0.097533315
0.286401063 0.149019316 0.103605315
0.314737439 0.153699994 0.108412318
0.342821330 0.160910651 0.109550983
0.380265743 0.170272008 0.122960322
0.410626471 0.180518731 0.123339579
0.451613098 0.187223315 0.128526121
0.494117498 0.194939986 0.134471998
0.534219086 0.206451416 0.135737002
0.581277847 0.220113590 0.144086286
0.629854262 0.228336304 0.155977294
0.678051889 0.234914392 0.164579064
0.717520714 0.246046767 0.175711438
0.759772360 0.258443832 0.190765291
0.805312753 0.271094173 0.206451267
0.847691119 0.288045585 0.224667877
0.887160301 0.307906330 0.242884323
0.076533988 0.117014416 0.076154292
0.076281019 0.118912086 0.074510001
0.081973478 0.121821634 0.077292934
0.089816704 0.119797245 0.071726546
0.095509157 0.119038247 0.074003838
0.103857994 0.118532635 0.079569772
0.117520407 0.118912086 0.079190321
0.125236690 0.121947698 0.077799000
0.138899088 0.124984086 0.079316996
0.154459268 0.130170688 0.087539770
0.167615697 0.133712694 0.089563996
0.180897981 0.135736957 0.089943446
0.204047635 0.138773054 0.092979059
0.220746025 0.144592032 0.096268289
0.245287389 0.153700411 0.099051282
0.267804772 0.159645900 0.100569278
0.293611377 0.162681893 0.106641285
0.319418132 0.170524806 0.113345854
0.349778980 0.179632708 0.116382003
0.386844099 0.186843768 0.120430373
0.420619756 0.195951715 0.132447958
0.457052529 0.206072241 0.131435558
0.502972484 0.213535875 0.139025792
0.542441726 0.224161699 0.140543997
0.588741541 0.233649254 0.145730570
0.634535313 0.247438326 0.156230256
0.683870852 0.255028397 0.170145065
0.724478304 0.265275151 0.179253444
0.768247902 0.278684407 0.195319518
0.805945814 0.292599589 0.212270662
0.849715292 0.308665395 0.230486676
0.889184296 0.329158694 0.248703286
0.092473097 0.127640992 0.079949193
0.089437291 0.132954091 0.076913394
0.093612000 0.136748999 0.081847005
0.098166004 0.138772935 0.082352936
0.104997002 0.130423635 0.074762642
0.109171160 0.132701039 0.083112039
0.122580633 0.133965999 0.084630102
0.135104373 0.134851381 0.085389003
0.145730183 0.137887180 0.085389003
0.154838592 0.140923575 0.091461003
0.173434734 0.147627994 0.095382765
0.188867822 0.151676267 0.096394897
0.206324726 0.153953448 0.096774347
0.227071121 0.157748088 0.099810027
0.247311488 0.167362422 0.105376087
0.269322962 0.174826086 0.108159095
0.295129359 0.179380283 0.110436194
0.326122522 0.184314072 0.116508186
0.356609881 0.199367240 0.125490054
0.391777754 0.206957817 0.125743344
0.426692069 0.214927346 0.130676985
0.460088342 0.224288255 0.139025956
0.508791566 0.236179993 0.142314598
0.550790846 0.244655207 0.146615997
0.595572591 0.253763169 0.151929095
0.641366363 0.262618303 0.160025164
0.683365107 0.274257064 0.172169179
0.725616872 0.286148101 0.181530535
0.768500865 0.300189823 0.198608533
0.811511457 0.314611077 0.218343034
0.844402552 0.332954168 0.237318158
0.883871019 0.351170182 0.255534172
0.101581484 0.151929021 0.086021975
0.098545112 0.154965401 0.082985595
0.104111299 0.153826728 0.090702005
0.109298006 0.152435020 0.095003001
0.111069009 0.151676044 0.089943036
0.123212993 0.148640439 0.092979424
0.132447809 0.150917172 0.093738489
0.140290990 0.152182013 0.095382772
0.148766592 0.153067589 0.097533002
0.163946986 0.156103984 0.097533010
0.184693351 0.164958611 0.103605002
0.199746996 0.169892251 0.105502516
0.215433121 0.171790004 0.105502516
0.236179516 0.172928497 0.105882034
0.251359910 0.185072497 0.108918421
0.274004072 0.194686815 0.114484482
0.301201969 0.200632691 0.118785679
0.332194537 0.205566481 0.122580968
0.365591019 0.217710510 0.128652975
0.398861617 0.227198333 0.134851485
0.436179727 0.236179754 0.140543982
0.474256724 0.245287627 0.144844994
0.511827946 0.254395992 0.145350993
0.563441157 0.260468036 0.154459402
0.607716978 0.273497760 0.161037490
0.650474787 0.286906958 0.168501154
0.692473531 0.298545063 0.178241968
0.731941879 0.307653427 0.190385967
0.768880546 0.319544464 0.207716450
0.814547539 0.331814975 0.229474902
0.859202683 0.348513335 0.252625078
0.889943004 0.375458986 0.273750961
0.101961002 0.164579004 0.092093997
0.116382353 0.167615384 0.097786486
0.113345966 0.170651764 0.096900873
0.120682992 0.170398742 0.103478871
0.126881540 0.170778200 0.103984870
0.126375869 0.172801942 0.099430934
0.141050190 0.169766307 0.102466673
0.152561873 0.170398742 0.101201840
0.161922961 0.171916738 0.100948870
0.172802374 0.177103356 0.100948870
0.185072869 0.174319997 0.103857994
0.204300985 0.181403860 0.107906252
0.221631646 0.187602639 0.112207510
0.242631078 0.193421870 0.117267713
0.260468274 0.200252861 0.114990413
0.282858849 0.209993660 0.120429993
0.311701298 0.219102070 0.128020182
0.343453109 0.226818845 0.133839414
0.374572873 0.238962874 0.137634128
0.407969266 0.242757514 0.140923485
0.441366345 0.253510594 0.143074006
0.478810996 0.263630599 0.148134127
0.517647028 0.272864997 0.154079869
0.566476822 0.284503728 0.160404921
0.611258686 0.295129746 0.169513285
0.652372062 0.306894511 0.179000854
0.693359017 0.317520738 0.190639064
0.735230505 0.329032302 0.205186859
0.774699509 0.346109837 0.219987676
0.811385334 0.356989056 0.234408706
0.853763402 0.369765729 0.252371967
0.890196025 0.391018122 0.271600127
0.108032733 0.184819505 0.102213994
0.121189386 0.189879641 0.104237989
0.125490472 0.186843768 0.103984736
0.126249254 0.192410156 0.101454735
0.136495814 0.193928242 0.104490742
0.140038192 0.192030564 0.104996733
0.148134053 0.194054306 0.108538672
0.160025433 0.191018701 0.106640995
0.171790004 0.191398144 0.105502732
0.182163224 0.196204990 0.108032733
0.194181249 0.197596639 0.110942379
0.210373238 0.200632483 0.113978505
0.228589237 0.207843140 0.114737608
0.248956025 0.216698498 0.120556742
0.268943548 0.222770497 0.126375571
0.293990970 0.233270049 0.126501992
0.321315348 0.240860239 0.131056190
0.352940798 0.248829991 0.137254998
0.381909966 0.258191019 0.138899311
0.417077631 0.268058419 0.143959358
0.452371716 0.272991747 0.145098001
0.487919092 0.283871114 0.148134127
0.527513981 0.293105274 0.157242477
0.572295785 0.305250049 0.165211737
0.618342876 0.319417983 0.179633275
0.655281603 0.330170631 0.184566990
0.693359017 0.339784980 0.194687068
0.735862970 0.351928979 0.209867448
0.777735174 0.365338475 0.225047812
0.818975031 0.381783664 0.245540917
0.855028510 0.393168867 0.260468185
0.892220259 0.410246253 0.278684527
0.121694639 0.209108278 0.113219641
0.129285112 0.212903291 0.110942349
0.136242986 0.212650284 0.111068867
0.138772979 0.210626155 0.110183276
0.144465536 0.218975544 0.104870282
0.152055934 0.215180635 0.109424286
0.161163971 0.215559959 0.114357643
0.170271710 0.216445357 0.114990287
0.180898100 0.216445535 0.112713180
0.193421662 0.220240146 0.119164638
0.206704736 0.222137854 0.123465858
0.219481632 0.224920988 0.124225251
0.239974633 0.230993271 0.126122996
0.258190691 0.240101591 0.123845637
0.278557658 0.247058988 0.134218633
0.305755407 0.254522622 0.136748642
0.334598005 0.267046273 0.140543833
0.365591168 0.273750693 0.143580064
0.393927634 0.280328661 0.144086003
0.427324384 0.290828735 0.149652004
0.464895457 0.302593648 0.151928991
0.501328230 0.308665633 0.152941123
0.540543675 0.317773253 0.161669984
0.581024468 0.329917789 0.169765741
0.624667823 0.344338953 0.181150928
0.667805314 0.356735915 0.196711004
0.698672056 0.366350263 0.199747130
0.739278615 0.378494263 0.215560079
0.780644894 0.390638649 0.233017445
0.822010934 0.404554158 0.252372205
0.861859143 0.420620173 0.277545840
0.895256341 0.436052918 0.296521634
0.142441034 0.233650029 0.122580998
0.141935036 0.234156027 0.115496226
0.148892805 0.233902991 0.115875773
0.156230032 0.235167906 0.119924158
0.162175551 0.238456577 0.123086996
0.165211946 0.241492972 0.123086996
0.173561275 0.241493031 0.124351703
0.183428347 0.241999030 0.125110671
0.193042099 0.243263930 0.124351896
0.208222508 0.252371550 0.133459508
0.223655909 0.253257096 0.139658049
0.235294282 0.253510058 0.139911294
0.249589026 0.255281270 0.137507960
0.273624092 0.261607021 0.138266996
0.291840822 0.270714641 0.144338995
0.319165021 0.275521815 0.145603999
0.349778384 0.284124166 0.149652198
0.380265564 0.298545450 0.158001423
0.413662046 0.307653099 0.161037058
0.445034742 0.316508383 0.166350007
0.480581790 0.328905761 0.168880031
0.518785298 0.341303051 0.170145124
0.555344522 0.347754508 0.173560977
0.591903806 0.360025018 0.179885998
0.632890582 0.374193311 0.186717033
0.674636245 0.386843681 0.196710706
0.716129065 0.396458000 0.212397128
0.749525428 0.408601999 0.230613872
0.787982404 0.420493037 0.251233757
0.827198148 0.434155196 0.272486120
0.864642560 0.450221211 0.295003533
0.898038983 0.468438029 0.322327971
0.157621413 0.260974407 0.134724990
0.151549414 0.267046392 0.116508216
0.161796182 0.265401632 0.115875773
0.169386402 0.265528142 0.123972163
0.171410412 0.268943816 0.135483980
0.177355930 0.274889350 0.141302988
0.187981993 0.270335376 0.131182984
0.202782959 0.272106379 0.133712694
0.215306714 0.274636298 0.138013572
0.220366493 0.273623914 0.139531508
0.238456741 0.279823124 0.145730734
0.254016668 0.282605946 0.147754833
0.269070387 0.283870816 0.144845128
0.288804442 0.285895020 0.141302615
0.310056806 0.295003384 0.150410995
0.333080560 0.304111004 0.151675999
0.363187999 0.311954141 0.153194189
0.394686937 0.323592544 0.158760414
0.422770441 0.338013828 0.167109028
0.461732775 0.344338804 0.167361990
0.495509177 0.352941155 0.170524731
0.530170977 0.363314539 0.173940405
0.564452946 0.372043282 0.179632977
0.603921354 0.387222886 0.191777006
0.645034552 0.399493963 0.204933271
0.683364570 0.412270784 0.216824725
0.719670773 0.423782408 0.230613813
0.758633852 0.435926378 0.248829871
0.794687033 0.445414215 0.267045945
0.831752360 0.456925750 0.287665725
0.867046356 0.471473575 0.308918148
0.898038983 0.489690393 0.331435561
0.175205603 0.295508981 0.142061993
0.169133604 0.296773970 0.138266817
0.175964609 0.298544973 0.130802825
0.184566796 0.300821930 0.128273144
0.186084792 0.304617226 0.133965999
0.196204796 0.300568998 0.144086003
0.202529788 0.310942590 0.146995798
0.216318488 0.303225875 0.141429797
0.233017072 0.304743886 0.145983607
0.242631122 0.304996908 0.145983607
0.253004521 0.310689539 0.149398938
0.269197047 0.314737529 0.151423201
0.285515785 0.316634774 0.151423201
0.303731799 0.317140788 0.148639843
0.322833359 0.324098378 0.153447226
0.346489578 0.330803603 0.157747999
0.373814374 0.341429383 0.162302181
0.406325310 0.351423174 0.167741984
0.437191784 0.363061577 0.175078839
0.470841169 0.372295767 0.180644795
0.506514549 0.382163256 0.180644795
0.540923476 0.392789572 0.185199112
0.575964510 0.403289288 0.192662790
0.615433514 0.413915485 0.200252816
0.648070574 0.429095089 0.214674085
0.688677967 0.441366315 0.229854450
0.724098682 0.453510582 0.243010983
0.759772301 0.465654582 0.257431984
0.798987806 0.475142419 0.282858759
0.833649814 0.489563555 0.299303979
0.867678940 0.502972603 0.323718965
0.898038983 0.518152952 0.352561593
0.193421990 0.333459556 0.151170000
0.191904187 0.331941366 0.151170000
0.192663193 0.336495548 0.144465417
0.201012030 0.332700402 0.143959358
0.202403545 0.340670288 0.137381643
0.213409200 0.339531839 0.146109998
0.222011372 0.339025646 0.149146125
0.233017072 0.345730662 0.150537804
0.245920375 0.338899374 0.151296899
0.258823663 0.341176659 0.152055994
0.271221042 0.345604390 0.153447315
0.287413061 0.349652112 0.159012988
0.302593410 0.352688015 0.160151631
0.320430040 0.353320509 0.160025194
0.338646352 0.358127356 0.159266412
0.361669570 0.361163616 0.165338576
0.387476206 0.367235959 0.168374181
0.418469489 0.378747553 0.176217571
0.451866180 0.387855977 0.181404203
0.485262573 0.401518226 0.188993990
0.521694899 0.414041460 0.197343379
0.553067327 0.423150092 0.197343379
0.587981999 0.433776170 0.205186695
0.626059532 0.444275886 0.215433389
0.658697188 0.456420243 0.226818472
0.691840529 0.470208526 0.240607157
0.731183052 0.481341183 0.256167114
0.766603410 0.491461188 0.270335376
0.803794980 0.502466798 0.295762151
0.835167587 0.515370131 0.314484358
0.868564606 0.534471810 0.336748749
0.899557173 0.548513353 0.373813987
0.212270558 0.371663541 0.160784006
0.215939373 0.370524704 0.164579138
0.216192558 0.374825895 0.155976966
0.217457399 0.377608955 0.149525568
0.221252099 0.370018631 0.152182400
0.230360478 0.381404400 0.154965043
0.239468873 0.379633069 0.156103566
0.251233667 0.377229244 0.155470982
0.266666949 0.380771518 0.157495067
0.272738963 0.380771518 0.160531461
0.287539810 0.383681387 0.160657972
0.305502862 0.386717439 0.164832309
0.325742751 0.389753163 0.172295615
0.341176122 0.393042505 0.175838009
0.359392762 0.396457672 0.171663553
0.381151110 0.397090107 0.175711781
0.405692339 0.398861110 0.179886371
0.433016688 0.404933095 0.182921991
0.466413915 0.414041519 0.185958385
0.500442922 0.430866659 0.195825219
0.536369264 0.445287794 0.206198454
0.572422266 0.458949655 0.216824979
0.599999607 0.462112516 0.217330992
0.635926366 0.473244548 0.232005462
0.667172551 0.484756559 0.244275972
0.702213883 0.497533500 0.257685125
0.737128615 0.509171605 0.270335078
0.776090980 0.515370131 0.288425297
0.812270582 0.527387500 0.313346177
0.842251778 0.540670276 0.334345490
0.868564606 0.556356728 0.351929128
0.901961029 0.577609122 0.391397566
0.233522996 0.405060023 0.160784036
0.239594996 0.411132038 0.179000780
0.238962814 0.414294779 0.174193382
0.238709837 0.415306807 0.167109013
0.242504552 0.412523538 0.167362034
0.251612931 0.415559918 0.167362064
0.260721326 0.416825026 0.170145333
0.271474004 0.414674252 0.169639274
0.285389036 0.414421052 0.169892117
0.303099036 0.420240015 0.178747505
0.317899883 0.423149884 0.178874016
0.333080262 0.426186293 0.178874031
0.351043612 0.429222316 0.181909978
0.371536970 0.432511002 0.187982053
0.389752924 0.438582987 0.197090432
0.407969624 0.439594984 0.197722986
0.428210169 0.439594984 0.195446029
0.451233506 0.441365957 0.192030415
0.478558004 0.447438002 0.195066035
0.514737785 0.462112367 0.209234416
0.549019694 0.471853018 0.220113724
0.581910253 0.481720150 0.230487034
0.612144411 0.495509028 0.241619051
0.645540833 0.501581013 0.253763825
0.674636304 0.510436356 0.263883710
0.710563004 0.522580743 0.277419358
0.752308965 0.536496103 0.294623911
0.779633343 0.545604467 0.309803486
0.813282728 0.559772134 0.330549836
0.843390107 0.572928429 0.354079455
0.871347189 0.586211622 0.378241539
0.901961029 0.601898015 0.406578004
0.254775375 0.452371746 0.180265367
0.258064717 0.458443731 0.179000780
0.264136732 0.460214734 0.186464220
0.265528202 0.460088551 0.182542369
0.269702464 0.458191127 0.182921916
0.281214654 0.463630676 0.185325727
0.285262406 0.461606413 0.185325727
0.295509011 0.461353362 0.188108653
0.309171200 0.461732924 0.188867465
0.327387720 0.467805445 0.193927854
0.345477223 0.473750949 0.191524014
0.362681866 0.474763095 0.195572525
0.378621370 0.477040112 0.197090730
0.396331728 0.479822755 0.199620679
0.414547712 0.480834752 0.203668416
0.437571317 0.482099742 0.212776810
0.459582716 0.483617932 0.215433165
0.482099921 0.485515505 0.215053603
0.505123377 0.489436746 0.218089774
0.540797114 0.495508730 0.226692095
0.571537137 0.510689139 0.241872460
0.602150619 0.520429909 0.252751589
0.632384896 0.531815231 0.262997895
0.660468280 0.540544093 0.272485822
0.696141899 0.548892796 0.284630001
0.724984407 0.558001041 0.297027022
0.759645998 0.569892406 0.314864159
0.789247096 0.581277430 0.336875588
0.819228292 0.587729692 0.357368857
0.852498114 0.602529824 0.378621221
0.880075574 0.617457271 0.405439675
0.904743671 0.634535432 0.438456386
0.279822707 0.499051183 0.201517731
0.282859117 0.503225446 0.202277109
0.282352984 0.508791447 0.199746951
0.289690137 0.506261468 0.201517731
0.295509011 0.502972722 0.200379282
0.309171617 0.506008744 0.197343677
0.313725382 0.510183156 0.205439731
0.323339403 0.510436177 0.203795016
0.336495548 0.509930074 0.206324831
0.353573680 0.512586951 0.209361225
0.369892448 0.516761720 0.212270603
0.390006214 0.520683467 0.213409245
0.405945718 0.520683467 0.218343094
0.420620054 0.522707224 0.219607979
0.438836455 0.522707224 0.224288315
0.465654582 0.524604499 0.230233774
0.489943355 0.526122689 0.236306176
0.512966394 0.529791474 0.239974454
0.532953739 0.534092247 0.244275689
0.558633745 0.536116242 0.252878070
0.587476492 0.544085920 0.260088742
0.615812719 0.555218101 0.272232980
0.646046758 0.562555254 0.280708224
0.673371613 0.571663678 0.293358624
0.701834559 0.580771923 0.306641459
