Assets/Resources/EldamarStudio/100 Horror LUTs Pack/LUTs/cube/Rollos LUT.cube
LUT_3D_SIZE 8
DOMAIN_MIN 0.000000 0.000000 0.000000
DOMAIN_MAX 0.903226 0.903226 0.903226
0.031373002 0.031373002 0.031373002
0.064262994 0.039974999 0.039974999
0.121442094 0.055661097 0.056419998
0.186084643 0.072865002 0.067805350
0.276407182 0.094750188 0.090828799
0.401012182 0.121441990 0.109803997
0.569133520 0.153574005 0.136242703
0.753573418 0.201517805 0.171410650
0.050980002 0.080328546 0.050980002
0.072865091 0.076407544 0.052118547
0.127766997 0.090954997 0.064263090
0.189500287 0.104237899 0.076407447
0.279569983 0.123086996 0.092852637
0.403541982 0.153826550 0.119417734
0.573054552 0.188741282 0.138393551
0.753193855 0.229095817 0.183174968
0.092473097 0.127640992 0.079949193
0.104997002 0.130423635 0.074762642
0.145730183 0.137887180 0.085389003
0.206324726 0.153953448 0.096774347
0.295129359 0.179380283 0.110436194
0.426692069 0.214927346 0.130676985
0.595572591 0.253763169 0.151929095
0.768500865 0.300189823 0.198608533
0.121694639 0.209108278 0.113219641
0.144465536 0.218975544 0.104870282
0.180898100 0.216445535 0.112713180
0.239974633 0.230993271 0.126122996
0.334598005 0.267046273 0.140543833
0.464895457 0.302593648 0.151928991
0.624667823 0.344338953 0.181150928
0.780644894 0.390638649 0.233017445
0.193421990 0.333459556 0.151170000
0.202403545 0.340670288 0.137381643
0.245920375 0.338899374 0.151296899
0.302593410 0.352688015 0.160151631
0.387476206 0.367235959 0.168374181
0.521694899 0.414041460 0.197343379
0.658697188 0.456420243 0.226818472
0.803794980 0.502466798 0.295762151
0.279822707 0.499051183 0.201517731
0.295509011 0.502972722 0.200379282
0.336495548 0.509930074 0.206324831
0.405945718 0.520683467 0.218343094
0.489943355 0.526122689 0.236306176
0.587476492 0.544085920 0.260088742
0.701834559 0.580771923 0.306641459
0.826438665 0.622264385 0.382795781
0.400505543 0.674383581 0.312586844
0.419860989 0.678684115 0.329285562
0.456293344 0.677419305 0.333712846
0.515876234 0.680581808 0.351170272
0.584187388 0.686780572 0.366603464
0.664895535 0.697912574 0.388614535
0.754079521 0.711954236 0.424667567
0.849968493 0.728779316 0.483870775
0.571789742 0.822770417 0.520935595
0.588867724 0.831878603 0.525110304
0.607463598 0.831878603 0.533333361
0.648070812 0.837064743 0.542947352
0.698798180 0.839468598 0.555218160
0.764832258 0.846173644 0.578241587
0.832257748 0.851486564 0.607969463
0.902466595 0.860594749 0.639974594
0.039216001 0.036052998 0.055660997
0.060341999 0.040354453 0.056040544
0.113219544 0.062744997 0.072485641
0.171536997 0.080708288 0.086654350
0.256799400 0.105755992 0.107273899
0.386970013 0.131182730 0.132574186
0.559645832 0.160278261 0.156103715
0.747627556 0.200506285 0.192789510
0.052498095 0.071726546 0.057938091
0.079949096 0.076786995 0.067805447
0.115116991 0.092473090 0.077925541
0.179000556 0.104996897 0.091208547
0.265401572 0.122960083 0.111321993
0.394560277 0.156230360 0.133586451
0.559645832 0.188361838 0.151929110
0.746362567 0.230486795 0.199367344
0.085389100 0.125363901 0.092093542
0.108538546 0.132827550 0.092473097
0.144971088 0.134725004 0.097912997
0.194940180 0.151929185 0.109677091
0.286527306 0.175332189 0.126881897
0.415939182 0.214547902 0.145730376
0.586591005 0.254901826 0.174952552
0.759013474 0.299810380 0.221378952
0.131182641 0.204301283 0.123339541
0.150790542 0.206704378 0.121442094
0.181277648 0.213788986 0.127261356
0.233649611 0.224668190 0.130803093
0.327134490 0.257937819 0.148386717
0.453889668 0.297533303 0.163693905
0.614800990 0.339658350 0.197596535
0.775584936 0.392156452 0.244908452
0.186464190 0.334345192 0.153573900
0.203921735 0.331941366 0.161669746
0.239847913 0.339405626 0.164073542
0.304870516 0.348766744 0.168374285
0.388361573 0.362428367 0.178494379
0.509171188 0.408602268 0.205945283
0.656673074 0.453763604 0.243896529
0.796584427 0.500063300 0.308412284
0.272232652 0.496774197 0.206957728
0.288425028 0.495382667 0.212776467
0.335483819 0.504870296 0.215180278
0.399241269 0.511574805 0.226945087
0.484250724 0.526502252 0.245920017
0.577735662 0.540544033 0.268690705
0.699810207 0.575585306 0.323466003
0.824288368 0.619481325 0.394180655
0.402656823 0.664389968 0.328905791
0.416698098 0.671473980 0.328526258
0.448956311 0.671473980 0.336242646
0.503731668 0.676533759 0.351929188
0.580518723 0.683364987 0.371030807
0.664136589 0.692346334 0.396837115
0.743453264 0.707653284 0.427577376
0.847185194 0.728905797 0.484250575
0.557115614 0.829601347 0.512333989
0.581404030 0.823276341 0.525996149
0.599746823 0.824161708 0.523718834
0.642378151 0.827197850 0.538013816
0.695129752 0.835420668 0.553826571
0.760784268 0.844908476 0.580265462
0.830992758 0.852751434 0.610119998
0.900063157 0.855155051 0.641618967
0.044654999 0.044654999 0.091714002
0.061100900 0.048197452 0.085389100
0.112839997 0.061859999 0.097912900
0.174699187 0.081467189 0.110942349
0.268691093 0.108159088 0.137128279
0.385452211 0.128905639 0.156862900
0.554838598 0.162934795 0.186337903
0.745730460 0.205439806 0.235040888
0.064642541 0.078810550 0.085768551
0.087413445 0.080708094 0.099177547
0.121441998 0.095635898 0.110562995
0.185705096 0.109297633 0.117140643
0.272232711 0.130803093 0.141555652
0.393042475 0.157494992 0.161037356
0.564452529 0.188741282 0.187223375
0.747880876 0.234788343 0.238203704
0.102719903 0.130044192 0.114358000
0.119544551 0.140291005 0.117140643
0.144971102 0.142568097 0.131688893
0.200885639 0.161037549 0.140290990
0.290449083 0.185705289 0.155091986
0.423908800 0.214927346 0.171410471
0.586337566 0.254396170 0.208222568
0.761290371 0.305376202 0.255914152
0.137887284 0.212271094 0.150917456
0.158760369 0.215812638 0.146489188
0.187982187 0.221632093 0.157874644
0.241619632 0.236559272 0.161037445
0.334345192 0.261100739 0.175458372
0.457052380 0.295888484 0.196584374
0.615053952 0.345351309 0.232511282
0.773434281 0.393042475 0.287286460
0.193421990 0.333586276 0.180898294
0.213409454 0.337508082 0.187602639
0.250601083 0.342947274 0.193421990
0.306894273 0.348766863 0.194560632
0.391524285 0.371916473 0.209993795
0.513599157 0.410246551 0.239595070
0.653889775 0.457305670 0.276154160
0.796963751 0.508032799 0.345857084
0.282606065 0.506641388 0.243769825
0.302973092 0.501075268 0.250348181
0.344844818 0.508159339 0.252498746
0.403541982 0.515243292 0.270208985
0.485894799 0.523719370 0.277039975
0.581404209 0.539531529 0.297659814
0.704996526 0.579886138 0.350411266
0.823402882 0.621758461 0.426818371
0.407083988 0.669449866 0.357368529
0.427830696 0.677925289 0.358380646
0.458064377 0.675901413 0.373054534
0.511322200 0.680202186 0.384819537
0.584187388 0.688425064 0.401138544
0.666540444 0.695129573 0.420999259
0.749778330 0.708159387 0.450094849
0.846552670 0.729285240 0.516381919
0.573813677 0.830360591 0.539911509
0.587096572 0.830613136 0.545857131
0.607716501 0.829221785 0.549525380
0.652245581 0.835546732 0.562428772
0.704364121 0.838330090 0.574066818
0.765717566 0.839342058 0.590638697
0.832005084 0.850347936 0.626312494
0.903731763 0.857937932 0.656799555
0.053763356 0.053257290 0.129538640
0.069702998 0.057178997 0.128020450
0.114358097 0.068944000 0.127261356
0.170398638 0.086906999 0.143453285
0.261480272 0.110056639 0.170651287
0.384440094 0.126249090 0.197217077
0.554079831 0.140670642 0.229348570
0.741808712 0.192536160 0.279063612
0.070841447 0.086527646 0.125237092
0.090069994 0.090069994 0.121441990
0.123719089 0.096774451 0.137887180
0.178494275 0.111195281 0.151549548
0.266413718 0.129917890 0.172296092
0.390132934 0.150031552 0.199240819
0.558760524 0.174952641 0.237571016
0.738393366 0.226438999 0.284376889
0.102213643 0.142188460 0.150031537
0.110689543 0.140543729 0.152940929
0.155471444 0.157874644 0.167235643
0.208222285 0.163314551 0.170271650
0.296268016 0.184820086 0.191397727
0.418342918 0.211511999 0.215686545
0.583428264 0.249841899 0.253636867
0.756736100 0.302972972 0.309930325
0.137381628 0.216951281 0.181657284
0.153067544 0.216445640 0.190386102
0.195445642 0.227071285 0.196963727
0.246173635 0.235547274 0.195698991
0.334598005 0.260594368 0.208981380
0.459329456 0.293611467 0.238456726
0.612903595 0.339278936 0.282099634
0.772296250 0.391777307 0.338140458
0.195825189 0.334597915 0.229980722
0.215686545 0.335736543 0.231878370
0.258823723 0.344465464 0.231372729
0.311068833 0.351423204 0.237571031
0.394560486 0.370904356 0.250853717
0.513599277 0.410246491 0.283870727
0.653510213 0.455661386 0.324731261
0.795951664 0.506262004 0.387602657
0.282099724 0.495509446 0.294244260
0.301707715 0.499430627 0.296521366
0.348007828 0.505755603 0.296647370
0.406198442 0.515117228 0.308285981
0.487412989 0.524857759 0.321695179
0.579759717 0.544591963 0.347122043
0.702087164 0.579380155 0.393548459
0.821631730 0.623782396 0.469070375
0.406072289 0.669449866 0.403795272
0.424288571 0.672991931 0.402782947
0.455407739 0.672612488 0.411005706
0.508032560 0.676154196 0.418469548
0.579506755 0.683364928 0.432637542
0.662871718 0.690828443 0.459329456
0.747880876 0.705882192 0.486274183
0.845414519 0.731941938 0.542820871
0.574193239 0.829095244 0.564958990
0.580265462 0.821379066 0.567742169
0.599114418 0.828209817 0.572422445
0.642757416 0.831498742 0.578747213
0.699810326 0.832257748 0.598228991
0.760025144 0.842125416 0.613409102
0.829854250 0.848703206 0.642757475
0.904870391 0.860720992 0.675142467
0.069070198 0.060341805 0.183427989
0.088551797 0.070588000 0.183681339
0.132447794 0.082353003 0.183301896
0.178114727 0.096395001 0.184693366
0.257685184 0.112839997 0.211511791
0.390132725 0.132447988 0.253257543
0.564326525 0.138773009 0.301455200
0.745730460 0.193801627 0.354459375
0.087792993 0.099051349 0.185325652
0.101454735 0.109044805 0.182922453
0.139025733 0.108159088 0.178114727
0.183301896 0.122327901 0.192789197
0.262618810 0.135230646 0.215686530
0.400379598 0.153574005 0.262618840
0.568374515 0.169639349 0.307653397
0.739405215 0.223782361 0.359898835
0.116002090 0.145604089 0.192663088
0.127261341 0.154838562 0.198608637
0.160657898 0.157368913 0.201265186
0.215433195 0.167235643 0.209108189
0.298292309 0.187982202 0.241998985
0.427451283 0.207210839 0.272865534
0.593295336 0.241872087 0.314484388
0.758760273 0.302846164 0.373434156
0.143453285 0.220872998 0.222390994
0.166856289 0.225553274 0.230613634
0.209108084 0.241619438 0.248324081
0.270841271 0.260847479 0.257938027
0.354585350 0.268943846 0.273245066
0.473117977 0.301454991 0.302972853
0.622011185 0.340544105 0.343832880
0.773308039 0.393674940 0.402150363
0.200632185 0.342188179 0.280075967
0.221125826 0.349272370 0.287792623
0.262239158 0.359392375 0.293611377
0.324857354 0.367235988 0.299937159
0.411891162 0.384440184 0.310816169
0.526249349 0.418089449 0.347628385
0.658697188 0.454143196 0.379633188
0.791397810 0.507779777 0.445287824
0.289942712 0.507400274 0.361669451
0.308918744 0.505755424 0.360025376
0.347248733 0.512839973 0.362808019
0.411891162 0.518785715 0.371410728
0.487033486 0.528146923 0.385578930
0.585705280 0.549778640 0.405059904
0.706135154 0.584693015 0.455914170
0.821505368 0.626565576 0.519544721
0.411132246 0.668058515 0.459456265
0.421505272 0.671600223 0.460341543
0.453384072 0.673624277 0.460974246
0.504364252 0.676786780 0.471220553
0.577229738 0.689310491 0.486274451
0.661480010 0.694370508 0.502972901
0.748134315 0.708032846 0.533839345
0.849335790 0.739026070 0.586337745
0.558507204 0.826818287 0.607463598
0.565717757 0.826565325 0.600758910
0.592283249 0.826944828 0.604300678
0.637444377 0.832511008 0.615939617
0.694117725 0.837191582 0.632510781
0.758001447 0.841492534 0.644402266
0.826438665 0.851107001 0.670841515
0.902340353 0.862112582 0.707526743
0.084377259 0.078304999 0.260214716
0.108918279 0.081087738 0.262112468
0.155850992 0.092852637 0.264262736
0.213409632 0.104996897 0.264136732
0.274256736 0.117520481 0.272359282
0.389120728 0.131309256 0.316887975
0.567868292 0.153194442 0.377355993
0.743073583 0.202909797 0.432510823
0.101201810 0.109297730 0.248323724
0.117014728 0.109677278 0.254522532
0.163314447 0.118279278 0.261859715
0.213282734 0.130043998 0.268058091
0.282479376 0.139025733 0.274256915
0.401771218 0.157495007 0.321189016
0.572042823 0.176596820 0.377988547
0.747374952 0.228715882 0.433017194
0.126375735 0.162555352 0.279190481
0.147248283 0.172296107 0.282226503
0.182542995 0.171030745 0.286401093
0.235926822 0.180898190 0.282353163
0.309930176 0.189120829 0.296267927
0.438709825 0.212271005 0.340923607
0.594813526 0.243769825 0.398102641
0.759519517 0.309424311 0.456925690
0.153953359 0.239468366 0.306767970
0.176217467 0.244655535 0.309171379
0.216824993 0.249335825 0.311322182
0.279949516 0.259455919 0.320050478
0.366729826 0.275901407 0.336749017
0.481973469 0.306008875 0.374067247
0.623149812 0.344591796 0.422517359
0.767615438 0.410246789 0.481973380
0.200126648 0.351296365 0.351043910
0.223150089 0.354838818 0.355218172
0.276027828 0.371031195 0.365085125
0.354712069 0.395825654 0.394180745
0.443010658 0.408222616 0.404554367
0.544085622 0.428589612 0.428842455
0.663757205 0.465781182 0.465654463
0.793548584 0.513472259 0.523212850
0.293484956 0.514611185 0.426691979
0.317267507 0.515117228 0.429348707
0.364326090 0.525237322 0.439848483
0.428716123 0.535483539 0.451992184
0.502719462 0.540290475 0.465781450
0.591271460 0.557874739 0.485515475
0.705250025 0.589246988 0.518279433
0.822517633 0.626944780 0.575332046
0.425806284 0.670715034 0.528652728
0.438077271 0.672612309 0.532194734
0.471600115 0.678178549 0.532574117
0.515876353 0.680961192 0.539278686
0.577862382 0.687918782 0.548007727
0.660215437 0.701327980 0.564452708
0.747501314 0.711827815 0.589247227
0.847438455 0.741935372 0.638709784
0.583934307 0.825047612 0.659582376
0.590512216 0.826565623 0.655913949
0.599240780 0.826691747 0.663377523
0.634788215 0.830613434 0.663630724
0.681973457 0.840227664 0.668943822
0.749019444 0.842884541 0.685641885
0.822390616 0.853383780 0.710309923
0.896773875 0.865780950 0.738646269
0.098671995 0.091840714 0.408349544
0.131941542 0.094497450 0.409993827
0.194054186 0.097912706 0.407590270
0.267552257 0.104237705 0.408981562
0.359139562 0.116887905 0.417710334
0.443516731 0.127134711 0.422011286
0.600126803 0.143453300 0.471726537
0.753193855 0.209487617 0.519038558
0.108412251 0.122959994 0.404554009
0.135610089 0.128779292 0.403794974
0.195825294 0.132574290 0.404554069
0.271853119 0.133333206 0.407590449
0.356736451 0.142314643 0.414421439
0.449209541 0.156736106 0.427451015
0.599367738 0.179253563 0.473371267
0.749019563 0.241998598 0.521062672
0.115370102 0.187223285 0.418469250
0.150158450 0.184946194 0.411638081
0.205945671 0.186464190 0.411511838
0.282099754 0.193422005 0.424035370
0.372422576 0.202024087 0.432637662
0.471979707 0.213789105 0.441113561
0.624667585 0.247312084 0.494623572
0.764705837 0.311321974 0.539278686
0.128273353 0.271979928 0.435800552
0.163440749 0.270208985 0.435926646
0.225173727 0.271600187 0.435546726
0.308918357 0.278684258 0.443137199
0.401897728 0.292346746 0.457811564
0.507147551 0.310436517 0.470208645
0.648197234 0.354459256 0.518153250
0.773813784 0.416698277 0.555977225
0.194560200 0.389626563 0.469829172
0.215812728 0.397723168 0.480581582
0.271094084 0.396078467 0.483744532
0.346616119 0.404427648 0.489563704
0.448703170 0.416571647 0.508032680
0.561543405 0.434535295 0.522580922
0.678304553 0.477545649 0.552055478
0.790385902 0.528399765 0.596584260
0.289184004 0.535104215 0.526122749
0.309677541 0.539152205 0.538013875
0.352182031 0.544212341 0.535863221
0.428842723 0.554459453 0.548893154
0.524731398 0.574446917 0.573434532
0.617077708 0.591017962 0.588741302
0.720936000 0.606831193 0.610499978
0.820999324 0.647311807 0.653510392
0.429601282 0.676660299 0.594307244
0.440228015 0.680328846 0.600758970
0.475901544 0.682226539 0.601264596
0.527008295 0.692852616 0.620113552
0.592156470 0.702593505 0.632637620
0.668817520 0.707400262 0.645287812
0.752814531 0.722074568 0.660974264
0.851359785 0.748386800 0.700063586
0.591271102 0.823656023 0.708538890
0.599873364 0.829854310 0.708538592
0.622390807 0.825679898 0.716255844
0.661227047 0.835420489 0.730044365
0.699051321 0.840607226 0.738266885
0.748766363 0.847691238 0.750031412
0.816951275 0.855028212 0.762428641
0.903731585 0.866540015 0.791397572
0.109803997 0.099430986 0.618975580
0.161796257 0.094497450 0.617583632
0.243896335 0.098798096 0.621631682
0.346362919 0.098039001 0.617963076
0.449082613 0.108538829 0.624541163
0.562428534 0.120935917 0.626565695
0.685009003 0.154332817 0.628462851
0.808602214 0.233143777 0.648956597
0.096648015 0.137507826 0.607463419
0.160404965 0.129538536 0.614167988
0.239848197 0.134345248 0.616065741
0.345856965 0.139405280 0.619607866
0.449209154 0.144844994 0.618721962
0.563061237 0.161922678 0.625173867
0.682732344 0.189879641 0.634534955
0.808475435 0.266413331 0.656926036
0.080582038 0.209360927 0.615433216
0.141808704 0.212144375 0.625806272
0.233776018 0.208855361 0.621125698
0.343326926 0.216066092 0.624161720
0.456546247 0.224161908 0.628462911
0.573561072 0.241998896 0.637571156
0.692472816 0.273750454 0.641239524
0.816318750 0.339784980 0.664136469
0.050853852 0.305755645 0.624288559
0.130044386 0.310562849 0.622264504
0.239089206 0.311321974 0.629727721
0.350031614 0.318658888 0.627704203
0.464769363 0.335610449 0.633649707
0.582036436 0.348513633 0.637191594
0.698671877 0.372675389 0.649462402
0.817330599 0.436432391 0.677419364
0.145097733 0.441745996 0.639341950
0.188361555 0.440733582 0.649083018
0.261100531 0.438709617 0.647691309
0.361669451 0.441366464 0.649968445
0.482605994 0.454649031 0.657052219
0.598735034 0.468817353 0.660341680
0.716887832 0.492346436 0.672612369
0.827071607 0.542061925 0.697153807
0.296647698 0.588488460 0.678937435
0.314484566 0.585452199 0.674383342
0.363946527 0.586843669 0.678937316
0.432511121 0.587602615 0.683870792
0.521568656 0.590385616 0.690322578
0.622896791 0.603289247 0.704237700
0.737760603 0.622517169 0.717140615
0.841745853 0.659709275 0.732953489
0.429221720 0.722960353 0.715875745
0.437824070 0.726375997 0.709930480
0.475395381 0.721948266 0.717014313
0.527513921 0.723086894 0.720050752
0.599114478 0.726249337 0.734851301
0.680202127 0.737381101 0.748513520
0.768880129 0.747627854 0.765591323
0.858697236 0.775964677 0.787223339
0.598102391 0.841113627 0.777102768
0.614674151 0.843264103 0.779885828
0.635293841 0.846805751 0.775964379
0.666539967 0.845161438 0.784693420
0.712460577 0.847564578 0.794180751
0.770524502 0.858570516 0.810120285
0.832764030 0.868058205 0.831625283
0.903731763 0.881593704 0.853004456
