Assets/Resources/EldamarStudio/100 Horror LUTs Pack/LUTs/cube/Runruc LUT.cube
DOMAIN_MIN 0 0 0
DOMAIN_MAX 1 1 1
LUT_3D_SIZE 32
0.007843000 0.007843000 0.000000000
0.007843000 0.007843000 0.000000000
0.012143999 0.009993774 0.000000000
0.023276322 0.014295000 0.001265161
0.042251997 0.020367000 0.004681000
0.066539995 0.026438998 0.010753000
0.090828642 0.029981323 0.014294676
0.116761699 0.029728293 0.015686000
0.143326998 0.028210094 0.017203998
0.167615011 0.031246481 0.023275994
0.200632602 0.025553260 0.011891001
0.229981244 0.027577514 0.015938994
0.257305652 0.031373002 0.023529001
0.284883082 0.031625967 0.023276033
0.315243810 0.034661576 0.020240422
0.348007798 0.037697803 0.022011193
0.381404191 0.045287993 0.023529001
0.415433109 0.056166992 0.023529002
0.451865971 0.062239006 0.023529008
0.482732743 0.068311006 0.029095715
0.516887963 0.078178473 0.037065253
0.553320289 0.087286867 0.048197124
0.590132535 0.090701982 0.063124500
0.635673761 0.102845997 0.072232902
0.674383581 0.108159281 0.081341282
0.713599265 0.115369976 0.091840975
0.756104112 0.128020063 0.103478938
0.798608840 0.143200427 0.112586536
0.846426547 0.161036953 0.129664645
0.891461313 0.179253399 0.149652168
0.935737133 0.201012179 0.170904592
0.984314024 0.231372997 0.192157000
0.004807387 0.010879387 0.000000000
0.010879387 0.010879387 0.009108387
0.008728613 0.013029613 0.004807387
0.024794320 0.014800613 0.004301225
0.052498545 0.017330613 0.007716612
0.063504383 0.023402613 0.013788613
0.092852384 0.026944935 0.019860612
0.116508305 0.031625610 0.018469002
0.141808793 0.033523001 0.017963095
0.170651406 0.034282099 0.026312385
0.203668252 0.037318483 0.026565384
0.233016849 0.037697516 0.018975390
0.259202898 0.041619256 0.019354744
0.285136044 0.043769967 0.017963000
0.318279415 0.046805575 0.023276035
0.343833178 0.049841806 0.022643613
0.373813987 0.055914190 0.023529001
0.408222288 0.065907791 0.023529002
0.451865971 0.074383013 0.023529014
0.477166712 0.080455713 0.034661718
0.512713730 0.088425025 0.045034993
0.551296473 0.096394747 0.054269385
0.589879513 0.099683858 0.062997989
0.629601777 0.108917996 0.069196515
0.672865570 0.118785277 0.078304902
0.713599265 0.127513975 0.087413281
0.755598068 0.139152065 0.097406939
0.795572460 0.149272427 0.106514536
0.840734065 0.164452806 0.123592645
0.883618057 0.184060559 0.136495754
0.927514374 0.202656582 0.158001006
0.978242040 0.222264603 0.192157000
0.016824998 0.022517774 0.006451774
0.014295000 0.018216226 0.004807387
0.022517774 0.020367000 0.011765000
0.028336545 0.020872612 0.008223000
0.056799546 0.021125548 0.008855226
0.069449939 0.028968774 0.006072000
0.100569546 0.032511096 0.022896774
0.121062540 0.037191771 0.024035066
0.140796870 0.042504679 0.019228097
0.166982993 0.043896005 0.022770485
0.202403635 0.051106870 0.025300225
0.231752008 0.050095260 0.023276486
0.259076416 0.052877899 0.018469356
0.284630030 0.055914029 0.015939033
0.314231396 0.058950122 0.020113768
0.349019587 0.066286802 0.023529001
0.374826193 0.067805000 0.026565386
0.405818880 0.074383378 0.027197974
0.446805954 0.081973590 0.025679786
0.477166712 0.090448938 0.034661718
0.509044945 0.096521214 0.046805993
0.547248483 0.104363993 0.055914126
0.585704982 0.108918242 0.061227236
0.627197981 0.120050646 0.073371008
0.664642751 0.127008051 0.079570055
0.708538830 0.134724751 0.087286770
0.751802564 0.145350769 0.096647933
0.792915642 0.156103447 0.109044537
0.839848459 0.168374583 0.123971865
0.883617878 0.190638915 0.140417397
0.926122606 0.212650359 0.159139544
0.976471007 0.230360776 0.198608771
0.032511000 0.037697840 0.010499839
0.028968997 0.031625386 0.005693000
0.033649772 0.034534935 0.009487838
0.042758159 0.035040997 0.009235000
0.060594708 0.032763708 0.010373451
0.075775094 0.040101092 0.006578065
0.103605479 0.045414317 0.015180320
0.130676985 0.051360156 0.027071452
0.145857185 0.055914160 0.023276163
0.167615667 0.058443844 0.019734483
0.197090760 0.063504033 0.019987131
0.228716075 0.067046098 0.022770099
0.258317769 0.066287480 0.022011483
0.286148190 0.069323190 0.018722128
0.314484417 0.072359577 0.017710255
0.343959600 0.078937508 0.020746354
0.379633367 0.086021326 0.024035063
0.408222705 0.087918736 0.030740250
0.444022983 0.094623782 0.030234041
0.476154566 0.100948811 0.038330358
0.507780075 0.108159155 0.048071153
0.546236396 0.114231154 0.057179030
0.583301663 0.120176673 0.060594819
0.624667823 0.128905803 0.074636102
0.665148556 0.139026001 0.084250413
0.703225613 0.146363139 0.092852823
0.747754216 0.151929095 0.098924831
0.789499998 0.161795989 0.111827530
0.837318122 0.176470652 0.127007812
0.879823029 0.193674982 0.143453345
0.924098313 0.220114037 0.163061127
0.972675860 0.241745993 0.201391682
0.045793545 0.054016095 0.007843000
0.047311641 0.048323542 0.006325386
0.051486321 0.051865771 0.009614226
0.062492158 0.056672931 0.013409160
0.070841536 0.053257097 0.005060451
0.086021923 0.056293480 0.014168063
0.107653536 0.061859544 0.018216323
0.129538253 0.069196701 0.021758450
0.151549652 0.076407544 0.025174003
0.175838441 0.076407544 0.019102000
0.197596878 0.077166550 0.016698129
0.224161983 0.078810833 0.018215997
0.255660921 0.081846640 0.023149647
0.288045973 0.084883027 0.026185969
0.318026423 0.087919407 0.017583590
0.345477581 0.093738541 0.019228352
0.374699831 0.099430993 0.022264352
0.409740984 0.105376504 0.025806118
0.443137467 0.114484131 0.034914527
0.476154387 0.118405901 0.043643363
0.508412421 0.123339534 0.052751735
0.541682720 0.129032090 0.060215417
0.584313929 0.135230571 0.063377537
0.624288380 0.138772905 0.075015552
0.666413546 0.147880986 0.085262284
0.707526565 0.158254221 0.095002979
0.747374654 0.167489037 0.107273541
0.786843717 0.170524627 0.113345541
0.833143592 0.185325637 0.127007812
0.875395358 0.203541949 0.143959403
0.914231598 0.222390637 0.164579511
0.962808430 0.246679455 0.194939554
0.067045934 0.078304872 0.007843000
0.079190701 0.075268485 0.016951386
0.074257031 0.073876932 0.011132224
0.082099929 0.076660156 0.012650160
0.101201534 0.077545874 0.017204450
0.104237929 0.071473867 0.014168063
0.119418308 0.077039935 0.018216323
0.136116639 0.083111927 0.017963292
0.154585943 0.088931091 0.016445164
0.178874046 0.091587938 0.013030002
0.203162804 0.097406931 0.015686128
0.226944998 0.098418936 0.011638004
0.255660921 0.100063220 0.011005646
0.288045973 0.103099026 0.014041970
0.309297562 0.106135413 0.017077580
0.346489459 0.113978788 0.025300603
0.377356201 0.119544737 0.031372741
0.406198621 0.123086572 0.034408510
0.434029073 0.126628906 0.037950911
0.464642823 0.132953867 0.044275939
0.499304473 0.138519928 0.052751735
0.533713102 0.143580064 0.060847998
0.569133520 0.147375345 0.066413924
0.614673972 0.156482980 0.072485939
0.659202933 0.162301987 0.084123932
0.701454580 0.169386342 0.092978992
0.741429150 0.176976919 0.101581059
0.783807337 0.188741416 0.116381928
0.823276460 0.194433868 0.127766907
0.866034329 0.209613949 0.143959403
0.906641603 0.226944596 0.163061589
0.947628081 0.243643060 0.185831934
0.103478961 0.115243316 0.010373322
0.110563092 0.114737250 0.009361064
0.118406318 0.113851637 0.014168452
0.117520638 0.113851637 0.010373322
0.131182641 0.114484318 0.014548002
0.132068247 0.108412318 0.013662389
0.135104641 0.104870640 0.010626001
0.150284603 0.109297924 0.015306676
0.166223869 0.113725409 0.017963093
0.186970338 0.116761796 0.022011481
0.213788733 0.117647313 0.017204452
0.240101233 0.119671315 0.020240061
0.266033947 0.121948317 0.021378640
0.296141684 0.126122639 0.026692029
0.321947873 0.126881734 0.025174223
0.348007113 0.132321313 0.025806643
0.382416070 0.139784992 0.035926804
0.412017524 0.144465312 0.042251568
0.443137020 0.149398983 0.049082972
0.473244727 0.157748312 0.057432324
0.509297729 0.160025313 0.061606575
0.547375023 0.163820446 0.069449805
0.584060848 0.167109787 0.077039994
0.624794245 0.176217422 0.083112001
0.668057859 0.185325608 0.091461286
0.713345945 0.191650629 0.100569308
0.755091727 0.198229060 0.107653312
0.795572162 0.208349302 0.120809428
0.840480745 0.222770631 0.140923306
0.879949450 0.234155819 0.156609714
0.923466146 0.253383934 0.176597282
0.967868328 0.273497641 0.199494004
0.126502290 0.139911413 0.008476003
0.135863692 0.143200412 0.007084324
0.146868974 0.144844696 0.009993774
0.144086137 0.147374690 0.010499839
0.149019718 0.146995246 0.011258840
0.156609699 0.139658406 0.015053997
0.157495305 0.134472027 0.012523675
0.162175983 0.131435990 0.011131996
0.177355796 0.133712694 0.018722190
0.194686979 0.135863483 0.028716188
0.218342870 0.135989994 0.023276290
0.242378235 0.139278993 0.021631740
0.270841271 0.140417635 0.025806289
0.298924714 0.145983696 0.034155712
0.327640384 0.148766696 0.035294421
0.354964793 0.151928976 0.037950993
0.383807391 0.158001363 0.042505182
0.414800525 0.163440824 0.050980400
0.448197007 0.168500721 0.059076678
0.482099742 0.175711364 0.063251361
0.518153131 0.182415992 0.068564259
0.556609392 0.184440255 0.071600132
0.595445752 0.188235685 0.079696499
0.634914637 0.195825517 0.090322711
0.673371315 0.203288987 0.098671570
0.715875983 0.213788688 0.110562935
0.760658145 0.220366701 0.117900051
0.801265121 0.228336439 0.128905684
0.844402432 0.242757782 0.142441511
0.886401117 0.256293476 0.163567394
0.929411769 0.273244858 0.183554962
0.978747725 0.296774000 0.207843006
0.139405191 0.156609997 0.006198900
0.153067768 0.161923096 0.006957998
0.165085316 0.163567424 0.008981903
0.169892162 0.168627098 0.011258936
0.157748550 0.173181087 0.008602097
0.174826086 0.164452940 0.016571937
0.176344097 0.159392998 0.015559680
0.181910187 0.153447479 0.017204000
0.187982187 0.150411099 0.017204000
0.203162581 0.150411099 0.029348776
0.221125960 0.149652004 0.027830355
0.243137240 0.152941078 0.026565190
0.266287267 0.158633649 0.028842285
0.295889020 0.161923006 0.034155965
0.324731052 0.167995006 0.038709898
0.354205877 0.171663389 0.044022996
0.384566486 0.176217377 0.051613189
0.415559620 0.182289988 0.060721409
0.448956132 0.185452148 0.066919908
0.485135853 0.191271096 0.070462093
0.523466110 0.197343096 0.072359353
0.561923087 0.203415364 0.075395226
0.598355114 0.209488094 0.078558087
0.637191713 0.215560108 0.091840900
0.674383581 0.221632093 0.100948699
0.715876162 0.228969067 0.113598742
0.758887053 0.241113082 0.128779158
0.801644802 0.247691095 0.138393536
0.842631578 0.260214895 0.146742821
0.884883106 0.277419120 0.165971160
0.925616622 0.289942682 0.185072958
0.977229893 0.311195105 0.209361002
0.163693994 0.186970010 0.015306512
0.181909978 0.190006405 0.018342905
0.191270992 0.186717510 0.016951228
0.192662492 0.187349811 0.014294681
0.188108563 0.194433495 0.011638490
0.197216943 0.188361496 0.011638490
0.194054499 0.187223017 0.009487686
0.199747205 0.182036728 0.014674000
0.212270990 0.174699888 0.023276005
0.218342960 0.171663493 0.023276007
0.227704361 0.168753624 0.032510906
0.247438475 0.169892266 0.036938742
0.271600276 0.174193501 0.040986966
0.295889020 0.180139005 0.046299964
0.317141384 0.186211005 0.043263588
0.348387271 0.189879820 0.045414325
0.383048862 0.194433972 0.051613197
0.418596029 0.200506002 0.060721416
0.451992512 0.206578031 0.069829054
0.488172233 0.212523505 0.081594244
0.526502192 0.218595490 0.087539747
0.564958811 0.224667758 0.090575621
0.601391494 0.230740488 0.093738481
0.637824297 0.236812502 0.099810489
0.674383581 0.242884502 0.103984714
0.717773616 0.248956487 0.114231326
0.767994642 0.256293476 0.131815553
0.813535750 0.268437475 0.146995917
0.850980580 0.277672321 0.153953478
0.892979085 0.297659636 0.176091120
0.937381208 0.319923967 0.202782974
0.980265498 0.332447469 0.215433002
0.176344007 0.202782869 0.009867001
0.191650882 0.202909395 0.021631515
0.199114650 0.205945775 0.020366903
0.206957743 0.204680875 0.019860709
0.211891189 0.208096191 0.020493127
0.215938926 0.209613860 0.020493127
0.219987318 0.206072196 0.023023449
0.221631870 0.204048038 0.022390869
0.229981095 0.198988095 0.027956869
0.233902872 0.195952252 0.032257874
0.237065002 0.190006003 0.035167743
0.248197630 0.191018134 0.038203873
0.270082504 0.194054514 0.040354352
0.296901017 0.197849751 0.044908158
0.328779399 0.198608741 0.052498449
0.352434993 0.207083926 0.056672864
0.385831505 0.214168191 0.061732996
0.421631843 0.220999449 0.069449700
0.455028892 0.224794760 0.078557923
0.491207898 0.230866760 0.087666228
0.523845553 0.238835990 0.093991257
0.560278118 0.243895859 0.097027130
0.598608136 0.246173143 0.100063480
0.635040939 0.252245873 0.103352129
0.676027656 0.260594577 0.111701414
0.719291389 0.268690646 0.121568516
0.765338063 0.276786953 0.135736942
0.796457529 0.286527723 0.141302705
0.839341819 0.298671722 0.161796048
0.879822612 0.313345790 0.179759502
0.924224913 0.333712578 0.205312967
0.968753994 0.347880870 0.221504986
0.204680488 0.224035501 0.015938994
0.211764887 0.226059243 0.022011258
0.220367014 0.230233759 0.029474765
0.222138241 0.228210151 0.025173992
0.230487257 0.226692259 0.026312256
0.235167563 0.231372565 0.029601254
0.238203302 0.231372565 0.030107319
0.244528681 0.226692244 0.034787994
0.251739323 0.223276407 0.035546992
0.257305741 0.220240474 0.039089002
0.260341376 0.214294761 0.044275608
0.267425507 0.210246250 0.047311991
0.280708611 0.212143987 0.049588989
0.303985000 0.214294761 0.054016277
0.330297381 0.216065988 0.063124657
0.360531509 0.225300431 0.061733250
0.387855530 0.231372431 0.069323055
0.422643721 0.238203675 0.075901151
0.456040949 0.241239697 0.083618231
0.488172024 0.247059256 0.086654365
0.524604499 0.253131241 0.093865000
0.556230128 0.260088384 0.098039255
0.593674481 0.261479765 0.102213994
0.632005095 0.269449800 0.107147351
0.672991872 0.279822946 0.120809272
0.716887891 0.286147922 0.128525987
0.763314188 0.295003325 0.141302869
0.796710968 0.307147682 0.148893058
0.831245899 0.318912238 0.161796048
0.870208621 0.329285443 0.177735224
0.912207425 0.346742481 0.199240953
0.956610024 0.363061249 0.217457265
0.234281987 0.246046990 0.028083287
0.236179739 0.247944251 0.029981028
0.242504984 0.251992285 0.032890640
0.249462634 0.256293148 0.038456637
0.249842092 0.248323992 0.033143640
0.255154997 0.252878010 0.037697639
0.260973960 0.253890008 0.039847996
0.268437356 0.252878010 0.041998636
0.278304845 0.248323992 0.046552639
0.287792772 0.245667145 0.046552643
0.288804412 0.243137270 0.050094642
0.297026873 0.237950653 0.055281255
0.304996639 0.234914273 0.058317639
0.319671035 0.234661311 0.064136609
0.337381393 0.235926688 0.071473770
0.365844607 0.242757618 0.075395644
0.397343636 0.252624840 0.075775087
0.427071184 0.256293625 0.082985289
0.459456295 0.259835303 0.088045932
0.491208017 0.266793340 0.090828992
0.527640462 0.272865623 0.096900985
0.563061357 0.279949516 0.101961121
0.596710801 0.283491135 0.108033113
0.636179745 0.292599529 0.115116991
0.677925527 0.302846283 0.124604627
0.721821904 0.311954290 0.139531627
0.765844285 0.316508621 0.147121713
0.804680645 0.331056416 0.159898877
0.842251778 0.343580276 0.175458610
0.879696310 0.356230170 0.192156881
0.916129172 0.367995173 0.204300895
0.958127975 0.386211276 0.222011641
0.253257096 0.265275061 0.040734001
0.253763080 0.265022010 0.040734001
0.260214806 0.267425776 0.040734001
0.269070148 0.270461917 0.041998964
0.277925491 0.272865027 0.047311965
0.280961126 0.272865027 0.047311965
0.288045377 0.272865027 0.050094739
0.299051017 0.273118079 0.053383742
0.310942203 0.273118079 0.055407997
0.323086947 0.273118079 0.055407997
0.321442157 0.275268912 0.055913996
0.328020036 0.272739023 0.060215022
0.337887108 0.267552406 0.065148674
0.344212055 0.264263064 0.068438031
0.353320420 0.261227459 0.071473643
0.377988577 0.262998223 0.080708601
0.409108192 0.268817186 0.089310996
0.441239566 0.277798980 0.094876967
0.468564034 0.283870995 0.094876975
0.501960397 0.292220354 0.100442976
0.540796518 0.299684018 0.109804019
0.580265343 0.306767911 0.119671129
0.614041984 0.316002041 0.122960500
0.653636932 0.325236946 0.132068157
0.694876611 0.334092319 0.137128279
0.738266945 0.342062056 0.144086018
0.782796025 0.349146038 0.156230107
0.819227993 0.361290038 0.171410471
0.860720634 0.373181701 0.191144794
0.901960254 0.387602836 0.214674383
0.943200171 0.403415173 0.236432970
0.979632974 0.421631992 0.248576999
0.280582219 0.295635819 0.058949977
0.286654204 0.292599410 0.058949977
0.293611467 0.296647400 0.058949977
0.301454395 0.300822139 0.055154823
0.308538496 0.303099275 0.050347578
0.317393869 0.300189406 0.050347578
0.315370113 0.300189406 0.055408221
0.324731082 0.301834106 0.060847826
0.337760508 0.303478807 0.064010315
0.347374946 0.303478807 0.061479997
0.353699982 0.297659814 0.067298993
0.357874393 0.297533393 0.074130237
0.365211695 0.293991387 0.080329046
0.371537209 0.288551778 0.083618402
0.380644798 0.282479823 0.089690402
0.394560188 0.284250587 0.090322822
0.417457372 0.288804382 0.092852995
0.444275945 0.296773940 0.096015409
0.471600473 0.308158964 0.103984579
0.510056794 0.311448336 0.109550580
0.548260629 0.319544733 0.115623057
0.586337924 0.328020275 0.124984413
0.620113969 0.337254405 0.135104492
0.662618816 0.349399179 0.144212887
0.699936986 0.356356800 0.153320536
0.739026010 0.364453048 0.161163658
0.780265689 0.373434812 0.170904472
0.822264373 0.385578781 0.180518851
0.861353159 0.395066619 0.193042383
0.894370139 0.411891550 0.217710361
0.929284751 0.430107594 0.245034963
0.970524549 0.445919991 0.266792983
0.319923967 0.325995982 0.060341805
0.328399777 0.325363398 0.072358996
0.330170780 0.324477792 0.063756987
0.338519752 0.328778952 0.070335321
0.344212383 0.330676764 0.071853302
0.343200505 0.325616658 0.067804791
0.359013081 0.325110584 0.068057828
0.357621759 0.326754868 0.067552187
0.367488682 0.329031974 0.069829285
0.376597077 0.329031974 0.070082322
0.385199398 0.330423772 0.075774796
0.391271412 0.322327524 0.079823054
0.396204770 0.320050627 0.087033808
0.401265025 0.315749794 0.091587991
0.410373181 0.313978821 0.097659990
0.414674401 0.310309976 0.103731990
0.428336591 0.311827779 0.105249792
0.452245504 0.316761345 0.108032748
0.486653984 0.327134609 0.117140837
0.520303369 0.330929339 0.123465799
0.559772193 0.341555715 0.129537791
0.596205235 0.351676136 0.134598315
0.628463268 0.360784084 0.142567977
0.668690801 0.370651573 0.153953105
0.706641555 0.380518466 0.163061470
0.745857239 0.388108641 0.170777783
0.785831869 0.397217065 0.179379985
0.824541628 0.407463759 0.190385640
0.857178748 0.424161792 0.206957757
0.898418367 0.435041398 0.224414960
0.933332980 0.454396367 0.255534559
0.975837767 0.472612381 0.287412792
0.354838580 0.350284398 0.072486177
0.366982579 0.356356382 0.078557804
0.369639188 0.351802200 0.078937382
0.368374348 0.354332536 0.073118217
0.376850188 0.357242376 0.087792799
0.377609164 0.353447378 0.083997324
0.385705173 0.352435380 0.084503382
0.397090167 0.352561861 0.084250383
0.398608357 0.354838580 0.080455281
0.406957865 0.354838580 0.083491474
0.416065842 0.356230259 0.087919191
0.423150003 0.357242107 0.088931061
0.431499273 0.350410998 0.094244443
0.435926586 0.346869349 0.100189991
0.443769783 0.343074203 0.103731990
0.451107174 0.340670377 0.111322187
0.454143167 0.340670377 0.118911982
0.468184739 0.340037793 0.120682776
0.502340198 0.345603943 0.126249164
0.536242545 0.350663841 0.134092003
0.567362010 0.359772116 0.140164375
0.606831193 0.372928262 0.146236375
0.638836443 0.382162988 0.150031671
0.675521910 0.392663091 0.160784006
0.712713540 0.401770890 0.169133469
0.750537574 0.410878837 0.179633170
0.792915940 0.419481188 0.187476262
0.831372619 0.427577406 0.200632378
0.864010334 0.446173161 0.218089640
0.896900535 0.457811207 0.238077149
0.934977770 0.474383354 0.259329557
0.974319994 0.496900797 0.295002997
0.385958523 0.371031135 0.096647985
0.397975743 0.383807510 0.094876587
0.403035700 0.380897939 0.089943178
0.403668255 0.378114879 0.089437410
0.402150631 0.383049011 0.092093572
0.414041698 0.382795990 0.092093572
0.419860721 0.381530970 0.093358740
0.426565111 0.381530970 0.095382996
0.433902293 0.382163554 0.096774474
0.439975083 0.382163554 0.099810094
0.448323816 0.383428544 0.103478856
0.454775125 0.385452271 0.103731886
0.463124245 0.386843592 0.103984632
0.474763036 0.383808017 0.111827984
0.480835110 0.375458717 0.111068994
0.488045782 0.371157289 0.119544782
0.495382905 0.369259715 0.128020376
0.498418510 0.371031135 0.135230556
0.519671023 0.367994726 0.132194951
0.548260391 0.371410131 0.139025807
0.578494310 0.380012453 0.144971475
0.609866798 0.391145021 0.151676416
0.649209440 0.400252640 0.158001438
0.683111906 0.411891371 0.167615250
0.717520535 0.421758264 0.175078973
0.755344629 0.432131201 0.183934554
0.794307113 0.441745549 0.196584508
0.836558878 0.448070526 0.211764857
0.872359455 0.465527952 0.230233938
0.905756116 0.479822516 0.250221133
0.938646555 0.490828097 0.272106141
0.965970993 0.518152535 0.293358564
0.431499034 0.401391983 0.108792022
0.431499034 0.416571587 0.111827634
0.434914768 0.414294809 0.103605032
0.438962966 0.411511987 0.098545216
0.444655538 0.416445494 0.101201981
0.453763932 0.413409114 0.101201989
0.455534965 0.408096045 0.098671675
0.460974246 0.405819058 0.099430770
0.470588207 0.406578153 0.102973022
0.482479960 0.409488022 0.108918503
0.488552004 0.415307015 0.114863977
0.492852688 0.418848753 0.118659273
0.499556959 0.420746028 0.121189304
0.511195123 0.420240104 0.123972014
0.517267883 0.417204499 0.117900029
0.520936191 0.413662195 0.129158810
0.527514219 0.409108013 0.139279008
0.534851372 0.404427618 0.144338980
0.537887037 0.401391983 0.144338995
0.553573430 0.398355603 0.146869391
0.579759538 0.401771009 0.148513958
0.612903178 0.409361184 0.152055904
0.652245104 0.418469489 0.161037087
0.688677907 0.427577883 0.173181862
0.720303595 0.436938703 0.182795674
0.755344689 0.448829651 0.193042397
0.794307172 0.462998033 0.205692947
0.830739915 0.475142002 0.220872536
0.870335460 0.486780673 0.241365850
0.905756116 0.501454711 0.262365192
0.939152598 0.517646611 0.284503251
0.972043037 0.539405048 0.308539033
0.477040112 0.451233387 0.126502007
0.479822755 0.449715704 0.126754969
0.484123766 0.454143077 0.123339362
0.487792581 0.450727731 0.114990368
0.491967201 0.453384191 0.113472559
0.496267945 0.455154806 0.115876369
0.500316381 0.457179070 0.118406042
0.505503118 0.455155104 0.117520370
0.513852119 0.455155104 0.119418107
0.521948338 0.456167251 0.123466365
0.533839405 0.456546754 0.126754999
0.545983672 0.460594475 0.128779009
0.553194106 0.462491721 0.131056294
0.561543107 0.462744743 0.134092316
0.567615271 0.464769185 0.135610014
0.576091170 0.459329754 0.139152616
0.582922339 0.457432121 0.148640350
0.591398120 0.453890115 0.155977339
0.596584499 0.448703706 0.164579362
0.613535464 0.445667386 0.167362720
0.621125817 0.440733761 0.172296360
0.642504871 0.445287734 0.177103251
0.674889266 0.456419885 0.186210886
0.713978171 0.470841289 0.195698828
0.748134196 0.484503686 0.212397575
0.783175349 0.494623750 0.224415079
0.821631789 0.505503118 0.237065449
0.855787218 0.513093054 0.252245635
0.884250164 0.527893901 0.272738874
0.923213184 0.543706656 0.295762002
0.956862926 0.562555254 0.324224919
0.986464381 0.585705459 0.359898746
0.513092995 0.489563465 0.133332998
0.527514040 0.494117856 0.140923470
0.527008235 0.491334736 0.138519734
0.533080220 0.490069568 0.134977728
0.537128508 0.490575492 0.130550176
0.541682243 0.496647537 0.130550176
0.546615779 0.493991077 0.131688669
0.548007488 0.498671740 0.134724706
0.557115674 0.499177724 0.134218633
0.565464675 0.499177724 0.134977743
0.575458467 0.501075447 0.139911592
0.585831702 0.501201928 0.142820731
0.597596467 0.504237533 0.141682371
0.604174435 0.504996479 0.143200696
0.613535464 0.506388128 0.146236315
0.618216276 0.506008744 0.153573602
0.627324700 0.499936730 0.159645990
0.637697875 0.498545319 0.165717974
0.647564709 0.493738472 0.175331995
0.655281484 0.490449101 0.184819609
0.669702411 0.487412721 0.191650987
0.674762845 0.481340706 0.196711123
0.696774244 0.488045245 0.204174459
0.729158640 0.499683648 0.215053648
0.765970826 0.512966275 0.223402828
