Assets/Resources/EldamarStudio/100 Horror LUTs Pack/LUTs/cube/Runruc LUT.cube
LUT_3D_SIZE 5
DOMAIN_MIN 0.000000 0.000000 0.000000
DOMAIN_MAX 0.903226 0.903226 0.903226
0.007843000 0.007843000 0.000000000
0.116761699 0.029728293 0.015686000
0.315243810 0.034661576 0.020240422
0.553320289 0.087286867 0.048197124
0.846426547 0.161036953 0.129664645
0.126502290 0.139911413 0.008476003
0.162175983 0.131435990 0.011131996
0.327640384 0.148766696 0.035294421
0.556609392 0.184440255 0.071600132
0.844402432 0.242757782 0.142441511
0.280582219 0.295635819 0.058949977
0.324731082 0.301834106 0.060847826
0.380644798 0.282479823 0.089690402
0.586337924 0.328020275 0.124984413
0.861353159 0.395066619 0.193042383
0.550537407 0.523972273 0.140417129
0.594560266 0.534092367 0.149904832
0.654775262 0.547501266 0.162428826
0.712207258 0.526881337 0.214927137
0.901834249 0.587728918 0.306134939
0.842251658 0.850221395 0.436179399
0.859582663 0.859708726 0.449968219
0.901074827 0.864642620 0.472105980
0.950031757 0.871473789 0.508665562
0.980771780 0.846299767 0.564326227
0.044781707 0.039216001 0.075901404
0.119418107 0.034661997 0.077545695
0.272738814 0.083111979 0.089943118
0.489563674 0.149778843 0.135483816
0.801644266 0.211005673 0.208349109
0.076533988 0.126881406 0.078178696
0.154712096 0.145224392 0.093231700
0.274762809 0.169765696 0.114231259
0.498165697 0.209613964 0.152434826
0.812776566 0.272485673 0.219860643
0.251739413 0.288424969 0.129158705
0.299936682 0.286780685 0.137760684
0.349905193 0.284503788 0.148513407
0.553067565 0.329032212 0.184187531
0.838836253 0.408854783 0.261353493
0.541303098 0.517773569 0.211005524
0.561922669 0.520809472 0.218848526
0.626059651 0.532574236 0.225173816
0.685136080 0.517140985 0.260088682
0.887412965 0.595951974 0.362302482
0.822517276 0.841113150 0.467931241
0.832764387 0.843010724 0.468943626
0.877798676 0.846679449 0.490069479
0.933080196 0.855534315 0.522833645
0.969006717 0.845540822 0.583807528
0.104616992 0.030107833 0.255661398
0.169386402 0.055281281 0.233776107
0.278557986 0.100063413 0.213155985
0.507273674 0.151043996 0.228083521
0.800632536 0.219860956 0.308791816
0.156862587 0.163440570 0.215433270
0.194813415 0.173561111 0.209234834
0.288045675 0.183428109 0.208981693
0.504617095 0.226944983 0.240986705
0.797343612 0.298924387 0.331055969
0.207969829 0.302719563 0.210500002
0.267425835 0.309297979 0.233143687
0.408095837 0.351802826 0.277292818
0.557242393 0.366603076 0.303225547
0.816192567 0.453384012 0.392662764
0.480329156 0.514737248 0.310436547
0.517647147 0.518658817 0.330297410
0.594433904 0.526122510 0.348007411
0.670967817 0.535737276 0.376091003
0.867678404 0.624288499 0.474889606
0.789373994 0.836432338 0.552814126
0.799746811 0.831499100 0.552814364
0.844781637 0.846932173 0.563188016
0.917647123 0.859961987 0.603541911
0.959898591 0.851486564 0.645793974
0.211890996 0.101075128 0.501328111
0.269070536 0.119038410 0.485262245
0.381657094 0.154079542 0.469702840
0.552435100 0.179506868 0.440733343
0.819860876 0.236559093 0.486400962
0.264516145 0.226565272 0.459202826
0.307653129 0.233396411 0.461353570
0.395951688 0.242631406 0.445161134
0.550790668 0.260594279 0.445161104
0.823402584 0.314357668 0.489057660
0.328399837 0.346869290 0.447185397
0.378747404 0.359645844 0.442884237
0.472865373 0.385198981 0.451107115
0.593548417 0.395066381 0.456293553
0.834155500 0.473877490 0.520429969
0.409108132 0.562176108 0.470968008
0.456040710 0.570904255 0.485262424
0.559139788 0.580138803 0.504364371
0.718912125 0.634788096 0.573940337
0.863883615 0.684377134 0.626312494
0.707020760 0.848576725 0.613156438
0.732447743 0.853004277 0.640606999
0.800379395 0.858317435 0.685894847
0.883112133 0.867805183 0.709044814
0.932700574 0.868817270 0.741429269
0.349398792 0.216065779 0.818975568
0.393801212 0.229475066 0.812776566
0.506894410 0.258570373 0.804553568
0.651486218 0.309297919 0.797469556
0.847564578 0.364073575 0.792789400
0.407969654 0.321568638 0.799873412
0.446173370 0.329158634 0.806957543
0.542567909 0.351423144 0.797343135
0.665781081 0.386843741 0.795066297
0.851865828 0.433017135 0.792915583
0.529917777 0.503225863 0.792157054
0.556736171 0.508665502 0.792536259
0.624668121 0.520177007 0.794180691
0.718152761 0.543073714 0.789500594
0.865907788 0.572548985 0.798228562
0.600759089 0.678937197 0.804427564
0.622011364 0.681340933 0.801644444
0.686401069 0.687539637 0.799114287
0.774952650 0.717267931 0.799367547
0.880202413 0.734977901 0.808602214
0.659329593 0.898671746 0.815053582
0.687033653 0.890828431 0.815686584
0.742947578 0.888804197 0.821505487
0.823908925 0.890701890 0.838330269
0.928525984 0.915496767 0.882985473
