Assets/Resources/EldamarStudio/100 Horror LUTs Pack/LUTs/cube/Runruc LUT.cube
LUT_3D_SIZE 8
DOMAIN_MIN 0.000000 0.000000 0.000000
DOMAIN_MAX 0.903226 0.903226 0.903226
0.007843000 0.007843000 0.000000000
0.042251997 0.020367000 0.004681000
0.143326998 0.028210094 0.017203998
0.257305652 0.031373002 0.023529001
0.381404191 0.045287993 0.023529001
0.516887963 0.078178473 0.037065253
0.674383581 0.108159281 0.081341282
0.846426547 0.161036953 0.129664645
0.045793545 0.054016095 0.007843000
0.070841536 0.053257097 0.005060451
0.151549652 0.076407544 0.025174003
0.255660921 0.081846640 0.023149647
0.374699831 0.099430993 0.022264352
0.508412421 0.123339534 0.052751735
0.666413546 0.147880986 0.085262284
0.833143592 0.185325637 0.127007812
0.139405191 0.156609997 0.006198900
0.157748550 0.173181087 0.008602097
0.187982187 0.150411099 0.017204000
0.266287267 0.158633649 0.028842285
0.384566486 0.176217377 0.051613189
0.523466110 0.197343096 0.072359353
0.674383581 0.221632093 0.100948699
0.842631578 0.260214895 0.146742821
0.234281987 0.246046990 0.028083287
0.249842092 0.248323992 0.033143640
0.278304845 0.248323992 0.046552639
0.304996639 0.234914273 0.058317639
0.397343636 0.252624840 0.075775087
0.527640462 0.272865623 0.096900985
0.677925527 0.302846283 0.124604627
0.842251778 0.343580276 0.175458610
0.354838580 0.350284398 0.072486177
0.376850188 0.357242376 0.087792799
0.398608357 0.354838580 0.080455281
0.431499273 0.350410998 0.094244443
0.454143167 0.340670377 0.118911982
0.567362010 0.359772116 0.140164375
0.712713540 0.401770890 0.169133469
0.864010334 0.446173161 0.218089640
0.513092995 0.489563465 0.133332998
0.537128508 0.490575492 0.130550176
0.557115674 0.499177724 0.134218633
0.597596467 0.504237533 0.141682371
0.627324700 0.499936730 0.159645990
0.669702411 0.487412721 0.191650987
0.765970826 0.512966275 0.223402828
0.894496799 0.557874799 0.290955067
0.683491528 0.662618577 0.217204273
0.694370508 0.667172551 0.212903276
0.715116978 0.665528238 0.225174174
0.747754633 0.678431213 0.233523250
0.786464274 0.681214273 0.254016459
0.809993505 0.670968056 0.279190272
0.836812258 0.652118504 0.309677571
0.908159554 0.670335233 0.373561084
0.842251658 0.850221395 0.436179399
0.844655156 0.860341370 0.443390191
0.858064413 0.859455764 0.457052559
0.887412965 0.859329581 0.461986035
0.914737582 0.867172599 0.479443222
0.942694604 0.872232795 0.502593219
0.966097355 0.861353695 0.534218907
0.980771780 0.846299767 0.564326227
0.027830547 0.021125998 0.025426548
0.042631548 0.023908548 0.014041998
0.136243090 0.029348547 0.034788448
0.221252546 0.061859902 0.051233638
0.326122820 0.091208443 0.069702893
0.476533920 0.119417928 0.096394993
0.633017302 0.143200576 0.120429985
0.813029408 0.180771649 0.163061216
0.033650000 0.043770093 0.021125998
0.069702990 0.059076544 0.029727997
0.128020540 0.075901091 0.039089095
0.215307087 0.097912893 0.053636547
0.322960019 0.121821731 0.074003734
0.466287017 0.143706545 0.095888540
0.621884823 0.169892281 0.120177023
0.800126135 0.203415349 0.158886686
0.115876086 0.133839175 0.039342638
0.136243090 0.140543729 0.064263098
0.162934989 0.136243090 0.054016098
0.237697721 0.152308643 0.068058088
0.346489638 0.180518642 0.087286539
0.479949474 0.201391205 0.103225790
0.646299779 0.230993286 0.135357276
0.823402762 0.268817037 0.176597044
0.208981380 0.226565629 0.071980000
0.223909080 0.231372729 0.071979992
0.251233250 0.233270183 0.077798732
0.280202270 0.224288642 0.082858995
0.372675389 0.246679187 0.102087341
0.498165697 0.272232652 0.127134547
0.654775381 0.298544914 0.155217916
0.820493519 0.337254763 0.193927869
0.343453646 0.341935545 0.103225991
0.354712367 0.341049820 0.111321896
0.382163286 0.343074083 0.111954182
0.412776560 0.344212651 0.118912175
0.434914738 0.333712995 0.136495829
0.544971585 0.353953391 0.156483084
0.695256174 0.393042207 0.185452193
0.848829985 0.443896174 0.233902544
0.501454890 0.473244727 0.158633471
0.507273555 0.478684008 0.151929095
0.537507772 0.475901276 0.159139618
0.572802126 0.483871162 0.166097194
0.607716620 0.482226253 0.180012360
0.639342070 0.472865254 0.201518014
0.749272585 0.504237592 0.241240010
0.884503424 0.557368636 0.308159530
0.660088539 0.646805823 0.228210270
0.671853542 0.644275844 0.237191528
0.686780572 0.639975011 0.224161640
0.717647016 0.649335980 0.236812368
0.759013474 0.655281365 0.253510386
0.788741469 0.651359916 0.273497641
0.817077577 0.637065053 0.303352356
0.891840518 0.657811642 0.370272070
0.827956617 0.837950587 0.436179399
0.830739915 0.838077009 0.440480500
0.837191641 0.836559236 0.427450806
0.865781248 0.838836074 0.441113025
0.900442779 0.847944260 0.464009821
0.932574034 0.856672883 0.495129526
0.955091298 0.850347698 0.534597993
0.975964487 0.837950587 0.555977225
0.047817905 0.039974902 0.100189999
0.083491549 0.038456902 0.105376549
0.149778917 0.040734001 0.102593191
0.239089102 0.068944000 0.106641002
0.336875290 0.099430896 0.107273899
0.459709376 0.137887090 0.138266742
0.603668451 0.182542801 0.182542995
0.799114406 0.224668071 0.228589565
0.076407552 0.078810647 0.095636003
0.105502546 0.083871000 0.092852548
0.140670553 0.092473090 0.092852548
0.228462756 0.109297641 0.099936642
0.320682853 0.140290990 0.118279286
0.446932435 0.182668999 0.147754744
0.605313301 0.204427287 0.182668909
0.789500535 0.239215523 0.222770348
0.094750002 0.149652004 0.097153999
0.124605000 0.163061112 0.116508454
0.188109100 0.176344097 0.117520094
0.247564986 0.181024998 0.123719089
0.336875260 0.202150375 0.141808987
0.466034472 0.227324098 0.167362452
0.624035358 0.253763199 0.192536175
0.814041674 0.297533154 0.243390054
0.195445836 0.249588653 0.119797185
0.231245995 0.247944549 0.136369094
0.258949637 0.251992553 0.141809106
0.287033617 0.243263632 0.137381524
0.373561174 0.258064657 0.159772083
0.493611723 0.286527485 0.175711751
0.649841845 0.317141175 0.210879013
0.813914955 0.359266371 0.251106977
0.321821272 0.348007262 0.166983098
0.352055728 0.345856696 0.165085182
0.368121207 0.348640084 0.169133291
0.402150631 0.347374916 0.172169298
0.433143467 0.340797096 0.184060976
0.535104215 0.366223931 0.205439731
0.688298583 0.404807299 0.237950459
0.848450363 0.456925899 0.293990910
0.494750023 0.481340855 0.215812832
0.507147551 0.487160206 0.219228297
0.532068014 0.484376729 0.222138077
0.571031153 0.489057720 0.222770736
0.607716620 0.491840363 0.235673472
0.639089465 0.481973708 0.253510356
0.748260200 0.518406153 0.291840494
0.881846845 0.574699402 0.360025287
0.654775560 0.650853753 0.286274463
0.667172730 0.661226988 0.295256019
0.691840351 0.658697188 0.302087396
0.721442282 0.661733389 0.307906568
0.759139717 0.666540325 0.322454095
0.788488030 0.665907443 0.335736781
0.818722248 0.650980294 0.367109448
0.896773756 0.679569900 0.426185787
0.828083515 0.847185194 0.489436567
0.831245959 0.850221336 0.495256484
0.840860248 0.851612508 0.494244069
0.870082259 0.852751136 0.504870236
0.903225660 0.859708846 0.527134538
0.929285228 0.865654588 0.536495745
0.952308595 0.856419981 0.571157277
0.970271945 0.848576784 0.592915535
0.078557640 0.029095713 0.194687277
0.115875989 0.029348643 0.199620277
0.163187727 0.051992640 0.186211273
0.228209913 0.073497988 0.174952641
0.335863203 0.100569353 0.171789840
0.458443999 0.137381539 0.186843738
0.611764908 0.169892281 0.221505284
0.801770806 0.217204124 0.277419627
0.109171636 0.092220180 0.171789825
0.125996187 0.100442640 0.168500826
0.162302628 0.108412445 0.168627635
0.224668190 0.118532531 0.158380732
0.324478030 0.137381539 0.165591434
0.448576748 0.170777991 0.192156732
0.601897657 0.198229000 0.229348287
0.774446547 0.240986526 0.275395155
0.131435990 0.162808195 0.172548831
0.163187742 0.171789736 0.166097730
0.196837634 0.179632738 0.174573094
0.244149268 0.183175087 0.169892281
0.339278817 0.206324846 0.186338082
0.457558602 0.233396560 0.205060273
0.618089795 0.270208895 0.251233280
0.794686794 0.325743169 0.315370023
0.163187638 0.244528919 0.167741925
0.179886281 0.247817636 0.182036728
0.235926628 0.259203196 0.188235536
0.312966287 0.286527276 0.212017268
0.370018661 0.283365279 0.214421272
0.486401111 0.302593648 0.235926628
0.627577543 0.336495578 0.274889201
0.793421805 0.381657034 0.324098915
0.280328989 0.343453526 0.193168834
0.306135267 0.348387271 0.209740475
0.356989384 0.351549387 0.228209928
0.400000274 0.352687806 0.232005030
0.433396727 0.352687806 0.244908273
0.533585966 0.379000366 0.272106409
0.680835009 0.418848664 0.306388319
0.830233872 0.476280779 0.361290425
0.460594714 0.473497540 0.277039886
0.475142479 0.473118007 0.280581832
0.498545438 0.480202198 0.282479376
0.542314827 0.484630287 0.288045287
0.590385735 0.493232369 0.298924565
0.622390807 0.486148268 0.317394018
0.734092176 0.528779209 0.358254135
0.867299139 0.590385556 0.426691949
0.629095137 0.639848232 0.357368529
0.636559248 0.644022942 0.364579558
0.648323655 0.639721572 0.360151917
0.689563632 0.646552801 0.365211576
0.734724522 0.650980473 0.373434097
0.769512951 0.657305181 0.392030269
0.801644444 0.645920277 0.413409173
0.885262370 0.681593895 0.471726626
0.800885439 0.843390524 0.525237441
0.803921223 0.839341879 0.531309128
0.815812826 0.840354323 0.530297041
0.844022572 0.841745555 0.543706357
0.879316807 0.849715412 0.552055657
0.915876091 0.858823240 0.573181391
0.941935420 0.857684612 0.598355353
0.966603279 0.848323762 0.626818419
0.131561995 0.046172999 0.316508174
0.160278440 0.057179190 0.304744184
0.209993988 0.078304902 0.295256078
0.264769286 0.106894448 0.286400735
0.350917190 0.123718992 0.274889380
0.472738445 0.144591928 0.282226622
0.630233824 0.173055291 0.298165768
0.804933608 0.223023176 0.341556013
0.152308553 0.127007991 0.273877382
0.176850364 0.136496007 0.281341165
0.217837006 0.137128189 0.278937161
0.264389724 0.152561650 0.271600455
0.341556013 0.160658002 0.268437564
0.460594356 0.177103087 0.268564284
0.617457271 0.205312997 0.293990910
0.788741350 0.245920181 0.339784890
0.190259278 0.198228985 0.267931998
0.218216538 0.209740654 0.270714760
0.245920196 0.209993988 0.264769077
0.286400735 0.215812743 0.265528202
0.355597496 0.220113903 0.260721177
0.474130183 0.238456622 0.276786804
0.631119490 0.270208895 0.312333971
0.806451440 0.322201014 0.369892716
0.217710286 0.273118526 0.268564254
0.243643269 0.273877442 0.281341165
0.286274612 0.280075639 0.275648266
0.335104495 0.290195823 0.281593651
0.395825654 0.298039436 0.278684378
0.505376220 0.319038659 0.297912627
0.648703218 0.348766625 0.335357010
0.796458244 0.403795063 0.393421829
0.269450158 0.367489189 0.281214178
0.288804650 0.370524973 0.286780179
0.326628476 0.377735376 0.289057374
0.406704456 0.389374226 0.315243632
0.498165548 0.423023373 0.349146187
0.568374693 0.420999616 0.355218112
0.682985306 0.449589163 0.385199487
0.824920595 0.510183334 0.449841797
0.393169254 0.488298744 0.298418999
0.412776351 0.492978901 0.310816169
0.460214883 0.496900827 0.331941575
0.534977674 0.511068761 0.371663630
0.592156589 0.516508520 0.385199398
0.631246507 0.513978720 0.396205187
0.741049528 0.556356907 0.443137258
0.864263296 0.618975163 0.508538842
0.591651022 0.649209440 0.411132276
0.604048252 0.651359856 0.423150003
0.631625473 0.655661166 0.444275886
0.668816984 0.660088778 0.451865971
0.713725507 0.664263070 0.457179159
0.760784268 0.673624277 0.464769006
0.788994551 0.658697307 0.483744383
0.882226408 0.706135273 0.545603812
0.777482748 0.843137264 0.589373827
0.783048809 0.844402134 0.597469568
0.799493909 0.844022572 0.601138532
0.821884751 0.850347996 0.603921235
0.860594749 0.855028391 0.617710412
0.899557114 0.863883495 0.632005036
0.931688547 0.864769161 0.651359737
0.955976963 0.859329581 0.672865450
0.193674728 0.089942992 0.449715436
0.216698468 0.097280435 0.445414394
0.265275180 0.112207636 0.436938792
0.329538256 0.132321090 0.429981202
0.393295020 0.157748252 0.415180027
0.506894171 0.168374479 0.405312717
0.647691071 0.182922259 0.419481456
0.818342686 0.233522892 0.445667207
0.215053469 0.146868825 0.410878986
0.227071732 0.160404786 0.416065633
0.271220624 0.166729987 0.415053695
0.323213279 0.177355915 0.402023762
0.388487905 0.189879537 0.395825475
0.494117707 0.201644540 0.392283201
0.630866408 0.206325024 0.400885195
0.793927670 0.249209598 0.437065005
0.263757080 0.237191468 0.405566067
0.274509549 0.238583073 0.406704664
0.306135178 0.238203824 0.414295018
0.351802826 0.243390173 0.396584451
0.411764562 0.257305533 0.393168718
0.507779777 0.262365550 0.396331131
0.647058964 0.275268614 0.412270457
0.815812826 0.326501966 0.455661058
0.287412703 0.295256108 0.397090435
0.309930354 0.304364294 0.400000006
0.345730573 0.320177287 0.394939750
0.387602955 0.321695358 0.387855738
0.434661716 0.328779370 0.396963894
0.518912077 0.333333373 0.397090346
0.651992381 0.354079723 0.418090135
0.808855176 0.409361064 0.463377267
0.319924355 0.399114370 0.397469759
0.346236706 0.400759190 0.412650079
0.382795453 0.399241388 0.415180027
0.445160925 0.405945748 0.417077541
0.509804010 0.426692367 0.426185906
0.583681226 0.435040951 0.435167640
0.703352392 0.464263469 0.462492347
0.828715920 0.525110483 0.515370011
0.379759490 0.516635418 0.424415171
0.400379539 0.519291937 0.427956760
0.434788108 0.525616825 0.434661835
0.498418748 0.533586085 0.447944194
0.582669199 0.552688241 0.483744472
0.679443240 0.593295217 0.530423701
0.755598009 0.605692744 0.541302979
0.856546402 0.651739299 0.590891540
0.504364312 0.659582257 0.436306000
0.520809770 0.660341263 0.447185636
0.548893154 0.661479950 0.454649180
0.608728766 0.667299151 0.491334528
0.686527550 0.684376597 0.536369145
0.747248530 0.690575719 0.559139669
0.782922029 0.685768545 0.564831972
0.879443049 0.732700765 0.622517228
0.727514148 0.843263805 0.612144351
0.738140166 0.846805871 0.626185656
0.749651968 0.847691178 0.634788334
0.789626658 0.849209309 0.658064365
0.827197850 0.857937932 0.676913202
0.873497605 0.861226857 0.685515344
0.915496707 0.870335340 0.708918214
0.939278781 0.863757133 0.727514327
0.267931998 0.136875272 0.633523226
0.288425028 0.142821029 0.625047266
0.332068264 0.153447285 0.620113552
0.400885552 0.171030939 0.616824806
0.479949296 0.191777274 0.606578112
0.556989253 0.220493436 0.605060101
0.689057231 0.229348555 0.591650844
0.826185584 0.242124781 0.595445812
0.282732278 0.182416275 0.602782845
0.299810290 0.193042248 0.606578052
0.342315078 0.195825100 0.600632250
0.403289378 0.211511701 0.594180524
0.476027578 0.223655924 0.592283189
0.552561820 0.244402081 0.587223411
0.679949284 0.247817829 0.578874290
0.805692613 0.261227041 0.574066997
0.328020155 0.275901109 0.592536271
0.353573740 0.278937280 0.601138771
0.381277502 0.282099813 0.591271460
0.436179668 0.288931102 0.596204877
0.500316322 0.297533184 0.589247465
0.572422385 0.308412164 0.584693432
0.689816535 0.316888154 0.585452557
0.822770417 0.337633908 0.592409849
0.391271621 0.364958972 0.580898225
0.401265085 0.366856426 0.580139220
0.427071631 0.367615700 0.578367829
0.469323188 0.369512975 0.572548866
0.530170441 0.379253626 0.580139160
0.587982416 0.388235480 0.576470494
0.692473173 0.396457911 0.574952543
0.818595886 0.419860899 0.587096691
0.414168239 0.431499183 0.588108778
0.430233896 0.438456655 0.594307303
0.465781063 0.449462265 0.583680928
0.525616467 0.469196677 0.586843848
0.574193358 0.474509627 0.581657469
0.625806272 0.485136032 0.589879990
0.715243280 0.490069568 0.587982297
0.838329911 0.533080220 0.612144053
0.461226970 0.576470494 0.594813347
0.478178740 0.580771685 0.607210875
0.510436416 0.579885960 0.610752702
0.565717876 0.577862263 0.609993815
0.635167718 0.586843729 0.620366812
0.693232298 0.610752702 0.622390866
0.762935042 0.622896791 0.640227735
0.865654647 0.664136827 0.665148675
0.497279972 0.697912574 0.604427516
0.514231682 0.695003092 0.610879481
0.538267016 0.697912574 0.603921413
0.587349653 0.696773887 0.611638546
0.647185385 0.702846289 0.620240450
0.725363493 0.718152761 0.651992321
0.805818975 0.752182007 0.687792301
0.875268877 0.777862012 0.719038486
0.666287184 0.848323584 0.644528925
0.680581868 0.853130817 0.650094986
0.694244027 0.854648769 0.666666985
0.732574284 0.857684612 0.684123874
0.777608752 0.864010215 0.711575091
0.845414340 0.870335519 0.754965484
0.896394610 0.877166152 0.779380381
0.931055963 0.878937602 0.785325825
0.349398792 0.216065779 0.818975568
0.366476983 0.219354793 0.816318750
0.405945778 0.232510880 0.815053582
0.471347451 0.248576805 0.811511397
0.549399018 0.274003804 0.805692375
0.628462791 0.300189555 0.798987865
0.712840259 0.339278907 0.800126553
0.847564578 0.364073575 0.792789400
0.362175584 0.256166875 0.805818915
0.380771488 0.267678469 0.807083726
0.419228017 0.267678469 0.804680765
0.481467634 0.280202240 0.795825422
0.549778581 0.296268135 0.795445740
0.630360425 0.325110495 0.792662680
0.710815966 0.351802438 0.782416284
0.842251599 0.372169286 0.783048391
0.418848872 0.341049820 0.795825481
0.440733761 0.347501636 0.807337046
0.471473634 0.348386884 0.803162575
0.516255617 0.361796170 0.796584189
0.581783712 0.376596928 0.795445561
0.659202993 0.396457881 0.794560432
0.726502001 0.425426960 0.788361549
0.852118850 0.444908500 0.789373517
0.489943206 0.441998690 0.792030275
0.503352225 0.447564751 0.784060657
0.526375413 0.451739132 0.786463976
0.564199746 0.457305580 0.783554375
0.617457390 0.466792881 0.785072565
0.673371434 0.477798700 0.779886127
0.741050005 0.498165667 0.780265331
0.852371931 0.514357686 0.780265391
0.537128210 0.530550122 0.787982166
0.555977166 0.547121704 0.787096798
0.590385675 0.555217981 0.787602603
0.622517467 0.564199626 0.784819603
0.667172790 0.570778131 0.785072565
0.716887832 0.583301306 0.785831630
0.770272076 0.596331418 0.783934236
0.859961987 0.611005604 0.791397810
0.590638816 0.646046698 0.803415418
0.599367201 0.644149482 0.805059969
0.622011364 0.646932244 0.801644564
0.655787468 0.656040370 0.797722697
0.708791494 0.680328786 0.799746990
0.754712343 0.693991244 0.795319557
0.804933429 0.703478992 0.799746871
0.880961359 0.710942447 0.807590306
0.604427576 0.778747499 0.804174304
0.619228303 0.777862191 0.807716548
0.639595211 0.775078893 0.803668141
0.677925348 0.775711775 0.801897168
0.723971963 0.771916330 0.807590127
0.780012846 0.774699390 0.802909136
0.831246257 0.791018486 0.812017918
0.890575767 0.801897168 0.813662589
0.659329593 0.898671746 0.815053582
0.679569602 0.891587436 0.819481432
0.688298583 0.893358707 0.813156307
0.723212957 0.892093539 0.821631789
0.762934625 0.889436722 0.828209996
0.812523484 0.891461015 0.838583291
0.870714664 0.898544967 0.851992309
0.928525984 0.915496767 0.882985473
