Assets/Resources/EldamarStudio/100 Horror LUTs Pack/LUTs/cube/Salem LUT.cube
LUT_3D_SIZE 8
DOMAIN_MIN 0.000000 0.000000 0.000000
DOMAIN_MAX 0.903226 0.903226 0.903226
0.074510001 0.043136999 0.035294000
0.090954997 0.043895997 0.043895997
0.128525987 0.053257097 0.060341999
0.175458282 0.071220994 0.072865002
0.234155178 0.094750188 0.090828799
0.324983984 0.125236988 0.105755992
0.454775572 0.161417007 0.141809002
0.651739597 0.197596803 0.168753818
0.086654447 0.076027997 0.055281546
0.106261544 0.080328546 0.055660997
0.133207083 0.088551894 0.071726546
0.173940286 0.100695640 0.083491549
0.239595369 0.121062636 0.100822359
0.329285026 0.150031552 0.124984443
0.457811356 0.184819803 0.144591838
0.646552384 0.226186261 0.172169656
0.109803997 0.137887195 0.084503189
0.115243092 0.143326998 0.092473097
0.150537997 0.147248194 0.094749995
0.190006644 0.158633649 0.104997002
0.255281210 0.180139184 0.122201189
0.349905193 0.209108099 0.142694190
0.489057660 0.249841794 0.161417007
0.677672505 0.295129657 0.199114799
0.117647000 0.222011641 0.127766997
0.125363901 0.226691723 0.124984354
0.163061097 0.232511267 0.132447898
0.210246637 0.242757991 0.137887284
0.288171977 0.270208985 0.160784006
0.384692997 0.301454991 0.170524731
0.525490224 0.339278907 0.187223002
0.706388056 0.393295109 0.232005000
0.113978818 0.345224559 0.170777991
0.138140187 0.352687895 0.164073542
0.181024998 0.359392375 0.169892386
0.246679187 0.371031165 0.176596731
0.332827359 0.389879376 0.202150390
0.439848393 0.420366645 0.215053737
0.580771685 0.468943745 0.235420570
0.750663757 0.517520547 0.294876844
0.107653253 0.532321453 0.227071464
0.142061830 0.531055987 0.227577537
0.215306997 0.535357356 0.232890815
0.300063103 0.547121823 0.248450726
0.406831354 0.564832211 0.263757199
0.518659174 0.587349474 0.289563477
0.652877808 0.612650037 0.337887466
0.791777492 0.653889537 0.406325281
0.242631257 0.720430255 0.346616268
0.269323528 0.716255665 0.361290544
0.328020632 0.720556319 0.367488652
0.411764920 0.727640808 0.389879912
0.502972662 0.737760544 0.400379449
0.609488010 0.743326843 0.435799986
0.716508269 0.761290550 0.480202556
0.829348207 0.789879978 0.546869040
0.519924343 0.869702637 0.589120388
0.550537348 0.882099569 0.596078515
0.566603303 0.880961359 0.599620402
0.616065383 0.883871138 0.613662243
0.674889266 0.889310658 0.631119430
0.745224535 0.895129681 0.656040311
0.819354773 0.907273889 0.690575838
0.892093599 0.910183787 0.713219404
0.086274996 0.043136999 0.067425996
0.101202004 0.043895997 0.063883543
0.128146529 0.060721450 0.083491549
0.170398638 0.081467196 0.092852548
0.232637376 0.101454541 0.112460345
0.324857473 0.129284993 0.134092003
0.451233119 0.157748446 0.158886999
0.643896222 0.192283139 0.194054350
0.079949096 0.079569548 0.074383087
0.106261544 0.084629998 0.083871000
0.128526092 0.088551894 0.085768543
0.170778006 0.105755992 0.105755992
0.233396381 0.124984346 0.124730997
0.324477792 0.150410995 0.142567992
0.454775572 0.182795539 0.162175998
0.647944570 0.221252233 0.197722822
0.106640995 0.139025643 0.108538635
0.115243092 0.144971207 0.112080991
0.151297003 0.142947540 0.113599092
0.190006539 0.156230554 0.124984443
0.253763378 0.180139184 0.137887284
0.343580097 0.207083836 0.154332995
0.485515088 0.243137360 0.180139095
0.672865272 0.295888454 0.220240414
0.117267452 0.220366627 0.137381539
0.127387643 0.219987288 0.138266638
0.164199650 0.230234176 0.148892999
0.209487736 0.243137538 0.148766279
0.285388738 0.263883352 0.169639543
0.379633248 0.294750124 0.184946194
0.524225116 0.338519841 0.206957534
0.709044635 0.394560277 0.252751142
0.102846190 0.345224559 0.178241536
0.129538000 0.350284815 0.179886550
0.175458282 0.353826463 0.189626992
0.241492733 0.369513273 0.196204752
0.323339581 0.385958374 0.212650344
0.431246251 0.416445255 0.232637286
0.584313691 0.463883817 0.262745082
0.746109843 0.518532693 0.321821660
0.094370730 0.517773867 0.234155729
0.145224735 0.525237441 0.248070970
0.212396920 0.529158473 0.245794088
0.298924565 0.540543914 0.261353374
0.401771128 0.555471063 0.280202448
0.510689199 0.575837970 0.302340001
0.645161390 0.606451750 0.344339252
0.794054389 0.655407965 0.423782438
0.244654924 0.716128826 0.368880361
0.271094263 0.716887832 0.374446541
0.328779340 0.722074509 0.377608836
0.413915277 0.729032457 0.398734719
0.508033097 0.733333170 0.421632022
0.611890793 0.748640001 0.452498496
0.720683277 0.768754005 0.495129377
0.831878304 0.794433892 0.560404480
0.518785357 0.879443467 0.586969912
0.530929744 0.880961597 0.585831821
0.563693702 0.879949391 0.604553759
0.612144053 0.881340802 0.617583513
0.671094060 0.885641932 0.631625414
0.743833005 0.888804734 0.658444166
0.815812826 0.903352201 0.690322459
0.893105149 0.909171045 0.729538381
0.079190098 0.047817901 0.100316100
0.097659551 0.051359549 0.101454549
0.130929992 0.061859999 0.116002090
0.172801644 0.086274996 0.126122892
0.235040992 0.105755903 0.149652198
0.319797635 0.131435737 0.170904189
0.451486558 0.148134008 0.196584284
0.652498484 0.176343992 0.232763886
0.093738452 0.087033994 0.108918093
0.103099450 0.084250547 0.111701541
0.139152542 0.096015446 0.128146529
0.173940197 0.112080999 0.140670449
0.238077179 0.131688803 0.157495096
0.326122642 0.152814999 0.179000542
0.470714986 0.174320012 0.207843125
0.653889835 0.210246831 0.241872057
0.109804004 0.133965999 0.146489084
0.124731094 0.145730108 0.141808987
0.152055994 0.152814910 0.154333085
0.187982187 0.165717751 0.156610087
0.256926090 0.182542816 0.174699381
0.356989354 0.206451744 0.192662984
0.493738145 0.238077193 0.220872983
0.678557634 0.289183915 0.260214925
0.111827552 0.227071270 0.172675550
0.122327901 0.235041082 0.168753728
0.164199740 0.240480989 0.188488543
0.215053737 0.250221640 0.187223077
0.284883112 0.267425716 0.197722837
0.389879644 0.296647370 0.225932717
0.529032350 0.338899374 0.250094831
0.711068749 0.390638649 0.299304187
0.090955086 0.355597466 0.218469188
0.118406087 0.357874572 0.223529547
0.177102998 0.368880272 0.222391188
0.243517086 0.372675359 0.232511073
0.327261269 0.392283171 0.243516997
0.439089268 0.419607550 0.265780926
0.588614821 0.465022355 0.301328272
0.753573537 0.520177007 0.359013438
0.085768640 0.533206463 0.287413001
0.129538253 0.537001729 0.289310634
0.210499480 0.536622167 0.299304187
0.302593529 0.549146116 0.312080741
0.403795183 0.560151815 0.322200924
0.514611244 0.580645084 0.348260552
0.649082720 0.610752642 0.386843801
0.792409599 0.656925976 0.459961712
0.249588639 0.714231551 0.407463551
0.277925581 0.719671249 0.410372913
0.334345460 0.725996554 0.427197635
0.414421469 0.729158819 0.434534997
0.509297848 0.737001836 0.454395831
0.612397075 0.748766482 0.489942878
0.716381729 0.761163652 0.520050526
0.827956855 0.792662799 0.581530571
0.529538333 0.878178537 0.618469298
0.541555643 0.877039790 0.613915145
0.569512486 0.878937602 0.629727781
0.613915145 0.884882867 0.639215827
0.676154613 0.890448987 0.652751505
0.745224357 0.892346501 0.672232628
0.818595886 0.902593136 0.706261933
0.891334534 0.906514645 0.738772690
0.087919004 0.053257290 0.151928991
0.095635898 0.057178997 0.154712349
0.130044088 0.068564445 0.162935093
0.172042638 0.088551998 0.169892281
0.229854628 0.108917996 0.198229089
0.319291443 0.129284993 0.224414721
0.459329545 0.144591928 0.262998283
0.663630784 0.156989142 0.309930265
0.092599906 0.092473090 0.167235643
0.106640995 0.086147994 0.151296735
0.132068440 0.097533345 0.168753639
0.169892192 0.110815637 0.182036743
0.230107263 0.130044192 0.205186278
0.325616479 0.149272636 0.228968814
0.469449848 0.169639453 0.271220744
0.662239075 0.189879820 0.311068624
0.101202004 0.141809091 0.199873284
0.123213001 0.142441288 0.190259278
0.144971192 0.158633649 0.197343275
0.192662999 0.161669746 0.205945373
0.259076387 0.182542995 0.225173727
0.354205996 0.200885549 0.245793983
0.499557108 0.229854643 0.279822916
0.689942956 0.262618721 0.324098796
0.108032644 0.220366627 0.219228283
0.120430261 0.227450818 0.231119290
0.156356543 0.239974633 0.230613738
0.215306982 0.254016638 0.246679276
0.291587621 0.270082206 0.255155087
0.390385747 0.295888484 0.276280969
0.544591844 0.331941575 0.312966555
0.728399754 0.384187251 0.370651424
0.072991811 0.351296723 0.279949635
0.104490906 0.356862336 0.281467557
0.166224003 0.367995173 0.282732278
0.240733624 0.379633367 0.292346805
0.329538167 0.392156661 0.301075637
0.446552902 0.423150033 0.331562102
0.589500487 0.463757008 0.370398402
0.751422703 0.519291699 0.423149586
0.041366093 0.525996387 0.345477641
0.106388181 0.532321393 0.347881019
0.198735088 0.534598351 0.354585469
0.293738008 0.548387229 0.367868245
0.406957567 0.563693643 0.381910175
0.510056853 0.584946334 0.403415620
0.648956418 0.613156199 0.442884475
0.788614631 0.661606550 0.515876174
0.246806115 0.714863539 0.467172861
0.278431445 0.715622604 0.467299193
0.332953900 0.722327948 0.476786882
0.415812790 0.724351525 0.485135555
0.510815740 0.738140106 0.509297729
0.614042044 0.747880816 0.532827437
0.718912184 0.764705896 0.561416864
0.835294068 0.795572340 0.626059473
0.525490344 0.876154244 0.640860200
0.538266897 0.878178298 0.643643141
0.567235887 0.882858574 0.650853693
0.614168406 0.881214559 0.661733031
0.673118234 0.884376764 0.674762666
0.739531636 0.892599642 0.697533131
0.818216443 0.899430335 0.722960234
0.893990934 0.911574781 0.754205883
0.080834813 0.059456188 0.223276183
0.096015349 0.066160545 0.225932717
0.134851202 0.078431003 0.230993077
0.182036638 0.091334641 0.233270183
0.240480989 0.112839997 0.258317381
0.325237125 0.128146738 0.291207969
0.462492257 0.148133993 0.342062086
0.659708738 0.162175998 0.405819207
0.092726104 0.097912997 0.230613619
0.103858352 0.100316092 0.234914273
0.133207083 0.104996897 0.241239980
0.183301985 0.119544543 0.249842182
0.245161384 0.134345353 0.265148610
0.332827300 0.151549742 0.292346597
0.477039903 0.168121263 0.344718426
0.667805195 0.191777170 0.406957656
0.087033898 0.154332891 0.260721207
0.103731632 0.157621905 0.259962171
0.144212186 0.161417007 0.264769286
0.193548188 0.172422186 0.274130195
0.263124377 0.187223092 0.289690167
0.356103629 0.207210839 0.322960049
0.506388366 0.227956906 0.371157169
0.687665820 0.264895827 0.421252161
0.073877007 0.238836274 0.287286401
0.101581357 0.241619542 0.303858280
0.146995470 0.246299729 0.307780087
0.210246637 0.258064747 0.317520827
0.288045466 0.270461649 0.330803007
0.399114370 0.299557537 0.356609732
0.547754645 0.324351639 0.397216916
0.725110650 0.374066949 0.450348079
0.052118815 0.353953183 0.350031585
0.086021364 0.365338653 0.355218023
0.151296705 0.369639397 0.357748270
0.239215821 0.387602568 0.378241360
0.345224559 0.407969564 0.396205187
0.456293464 0.428336561 0.414547920
0.605945587 0.461100370 0.444655299
0.762049258 0.513725340 0.497153968
0.011511552 0.533839226 0.425679922
0.083364643 0.536748946 0.431499183
0.184693277 0.539278865 0.438709825
0.284883171 0.553573608 0.444655180
0.402529925 0.568880260 0.462618470
0.518532693 0.585705280 0.485515267
0.654522598 0.621378720 0.522074401
0.793295264 0.663251102 0.575331748
0.245287910 0.721315444 0.539278746
0.280708522 0.717267573 0.540543854
0.335736722 0.724478364 0.551043570
0.413156301 0.732574046 0.551423073
0.509930491 0.740796566 0.567488849
0.617330968 0.750284672 0.591903985
0.721062839 0.765844584 0.621378958
0.837823868 0.797343433 0.670208395
0.518406153 0.879190207 0.682858586
0.535736561 0.879696429 0.685135782
0.559392512 0.883364856 0.685641587
0.608855307 0.882605970 0.697280049
0.672611952 0.888424873 0.708918154
0.741555929 0.897280157 0.729284942
0.815559804 0.902593136 0.756862521
0.893737912 0.911574781 0.780012608
0.064895749 0.070715003 0.326502204
0.089943260 0.074003547 0.329032004
0.135484084 0.086274996 0.339152128
0.196963727 0.094497263 0.345477611
0.264642447 0.113345541 0.369513184
0.346236736 0.125363991 0.383301467
0.473118305 0.146995738 0.428462982
0.666666627 0.158253998 0.502340496
0.066540457 0.103099450 0.333206475
0.093485191 0.104996800 0.337634027
0.135230839 0.110436179 0.345730662
0.194939986 0.115496539 0.350917220
0.264389455 0.133206993 0.369259655
0.351549894 0.150031552 0.390006214
0.482858568 0.167615086 0.433649570
0.680075765 0.191397712 0.513472438
0.036053441 0.163061202 0.373687804
0.078178525 0.167235836 0.370018572
0.131435648 0.164832458 0.370904446
0.201265082 0.175078735 0.381530911
0.283744544 0.189120829 0.396078467
0.378747463 0.205186576 0.417583793
0.505756021 0.230993286 0.458570570
0.695635498 0.265654922 0.522960126
0.008855103 0.255028367 0.394054532
0.032764092 0.252371818 0.407716632
0.117014810 0.252498537 0.404807091
0.208728641 0.265022099 0.419734180
0.302846372 0.279570073 0.437191814
0.413409203 0.300695866 0.457432121
0.554079533 0.330802917 0.497659564
0.732700825 0.381151348 0.553067684
0.000000000 0.373181552 0.455028415
0.000758999 0.378367931 0.465022177
0.105249904 0.389879376 0.462871730
0.221252635 0.395698994 0.473877192
0.340544075 0.409487367 0.494750351
0.465275109 0.429348797 0.514737904
0.607969701 0.460594624 0.542062104
0.761543214 0.515370131 0.592789531
0.000000000 0.542062163 0.516761422
0.042378545 0.538014174 0.519671261
0.166982830 0.547880888 0.531941712
0.276913375 0.557748199 0.544465184
0.404554188 0.573054731 0.560404658
0.536242485 0.597090185 0.585325718
0.665908039 0.623402476 0.609867215
0.798861623 0.658950210 0.649588645
0.243769616 0.718532503 0.612270772
0.272359550 0.717646837 0.612777054
0.331182927 0.724731266 0.627956808
0.412523717 0.731435716 0.633396626
0.511195183 0.748007536 0.644022942
0.622264385 0.756103754 0.664895535
0.726628542 0.774067104 0.685894549
0.850980163 0.800379276 0.731941462
0.518911719 0.875521898 0.736622512
0.532321274 0.880961359 0.737507582
0.557368696 0.878810585 0.743073702
0.600632489 0.883617699 0.745856822
0.661226869 0.887666166 0.749778092
0.739531696 0.890069544 0.768753588
0.816698492 0.902593255 0.792283475
0.902972460 0.911701739 0.819354892
0.000000000 0.076154292 0.497533262
0.030360727 0.074636005 0.503858507
0.127134711 0.079317003 0.516255617
0.215939283 0.086780645 0.523339570
0.310436279 0.092599809 0.536622345
0.419354737 0.104491003 0.554079533
0.531182528 0.125489995 0.575331867
0.682732105 0.163566977 0.612650335
0.003542452 0.105376251 0.507274032
0.017204443 0.105376251 0.509044826
0.112966195 0.113092802 0.515243351
0.220366642 0.114863731 0.524478197
0.314358264 0.124351449 0.540670395
0.420872658 0.141808987 0.559772253
0.544086099 0.164579287 0.585957885
0.686653793 0.197849542 0.624667823
0.003162904 0.166097105 0.528273284
0.001644712 0.167994842 0.536116600
0.092979103 0.171663389 0.543959260
0.212397188 0.180012479 0.550411046
0.315876275 0.191144899 0.565717638
0.433396548 0.204047933 0.572675645
0.563314438 0.235041380 0.601770937
0.702593207 0.271726906 0.632004917
0.002783356 0.259582639 0.569765806
0.000379548 0.260974020 0.564199805
0.005692821 0.266034156 0.564073443
0.197343275 0.275268912 0.577735424
0.330423564 0.291967183 0.593548179
0.457305282 0.311195612 0.611258864
0.586717129 0.339278936 0.629222155
0.742567897 0.385072649 0.662492275
0.002277288 0.404554069 0.607210755
0.001644712 0.409867018 0.607843101
0.000759105 0.408602357 0.610626280
0.175331891 0.407084286 0.623782456
0.339658469 0.419607639 0.624794483
0.484756410 0.442125350 0.645034611
0.625300765 0.469449669 0.659835637
0.767994702 0.517520428 0.694370389
0.000000000 0.565211535 0.651359558
0.000758999 0.575711489 0.660974503
0.116381936 0.574573040 0.662492275
0.265275002 0.579000771 0.670335412
0.401518255 0.589120746 0.677039981
0.534977734 0.602909446 0.689563513
0.669702947 0.626059294 0.705882072
0.806072295 0.665021956 0.737001479
0.253257096 0.731182575 0.717773795
0.282479405 0.726881981 0.709297776
0.333080143 0.731309414 0.720430255
0.414800823 0.739531934 0.722201228
0.516887844 0.749398947 0.731309474
0.627957165 0.763440847 0.749652028
0.742314577 0.783807874 0.773054540
0.847818017 0.803921342 0.792789280
0.522960126 0.880834758 0.791777372
0.537634254 0.879822910 0.804554224
0.564958870 0.877672434 0.801264644
0.609740674 0.883744359 0.809614062
0.663503945 0.890448868 0.817836642
0.742441356 0.893611491 0.821758509
0.817963362 0.904617071 0.845287740
0.901454866 0.921315670 0.859076440
0.002656833 0.057432011 0.730044425
0.000000000 0.055534273 0.737634063
0.082479648 0.055534273 0.734218597
0.239974633 0.055913821 0.739152193
0.366730005 0.066793203 0.748639882
0.491461366 0.086147994 0.758254349
0.623023510 0.131815255 0.770651400
0.753573418 0.191397756 0.778367639
0.000758999 0.103858545 0.734472036
0.008349169 0.098671697 0.735231042
0.048323486 0.097153991 0.734092236
0.241112977 0.105376445 0.750790596
0.366223574 0.114737540 0.755850613
0.496900439 0.139152363 0.767362356
0.628716052 0.174319983 0.781530619
0.770651400 0.234535143 0.799999595
0.000759096 0.177229822 0.750790477
0.003795180 0.176596925 0.743833184
0.001518006 0.177482352 0.754079521
0.207590014 0.185072631 0.754079640
0.356103361 0.197976083 0.759266019
0.495888710 0.221252263 0.772675455
0.636305928 0.259582341 0.785199046
0.775711656 0.312460631 0.795951843
0.003795180 0.276533812 0.761163414
0.001518189 0.284250379 0.764578938
0.000000001 0.288045377 0.764705837
0.179886281 0.297533482 0.774193585
0.354838729 0.316634923 0.780012608
0.507526696 0.340164334 0.787855446
0.647438288 0.376723617 0.796078265
0.787855625 0.425806254 0.815053582
0.005692830 0.433270007 0.788614631
0.000758999 0.432890564 0.791018367
0.001138641 0.426438898 0.783680916
0.133839548 0.427451372 0.793421686
0.360278189 0.449968547 0.789373815
0.523845553 0.474889338 0.806957364
0.664895654 0.509045064 0.809108019
0.803288579 0.549019396 0.828842402
0.000000000 0.609108388 0.808349192
0.033396743 0.612649977 0.812270641
0.105755530 0.609993577 0.808222592
0.275775075 0.609740615 0.810879171
0.410373211 0.607210934 0.814294636
0.560531199 0.620746315 0.825806320
0.700316250 0.649082541 0.839215994
0.824541509 0.677925408 0.846679509
0.340670347 0.765464783 0.846173286
0.354965270 0.772928298 0.846552849
0.395698816 0.769006968 0.846679389
0.471600175 0.769892514 0.846299827
0.554079235 0.779253721 0.857432008
0.642504513 0.782795727 0.855787456
0.754079521 0.792662561 0.867299259
0.859329462 0.816065848 0.878558040
0.551170170 0.893358767 0.876154661
0.568501234 0.887919068 0.885515451
0.584693134 0.890069544 0.883617699
0.630107403 0.891966760 0.882985413
0.680581748 0.898671448 0.889437139
0.752688110 0.904870391 0.890954733
0.836306214 0.908918560 0.904364347
0.903731763 0.927260816 0.919417739
