Assets/Resources/EldamarStudio/100 Horror LUTs Pack/LUTs/cube/Salem LUT.cube
DOMAIN_MIN 0 0 0
DOMAIN_MAX 1 1 1
LUT_3D_SIZE 32
0.074510001 0.043136999 0.035294000
0.077545613 0.046173386 0.038330387
0.082732551 0.047059000 0.041366227
0.087539837 0.045793839 0.043136999
0.090954997 0.043895997 0.043895997
0.097027004 0.049968001 0.049968001
0.108158998 0.056040645 0.056040645
0.118658699 0.055534583 0.058823999
0.128525987 0.053257097 0.060341999
0.140670002 0.062365480 0.066413999
0.146995738 0.065654866 0.063757129
0.159139723 0.066666998 0.066792995
0.175458282 0.071220994 0.072865002
0.192662999 0.082353003 0.078684032
0.198734999 0.082353003 0.081720419
0.214420989 0.087159999 0.084756806
0.234155178 0.094750188 0.090828799
0.255407542 0.102593422 0.098671578
0.276659995 0.105629042 0.101707973
0.300695717 0.114231363 0.101961002
0.324983984 0.125236988 0.105755992
0.350284398 0.134345129 0.111827999
0.378115475 0.137887493 0.118279494
0.417583942 0.153067917 0.133459911
0.454775572 0.161417007 0.141809002
0.495382607 0.166097313 0.146489680
0.542441249 0.170651123 0.150537938
0.597090721 0.182795882 0.159645543
0.651739597 0.197596803 0.168753818
0.708159506 0.214547947 0.184946164
0.764073491 0.230992973 0.202656597
0.815685987 0.243137002 0.211765006
0.083618388 0.043136999 0.053510770
0.080582000 0.049209002 0.041366000
0.083618157 0.052245390 0.042251613
0.090069838 0.054396160 0.046932161
0.097406544 0.054522678 0.053004384
0.106135383 0.049968001 0.059076384
0.109677061 0.056040645 0.049968388
0.117014416 0.058823999 0.054649316
0.125490382 0.058570772 0.058823999
0.137634382 0.065401867 0.060342003
0.146869257 0.068690516 0.066413999
0.161163986 0.073750608 0.067805126
0.177356035 0.076913260 0.072865002
0.192916036 0.082606032 0.078431003
0.201771393 0.085389383 0.078684032
0.212650388 0.092599571 0.086527415
0.232637361 0.097786188 0.089310609
0.254775137 0.103858411 0.093231998
0.273624390 0.111701041 0.098671600
0.297659427 0.123086713 0.107273974
0.323845327 0.128652647 0.109930262
0.350284398 0.136369124 0.116887860
0.377988964 0.143832982 0.127008379
0.414547533 0.156103536 0.133459911
0.456293136 0.164452612 0.144086286
0.501201570 0.171916276 0.149525717
0.551043570 0.179253459 0.153067619
0.603162706 0.188867882 0.159645543
0.649841726 0.203668803 0.171410650
0.703351915 0.215306744 0.179127365
0.757115602 0.231498793 0.195825577
0.806578398 0.252245396 0.217836991
0.088425227 0.051739547 0.058823999
0.089690387 0.051359776 0.050980225
0.084503770 0.059582550 0.047437999
0.090069838 0.061353773 0.048703160
0.098418549 0.062745452 0.054901998
0.103984937 0.058443904 0.057431996
0.118785448 0.058190871 0.063377775
0.121821478 0.064263225 0.054522775
0.127388000 0.066793226 0.060341999
0.136749014 0.072865225 0.063124999
0.150284871 0.076027907 0.064642996
0.163441241 0.077039778 0.070714995
0.178115115 0.081720419 0.075015776
0.191271260 0.085262746 0.080834806
0.204174638 0.092093639 0.082732551
0.217836991 0.097786181 0.087792575
0.233016983 0.105375998 0.093864575
0.256040126 0.110309795 0.094497003
0.277292967 0.119417816 0.097533010
0.298924804 0.127007946 0.104237586
0.323212773 0.137254953 0.113345958
0.352308393 0.141808763 0.118911900
0.382289976 0.149904981 0.129664987
0.418722570 0.162049010 0.135737002
0.457558304 0.171789765 0.144086286
0.500063062 0.179253429 0.150411323
0.548387051 0.188361838 0.154459074
0.596710742 0.197470218 0.162175775
0.649462521 0.214041799 0.175711647
0.707400024 0.223908976 0.186084747
0.763566911 0.235293970 0.195192814
0.814674199 0.257052779 0.217457220
0.088931158 0.063883997 0.057558838
0.089437224 0.063377611 0.055281550
0.091081835 0.062618613 0.053510323
0.092599839 0.070461839 0.052245162
0.101328000 0.070082389 0.056040544
0.105249770 0.067046225 0.058697160
0.114610992 0.069070160 0.061227158
0.127134711 0.071094319 0.067172840
0.133207083 0.076407224 0.062618837
0.140797168 0.081973165 0.067678839
0.153067708 0.083870873 0.069196999
0.164452925 0.087412998 0.073244996
0.178494960 0.088551641 0.077040002
0.188488156 0.091840997 0.082859002
0.204680413 0.099936731 0.086907253
0.219860792 0.106641158 0.093611993
0.239089310 0.111448318 0.095635802
0.257937878 0.118152730 0.099303991
0.281594157 0.127260968 0.100569010
0.303099215 0.134851173 0.108665325
0.326249152 0.141555727 0.115369894
0.352561414 0.149651989 0.122454032
0.385705471 0.155977011 0.130929828
0.420999646 0.168121323 0.137001842
0.459709108 0.177988276 0.142821118
0.501834273 0.187096655 0.151676491
0.544845045 0.196205065 0.154712111
0.590385377 0.205313444 0.162302285
0.645161092 0.221126124 0.175458819
0.705629230 0.234788135 0.189626753
0.767109156 0.243516758 0.203162193
0.820999026 0.261353999 0.219481155
0.086654447 0.076027997 0.055281546
0.084377162 0.078684159 0.059076838
0.087412998 0.076407090 0.060341999
0.095255993 0.074636094 0.058697384
0.106261544 0.080328546 0.055660997
0.112333544 0.077292934 0.064769387
0.116634868 0.081846997 0.064895675
0.123339698 0.085515708 0.066413544
0.133207083 0.088551894 0.071726546
0.148387492 0.091587514 0.071726546
0.157748133 0.092093542 0.074636415
0.165211543 0.095761992 0.078937545
0.173940286 0.100695640 0.083491549
0.186338037 0.103732027 0.083744518
0.204427525 0.109677538 0.089689992
0.219860792 0.116128989 0.096647799
0.239595369 0.121062636 0.100822359
0.262872010 0.124984503 0.099303991
0.284124464 0.134092152 0.105376013
0.305755645 0.142820910 0.116635174
0.329285026 0.150031552 0.124984443
0.355597675 0.156483099 0.130044401
0.386084944 0.162681580 0.133459523
0.419481456 0.174573258 0.140037552
0.457811356 0.184819803 0.144591838
0.499303937 0.194307208 0.148893118
0.545983613 0.203415617 0.158887044
0.591523945 0.212523997 0.161922649
0.646552384 0.226186261 0.172169656
0.707020521 0.239974961 0.186084822
0.766350150 0.253384143 0.203921199
0.814926982 0.268564552 0.228210002
0.089690059 0.088171996 0.058317933
0.092726447 0.088171996 0.067425549
0.094750166 0.090828709 0.071220838
0.099556997 0.091081865 0.069955997
0.106261544 0.092473321 0.064769387
0.109297931 0.095508933 0.061733000
0.117900260 0.100062996 0.068311065
0.127640933 0.101201713 0.071220711
0.138520092 0.100695901 0.075521931
0.148387492 0.103731513 0.080834940
0.157748133 0.106767863 0.083744802
0.166856259 0.109297670 0.084756933
0.177735582 0.112839639 0.088045932
0.192410037 0.115876026 0.092852905
0.207590416 0.118912414 0.095888518
0.220872939 0.127261117 0.094623804
0.239595369 0.134344995 0.098166004
0.262618959 0.139911219 0.102087356
0.281088084 0.146236926 0.105376013
0.305123091 0.152561873 0.114231363
0.330803216 0.159139931 0.121948056
0.358633935 0.166224062 0.127008185
0.389120579 0.174826339 0.130423918
0.422517806 0.183933973 0.142567948
0.462745458 0.195825636 0.151423231
0.503352463 0.207463846 0.153953254
0.546363115 0.218595996 0.156483188
0.600632310 0.227704376 0.174067408
0.648829520 0.236812070 0.179759860
0.704237521 0.250474244 0.192157179
0.760278165 0.266034186 0.209993839
0.808854997 0.283744931 0.234282002
0.097786322 0.105375998 0.076534316
0.098292388 0.105375998 0.078052253
0.103478998 0.105375998 0.082858868
0.106894158 0.108032838 0.083365157
0.110941999 0.109297998 0.079317316
0.111827612 0.110183381 0.078431703
0.122454315 0.110689320 0.075395323
0.131562293 0.116761312 0.078178324
0.142820865 0.117900088 0.081087999
0.153700486 0.120936155 0.087159999
0.157748133 0.121442184 0.087792546
0.170904249 0.122454315 0.090828933
0.182163000 0.127260998 0.094750352
0.195951715 0.133080021 0.101707675
0.211132079 0.136116415 0.102466576
0.228716269 0.141555995 0.105502799
0.245667502 0.149019316 0.107273996
0.267678976 0.154458910 0.112080999
0.285895020 0.158633962 0.113219365
0.312207341 0.167236328 0.124351360
0.338393033 0.175205573 0.129664734
0.366729915 0.181909993 0.135104313
0.397216797 0.189626694 0.139658511
0.430613399 0.201138750 0.144592330
0.468564510 0.210246339 0.154459029
0.513599277 0.222138003 0.160784364
0.559013426 0.234282315 0.163061395
0.613662124 0.245414451 0.179253876
0.662997901 0.257052451 0.191903993
0.711574674 0.269702494 0.203289181
0.768753767 0.287539512 0.222897172
0.825553358 0.309045315 0.250474632
0.105249994 0.121947698 0.082985580
0.101961002 0.121947698 0.081341296
0.107906289 0.123592407 0.091714226
0.111448288 0.123592407 0.090954997
0.115243092 0.126628697 0.087919287
0.120303407 0.129158705 0.087919287
0.125489920 0.127513990 0.090322673
0.137634695 0.127513990 0.085641995
0.145224318 0.132827088 0.086401090
0.154712260 0.135863483 0.091587707
0.161416844 0.137634695 0.095129706
0.172548965 0.139278993 0.095509253
0.187729359 0.140417635 0.097406998
0.200379416 0.148260415 0.104996681
0.214168116 0.152688116 0.109170996
0.231751874 0.158127695 0.111574799
0.251486480 0.164199695 0.114611186
0.272738844 0.170271695 0.121189117
0.291967005 0.174319968 0.124225006
0.316888064 0.182922363 0.132068008
0.345856726 0.190385953 0.136875018
0.374193251 0.200505689 0.141935408
0.404806972 0.208095714 0.148513511
0.439721614 0.220240518 0.151549906
0.479316831 0.230107397 0.157495424
0.520177245 0.237824038 0.163820028
0.568754196 0.249968633 0.168374419
0.622264564 0.263250977 0.182416439
0.671600282 0.275395393 0.196584687
0.721821308 0.289310157 0.208855182
0.773054779 0.304490566 0.224920973
0.835294008 0.326502264 0.252245575
0.109803997 0.137887195 0.084503189
0.105250001 0.138646096 0.079190485
0.109171323 0.140037775 0.087412998
0.114484094 0.143326998 0.097786099
0.115243092 0.143326998 0.092473097
0.126628771 0.148640007 0.092473097
0.129664779 0.147880778 0.093738005
0.139911413 0.145730197 0.098545097
0.150537997 0.147248194 0.094749995
0.153573617 0.150284588 0.097786389
0.163187876 0.153320968 0.102213904
0.175585151 0.155597940 0.104997002
0.190006644 0.158633649 0.104997002
0.205186963 0.161923006 0.105250031
0.217836887 0.167995006 0.113345765
0.234788075 0.174066991 0.116887897
0.255281210 0.180139184 0.122201189
0.277798533 0.186843604 0.125869989
0.299303979 0.193042114 0.134851143
0.323339731 0.201138362 0.139658093
0.349905193 0.209108099 0.142694190
0.381024361 0.215686098 0.144212127
0.411764562 0.227830112 0.153320506
0.448829800 0.239974901 0.157621905
0.489057660 0.249841794 0.161417007
0.533080399 0.259835333 0.169133499
0.576597214 0.266919971 0.173687175
0.627957284 0.281846642 0.185831875
0.677672505 0.295129657 0.199114799
0.727261245 0.309044927 0.214801043
0.779126763 0.324983686 0.228716061
0.836812019 0.340164095 0.246932089
0.109803997 0.156103984 0.108791962
0.109803997 0.159139603 0.096647978
0.113852002 0.159898505 0.095635720
0.117520489 0.162555009 0.099304169
0.118279479 0.167615011 0.101581492
0.124351479 0.167615011 0.101581492
0.123086847 0.167868003 0.093991175
0.133460194 0.166097209 0.098671712
0.150537997 0.165464982 0.109930389
0.156610027 0.171536982 0.112966001
0.168374479 0.174573362 0.113092527
0.180391997 0.175585493 0.115369782
0.192662805 0.176850334 0.117141008
0.205186978 0.180139005 0.117394038
0.220366582 0.186211005 0.120430425
0.237824127 0.192283005 0.121315978
0.259076476 0.198355392 0.127514482
0.283870548 0.205060393 0.138013989
0.311195016 0.214168027 0.144085988
0.335483700 0.220366508 0.144718483
0.359772444 0.228462741 0.146869227
0.387350112 0.236432493 0.149778828
0.420872957 0.243010521 0.153320506
0.460341394 0.255155295 0.162428916
0.499683827 0.265022218 0.164453000
0.543453753 0.276913166 0.171663657
0.591777563 0.291207999 0.185831964
0.640354335 0.303352028 0.197975963
0.691713750 0.318279326 0.207463831
0.741429269 0.333333194 0.223909155
0.791018486 0.349398941 0.243896455
0.842884004 0.367488503 0.262112468
0.109803997 0.171410874 0.112713128
0.109803997 0.177356362 0.106388122
0.120556772 0.178241745 0.109297901
0.122580707 0.178241745 0.110056870
0.119544543 0.180645198 0.107779995
0.133206874 0.183174863 0.107779995
0.136748552 0.185705185 0.115370318
0.142694548 0.186084747 0.115117021
0.157115906 0.185831770 0.121441990
0.165338129 0.189753011 0.122327387
0.177229866 0.190006003 0.119544744
0.187349603 0.193042397 0.123592734
0.200885296 0.196205005 0.127514213
0.216825038 0.201011911 0.129284993
0.232005313 0.204427749 0.129664540
0.249588728 0.210499734 0.135104120
0.269323200 0.218089938 0.136116132
0.290954828 0.226186275 0.141429275
0.311447978 0.235293925 0.147501871
0.338773072 0.244402230 0.150790513
0.366982847 0.252498478 0.152814746
0.396331519 0.261606604 0.156863004
0.429854810 0.269575894 0.161796361
0.466539890 0.276154697 0.165338039
0.508285522 0.288298875 0.172169700
0.549778461 0.299430728 0.180392176
0.594813287 0.313598871 0.193548188
0.640986860 0.330549866 0.198481992
0.689563572 0.342694521 0.210625976
0.739152133 0.354079515 0.227071300
0.788614869 0.368753582 0.246552706
0.840227902 0.388993859 0.262744993
0.113851994 0.194687247 0.119797252
0.115876250 0.198734969 0.115749508
0.114484519 0.200505972 0.118406028
0.124604911 0.200505972 0.121189252
0.120809704 0.200885534 0.115876250
0.132700667 0.203921556 0.115876250
0.141808942 0.206957310 0.119418055
0.149778262 0.206704706 0.125237450
0.161163837 0.207843244 0.127514258
0.170271769 0.212144017 0.127514258
0.178241476 0.212270498 0.128652602
0.192409992 0.214294761 0.127640739
0.204933256 0.218469501 0.133712739
0.222896770 0.224288464 0.137380987
0.238077149 0.227324396 0.137380987
0.259709239 0.236812487 0.148260251
0.277925223 0.239848495 0.151296258
0.298039138 0.246806249 0.151296258
0.316255540 0.254522562 0.154585689
0.344844788 0.267678857 0.159898639
0.372169435 0.274889499 0.162934721
0.403415382 0.283871114 0.163946867
0.437065452 0.292978764 0.167109236
0.475395262 0.300948799 0.173940346
0.512333810 0.311574996 0.179253295
0.557621539 0.322327614 0.185325712
0.602403402 0.334851235 0.198608071
0.649462283 0.353067249 0.207716435
0.691587269 0.367994636 0.218722492
0.741935253 0.381910145 0.232637241
0.788994133 0.395066082 0.255154788
0.837191761 0.416318506 0.274889499
0.117647000 0.222011641 0.127766997
0.120683387 0.221631899 0.124731384
0.122833870 0.225932628 0.125870004
0.122327514 0.227071270 0.130297348
0.125363901 0.226691723 0.124984354
0.132953703 0.228209928 0.124984354
0.142061964 0.231245965 0.125237316
0.151675999 0.233269989 0.129411712
0.163061097 0.232511267 0.132447898
0.172169477 0.238583267 0.132827342
0.184060648 0.238836274 0.134598121
0.195066243 0.239721894 0.137887284
0.210246637 0.242757991 0.137887284
0.228462696 0.248829991 0.143706247
0.244528696 0.252751231 0.144591644
0.265781224 0.261859596 0.154332444
0.288171977 0.270208985 0.160784006
0.307020545 0.272106558 0.162048995
0.325743318 0.278684646 0.163061023
0.353953302 0.290829003 0.170904294
0.384692997 0.301454991 0.170524731
0.416065395 0.308539122 0.177609116
0.449715465 0.317773253 0.175458282
0.487159908 0.327893525 0.181530550
0.525490224 0.339278907 0.187223002
0.565211892 0.351169914 0.194433630
0.613282681 0.361290336 0.203035712
0.661226809 0.378873914 0.219481081
0.706388056 0.393295109 0.232005000
0.752940834 0.410752445 0.251613021
0.800126493 0.425932854 0.269449472
0.842125297 0.446679294 0.296521634
0.117141001 0.249336034 0.133586034
0.120936356 0.244276032 0.131309375
0.125110969 0.248197287 0.130423993
0.129917875 0.254775226 0.132194906
0.134218544 0.257305533 0.134345055
0.137254938 0.254269153 0.134345055
0.145098284 0.256040394 0.131815314
0.154965341 0.259329736 0.133966029
0.164073095 0.262365997 0.138519958
0.173181489 0.268438011 0.141555578
0.193168908 0.269197017 0.141935036
0.208855033 0.269197017 0.145730510
0.222137675 0.270335436 0.150031999
0.237571031 0.273624092 0.150284961
0.255787790 0.279696077 0.153320581
0.276154757 0.287918806 0.160657808
0.297659844 0.295509011 0.164199874
0.319164604 0.302466631 0.163314030
0.340417057 0.311575025 0.169386044
0.367742091 0.320430368 0.180012673
0.398608744 0.329285294 0.180139259
0.433523148 0.338646144 0.177609116
0.472991496 0.348007500 0.192789495
0.506640971 0.360278070 0.193422034
0.544591904 0.372422576 0.195951760
0.585199296 0.384567052 0.202023700
0.627957046 0.396964073 0.212144107
0.673497379 0.412144452 0.233396471
0.723845422 0.424921066 0.247691005
0.774952531 0.441872209 0.269196332
0.822391212 0.461859584 0.298292190
0.858824015 0.477040023 0.322580993
0.111069001 0.276660413 0.136622414
0.123212993 0.282732397 0.142694414
0.120556578 0.281973392 0.142567992
0.120809756 0.285135984 0.146363154
0.125743434 0.287792802 0.152308822
0.143326938 0.287666291 0.146489829
0.148892999 0.287160218 0.143959507
0.162175983 0.291081816 0.147501692
0.176217720 0.294244289 0.152182415
0.185325488 0.292725980 0.147628352
0.197343737 0.298797995 0.150663957
0.215433404 0.299556971 0.153067678
0.231246054 0.300695598 0.157875001
0.246679410 0.303984821 0.162428960
0.264895409 0.310056835 0.165464565
0.283112168 0.316128820 0.168500796
0.304996967 0.322833389 0.172802180
0.328652531 0.330170542 0.175838232
0.352561831 0.341935784 0.184566408
0.384946227 0.348260820 0.185072407
0.415180445 0.354965389 0.191397578
0.447185516 0.363693804 0.191271126
0.482099861 0.375331879 0.192789495
0.521568358 0.390512317 0.207969904
0.559772193 0.402782828 0.213156402
0.599241018 0.414927304 0.221378803
0.639848113 0.427071810 0.232384473
0.682605803 0.439468831 0.242504850
0.728146851 0.454649210 0.266413361
0.774952531 0.469196975 0.282858551
0.819987416 0.487413138 0.305629194
0.858824015 0.507399976 0.334724993
0.117014796 0.308791786 0.154079795
0.109930202 0.317267597 0.150537804
0.119923972 0.316887826 0.158760026
0.125237003 0.316634774 0.155724153
0.133965731 0.318532526 0.157242462
0.142061993 0.320556790 0.157242194
0.150158003 0.320556790 0.158507481
0.162808403 0.322201073 0.155471087
0.179507002 0.326755077 0.160784200
0.190259337 0.327008098 0.161290184
0.202276945 0.330297410 0.161543116
0.220493451 0.332321405 0.162554994
0.236811981 0.333459765 0.166350469
0.251739264 0.336748809 0.172422796
0.276407570 0.342820764 0.177609175
0.299430579 0.348892808 0.185451791
0.319165140 0.353446990 0.188488171
0.342567921 0.359898567 0.191524550
0.366856784 0.372042924 0.197090641
0.394687176 0.378620982 0.200252801
0.426185787 0.388488442 0.198355541
0.459582567 0.396584481 0.203921467
0.495762259 0.407463282 0.206577986
0.530676723 0.422643691 0.210373089
0.570145071 0.435547352 0.227830768
0.611005485 0.447691381 0.235800102
0.651992142 0.459835798 0.247438058
0.694496810 0.471979767 0.260341436
0.737254620 0.484376818 0.273118585
0.781024516 0.504870355 0.300948530
0.825047195 0.521948338 0.323718965
0.866034210 0.540164411 0.354079783
0.113978818 0.345224559 0.170777991
0.110942416 0.352814764 0.167741999
0.109297775 0.353320599 0.161796421
0.120936163 0.351549357 0.169639185
0.138140187 0.352687895 0.164073542
0.144591942 0.358001292 0.169386446
0.154712200 0.356989175 0.169386312
0.162808403 0.357115656 0.172169670
0.181024998 0.359392375 0.169892386
0.194687009 0.361669660 0.174446389
0.208349183 0.364706039 0.174699381
0.226565450 0.368754178 0.177735373
0.246679187 0.371031165 0.176596731
0.260341227 0.374446392 0.181277841
0.285136014 0.379253566 0.186084986
0.307021171 0.385325551 0.191524193
0.332827359 0.389879376 0.202150390
0.355344713 0.394180745 0.205186620
0.380518973 0.405439377 0.208222762
0.407590359 0.410499573 0.209740639
0.439848393 0.420366645 0.215053737
0.472232640 0.430487186 0.214042127
0.510942638 0.439468384 0.222264364
0.544339061 0.456040472 0.227830380
0.580771685 0.468943745 0.235420570
0.621631622 0.481088191 0.252245635
0.664642453 0.492220193 0.263630450
0.708159029 0.502340138 0.280834824
0.750663757 0.517520547 0.294876844
0.787096500 0.533712566 0.317647099
0.829601347 0.556230128 0.346236378
0.872106194 0.572043002 0.375332177
0.100696012 0.385326117 0.181024581
0.108665414 0.390133113 0.182289571
0.111068986 0.391018331 0.176849976
0.116761573 0.388614684 0.168501005
0.131562516 0.389373690 0.175711542
0.143706590 0.398229033 0.185325906
0.157748327 0.397849381 0.184313670
0.171537116 0.396457702 0.184566692
0.182922572 0.397722691 0.187476560
0.201138586 0.397722691 0.187476560
0.217077851 0.399999976 0.187476560
0.235673815 0.404427528 0.188994423
0.257685155 0.410499692 0.194180921
0.275648117 0.416571677 0.191650599
0.296141356 0.419987530 0.194686979
0.317520559 0.424794525 0.198355332
0.339658737 0.428715914 0.203415379
0.365718096 0.431751698 0.214295000
0.393042564 0.440860093 0.217330605
0.420999348 0.446932465 0.218848556
0.453384042 0.453131109 0.223908722
0.488551676 0.465148509 0.232258111
0.524984419 0.471473545 0.235420972
0.558886886 0.488678336 0.246553004
0.595193148 0.501707971 0.255407959
0.632511258 0.514484525 0.266919613
0.675522029 0.526628673 0.283112019
0.721062362 0.532953680 0.304364383
0.762049198 0.549019575 0.321568757
0.800632298 0.566603482 0.344339043
0.833270133 0.584187090 0.373560727
0.875774980 0.602403104 0.397849530
0.094624005 0.427830994 0.184060991
0.109803610 0.427830994 0.190132990
0.115622804 0.430487216 0.193548217
0.122200996 0.430487156 0.188994035
0.134598136 0.428842962 0.181783587
0.146742925 0.434914947 0.196963951
0.158886984 0.436179996 0.196457714
0.174573004 0.435926944 0.196710736
0.192030251 0.437444955 0.199747115
0.210246995 0.443263978 0.202656999
0.228462979 0.443263978 0.202656999
0.246426523 0.445540726 0.198608488
0.268311620 0.449968308 0.199240714
0.293864906 0.456040949 0.206831038
0.309044510 0.462112933 0.209867418
0.336748630 0.465528190 0.215306997
0.363061428 0.467299014 0.218089953
0.386970550 0.468184590 0.220367014
0.408223033 0.471221000 0.226439044
0.438329995 0.485895365 0.232258007
0.470335215 0.490575999 0.237823993
0.502973020 0.496647865 0.245161176
0.534092128 0.510942042 0.253637016
0.570524931 0.523086786 0.259709060
0.608981848 0.533459723 0.270841032
0.645414650 0.545603752 0.286653668
0.681594133 0.560025096 0.307400107
0.727134407 0.572169900 0.328652442
0.762049496 0.586464047 0.349904835
0.803289056 0.601897180 0.372422397
0.844908178 0.617330611 0.398102552
0.881847024 0.632763982 0.425173998
0.099684007 0.481467754 0.206578016
0.103731602 0.478684396 0.207084000
0.114610769 0.478684396 0.208855003
0.122706994 0.479822755 0.211258531
0.135610089 0.478684396 0.208222732
0.152561873 0.479949385 0.211385295
0.169766009 0.480961382 0.213915363
0.185705423 0.482606083 0.212776721
0.203921720 0.484503657 0.216192454
0.222137988 0.488551408 0.223276854
0.243137375 0.494370371 0.223403364
0.261353344 0.494370371 0.223403364
0.282985300 0.497786015 0.223403081
0.309803694 0.503858745 0.230107725
0.330043942 0.509930730 0.230613783
0.354838789 0.513598919 0.236053362
0.384819716 0.518152714 0.239089370
0.411638170 0.521947920 0.240354359
0.435041368 0.527135074 0.246426404
0.467425734 0.535736740 0.258064389
0.497786194 0.539532125 0.267931849
0.530297458 0.542694747 0.276786953
0.562555194 0.555724084 0.285894871
0.596331179 0.562555194 0.294623733
0.635041177 0.576976717 0.305249751
0.671727002 0.587096751 0.320177078
0.705629468 0.598482072 0.339532077
0.744339108 0.608348906 0.358507156
0.779253483 0.623149812 0.379759550
0.816192091 0.636559129 0.401011914
0.857937813 0.650727510 0.426944941
0.896268368 0.665907383 0.458064377
0.107653253 0.532321453 0.227071464
0.108791605 0.529285073 0.230866462
0.119923763 0.528399467 0.225173727
0.129032150 0.530929446 0.225173727
0.142061830 0.531055987 0.227577537
0.163314611 0.526502192 0.229095727
0.177735731 0.534092188 0.234787971
0.194307432 0.534092188 0.229854688
0.215306997 0.535357356 0.232890815
0.238076985 0.536116004 0.244276211
0.257305592 0.542061925 0.246552974
0.278431445 0.545983195 0.248450726
0.300063103 0.547121823 0.248450726
0.327387482 0.552182436 0.252751708
0.351928860 0.556609750 0.254395992
0.377988368 0.560278356 0.259202987
0.406831354 0.564832211 0.263757199
0.436559021 0.570271790 0.265401721
0.462112695 0.575079441 0.271473736
0.487160116 0.583934128 0.283111721
0.518659174 0.587349474 0.289563477
0.548007846 0.585325718 0.300696135
0.579633176 0.593801200 0.309930444
0.613029599 0.601644456 0.320809633
0.652877808 0.612650037 0.337887466
