Assets/Resources/EldamarStudio/100 Horror LUTs Pack/LUTs/cube/Salem LUT.cube
LUT_3D_SIZE 5
DOMAIN_MIN 0.000000 0.000000 0.000000
DOMAIN_MAX 0.903226 0.903226 0.903226
0.074510001 0.043136999 0.035294000
0.118658699 0.055534583 0.058823999
0.198734999 0.082353003 0.081720419
0.350284398 0.134345129 0.111827999
0.651739597 0.197596803 0.168753818
0.105249994 0.121947698 0.082985580
0.137634695 0.127513990 0.085641995
0.214168116 0.152688116 0.109170996
0.374193251 0.200505689 0.141935408
0.671600282 0.275395393 0.196584687
0.111069001 0.276660413 0.136622414
0.162175983 0.291081816 0.147501692
0.264895409 0.310056835 0.165464565
0.447185516 0.363693804 0.191271126
0.728146851 0.454649210 0.266413361
0.122833379 0.578874290 0.246300131
0.211511821 0.587729335 0.257178843
0.374952644 0.602782965 0.281087697
0.568248093 0.630866349 0.323972255
0.799873471 0.688045263 0.438203931
0.519924343 0.869702637 0.589120388
0.561290145 0.881214321 0.602656424
0.641872048 0.884123743 0.623023391
0.765717864 0.898165524 0.665148735
0.892093599 0.910183787 0.713219404
0.082985580 0.047059000 0.088930994
0.120303407 0.054269418 0.102340281
0.199114695 0.093864702 0.125869706
0.354206532 0.132700577 0.167109549
0.651992321 0.181151137 0.223655984
0.100695990 0.118026696 0.120682694
0.135357425 0.130803406 0.133080691
0.212523401 0.157621399 0.150410980
0.370651692 0.200126559 0.177229568
0.673244536 0.268184811 0.241998643
0.109424293 0.278305113 0.179127410
0.151675999 0.291081816 0.190006107
0.266540110 0.312334090 0.203415394
0.442884207 0.363061219 0.238330111
0.729791164 0.454016626 0.319038510
0.118658841 0.573940575 0.291461110
0.208222806 0.580898046 0.303605258
0.370398641 0.597216845 0.327893406
0.560657680 0.623403192 0.369766265
0.798228860 0.691334665 0.471600175
0.525490105 0.878937602 0.604806960
0.557621419 0.877672434 0.616571546
0.641366363 0.886780620 0.640101254
0.761416614 0.893864751 0.671726525
0.891081512 0.908285797 0.736495614
0.085642412 0.058823999 0.185072407
0.119291708 0.068311289 0.185705408
0.200126827 0.100695997 0.211890981
0.350916982 0.131056279 0.263630390
0.660847425 0.155597836 0.354585797
0.101328410 0.132067993 0.212523401
0.133712709 0.137634695 0.218089700
0.213156417 0.158886567 0.233776122
0.376470536 0.191903859 0.283870816
0.683744371 0.239089519 0.366982788
0.090828583 0.280582219 0.283238381
0.144465417 0.294623673 0.284503818
0.269449830 0.326375365 0.313978791
0.456673205 0.363693833 0.349651933
0.740543723 0.443516791 0.425933003
0.051739380 0.575332105 0.418595791
0.179379836 0.586084843 0.413156092
0.366097093 0.601770878 0.432131380
0.573055267 0.628210127 0.474256635
0.802529573 0.698545218 0.573434293
0.518532395 0.872359455 0.658823133
0.555724025 0.877040029 0.668437660
0.641239583 0.882100224 0.686906517
0.763440549 0.891587615 0.718658924
0.892726123 0.917520285 0.774699569
0.055787873 0.069702864 0.371031255
0.123845711 0.080708295 0.370272249
0.233902693 0.101328418 0.388741255
0.386717230 0.130423874 0.428842396
0.670714378 0.159266129 0.529664874
0.023655880 0.145856991 0.390133142
0.109424286 0.153699994 0.404301226
0.245920405 0.166729987 0.417710543
0.411890924 0.192283407 0.452751219
0.692852318 0.245667353 0.543706238
0.004553996 0.317520678 0.458570242
0.048703324 0.317773372 0.468058348
0.271473378 0.333585948 0.487792552
0.472359389 0.371537238 0.518152833
0.746362984 0.440986633 0.591017962
0.010120248 0.590639174 0.560278356
0.159898818 0.592662811 0.585072994
0.361922622 0.609613836 0.599114239
0.585831404 0.644655406 0.632890403
0.811764777 0.695888638 0.686527371
0.522453785 0.876027763 0.756103635
0.554838538 0.881846726 0.753952920
0.629474580 0.886401057 0.763187587
0.755976737 0.893611610 0.788235009
0.903478622 0.914484441 0.828462720
0.002656833 0.057432011 0.730044425
0.031372584 0.055534583 0.730170608
0.304237545 0.060721427 0.746615946
0.527387798 0.092979148 0.761796474
0.753573418 0.191397756 0.778367639
0.002023991 0.156736523 0.744971275
0.000000000 0.153952867 0.747501254
0.296394795 0.165464818 0.752688110
0.529285252 0.203542069 0.771916568
0.769133210 0.288425297 0.790638506
0.000000000 0.345350981 0.776597023
0.000632584 0.346109807 0.779380083
0.262997985 0.369006783 0.782922149
0.542947233 0.412903041 0.801011741
0.794813156 0.483618021 0.822896719
0.049588855 0.654396117 0.821252465
0.173813671 0.651486635 0.819101989
0.386337638 0.652498543 0.824794531
0.607843101 0.667805076 0.831878603
0.835673571 0.714610875 0.854522526
0.551170170 0.893358767 0.876154661
0.574320197 0.886780620 0.882605910
0.654522359 0.894623578 0.896647155
0.772928536 0.906388581 0.894750178
0.903731763 0.927260816 0.919417739
