Assets/Resources/EldamarStudio/100 Horror LUTs Pack/LUTs/cube/Scarface LUT.cube
DOMAIN_MIN 0 0 0
DOMAIN_MAX 1 1 1
LUT_3D_SIZE 32
0.133332998 0.058823999 0.066666998
0.133332998 0.058823999 0.066666998
0.135483772 0.060974225 0.068817228
0.141050160 0.065274999 0.073118001
0.149399459 0.070967548 0.078810550
0.152435064 0.074003935 0.081846938
0.158001006 0.079570003 0.087412998
0.162428722 0.083997712 0.090195999
0.166224003 0.087792993 0.091714002
0.172295988 0.093865000 0.097786009
0.175458863 0.097027130 0.103857994
0.180518985 0.098039001 0.105881996
0.187729344 0.101454645 0.109297641
0.196837038 0.110056967 0.117900029
0.205945417 0.113092579 0.120936416
0.212650001 0.118532605 0.126375988
0.221758381 0.124604993 0.130929798
0.234535396 0.130676985 0.135230571
0.249715045 0.136749014 0.144338965
0.262112737 0.145604357 0.147881359
0.272359252 0.154712260 0.150917262
0.282479256 0.163820133 0.155977130
0.295129955 0.173054978 0.165211990
0.319418013 0.185199007 0.177356005
0.339152575 0.195066288 0.184946001
0.358760655 0.205565974 0.195192650
0.382037073 0.217710122 0.209867001
0.415433407 0.229854882 0.222010985
0.454142749 0.247311965 0.234155655
0.491840363 0.267299175 0.255155146
0.531815171 0.288551599 0.279822975
0.580392003 0.309803993 0.298038989
0.139404997 0.064895995 0.078811005
0.139404997 0.061859611 0.069702610
0.141555771 0.068311386 0.071853384
0.140797004 0.071853384 0.074889228
0.141429603 0.074003838 0.079190098
0.152435064 0.077039547 0.084883317
0.160531327 0.082606256 0.090449385
0.165464684 0.087033674 0.093232386
0.168500707 0.090069704 0.093991287
0.172295988 0.093865007 0.097786009
0.178368002 0.099936999 0.103857994
0.185578868 0.103099123 0.109929994
0.191524357 0.105249643 0.113092639
0.196584061 0.110563032 0.117647000
0.202909797 0.119165353 0.117900029
0.214421377 0.122200958 0.123339601
0.223276585 0.129158795 0.130929798
0.233902976 0.136748984 0.138266966
0.246679425 0.142821014 0.147375360
0.261859775 0.151676357 0.145351037
0.274257004 0.158886999 0.151676342
0.286527544 0.167868391 0.160025388
0.300948977 0.179000497 0.171157494
0.319418013 0.188235402 0.180392399
0.341429293 0.198102683 0.192536384
0.361796230 0.208602369 0.201518059
0.385072678 0.220746383 0.212903395
0.418469012 0.232890502 0.225047380
0.451866060 0.247691423 0.239848197
0.487033516 0.265527934 0.252371967
0.525743186 0.284629792 0.269829184
0.574320018 0.303732008 0.285895020
0.139025778 0.075268999 0.082353003
0.141176000 0.072232611 0.079696395
0.147627771 0.073497780 0.077039778
0.148134157 0.080076165 0.083871000
0.143706769 0.080961771 0.088424779
0.148766771 0.082226612 0.087413095
0.154079556 0.085641876 0.089184225
0.163187936 0.090069935 0.093611933
0.167994767 0.093864769 0.095636003
0.172422484 0.098292485 0.100063302
0.180518776 0.102087222 0.106008768
0.186590761 0.108159222 0.112080768
0.193295360 0.111321643 0.117014416
0.196837038 0.114611000 0.119797774
0.204807058 0.121821634 0.119797774
0.217836991 0.128273189 0.126754999
0.226944983 0.132826984 0.132826984
0.235420793 0.140037805 0.139405221
0.246047020 0.144592017 0.143959418
0.256673366 0.155597582 0.146236643
0.273750991 0.164705962 0.152687997
0.285389125 0.170019135 0.161037222
0.298671961 0.178747758 0.170904234
0.320935994 0.189879909 0.182036906
0.343580067 0.201138511 0.191271216
0.364832431 0.211638197 0.202023894
0.387096822 0.224288285 0.212650359
0.417204171 0.238076985 0.228083760
0.452751458 0.250727564 0.236432806
0.491461337 0.269449949 0.260467887
0.530423939 0.290702105 0.275774568
0.579000771 0.312713772 0.290955007
0.141050160 0.083618164 0.083618164
0.142820939 0.084376939 0.086148165
0.147627771 0.083111778 0.084883004
0.152941003 0.087413006 0.086148158
0.151043847 0.090449385 0.095635615
0.152814835 0.091334999 0.088677995
0.155344844 0.092599839 0.093991160
0.160404697 0.096900702 0.096900702
0.168753996 0.099177994 0.099177994
0.174825981 0.104238003 0.104238003
0.181277871 0.107400127 0.109044835
0.188362002 0.112460315 0.115117155
0.195572644 0.117393672 0.118912160
0.199114323 0.120430030 0.121821970
0.207210585 0.125490159 0.122833841
0.218595624 0.132826984 0.130044356
0.231752157 0.137634158 0.135104150
0.238456577 0.144338742 0.141808733
0.247564822 0.148640141 0.143706322
0.257938355 0.157495186 0.149019361
0.270208985 0.166476741 0.152687997
0.287413150 0.175585121 0.164832264
0.297533482 0.179380462 0.171536788
0.320683181 0.190385848 0.182542652
0.344971389 0.202530161 0.192409873
0.366603643 0.215939298 0.204047829
0.389373988 0.228083313 0.212650165
0.417457253 0.242504597 0.227830708
0.451486588 0.256293654 0.239215985
0.491461337 0.272486001 0.253131062
0.529538572 0.294624031 0.279949129
0.575458825 0.321568996 0.295508981
0.150158450 0.088172443 0.087792993
0.149020001 0.093864992 0.093105994
0.150790766 0.093864769 0.093105771
0.152941003 0.093864545 0.092220157
0.152941003 0.099177547 0.094117999
0.159013003 0.102213934 0.085009612
0.162934780 0.103478998 0.095762320
0.167995006 0.106008992 0.105629444
0.173307985 0.110562995 0.110183448
0.179379985 0.110562995 0.110183448
0.183301866 0.113472223 0.113472223
0.189121008 0.118532509 0.117773511
0.195572644 0.123466350 0.121948451
0.204680964 0.126502037 0.122454450
0.210879445 0.129538417 0.125616580
0.219354734 0.137760743 0.132700801
0.229221836 0.144212186 0.138014004
0.240733966 0.147754580 0.139532030
0.249841601 0.156862989 0.148640439
0.262492180 0.163567558 0.158127666
0.274257004 0.169639543 0.161543012
0.287413150 0.176344126 0.165211722
0.302846491 0.185578987 0.177356437
0.324098915 0.194939658 0.186717108
0.347248554 0.206704572 0.195825294
0.369512767 0.219102114 0.205819100
0.389753550 0.233776435 0.220240444
0.420113534 0.245920435 0.226312444
0.452751458 0.261100829 0.240733802
0.490702242 0.278431475 0.255534619
0.530297577 0.298039198 0.272738993
0.557622015 0.322328001 0.290955007
0.159266070 0.103352055 0.099936999
0.150158450 0.106388450 0.099936999
0.149020001 0.107779995 0.100949004
0.150790781 0.107273929 0.100442939
0.152941003 0.108285934 0.100189999
0.152941003 0.108285934 0.094117999
0.159013003 0.113852002 0.102719933
0.166223764 0.115622997 0.110436291
0.172548994 0.116634995 0.113219060
0.173307985 0.116634995 0.113219067
0.182289869 0.119544864 0.119038805
0.192409992 0.124604866 0.120556869
0.200126648 0.129538342 0.122707352
0.204680964 0.132574037 0.125490054
0.213788569 0.135610417 0.131562054
0.222390860 0.145856991 0.134724811
0.229980931 0.154458925 0.140290990
0.237697631 0.159392595 0.145350993
0.246805996 0.162934989 0.151676044
0.264262974 0.172043368 0.163567066
0.275774837 0.178747922 0.167614996
0.287413150 0.184819922 0.170651123
0.302846491 0.191650987 0.180392042
0.324098915 0.203795016 0.192536071
0.345351279 0.217710212 0.201897293
0.368500888 0.228209987 0.206831008
0.392789215 0.236812055 0.211385071
0.423149914 0.248956040 0.223276049
0.453510553 0.266413689 0.239974692
0.487918884 0.285895169 0.254142970
0.526248932 0.306641519 0.271220624
0.563694000 0.328400016 0.297026992
0.158254325 0.118532315 0.109550677
0.156736389 0.119038381 0.109550677
0.156230226 0.122074768 0.111701451
0.157874852 0.121189155 0.112080999
0.160531327 0.120303541 0.111322001
0.160531327 0.122454315 0.105249994
0.163060993 0.124983996 0.106767677
0.167488709 0.129411697 0.113978386
0.174826086 0.131056219 0.117773317
0.180139318 0.132826999 0.121315323
0.186337873 0.130676866 0.122074418
0.191397741 0.133712739 0.126122937
0.202023968 0.140417323 0.127767354
0.209234968 0.146236360 0.130803034
0.213788569 0.149272740 0.134598315
0.220492989 0.154712319 0.140670314
0.230993062 0.162049130 0.145350993
0.239721730 0.167109147 0.150158003
0.248829663 0.172043294 0.152435020
0.263757020 0.180645049 0.164073005
0.280075729 0.189753413 0.174319729
0.291460991 0.196457997 0.178241313
0.305376172 0.202656507 0.185704991
0.326628566 0.212397322 0.193042010
0.350158244 0.224541306 0.202909291
0.373054951 0.238076970 0.212017670
0.397849172 0.248450115 0.217963383
0.426186174 0.264642626 0.232131630
0.461606294 0.277039647 0.241998300
0.493738264 0.297027171 0.260215074
0.534724772 0.319165200 0.277419269
0.582416356 0.342062324 0.303099006
0.156863004 0.130423695 0.117014416
0.161796287 0.130423695 0.120303407
0.162302226 0.130929768 0.119164765
0.166603327 0.135230988 0.123465993
0.168501154 0.133712694 0.123086542
0.164706007 0.135483935 0.115749709
0.170525089 0.136875376 0.120556377
0.175205410 0.141555712 0.125236705
0.177482694 0.144592091 0.125995994
0.183934480 0.147627935 0.128525987
0.190133005 0.146489576 0.130423695
0.195825458 0.145857155 0.132447541
0.198861361 0.148892775 0.135483921
0.209488004 0.156736001 0.138266698
0.216698289 0.161163703 0.139911413
0.222137704 0.166603699 0.145350993
0.231245711 0.172675699 0.149905190
0.243390426 0.176470399 0.155850708
0.253510475 0.182542950 0.157874718
0.268184364 0.191398069 0.169006705
0.281720430 0.200505719 0.177608728
0.297912717 0.207590118 0.186717123
0.311574697 0.213282689 0.193421692
0.331308901 0.223908901 0.199493706
0.351549566 0.233649686 0.206198275
0.378621310 0.248576671 0.215306669
0.405439407 0.260720760 0.225427061
0.436179608 0.275521904 0.240607426
0.466540337 0.290069699 0.252118856
0.502845883 0.305882156 0.269829094
0.538899481 0.328905553 0.287160069
0.590512276 0.353953272 0.309170991
0.157621905 0.141050100 0.124605000
0.166729704 0.141809002 0.126881897
0.170145184 0.141050100 0.128779218
0.170398220 0.141302988 0.127261087
0.176470906 0.147754550 0.132574096
0.169260070 0.148893088 0.124604940
0.172296315 0.147375092 0.129158676
0.179000899 0.149904996 0.135863096
0.184313998 0.155218095 0.141176000
0.184313998 0.158254489 0.135104001
0.191651002 0.159898996 0.137001768
0.196964085 0.160658091 0.140037835
0.201897547 0.161796451 0.143073738
0.205439940 0.165085092 0.145857096
0.217077985 0.171157092 0.145857096
0.225932986 0.177229509 0.151422992
0.233522996 0.183302090 0.156736091
0.246299565 0.189374089 0.162302464
0.258570880 0.195446119 0.168754011
0.272738665 0.203542352 0.178115100
0.286780387 0.212650433 0.186464086
0.300190002 0.220493227 0.192030221
0.318659008 0.223909080 0.201138571
0.338140190 0.236053094 0.207843006
0.357115686 0.245920375 0.213914990
0.380139321 0.258444190 0.222137749
0.409994066 0.276154160 0.232258156
0.445667058 0.285768449 0.247438535
0.476407468 0.299430907 0.260720968
0.508285940 0.317141116 0.279949367
0.548766375 0.336495757 0.301581562
0.591271222 0.363820195 0.316761196
0.160657525 0.156230509 0.136749014
0.169765905 0.159266114 0.127640605
0.174573258 0.157874778 0.129917502
0.174952790 0.154965341 0.131815165
0.173434511 0.153826565 0.129538491
0.179506510 0.162934929 0.129538491
0.177356318 0.159013510 0.131688684
0.178115278 0.158127785 0.134977728
0.181277603 0.161290109 0.138140395
0.184314013 0.164326504 0.141176015
0.195951998 0.170272008 0.140923008
0.201771259 0.174067274 0.143073797
0.204933852 0.176976860 0.146110147
0.208475560 0.180265501 0.148893505
0.217583925 0.186337501 0.148893505
0.229221985 0.192409486 0.156103685
0.238076985 0.198481917 0.163566992
0.246299565 0.204554498 0.171410084
0.261480004 0.210626513 0.186590478
0.273750514 0.216698498 0.190259367
0.287918717 0.224794745 0.195572481
0.302972645 0.232890978 0.200632617
0.318659008 0.239089489 0.204174966
0.342947811 0.251233488 0.213282585
0.364706248 0.261100769 0.219987005
0.388615131 0.272992134 0.228842318
0.416066080 0.288298905 0.241366550
0.443390429 0.303478479 0.256546915
0.479064077 0.315749645 0.271726608
0.513346076 0.333333641 0.292093366
0.552182198 0.354459554 0.313725561
0.603415966 0.375964969 0.328905970
0.166602999 0.174319997 0.148892999
0.161163524 0.162808493 0.133965611
0.168121129 0.167994872 0.135609984
0.174446419 0.171030998 0.141682327
0.177608997 0.172928408 0.144339323
0.173561007 0.171916798 0.146869004
0.177103311 0.175964549 0.144339323
0.179759994 0.175964713 0.146616027
0.184060767 0.179000646 0.149652094
0.187096626 0.182036489 0.152688265
0.190133005 0.185072869 0.155723870
0.202277005 0.189120606 0.155723870
0.207969770 0.192156777 0.157874644
0.211258873 0.195192903 0.160910964
0.217710406 0.198608741 0.163567126
0.224414989 0.204680741 0.163567126
0.240101188 0.212270543 0.172675386
0.253763437 0.219101712 0.181530729
0.264389873 0.222897023 0.189879850
0.279570222 0.228969008 0.196710870
0.295635730 0.235040992 0.199873745
0.311827987 0.244149387 0.204933867
0.327261358 0.254143327 0.209993988
0.348766804 0.263504028 0.216318965
0.373054981 0.275648594 0.225427151
0.394939780 0.285389155 0.236306027
0.420746267 0.298039258 0.249968246
0.455281436 0.315623254 0.262745440
0.479949653 0.330802888 0.280581981
0.517141104 0.346742541 0.294243813
0.556356788 0.367741942 0.313092709
0.603922009 0.391018122 0.332321107
0.168626994 0.184439987 0.156989008
0.174699515 0.184439987 0.151928857
0.173181519 0.181151003 0.143706247
0.174193516 0.185958162 0.147248253
0.179127261 0.190132707 0.151802748
0.179633245 0.187096670 0.156483054
0.181151047 0.189120933 0.158507317
0.184187442 0.192156971 0.155471280
0.189879984 0.195193157 0.157748103
0.194180772 0.198228776 0.160784483
0.197217122 0.201265126 0.163820118
0.202277258 0.202277258 0.162808269
0.214421257 0.206451505 0.165085256
0.220114022 0.210373208 0.169007033
0.224415243 0.213409156 0.172043085
0.234535247 0.222897246 0.180771500
0.240607247 0.225933254 0.182289302
0.257431984 0.232890502 0.191018313
0.267931730 0.237318233 0.195699006
0.284630358 0.243137255 0.201770991
0.297912985 0.249209240 0.204048008
0.316888124 0.256293386 0.207969740
0.334218979 0.267299473 0.214041725
0.353573620 0.276407629 0.220113739
0.375078976 0.287792563 0.232511014
0.400758624 0.301328659 0.245794058
0.425300181 0.311701417 0.261606574
0.460215122 0.325363606 0.275269151
0.490069389 0.342947662 0.290701985
0.523213327 0.361669689 0.310689151
0.563567460 0.380139232 0.325363427
0.607969999 0.402150244 0.345477492
0.170904279 0.196204633 0.164199650
0.178494766 0.201138288 0.161922649
0.183175355 0.204047635 0.161036998
0.182922363 0.204174161 0.157494992
0.177609354 0.206830993 0.157494992
0.182163358 0.204553694 0.162048995
0.187982321 0.205439314 0.165591329
0.191018075 0.208475709 0.167615578
0.194813550 0.212270990 0.166856289
0.200885639 0.215686157 0.170272127
0.205186874 0.217583865 0.171030775
0.211385339 0.219734639 0.172295898
0.218595996 0.220872998 0.172675654
0.230487034 0.226944983 0.178494602
0.235294417 0.230866209 0.181530759
0.243263990 0.238836229 0.189500630
0.254649013 0.246046990 0.198229089
0.263251156 0.247311980 0.201264709
0.276407331 0.253384024 0.204300970
0.291840732 0.259456009 0.211258650
0.307400644 0.267805278 0.215812638
0.321568608 0.272865146 0.218848765
0.342694491 0.281720489 0.225047275
0.361922622 0.290828884 0.231119290
0.383554578 0.302213997 0.241745561
0.407589912 0.316888303 0.254901677
0.434914351 0.332068592 0.272612423
0.467046320 0.342441171 0.287792772
0.501201570 0.360657632 0.304111421
0.533459544 0.380645156 0.322833449
0.574699759 0.399241209 0.345856845
0.617457628 0.416951269 0.364832640
0.177482992 0.217710063 0.173054993
0.176723957 0.220493421 0.167236045
0.179127216 0.223023251 0.167362288
0.181657031 0.225047067 0.170145065
0.181151032 0.225047067 0.169892028
0.181151032 0.225047067 0.169892028
0.188488320 0.225553066 0.172169313
0.194307342 0.226944745 0.174952671
0.198102191 0.230234027 0.178494990
0.204174966 0.236306027 0.184566990
0.209993958 0.236812055 0.182416126
0.218342796 0.238836259 0.183681294
0.227450639 0.242125392 0.187602997
0.236305997 0.245414034 0.193674996
0.245414376 0.251486003 0.196710616
0.252625048 0.257305622 0.201644570
0.261479974 0.262112826 0.207716957
0.274383157 0.265781015 0.213156462
0.292599946 0.271853030 0.216192082
0.305502951 0.278178066 0.224794388
0.319797754 0.287286431 0.232257992
0.335990012 0.296900898 0.239089161
0.354458988 0.300316006 0.248197511
0.375837922 0.309550881 0.254395992
0.399367541 0.320936054 0.262998313
0.425047666 0.335610360 0.272359371
0.452625066 0.353067994 0.282226086
0.479949415 0.368247628 0.297406435
0.517140806 0.388487816 0.314990640
0.552055359 0.409487218 0.334978163
0.586084723 0.429348260 0.358254582
0.631625950 0.441493034 0.385579020
0.189626992 0.241998821 0.179126993
0.180518597 0.241998821 0.176091373
0.184060574 0.240480632 0.174573407
0.190765157 0.241239578 0.180265829
0.196078405 0.243263826 0.187982276
0.190259412 0.243263826 0.185072407
0.195319414 0.248323828 0.185072407
0.200379714 0.249841809 0.185704991
0.204174832 0.250474393 0.187096670
0.210246965 0.251486391 0.190638989
0.213409126 0.254649252 0.193801120
0.223150089 0.257052541 0.197596505
0.233523175 0.261226982 0.201897770
0.242377996 0.266666412 0.205818996
0.248449981 0.272738397 0.211890981
0.259962171 0.276407212 0.212523401
0.269323200 0.281593978 0.216824561
0.279696167 0.287033379 0.222264156
0.292599946 0.293105364 0.225300461
0.308032662 0.301960737 0.233902767
0.324478030 0.306641042 0.243010655
0.342061996 0.313598692 0.250474244
0.360530972 0.321568370 0.257305861
0.384819806 0.333712399 0.266413510
0.408475369 0.345224559 0.277166575
0.434155554 0.358760446 0.288678378
0.461986393 0.374067396 0.300189823
0.492093414 0.386464357 0.312586844
0.522074580 0.404300779 0.327767223
0.559645534 0.423149794 0.347122163
0.596331179 0.444655418 0.371031165
0.634661615 0.468817413 0.400759399
0.189753190 0.261480004 0.190005988
0.187855601 0.266286969 0.196584374
0.187349766 0.264136761 0.195698977
0.194433972 0.262365580 0.199494153
0.202024266 0.263883799 0.207084239
0.197975993 0.263883799 0.195951864
0.202023998 0.268943787 0.200252801
0.206451714 0.270082086 0.198608518
0.209487900 0.270082086 0.198608503
0.213915199 0.271726787 0.201644480
0.224288732 0.277039856 0.207083911
0.229348585 0.278051972 0.210120052
0.237318352 0.280708402 0.214674354
0.243896037 0.285515606 0.217456996
0.252118796 0.291587621 0.219227985
0.265401602 0.297659606 0.227703795
0.276028186 0.300695598 0.230739787
0.287033588 0.305882126 0.236179367
0.302719951 0.311954588 0.239215761
0.315243453 0.320809335 0.243010536
0.334218532 0.328019977 0.254016668
0.353953123 0.333585918 0.262618601
0.373687267 0.342694283 0.268817484
0.395698786 0.352561623 0.277925700
0.422264248 0.366982877 0.289310604
0.446679115 0.380645424 0.301454961
0.472992063 0.395825744 0.313598990
0.501454771 0.409866959 0.325742960
0.534218609 0.424920738 0.342947602
0.568121314 0.446679175 0.361669958
0.606957376 0.467046380 0.384693354
0.644908011 0.491334796 0.413535982
0.189753190 0.282732397 0.202150390
0.192789197 0.288804382 0.209740579
0.197975963 0.289942950 0.215433195
0.198482022 0.284377038 0.212903202
0.205819353 0.284756511 0.221125990
0.205060259 0.288172185 0.216192245
0.208095998 0.288677990 0.212650195
0.214041516 0.291334510 0.216824904
0.217077896 0.289816290 0.215307087
0.220113710 0.292852670 0.218342707
0.230360731 0.297279984 0.221252188
0.239974797 0.300822198 0.226818249
0.248324081 0.303099185 0.228715986
0.252751380 0.306261986 0.231372222
0.260594577 0.309803963 0.232637376
0.269955784 0.317394197 0.235293999
0.283617973 0.323466182 0.241365984
0.293991357 0.327766955 0.248070568
0.311322004 0.334725112 0.252877951
0.327008009 0.340543836 0.255914032
0.341808736 0.350790560 0.263124257
0.363061130 0.357874453 0.273245066
0.384313464 0.366982698 0.279317170
0.405565888 0.376091093 0.287033886
0.432890445 0.388235271 0.301454991
0.458823472 0.402024329 0.312207639
0.484124184 0.418090254 0.325743258
0.512460411 0.435294092 0.340923369
0.543579996 0.450473994 0.359898835
0.578747571 0.467931539 0.378368139
0.612523794 0.491334766 0.399620563
0.649462223 0.512587190 0.425679982
0.196584553 0.307020962 0.217457548
0.199493989 0.311827958 0.221631974
0.206451774 0.314231545 0.227071553
0.213029817 0.312333971 0.229980975
0.210752532 0.305123121 0.224667966
0.213788927 0.313978463 0.235799968
0.216192245 0.313598812 0.234028980
0.220872566 0.312207133 0.232890695
0.225553080 0.312333643 0.234029472
0.228589475 0.315370023 0.237065092
0.237444863 0.318405837 0.237823978
0.246552885 0.321441799 0.240606993
0.256799281 0.325616539 0.246299565
0.268438011 0.331688523 0.246805564
0.274509966 0.332447529 0.250221401
0.281846970 0.337760776 0.251486570
0.291587561 0.345983535 0.253004372
0.303099126 0.351423115 0.256672710
0.318279564 0.360531509 0.265781105
0.336875170 0.365338176 0.269955903
0.353826284 0.372802019 0.276154399
0.370398283 0.383934438 0.284250230
0.391777128 0.393042058 0.290702462
0.413535476 0.402150452 0.298292518
0.440354139 0.413535565 0.311574966
0.469196707 0.427577287 0.326249212
0.494497538 0.440228015 0.337381631
0.524857521 0.461227387 0.358633965
0.555850625 0.477166265 0.378621340
0.589753330 0.495382369 0.400000066
0.626059711 0.514484525 0.420366704
0.653384149 0.535736918 0.441619128
0.217836976 0.331309050 0.244781986
0.208728597 0.331309050 0.241745606
0.209487796 0.333965808 0.243769810
0.215559855 0.335484028 0.247058839
0.222896561 0.335483998 0.248956025
0.225932941 0.341555953 0.248956025
0.226439014 0.342821002 0.249968022
0.229980975 0.342567950 0.251106739
0.234534979 0.342567950 0.251866043
0.234661520 0.342694491 0.246173516
0.243516907 0.345730871 0.249209121
0.252625287 0.348766685 0.249968022
0.262871951 0.352941006 0.253889650
0.274510026 0.359012991 0.261985987
0.280582011 0.365084976 0.268058002
0.291460991 0.365844041 0.271473825
0.304617226 0.371157229 0.274256796
0.318279564 0.378747582 0.277925134
0.327387989 0.381783962 0.283997923
0.348134369 0.390891641 0.290322959
0.367235959 0.397596478 0.296141982
0.385199249 0.405186862 0.302466959
0.403921932 0.414294541 0.308918506
0.428209990 0.423402935 0.324098945
0.452245563 0.434788018 0.333965689
0.479822934 0.451106638 0.345224351
0.509677172 0.470588088 0.358634055
0.540037930 0.485768437 0.379886419
0.573054731 0.501454830 0.395825803
0.607969344 0.521947920 0.418596148
0.645287812 0.544844687 0.445161551
0.683744967 0.566097081 0.471979976
0.225174010 0.366729736 0.260974377
0.224414974 0.366729736 0.260721326
0.223909140 0.368880510 0.261985958
0.225680366 0.370651752 0.263757020
0.229095712 0.370651752 0.264895380
0.229728296 0.371916741 0.264895380
0.237824038 0.372928739 0.262365699
0.240227729 0.374573022 0.263757020
0.245161355 0.377229393 0.267552018
0.249209374 0.381277382 0.269576013
0.260720909 0.384187251 0.269449502
0.265781283 0.387223661 0.272485644
0.275648654 0.390259445 0.275521725
0.289184332 0.394180745 0.282479405
0.297785997 0.395192713 0.286021709
0.306261808 0.401264727 0.292093724
0.321062356 0.403541952 0.295509189
0.337507576 0.408855140 0.299177378
0.350917011 0.411891013 0.305249572
0.365591377 0.423276722 0.314105034
0.384946465 0.430487067 0.318279773
0.403162718 0.438583374 0.324478269
0.421758503 0.449462265 0.332700521
0.448703408 0.458570659 0.347880930
0.472991943 0.469955742 0.358507305
0.497280329 0.482099742 0.370398372
0.524351418 0.498165458 0.384440422
0.552434862 0.513345778 0.401138812
0.585452497 0.531183004 0.425047338
0.617077649 0.550031900 0.442378402
0.651486218 0.572422683 0.468437940
0.689057648 0.593675077 0.499557376
0.235040992 0.399367452 0.285641998
0.231245995 0.405060202 0.276154727
0.239089012 0.407210469 0.280202717
0.239595398 0.405186564 0.281973481
0.240101546 0.404807091 0.282352924
0.244655728 0.410879463 0.283870727
0.246553153 0.407084465 0.281341046
0.255660772 0.407084465 0.281594008
0.259961993 0.410626173 0.285388738
0.266034007 0.416698217 0.291460752
0.274130464 0.419860572 0.293611467
0.285895020 0.419101983 0.295635223
0.291208088 0.423276722 0.297532976
0.304617286 0.427071422 0.302087069
0.315370053 0.428715736 0.306768149
0.330170512 0.433523178 0.312207729
0.339278907 0.438077033 0.318279743
0.356356442 0.441745728 0.322960049
0.372801721 0.446046501 0.330297232
0.384187102 0.451739460 0.333459824
0.401264697 0.460088700 0.338772744
0.420493364 0.467172861 0.344844997
0.439721495 0.478304952 0.354711771
0.463503897 0.487412900 0.364579380
0.488551557 0.498798460 0.380898029
