Assets/Resources/EldamarStudio/100 Horror LUTs Pack/LUTs/cube/Scarface LUT.cube
LUT_3D_SIZE 8
DOMAIN_MIN 0.000000 0.000000 0.000000
DOMAIN_MAX 0.903226 0.903226 0.903226
0.133332998 0.058823999 0.066666998
0.149399459 0.070967548 0.078810550
0.166224003 0.087792993 0.091714002
0.187729344 0.101454645 0.109297641
0.221758381 0.124604993 0.130929798
0.272359252 0.154712260 0.150917262
0.339152575 0.195066288 0.184946001
0.454142749 0.247311965 0.234155655
0.150158450 0.088172443 0.087792993
0.152941003 0.099177547 0.094117999
0.173307985 0.110562995 0.110183448
0.195572644 0.123466350 0.121948451
0.229221836 0.144212186 0.138014004
0.274257004 0.169639543 0.161543012
0.347248554 0.206704572 0.195825294
0.452751458 0.261100829 0.240733802
0.157621905 0.141050100 0.124605000
0.176470906 0.147754550 0.132574096
0.184313998 0.155218095 0.141176000
0.201897547 0.161796451 0.143073738
0.233522996 0.183302090 0.156736091
0.286780387 0.212650433 0.186464086
0.357115686 0.245920375 0.213914990
0.476407468 0.299430907 0.260720968
0.170904279 0.196204633 0.164199650
0.177609354 0.206830993 0.157494992
0.194813550 0.212270990 0.166856289
0.218595996 0.220872998 0.172675654
0.254649013 0.246046990 0.198229089
0.307400644 0.267805278 0.215812638
0.383554578 0.302213997 0.241745561
0.501201570 0.360657632 0.304111421
0.189753190 0.282732397 0.202150390
0.205819353 0.284756511 0.221125990
0.217077896 0.289816290 0.215307087
0.248324081 0.303099185 0.228715986
0.283617973 0.323466182 0.241365984
0.341808736 0.350790560 0.263124257
0.432890445 0.388235271 0.301454991
0.543579996 0.450473994 0.359898835
0.235040992 0.399367452 0.285641998
0.240101546 0.404807091 0.282352924
0.259961993 0.410626173 0.285388738
0.291208088 0.423276722 0.297532976
0.339278907 0.438077033 0.318279743
0.401264697 0.460088700 0.338772744
0.488551557 0.498798460 0.380898029
0.597596467 0.558507383 0.446299702
0.315622985 0.561290503 0.382921994
0.329158515 0.560657561 0.392156571
0.350537658 0.564326346 0.401391566
0.390891910 0.574699581 0.414927274
0.438203722 0.586464286 0.429727972
0.496394545 0.604048014 0.451739281
0.565211594 0.627956510 0.486780554
0.667678595 0.669702947 0.546615779
0.509171546 0.736622572 0.576976597
0.517773569 0.741808712 0.577735603
0.531056464 0.746995568 0.584440172
0.561163425 0.750916600 0.593927801
0.599746764 0.762934923 0.606071949
0.658444345 0.774446607 0.630613565
0.720050573 0.792030454 0.657811165
0.775964379 0.807210565 0.681846738
0.143959448 0.070208549 0.086654447
0.145098001 0.071346998 0.087792993
0.166603550 0.091713995 0.100315996
0.190512002 0.114863642 0.122707352
0.216318801 0.135610193 0.141049996
0.269449979 0.162934795 0.167615384
0.335230976 0.199240819 0.193801537
0.444908470 0.250854105 0.249335796
0.145857006 0.092472993 0.092093542
0.149779007 0.103478998 0.103858545
0.169765636 0.115622640 0.115622640
0.190132648 0.128146648 0.130930007
0.223402992 0.150537997 0.148640364
0.273118347 0.175964728 0.170398548
0.339152575 0.211511701 0.204806834
0.444402605 0.265021831 0.251865834
0.168627083 0.141429543 0.130044088
0.171030894 0.144971192 0.134851098
0.181910098 0.146489203 0.137507632
0.199114189 0.162935004 0.152814910
0.227957085 0.184060901 0.165717736
0.280075908 0.209108278 0.191144899
0.353447139 0.247817650 0.224414825
0.469955862 0.301328182 0.271220595
0.172042638 0.205186278 0.172801644
0.183934361 0.203668296 0.166856304
0.192030191 0.209487632 0.176723644
0.217457637 0.221632093 0.184566647
0.255787551 0.241239980 0.201391280
0.303478807 0.261985987 0.221252441
0.380518645 0.306514740 0.256799370
0.502466500 0.368247688 0.308159322
0.198608547 0.286274552 0.214674085
0.200632215 0.289816201 0.220114201
0.216318995 0.292472929 0.222896829
0.246047094 0.306262106 0.236559078
0.280961514 0.317520529 0.248703539
0.345477253 0.346869200 0.271347433
0.431499243 0.387982100 0.310815871
0.543832898 0.454142958 0.368753970
0.230234176 0.399620533 0.285388738
0.236179546 0.401897699 0.289690286
0.257685095 0.406578124 0.295003384
0.290954918 0.418089628 0.300696015
0.337001741 0.437318116 0.319038749
0.395572037 0.456420273 0.340923548
0.485768527 0.494876564 0.382669449
0.598734617 0.558001220 0.449841708
0.324730992 0.557368517 0.391144842
0.327387810 0.561669946 0.398734838
0.357875019 0.567488849 0.408729017
0.393042177 0.575711370 0.423276275
0.437571079 0.590638995 0.442884535
0.500822425 0.608981729 0.466793090
0.573307991 0.635673523 0.495635986
0.676154494 0.677798629 0.558127701
0.497279972 0.732194722 0.580898345
0.516508400 0.741808712 0.573434591
0.531056285 0.743832707 0.579380095
0.560278177 0.749651730 0.592662930
0.600253105 0.756609440 0.604680538
0.655155182 0.772296011 0.628083527
0.713978112 0.788488328 0.657938004
0.776850045 0.812270403 0.692599654
0.136495903 0.076027997 0.114484094
0.145477548 0.079569645 0.112460546
0.170145184 0.091713995 0.128525987
0.191271096 0.115243189 0.140670449
0.222644001 0.141050085 0.161416993
0.268311232 0.166476741 0.184060991
0.338267177 0.207590193 0.224921092
0.444402516 0.257684976 0.269702822
0.148640364 0.109424450 0.116002098
0.153320566 0.107020542 0.123466454
0.172548994 0.116002090 0.134850994
0.194054455 0.135230646 0.154079646
0.223403081 0.159519449 0.169386089
0.269196659 0.187729359 0.193548098
0.341049820 0.222391099 0.229475275
0.450600863 0.273244739 0.273244739
0.161543101 0.141050100 0.148133993
0.169386089 0.155218005 0.159898996
0.180265889 0.164579093 0.166983098
0.206578359 0.177482545 0.174446538
0.236685887 0.190385982 0.188867986
0.289184064 0.219355077 0.217457339
0.353194088 0.256040275 0.245920375
0.473244846 0.309297949 0.296774089
0.181530640 0.210752994 0.192030191
0.185072899 0.214294732 0.199620456
0.198355094 0.223655730 0.194686636
0.222517282 0.234281987 0.206830993
0.252245277 0.249462441 0.227198079
0.307020873 0.272865444 0.243517086
0.384060621 0.313598841 0.280329108
0.500695407 0.369386137 0.330170631
0.204680905 0.292979181 0.243769988
0.210120186 0.293231815 0.240480989
0.218596086 0.301581293 0.249209374
0.245161384 0.310562849 0.255028635
0.281973273 0.327387571 0.269449979
0.345730722 0.354332834 0.294497281
0.429728180 0.396964103 0.324857503
0.549398720 0.458697259 0.387476355
0.240986735 0.409234732 0.309044719
0.246299833 0.411511898 0.312080830
0.265275359 0.417710125 0.314484715
0.296394557 0.427197903 0.328146547
0.343326837 0.441239834 0.343326747
0.404048085 0.462745368 0.363061607
0.486527622 0.503731847 0.402782738
0.600379646 0.566856503 0.467172503
0.328779072 0.559013426 0.414168298
0.334598094 0.562555134 0.418469310
0.360784262 0.570651531 0.426565647
0.394813299 0.580139279 0.436306208
0.440480649 0.592789471 0.456420243
0.500822365 0.606704593 0.477672309
0.569765866 0.628589332 0.507020712
0.670335233 0.676407456 0.562049270
0.506388366 0.738646328 0.583554745
0.520682871 0.742062032 0.594180703
0.529285252 0.746489346 0.593042552
0.565844297 0.754332542 0.604047894
0.606704414 0.762302339 0.618722320
0.655660987 0.771916389 0.639721453
0.711068928 0.790006578 0.664769173
0.778114676 0.811132252 0.700948656
0.142314643 0.087413348 0.146236643
0.149399459 0.086148098 0.147754550
0.170145184 0.100695640 0.157874644
0.187729359 0.119923994 0.163693994
0.223782629 0.144971192 0.188488454
0.270588517 0.172422469 0.209108084
0.337001920 0.210246637 0.247311980
0.449968398 0.262745023 0.303352326
0.156862915 0.109297544 0.148893103
0.156736106 0.116002187 0.152815014
0.168121547 0.123845898 0.158254087
0.185325548 0.135104537 0.165212095
0.221758291 0.161416888 0.189626902
0.272232741 0.186843738 0.218089730
0.343832999 0.223529637 0.255660832
0.454649001 0.276786834 0.306767672
0.159139901 0.152435452 0.172422275
0.173308000 0.158254191 0.181783989
0.188234985 0.170904189 0.190006539
0.208096445 0.175458282 0.196963638
0.238962993 0.196963832 0.218975544
0.286274642 0.223655641 0.242884174
0.363061309 0.263883650 0.277292997
0.475521773 0.313093036 0.324857563
0.179253653 0.209108293 0.217457652
0.186970457 0.217330754 0.211764738
0.207717001 0.229475081 0.231119186
0.227577642 0.245540634 0.240480989
0.259582847 0.259203285 0.251359999
0.308159530 0.287412971 0.275648266
0.392030269 0.322959900 0.312334001
0.512586594 0.376976818 0.366350472
0.199493840 0.299557626 0.259582639
0.210752994 0.305502981 0.268184632
0.227324277 0.315622985 0.276913553
0.254648983 0.323466271 0.282732189
0.294117540 0.336369514 0.298798621
0.351170003 0.362555295 0.325743169
0.432131767 0.400885463 0.359392673
0.553067625 0.463251442 0.421125531
0.236432374 0.414547801 0.330803096
0.249082893 0.417204469 0.337760717
0.271094084 0.422011346 0.342441827
0.300189734 0.433396727 0.355471283
0.350284696 0.449841708 0.369007081
0.405566275 0.468943566 0.392156482
0.492726028 0.506262004 0.428210169
0.602656364 0.567488730 0.489057571
0.325363547 0.563567281 0.441366553
0.337760925 0.572295785 0.441366434
0.356609851 0.573813856 0.450347930
0.398228556 0.582036912 0.464895546
0.441619277 0.593295515 0.479569912
0.508665264 0.612523794 0.503605306
0.578747511 0.636938930 0.531688869
0.677925408 0.685009420 0.590891719
0.507020712 0.736622572 0.607084036
0.508918345 0.738520026 0.602529883
0.528525949 0.744845033 0.609867394
0.562934577 0.752308547 0.617710412
0.600506008 0.759013236 0.634155214
0.652877688 0.770651400 0.648703456
0.711827993 0.789120913 0.675015748
0.785705030 0.808728755 0.709550738
0.149020001 0.099557191 0.184060797
0.153700009 0.103478804 0.188361734
0.170904279 0.112080894 0.192663088
0.191777453 0.123339541 0.197849557
0.224162191 0.152055994 0.219355196
0.269449979 0.175837919 0.249462634
0.344592184 0.214674279 0.283491284
0.461985767 0.267046183 0.342441320
0.157115549 0.126628548 0.194686741
0.153320640 0.128525987 0.198355198
0.177609444 0.134471744 0.203415543
0.195193008 0.144212291 0.212397188
0.228969187 0.163440749 0.228083178
0.276534170 0.193548098 0.248956367
0.349146187 0.229474992 0.293232024
0.464389771 0.278810978 0.344718516
0.166982904 0.162934989 0.213914990
0.176850349 0.165717736 0.219860733
0.192156807 0.173181176 0.224794373
0.207337350 0.185325742 0.233523086
0.236559182 0.200632185 0.248323977
0.291461170 0.227957189 0.279316813
0.360151649 0.266287118 0.314104974
0.480581820 0.316382080 0.371916264
0.182289541 0.221758276 0.246679187
0.184946090 0.229980826 0.250980645
0.202150285 0.234155282 0.264010191
0.227957085 0.249462634 0.276407182
0.260088176 0.265528202 0.286274612
0.317900062 0.290575266 0.311574996
0.394180834 0.324857563 0.348007530
0.515622616 0.383807600 0.406831145
0.202403814 0.303858191 0.291461021
0.210626185 0.310183376 0.301454961
0.228842288 0.316382110 0.310942262
0.265528262 0.342315227 0.334472179
0.311068982 0.357874572 0.350917161
0.361037165 0.380265832 0.365338445
0.443769664 0.413535476 0.401644558
0.554332793 0.470461845 0.456040710
0.248703733 0.421379179 0.374319971
0.255028546 0.426691979 0.379380018
0.275268912 0.432131648 0.384946018
0.314484537 0.449082941 0.402530193
0.355850726 0.459709167 0.410626113
0.415306896 0.485515475 0.429854453
0.506514549 0.517520487 0.472865462
0.610246837 0.571789861 0.529158771
0.336242765 0.572169542 0.477545828
0.341556013 0.575838149 0.485009730
0.365338445 0.583175242 0.487539470
0.398228765 0.588741362 0.496774107
0.449841827 0.605059922 0.514358103
0.510562837 0.619987249 0.532953739
0.584566534 0.641872525 0.566603482
0.685895026 0.691587567 0.617583692
0.497533411 0.740290940 0.624541640
0.507653415 0.744591832 0.621884704
0.521948218 0.749019325 0.629727781
0.556103826 0.754838586 0.638329983
0.601264954 0.763061404 0.652498245
0.655787528 0.776090860 0.668817282
0.712080777 0.792283416 0.695002913
0.781656921 0.817836940 0.725237131
0.149146006 0.111701258 0.250474483
0.157622010 0.116381735 0.251359999
0.178494737 0.125363991 0.256419748
0.201517910 0.141429543 0.262744725
0.233902544 0.162175804 0.272486180
0.276154757 0.187981993 0.291713715
0.345983267 0.221126020 0.328905731
0.463756859 0.271347225 0.397975713
0.153953448 0.137128279 0.249589175
0.161922559 0.140290812 0.259202987
0.178747892 0.146489382 0.259962082
0.205313087 0.156609908 0.269702852
0.236559168 0.174573183 0.280329198
0.283491284 0.200506002 0.303858280
0.348639995 0.232257828 0.337128609
0.473497897 0.286906987 0.401518047
0.168754011 0.180898190 0.279190719
0.177229896 0.183807552 0.278052092
0.189500257 0.187223196 0.275648445
0.217583537 0.194560438 0.287413001
0.249462530 0.213030085 0.297406375
0.295635730 0.237444893 0.321188986
0.367615640 0.270588428 0.356989354
0.486780405 0.321315706 0.416571647
0.176470995 0.238077283 0.308285743
0.186970264 0.241998985 0.304490983
0.202277005 0.247058630 0.311954737
0.229095638 0.260847360 0.321695268
0.272991806 0.273245066 0.332320899
0.322960109 0.296015382 0.355471253
0.403288990 0.335230976 0.394939899
0.526375651 0.392283350 0.459962010
0.199873194 0.320177168 0.346868992
0.209993988 0.327387571 0.354079902
0.227577448 0.331182539 0.365211815
0.264389724 0.344592005 0.379253834
0.310056955 0.362175733 0.396584421
0.363567084 0.384566456 0.414927155
0.452371746 0.417709976 0.451739252
0.567109227 0.475268841 0.506514609
0.242757991 0.428715706 0.416951180
0.251486480 0.431372464 0.421631724
0.276786834 0.443137378 0.435420543
0.311954737 0.460341454 0.445793808
0.369892538 0.484756440 0.469449908
0.440354228 0.503099203 0.495382726
0.520936191 0.531309247 0.523213148
0.616445363 0.574193358 0.565591335
0.339784980 0.577482522 0.522201240
0.341429085 0.579126894 0.523719370
0.366729915 0.585705400 0.530424058
0.403162360 0.597849131 0.548134267
0.456293553 0.616571784 0.564705551
0.522454262 0.633396745 0.577735782
0.597849548 0.656040549 0.607590437
0.699810505 0.702467084 0.653130710
0.499304324 0.743073583 0.661100447
0.503731549 0.743832588 0.651359618
0.523971975 0.748892844 0.659582317
0.551928997 0.757115602 0.667425811
0.588867903 0.764579356 0.674636245
0.647438407 0.777482510 0.693864346
0.714863718 0.797216594 0.718152821
0.787476122 0.817836702 0.748640299
0.145098001 0.136242703 0.352182001
0.156989008 0.137887001 0.351929009
0.177103177 0.144971281 0.358380854
0.215812638 0.163693994 0.361163914
0.254522473 0.182542801 0.376470268
0.310436428 0.204300985 0.388741285
0.375711530 0.236558989 0.411005557
0.470715046 0.276027828 0.456040382
0.149146006 0.157622010 0.350664288
0.158886746 0.156356737 0.351675987
0.184060752 0.165717840 0.356862545
0.213535830 0.177103192 0.367362291
0.259962201 0.195066392 0.381151259
0.318659008 0.222391188 0.401138723
0.386843801 0.251739711 0.420872569
0.479822844 0.296900481 0.470841497
0.154712200 0.198987901 0.366097569
0.166476816 0.202024192 0.366982818
0.192156807 0.206831291 0.377229571
0.224794284 0.218848839 0.383681327
0.267805278 0.236559182 0.389626563
0.327134669 0.256799281 0.413535893
0.396837533 0.285768390 0.435926467
0.496900409 0.329411626 0.477039874
0.168627277 0.262365550 0.395445913
0.181024656 0.262618840 0.402656615
0.197090641 0.266160458 0.399873555
0.238203689 0.278052002 0.413282543
0.287033468 0.296268195 0.427197933
0.348639995 0.318659067 0.443643570
0.427324563 0.347121894 0.469955891
0.531815350 0.400506109 0.522453785
0.190638989 0.348387092 0.443769664
0.198481902 0.351296753 0.444022477
0.227324277 0.354585737 0.449968338
0.261732906 0.360910565 0.458317816
0.316255152 0.375838250 0.475142300
0.384693116 0.400505900 0.492346436
0.468690544 0.429728389 0.519671202
0.573940516 0.477798700 0.565085471
0.244276181 0.457305253 0.504996717
0.255028546 0.463630527 0.506894290
0.275648445 0.472106457 0.505755544
0.316002458 0.479063779 0.520303607
0.374193668 0.494876653 0.539784729
0.438456476 0.509424448 0.550917029
0.527894020 0.537887514 0.580771804
0.634282053 0.585199296 0.621884704
0.347248286 0.592283249 0.579885840
0.349905103 0.589753151 0.579633296
0.375458509 0.596331358 0.584693253
0.415686190 0.611258507 0.600632429
0.470967829 0.626312256 0.623149574
0.544212520 0.652624786 0.646679521
0.625933111 0.677925289 0.668437600
0.714610696 0.710436344 0.697659791
0.504111052 0.750537157 0.701707721
0.507906258 0.749272287 0.696647763
0.523212671 0.752055228 0.703479052
0.554206014 0.758381069 0.708791852
0.597722769 0.771283805 0.721062660
0.655661166 0.789247453 0.743326783
0.726881862 0.805059612 0.760531306
0.804427803 0.829601169 0.795571983
0.110942349 0.163566977 0.523592412
0.130423725 0.162555441 0.524351418
0.170398548 0.169512913 0.529664695
0.233270168 0.185578778 0.534092546
0.301960826 0.209740654 0.548892975
0.376976550 0.237065062 0.557495236
0.465274900 0.274636567 0.579759419
0.554965436 0.320682913 0.596837521
0.112840183 0.181657270 0.523971915
0.133712754 0.184566841 0.527514398
0.176344097 0.190259278 0.528273404
0.236053199 0.208728552 0.534598231
0.307906628 0.228969008 0.547627807
0.388488203 0.260594457 0.569892466
0.469576359 0.292472988 0.582289696
0.567615271 0.341808647 0.604174376
0.114105120 0.233902529 0.534092546
0.134851292 0.233396366 0.539278746
0.183301851 0.237318173 0.545097888
0.236812294 0.250853688 0.545097709
0.306262016 0.270461828 0.559013426
0.388867736 0.297280163 0.575205505
0.482226253 0.333333075 0.594180763
0.577355742 0.373560935 0.616571546
0.116128854 0.297406465 0.546236217
0.139531896 0.296774268 0.555724323
0.183681130 0.306135476 0.562808216
0.251233459 0.322074801 0.571283996
0.329158813 0.335863233 0.585199058
0.407590449 0.363187551 0.596710742
0.498418421 0.395698905 0.614421368
0.599746764 0.437824249 0.642757595
0.155471221 0.394686997 0.586464286
0.165211871 0.396963984 0.587475777
0.200000212 0.393168807 0.588361621
0.260341614 0.401138544 0.595445633
0.344971538 0.419102013 0.606704473
0.431499004 0.446173370 0.624541402
0.528526068 0.473118186 0.638330042
0.624920726 0.509424150 0.664136410
0.247438282 0.516002297 0.631499112
0.255028576 0.518912137 0.637823999
0.283617914 0.522707343 0.637318194
0.325490266 0.523086727 0.636305988
0.382163197 0.521695197 0.637950838
0.464769453 0.541302741 0.658950090
0.562934935 0.569512725 0.679316580
0.664895356 0.601644337 0.704617441
0.385958105 0.650474489 0.701328158
0.388867676 0.650474489 0.693738341
0.406198382 0.652751207 0.699683666
0.446679264 0.658823371 0.710436046
0.491840929 0.665148914 0.712460339
0.560784280 0.677292764 0.723213077
0.635167360 0.693358779 0.741302788
0.731182396 0.730423808 0.762808084
0.524984360 0.765338421 0.761290610
0.527008235 0.772801876 0.761416554
0.544212699 0.774572730 0.762175798
0.573181331 0.780898213 0.766223788
0.612143934 0.786464214 0.778620958
0.670082271 0.799873292 0.792030334
0.740923345 0.823402762 0.818596005
0.821631730 0.856925786 0.845161378
