Assets/Resources/EldamarStudio/100 Horror LUTs Pack/LUTs/cube/Scarface LUT.cube
LUT_3D_SIZE 5
DOMAIN_MIN 0.000000 0.000000 0.000000
DOMAIN_MAX 0.903226 0.903226 0.903226
0.133332998 0.058823999 0.066666998
0.162428722 0.083997712 0.090195999
0.205945417 0.113092579 0.120936416
0.282479256 0.163820133 0.155977130
0.454142749 0.247311965 0.234155655
0.156863004 0.130423695 0.117014416
0.175205410 0.141555712 0.125236705
0.216698289 0.161163703 0.139911413
0.297912717 0.207590118 0.186717123
0.466540337 0.290069699 0.252118856
0.189626992 0.241998821 0.179126993
0.200379714 0.249841809 0.185704991
0.248449981 0.272738397 0.211890981
0.342061996 0.313598692 0.250474244
0.522074580 0.404300779 0.327767223
0.252245128 0.430740118 0.311954260
0.269829541 0.444529116 0.303858519
0.333965957 0.462491810 0.329411954
0.436685383 0.496521264 0.364073128
0.615053594 0.583807766 0.470840931
0.509171546 0.736622572 0.576976597
0.529538393 0.744718313 0.582416415
0.578494608 0.758128047 0.602656126
0.672612548 0.776723266 0.636685550
0.775964379 0.807210565 0.681846738
0.139531717 0.074510001 0.109170996
0.159519002 0.087919287 0.116381988
0.203668699 0.125869691 0.139911413
0.283744454 0.181150988 0.194180995
0.443643600 0.257684976 0.264895648
0.160784006 0.132700995 0.135989994
0.171916410 0.147121981 0.148766696
0.215433285 0.168374270 0.166730002
0.292978972 0.215812832 0.203036115
0.463883758 0.296647519 0.284883082
0.189879701 0.247185409 0.204300702
0.202023998 0.251106977 0.212523401
0.251739413 0.273371398 0.231498986
0.344718426 0.317899972 0.267805099
0.522074580 0.411511362 0.352055371
0.256419837 0.439595252 0.324477822
0.271600246 0.446806222 0.330423832
0.333333075 0.467046231 0.352940947
0.435420513 0.498165697 0.387349814
0.612270832 0.587096512 0.483111829
0.505629480 0.739911437 0.577735543
0.526249230 0.743200421 0.588235438
0.583175242 0.756862879 0.608222723
0.669070125 0.772928476 0.641998529
0.778114855 0.810879290 0.697912514
0.148387417 0.090195999 0.162175998
0.164705992 0.102972701 0.170651406
0.202656835 0.132067993 0.186969995
0.288045734 0.180518985 0.237444401
0.454142570 0.261606663 0.317267388
0.164706007 0.146109700 0.183680996
0.173560694 0.150664285 0.187982276
0.214420989 0.176217273 0.210879117
0.298292398 0.224920988 0.261606812
0.472992033 0.304743826 0.341429412
0.183048993 0.254396379 0.247817561
0.208855286 0.264516115 0.262238979
0.260214955 0.296900809 0.292346388
0.355218232 0.335483819 0.329285085
0.527260780 0.413408965 0.405565828
0.257684827 0.453257233 0.373813719
0.281593710 0.456925929 0.382036835
0.343453407 0.476154417 0.402530134
0.445541263 0.510183275 0.437950552
0.620493352 0.599620342 0.526122630
0.497406602 0.737887561 0.614421010
0.524225175 0.746363044 0.617330730
0.578494430 0.757495463 0.633396506
0.664515853 0.776090860 0.658823609
0.787729442 0.811132252 0.715749383
0.147121996 0.116761126 0.274762988
0.171916410 0.130423859 0.277925432
0.218722269 0.154332578 0.287539124
0.294371009 0.200126261 0.317014396
0.465527892 0.272106111 0.411890924
0.163693875 0.171283990 0.284503579
0.184693277 0.180139124 0.293358862
0.229475245 0.196837410 0.311321825
0.314610839 0.237444818 0.343453228
0.486527294 0.311701506 0.428462803
0.183048993 0.282859266 0.344718248
0.207463712 0.289690375 0.349525690
0.264516294 0.310689241 0.372548699
0.361416698 0.345350951 0.403288960
0.542061865 0.423909217 0.487033516
0.259962142 0.465148240 0.454396129
0.290702134 0.474509716 0.465022236
0.358760536 0.502340257 0.494117975
0.480835259 0.543580234 0.533839285
0.640227735 0.607336938 0.599241257
0.500316441 0.741555691 0.671979547
0.520935893 0.748639822 0.665907800
0.572928429 0.762681782 0.682985604
0.665148556 0.784313560 0.707779765
0.788741112 0.821884871 0.763567448
0.110942349 0.163566977 0.523592412
0.160025179 0.166476861 0.525869727
0.265022218 0.194939822 0.538646162
0.398228943 0.245667249 0.562555134
0.554965436 0.320682913 0.596837521
0.113092914 0.220746696 0.537634432
0.169892430 0.223402694 0.539025664
0.271726519 0.244655371 0.548766315
0.408349216 0.291460931 0.574193478
0.571030796 0.363187611 0.611764371
0.119291790 0.338899642 0.573940098
0.173434466 0.341808915 0.573181391
0.291081548 0.365085632 0.588362038
0.435167640 0.408601940 0.614421189
0.607842982 0.470462024 0.645793796
0.280075967 0.547374904 0.653510451
0.303605407 0.551549792 0.650221169
0.378241628 0.556483388 0.657178938
0.505756199 0.575964570 0.676407456
0.681846976 0.630993068 0.718026578
0.524984360 0.765338421 0.761290610
0.540417433 0.772548735 0.761163652
0.589626968 0.782416284 0.770651579
0.689310730 0.805439472 0.797343433
0.821631730 0.856925786 0.845161378
