Assets/Resources/EldamarStudio/100 Horror LUTs Pack/LUTs/cube/Selen LUT.cube
LUT_3D_SIZE 5
DOMAIN_MIN 0.000000 0.000000 0.000000
DOMAIN_MAX 0.903226 0.903226 0.903226
0.070588000 0.078431003 0.074510001
0.087286703 0.080708295 0.079064004
0.192282975 0.093485415 0.096141569
0.374826252 0.156988993 0.149145991
0.587349653 0.270967782 0.269575775
0.080075711 0.133712694 0.092852995
0.122959986 0.141555712 0.103984989
0.229222104 0.165464982 0.131435990
0.402277231 0.229222119 0.192283407
0.599746764 0.329791367 0.299050927
0.175964400 0.300189406 0.206072390
0.221125811 0.315623105 0.202782959
0.318532377 0.341429800 0.234155819
0.460088521 0.385198981 0.288425386
0.626565635 0.460467786 0.396457791
0.348387122 0.524857342 0.367868125
0.384313703 0.533333540 0.386211544
0.446679235 0.548766673 0.412776828
0.549399257 0.570019126 0.442505121
0.694876492 0.628842533 0.520429969
0.588867724 0.780897915 0.625426590
0.613029599 0.783554733 0.631751657
0.656799436 0.786717236 0.637824178
0.727387726 0.805312932 0.667805195
0.812397420 0.826691747 0.703858554
0.072865292 0.076786712 0.087919287
0.092852995 0.080075711 0.098418698
0.193927690 0.106261700 0.139658689
0.372169435 0.174952284 0.213915408
0.581150889 0.288804531 0.313978523
0.085009418 0.130803406 0.133080691
0.134092405 0.149778396 0.145856977
0.239089519 0.182163104 0.183807805
0.397596568 0.235420823 0.238709405
0.587729514 0.342820793 0.339911461
0.183428109 0.309044659 0.240354106
0.224668115 0.318532407 0.253130823
0.319797844 0.346995503 0.276660383
0.456166685 0.388488233 0.329285383
0.627197802 0.472232789 0.422264069
0.359392673 0.527134359 0.408348948
0.385957837 0.527767241 0.408222795
0.446426332 0.542821050 0.430740148
0.545856953 0.564706147 0.458823532
0.695508897 0.630487263 0.540670276
0.595319450 0.773687422 0.628968894
0.611132264 0.775711417 0.632511079
0.652877986 0.787476182 0.649588585
0.725490212 0.799493730 0.679064035
0.813282669 0.827956617 0.720176995
0.067299418 0.077798583 0.197469994
0.112460412 0.083997712 0.210246697
0.211258397 0.116381995 0.234155819
0.370524704 0.183807567 0.296394825
0.579506636 0.301581383 0.394434214
0.101327993 0.152688116 0.236053407
0.150410995 0.158886984 0.244908527
0.247185394 0.187982693 0.268437684
0.399367511 0.246552989 0.324731112
0.585325837 0.362049073 0.422896922
0.188361824 0.319164962 0.327007949
0.230866402 0.334851384 0.339405417
0.353826374 0.373434365 0.385199368
0.464642972 0.413662255 0.418216109
0.631878674 0.480075777 0.483997613
0.370777994 0.529411554 0.465907544
0.395951718 0.532953441 0.467552245
0.458697140 0.551296294 0.487792432
0.554585397 0.574826300 0.518279552
0.704743922 0.639974952 0.582036674
0.591397583 0.771663606 0.656040370
0.611385345 0.773307920 0.664895475
0.652751446 0.788741469 0.671727061
0.727008283 0.802782893 0.696647763
0.820240557 0.829981029 0.745098054
0.066666998 0.095256120 0.399367392
0.146236271 0.111827999 0.408096254
0.264895827 0.146869123 0.416698247
0.413030118 0.208981857 0.446426123
0.580518484 0.314737797 0.502719939
0.110562988 0.190639123 0.416319132
0.177609116 0.195445985 0.416825086
0.289437264 0.224668115 0.436559141
0.426059127 0.278937697 0.464642972
0.596204758 0.369892418 0.518279433
0.234155819 0.355471253 0.472232819
0.272738814 0.368247807 0.472485691
0.364958644 0.388108671 0.489816815
0.477798730 0.422770113 0.513725519
0.631119788 0.480329096 0.568374276
0.381657124 0.538520098 0.547628224
0.407336980 0.545730352 0.554585397
0.469576240 0.566350400 0.574446559
0.580771267 0.604301274 0.604301214
0.720303655 0.649209321 0.650095046
0.588108778 0.777988434 0.712839782
0.605186403 0.780518472 0.712586939
0.645541012 0.788741589 0.721062481
0.726755202 0.806072056 0.741682231
0.824794412 0.835926414 0.781024396
0.112713799 0.164958954 0.669955552
0.202529669 0.179379791 0.666034281
0.344845027 0.219860807 0.667299449
0.506641269 0.298165917 0.680708289
0.663377404 0.391271621 0.699936569
0.166603506 0.257811546 0.669829428
0.233649641 0.266666681 0.667299449
0.367362499 0.303605199 0.676027894
0.520050347 0.362175941 0.683364689
0.667299390 0.431119800 0.705376506
0.287918776 0.425806373 0.687413037
0.320429832 0.430360615 0.686780632
0.425173789 0.446679205 0.696014881
0.549778819 0.479822934 0.705502868
0.696014702 0.527893364 0.730044603
0.434408635 0.614927053 0.726755202
0.451865941 0.611891270 0.728526175
0.510815799 0.613535643 0.738393426
0.609234929 0.628463089 0.748260617
0.741935432 0.669449925 0.774573028
0.616318762 0.797975540 0.801517844
0.623276234 0.801138461 0.805692732
0.661353350 0.808475435 0.813030005
0.743453324 0.824794471 0.831245780
0.848956585 0.864642560 0.868564546
