Assets/Resources/EldamarStudio/100 Horror LUTs Pack/LUTs/cube/Selen LUT.cube
DOMAIN_MIN 0 0 0
DOMAIN_MAX 1 1 1
LUT_3D_SIZE 32
0.070588000 0.078431003 0.074510001
0.073624387 0.081467390 0.077545613
0.074510001 0.082353003 0.078431003
0.074510001 0.082353003 0.078431003
0.074889451 0.081973456 0.078431003
0.077925064 0.078937069 0.078431003
0.080961324 0.080961324 0.080961324
0.087286703 0.080708295 0.079064004
0.095636003 0.078431003 0.075268902
0.101708017 0.078431003 0.078304522
0.119417995 0.078431003 0.078431003
0.135610253 0.080455258 0.080455258
0.153067634 0.084629998 0.083491646
0.174066991 0.090449028 0.087033965
0.192282975 0.093485415 0.096141569
0.215306595 0.098924994 0.102845997
0.242631376 0.108032994 0.110436186
0.271726966 0.118911989 0.119544566
0.296015024 0.124984011 0.128652975
0.317520380 0.133839354 0.134977996
0.344465464 0.144844994 0.141049996
0.374826252 0.156988993 0.149145991
0.405186951 0.169133008 0.161543012
0.435546994 0.181277812 0.179759815
0.465907544 0.195699275 0.195699275
0.499051273 0.210879296 0.210879296
0.533459961 0.226565123 0.227071062
0.557747960 0.244781882 0.248323411
0.587349653 0.270967782 0.269575775
0.621252358 0.294750154 0.294370145
0.656799555 0.319544554 0.323465794
0.690195978 0.352941006 0.356862992
0.070588000 0.078431003 0.074510001
0.073624387 0.081467390 0.077545613
0.074510001 0.082353003 0.078431003
0.074510001 0.082353003 0.078431003
0.075268999 0.082353003 0.078051552
0.080961451 0.081973456 0.075395390
0.081467390 0.081467390 0.080455393
0.085641995 0.083997712 0.080708295
0.095635608 0.083744675 0.076786712
0.110815622 0.081467398 0.075268909
0.122707352 0.087286383 0.084124252
0.140670389 0.087539390 0.086527511
0.156862631 0.089563638 0.088424996
0.174320027 0.093485355 0.089563638
0.195319369 0.096521027 0.093105957
0.213535383 0.101960607 0.097406581
0.238077164 0.111068994 0.105881989
0.266287535 0.121948376 0.117773168
0.292979419 0.128020406 0.131688580
0.317267418 0.142441764 0.135230973
0.340670466 0.153953388 0.142947733
0.369766116 0.164073393 0.151170269
0.402403593 0.172295883 0.161543012
0.438583404 0.187349811 0.179759815
0.468943954 0.204047978 0.195699275
0.497913033 0.218595937 0.212270975
0.528400004 0.232637763 0.229095459
0.557747960 0.250853896 0.245287806
0.587349653 0.271726817 0.263883352
0.615939140 0.298292160 0.286527395
0.649462461 0.323845565 0.311701357
0.687160373 0.352941006 0.338646203
0.072738774 0.076280773 0.074510001
0.075774617 0.079316616 0.077545613
0.076660231 0.080202229 0.078431003
0.075395390 0.081467390 0.078431003
0.075268999 0.082353003 0.078810550
0.081340998 0.082353003 0.079316944
0.084503770 0.082353003 0.075268999
0.089437068 0.082353003 0.076407291
0.096774101 0.085642219 0.075648002
0.110815786 0.086780518 0.076786719
0.127513960 0.090322778 0.083238870
0.141682476 0.092346773 0.084250741
0.160910636 0.094623774 0.090448998
0.178368062 0.098419003 0.094497003
0.197723180 0.099557355 0.095635645
0.218722537 0.107147001 0.100822188
0.239974529 0.114737190 0.106894188
0.266034365 0.126249209 0.117773339
0.291840971 0.135357246 0.129917741
0.316382021 0.145477593 0.138266578
0.344465464 0.156862959 0.145097956
0.371284246 0.167742133 0.154206350
0.403542250 0.175332233 0.163693756
0.437950820 0.190512136 0.181910038
0.467678785 0.205818981 0.195699275
0.499430835 0.222643644 0.213662639
0.528779387 0.236559346 0.232131705
0.559139729 0.254775763 0.247311667
0.589500427 0.279949576 0.267298967
0.628715873 0.299430728 0.290828139
0.658317327 0.328273177 0.317267418
0.692726254 0.359392792 0.344085783
0.073244840 0.079569995 0.074510001
0.075015612 0.081340775 0.076280773
0.077166162 0.078431003 0.080961324
0.078431003 0.080961324 0.077166162
0.076154388 0.083997615 0.078304708
0.081340998 0.084883004 0.083112098
0.086148158 0.084883004 0.079823002
0.095003448 0.086148165 0.079190448
0.105629258 0.086907066 0.076913163
0.115749650 0.092473000 0.081973165
0.128526166 0.094370708 0.085515581
0.145983249 0.097912833 0.088045903
0.163440630 0.100189835 0.087286517
0.184440061 0.106008865 0.098798029
0.202656820 0.107020997 0.101834163
0.222011626 0.112966351 0.105375998
0.243516982 0.123339191 0.111701347
0.267805129 0.133080140 0.120809570
0.292093962 0.145224333 0.129917815
0.318912029 0.152055353 0.140290976
0.345730305 0.162428901 0.149398729
0.375079215 0.173561037 0.159519255
0.405186951 0.183301851 0.169133633
0.437444746 0.197343409 0.186211005
0.470082283 0.209993273 0.199873567
0.496394783 0.225173637 0.214927480
0.528779209 0.241366059 0.234155908
0.558380902 0.260341734 0.247817680
0.590006471 0.283997625 0.268310934
0.627957106 0.307273954 0.298165292
0.671726584 0.328146577 0.323718727
0.700568974 0.363440841 0.352941006
0.070588000 0.090575546 0.074889451
0.070967548 0.090575546 0.074130453
0.073118225 0.085641772 0.080582224
0.076533936 0.081720322 0.083238833
0.079569548 0.087413445 0.074889451
0.082605936 0.090449058 0.083997838
0.088551544 0.091713995 0.084124230
0.099177696 0.092979155 0.085262544
0.113599092 0.096015446 0.089816548
0.128779486 0.099051066 0.089816548
0.136748984 0.099936545 0.090954997
0.150537550 0.103605084 0.092599705
0.169133186 0.108918093 0.096015349
0.190132543 0.115243062 0.099303998
0.208349273 0.118532412 0.108285859
0.226944998 0.124351539 0.113345735
0.246679187 0.133080095 0.118658833
0.268564135 0.144465148 0.124984503
0.292852968 0.156609952 0.134092152
0.322327554 0.161543190 0.144845173
0.350410730 0.169892475 0.155091807
0.377735376 0.182669416 0.165211722
0.405313462 0.197722539 0.177356437
0.435926557 0.209867269 0.192283094
0.469702542 0.220493242 0.206325024
0.501328290 0.232004747 0.219354972
0.526123047 0.247817621 0.237571076
0.553447425 0.269069970 0.246679455
0.585705221 0.289563358 0.266413808
0.623655736 0.311195165 0.296774089
0.664136529 0.334598094 0.332068115
0.703604996 0.361922532 0.353320539
0.070588000 0.093611933 0.077925064
0.073624387 0.093611933 0.071853064
0.076154165 0.095762163 0.077545844
0.080455385 0.094244093 0.082859069
0.085642315 0.093485445 0.080961451
0.088677935 0.096521065 0.077925071
0.096774325 0.102086991 0.084503777
0.107020929 0.103857994 0.085768931
0.118912101 0.105123155 0.086780936
0.128779501 0.108159460 0.086780936
0.146869004 0.114104934 0.095509060
0.161037236 0.117141187 0.097027004
0.176723570 0.119544871 0.099810056
0.193168938 0.121315837 0.105375998
0.211384922 0.130423442 0.111447997
0.232004851 0.138519794 0.120429859
0.252751172 0.147122130 0.130043924
0.274636149 0.156103864 0.139911219
0.298924983 0.162681967 0.146236911
0.325996369 0.174826011 0.149778515
0.351928920 0.183554664 0.158127800
0.377735376 0.194180995 0.168247938
0.405313462 0.206830919 0.180392042
0.438709915 0.218974933 0.192536071
0.467046201 0.233396336 0.212017268
0.497280300 0.246173263 0.223402739
0.526123047 0.259835869 0.232005060
0.553447425 0.278178364 0.252751440
0.583427906 0.294117749 0.272485793
0.617836356 0.315622836 0.297280163
0.653510213 0.341176182 0.327514172
0.685389042 0.371030927 0.356356919
0.075648002 0.114357993 0.083491646
0.078684390 0.111828320 0.082479641
0.081720769 0.113978542 0.082858868
0.087286487 0.115749314 0.088678159
0.094244219 0.114737540 0.090322770
0.097280383 0.117773697 0.091587387
0.102846317 0.120809317 0.088551648
0.113598987 0.121948026 0.092979290
0.125743002 0.123339541 0.096141763
0.136622176 0.129917473 0.101454996
0.156988993 0.130802989 0.102593444
0.171157509 0.132826999 0.109677315
0.186970308 0.136495963 0.111827962
0.203795061 0.139785320 0.116508640
0.222011626 0.146616220 0.122580633
0.242631420 0.155723825 0.128652632
0.265401632 0.166350380 0.137634516
0.288298458 0.176470727 0.146236643
0.312587291 0.184440017 0.148513958
0.334598690 0.191018656 0.159392968
0.365718037 0.203162625 0.170019060
0.391903609 0.211891308 0.181404322
0.417710185 0.221125811 0.193548307
0.446300238 0.235673651 0.205692321
0.475142598 0.247817636 0.217836887
0.503858268 0.261353314 0.236938611
0.534218848 0.274509817 0.247691393
0.563567400 0.292726308 0.264895737
0.591018200 0.315875798 0.288677812
0.626691878 0.332827389 0.309930146
0.663883626 0.358254194 0.333965570
0.697533011 0.390259326 0.359392673
0.080075711 0.133712694 0.092852995
0.088045381 0.132321388 0.094497278
0.091081768 0.133586630 0.093358934
0.091587834 0.134092242 0.096394546
0.100695543 0.134092242 0.099430829
0.111321926 0.137128636 0.102466762
0.116887987 0.136875376 0.102087311
0.122959986 0.141555712 0.103984989
0.135104194 0.140038088 0.106261700
0.147248432 0.147374928 0.112713479
0.163187578 0.149398699 0.116381988
0.180012509 0.151043415 0.117140986
0.193295643 0.153320417 0.123212993
0.211005718 0.159392983 0.126755312
0.229222104 0.165464982 0.131435990
0.249842063 0.173940599 0.137507990
0.272612661 0.181530401 0.143579990
0.296900660 0.193421975 0.152561858
0.321189255 0.203541756 0.155598015
0.347628385 0.208222702 0.166730002
0.369892716 0.218089983 0.179127023
0.402277231 0.229222119 0.192283407
0.427830398 0.236306190 0.203794986
0.453637004 0.251486599 0.215939000
0.479317278 0.264389694 0.229727849
0.508032978 0.276533663 0.241872609
0.538393140 0.289689839 0.260088772
0.568753839 0.307906598 0.277546138
0.599746764 0.329791367 0.299050927
0.627577186 0.350537390 0.328146547
0.667931795 0.370525181 0.348513365
0.705882013 0.401644707 0.369006693
0.085389003 0.151170194 0.107274093
0.096014999 0.151170194 0.106514610
0.101707771 0.152561873 0.106008679
0.105250031 0.153827026 0.105502941
0.103731640 0.151549652 0.108918093
0.123465933 0.154585943 0.112333931
0.130549997 0.153320774 0.114357993
0.138899088 0.152941197 0.116888091
0.147248194 0.159013197 0.122200996
0.159392983 0.162049592 0.122201003
0.170778081 0.164326325 0.125743091
0.185705245 0.168121368 0.130044192
0.200885639 0.171537012 0.131562084
0.216572031 0.177862033 0.137634084
0.235294074 0.184440091 0.141176417
0.255913883 0.192915902 0.146615982
0.278684288 0.200506091 0.152688190
0.302973032 0.206578091 0.158760190
0.327261120 0.218469098 0.167742074
0.354079664 0.225300446 0.179633111
0.381024718 0.233270183 0.192536175
0.403795242 0.243643224 0.202909216
0.433649957 0.252878070 0.212017596
0.456673026 0.267425925 0.223529190
0.481720477 0.279570103 0.237950459
0.508792043 0.293232083 0.252498239
0.539152205 0.306388229 0.265655041
0.569512904 0.324604988 0.286654413
0.601770759 0.343959689 0.308665216
0.632384181 0.365718126 0.334724575
0.662618279 0.384187192 0.365211964
0.705123127 0.408475995 0.383427978
0.097533017 0.175458983 0.128526479
0.103605010 0.175458983 0.116381720
0.107779779 0.175458983 0.113472015
0.113346167 0.175585493 0.114610687
0.121948421 0.175838441 0.118026488
0.131056041 0.178874046 0.124098480
0.133080006 0.179380015 0.130043998
0.141555712 0.177609205 0.134218708
0.156356588 0.177229971 0.137381390
0.171536982 0.183301985 0.140417010
0.180771887 0.183428496 0.137507886
0.196078479 0.187602967 0.142947748
0.213029653 0.192409858 0.149399325
0.228716046 0.196078047 0.152814493
0.249968410 0.205186427 0.158886492
0.271094292 0.214168295 0.164831981
0.293864459 0.221758485 0.170904383
0.318152636 0.227830485 0.176976964
0.342441469 0.233902514 0.183048993
0.361163497 0.248576850 0.194813520
0.387475997 0.259456217 0.208855212
0.415433228 0.267678976 0.220872968
0.439721972 0.274130493 0.227198005
0.457938015 0.286274493 0.236306399
0.483238280 0.296268284 0.250095248
0.511827767 0.309677482 0.265275240
0.542188585 0.327640623 0.280834645
0.572549284 0.345857382 0.299051404
0.602909386 0.361416638 0.322706938
0.633396327 0.383934110 0.346868843
0.665401638 0.408222944 0.371536970
0.702087462 0.426692009 0.395571977
0.115496740 0.188108996 0.135230988
0.115749747 0.188108996 0.134724960
0.117520742 0.194560766 0.131182745
0.122327700 0.198102713 0.129917577
0.131815225 0.199367538 0.129664540
0.143453807 0.197343796 0.133206874
0.147501424 0.200379431 0.136748552
0.154458851 0.202403590 0.142441422
0.167615205 0.204174861 0.146742776
0.180645376 0.210246861 0.149778396
0.195825741 0.210499868 0.149904877
0.206957847 0.212523609 0.152940989
0.223402858 0.217710286 0.158886775
0.240860030 0.222517565 0.161922842
0.262112379 0.226312280 0.165337995
0.280961573 0.237823859 0.171410605
0.304744065 0.244402200 0.180518731
0.329158723 0.249082863 0.190006569
0.348892987 0.255154878 0.198355883
0.375964373 0.266792864 0.212776512
0.394560337 0.276154459 0.219354734
0.419860989 0.286274731 0.229474992
0.446046978 0.298165500 0.239341989
0.469828993 0.307526886 0.245667025
0.494876266 0.319670856 0.259329408
0.519417644 0.330803335 0.274509788
0.545224249 0.345477670 0.291207999
0.575584948 0.361290038 0.314231753
0.611258686 0.379506767 0.337760806
0.638583243 0.396710694 0.353194058
0.666666806 0.419734329 0.372675568
0.699051142 0.441998869 0.398987859
0.129664987 0.214421242 0.145350993
0.135737240 0.216445491 0.153446972
0.131688729 0.216825008 0.147375256
0.136749059 0.223403081 0.148640096
0.146236509 0.225679785 0.147880793
0.155091867 0.222644180 0.150917187
0.161669925 0.222644180 0.151929185
0.169639245 0.224035501 0.151675791
0.181783453 0.228210151 0.157368824
0.193928242 0.235546976 0.162934765
0.206957847 0.237824246 0.163061246
0.222138241 0.239848495 0.163061261
0.235420883 0.244022757 0.170271903
0.252751499 0.250095248 0.175079212
0.272232652 0.254902065 0.178114831
0.299177855 0.259076238 0.187602848
0.314358234 0.268184632 0.193675235
0.337887555 0.271726906 0.204174668
0.357495278 0.276407242 0.213282704
0.380012631 0.286021531 0.221885160
0.403542012 0.296267748 0.231372505
0.422897130 0.303478867 0.235547245
0.448197484 0.316381752 0.245793760
0.474383265 0.325490147 0.257558525
0.500948548 0.338899493 0.270461798
0.528272927 0.351043463 0.288424820
0.550790370 0.363694072 0.305376112
0.576596856 0.378874063 0.326628864
0.610246360 0.396710634 0.346868932
0.643137097 0.413156152 0.369386166
0.671473920 0.432890445 0.383048594
0.704111278 0.457179248 0.408096015
0.141809002 0.245540634 0.159772292
0.148640394 0.248577029 0.168500632
0.150411099 0.248323992 0.169006765
0.150790319 0.249589115 0.162682131
0.162175998 0.252245277 0.165717751
0.168247998 0.249968573 0.168753937
0.174319997 0.249462634 0.168121651
0.183681279 0.251739651 0.169892579
0.196584180 0.254016727 0.170651287
0.209108338 0.263124436 0.180139124
0.223529637 0.265275121 0.180518627
0.235420883 0.268311262 0.181657284
0.251739621 0.271347642 0.182795629
0.266920000 0.277419627 0.191650987
0.284250617 0.283491611 0.195572212
0.307526946 0.288298488 0.202403590
0.333333611 0.293991029 0.211511984
0.346742600 0.299431056 0.216951579
0.367488980 0.302466691 0.225047335
0.389880002 0.312207639 0.234788060
0.412270725 0.320177168 0.245414630
0.434535235 0.328272909 0.251486659
0.455787629 0.337254792 0.257811636
0.480075926 0.346363187 0.271979898
0.506261945 0.358886898 0.286021620
0.532447636 0.373814255 0.302846581
0.559772015 0.385958284 0.323592275
0.582289398 0.400506049 0.341808885
0.614168048 0.419481218 0.362302244
0.645793319 0.437064797 0.380012453
0.676154137 0.454901814 0.404806852
0.712081015 0.479190648 0.427071273
0.154712036 0.272865027 0.178748026
0.157495394 0.275901407 0.181024686
0.160278261 0.275395274 0.181657031
0.165591165 0.274889231 0.181657150
0.173813999 0.277293026 0.178368524
0.179885998 0.277293026 0.181404129
0.186970070 0.277799040 0.179380313
0.197343409 0.280329078 0.181783989
0.209234968 0.286654085 0.188109025
0.224414587 0.295762479 0.200253040
0.241745770 0.296647996 0.201265037
0.254396200 0.298671782 0.203289226
0.266920000 0.301707655 0.206831396
0.285136044 0.304997057 0.209867075
0.300316423 0.311069041 0.215939060
0.317393988 0.316888005 0.219860837
0.338899404 0.324225187 0.224415019
0.361669958 0.332321435 0.230360612
0.379886001 0.335357070 0.233397007
0.404174745 0.345983744 0.246805713
0.427704006 0.354838997 0.263124496
0.451739252 0.360910982 0.277799010
0.475901484 0.367362499 0.284250528
0.494244039 0.376723915 0.296521068
0.516508520 0.387602985 0.308665067
0.540796936 0.400632650 0.323592335
0.565844059 0.415307015 0.341809064
0.593168437 0.427451015 0.360025048
0.625300467 0.447058797 0.383048624
0.656925917 0.466539979 0.401771158
0.687792122 0.486527175 0.421252549
0.718153000 0.510815978 0.454648972
0.175964400 0.300189406 0.206072390
0.175964400 0.303225785 0.200000390
0.176596984 0.308412403 0.197976053
0.179759398 0.311321974 0.201897413
0.185704991 0.313599259 0.208222508
0.185957998 0.310689390 0.199620888
0.202150643 0.315749377 0.197596505
0.221125811 0.315623105 0.202782959
0.237571061 0.316002727 0.209867060
0.242631346 0.320050478 0.209361419
0.251992673 0.326248974 0.215686411
0.267046124 0.329032212 0.218469143
0.282099843 0.332068175 0.223782212
0.300316423 0.335357040 0.231119439
0.318532377 0.341429800 0.234155819
0.331308961 0.345098019 0.240227818
0.352308571 0.350284398 0.245667398
0.376470834 0.356988966 0.252371967
0.392030001 0.362681448 0.260721356
0.421378732 0.365717769 0.266540408
0.440986693 0.376343966 0.276407570
0.460088521 0.385198981 0.288425386
0.481973469 0.391650468 0.299430907
0.503225923 0.406830907 0.314611316
0.521568418 0.413914979 0.326881826
0.543832898 0.422643632 0.341808796
0.569133580 0.433522969 0.360025108
0.599241257 0.445666969 0.378241807
0.626565635 0.460467786 0.396457791
0.656925917 0.478684396 0.412396938
0.689057171 0.498671770 0.427830160
0.724224985 0.522959948 0.451612592
0.197216794 0.334724605 0.218975186
0.194813594 0.340164155 0.220113993
0.194813594 0.343200535 0.224794760
0.197343588 0.347754449 0.222770423
0.203795046 0.349651963 0.227703795
0.209866777 0.344591856 0.224667922
0.222643629 0.346742600 0.223023459
0.234281987 0.349525601 0.223276496
0.250980198 0.349525779 0.230866492
0.258950293 0.354206115 0.231119469
0.270208836 0.357748389 0.236811981
0.281340957 0.357748121 0.240860239
0.297280073 0.361163765 0.243896246
0.315243751 0.365464598 0.249715596
0.331308961 0.369386613 0.250601202
0.351928771 0.377861977 0.260847777
0.365590960 0.377861977 0.262365609
0.388741344 0.381910145 0.267678559
0.409234673 0.389753371 0.280328959
0.426312536 0.395445973 0.289057791
0.449082792 0.398481846 0.297027022
0.465781242 0.407083780 0.305123448
0.485768765 0.413408786 0.314611256
0.509297907 0.426312506 0.329791099
0.532827556 0.439215600 0.344971448
0.556862533 0.446932226 0.360025316
0.582163155 0.457052648 0.377735674
0.604933858 0.471094370 0.394054681
0.635040998 0.483491391 0.407463759
0.662365794 0.502213717 0.423908949
0.692979217 0.521062732 0.441998541
0.727893829 0.542314827 0.467804790
0.216951385 0.369639188 0.234155178
0.218469560 0.374193370 0.241745770
0.217584178 0.378115147 0.239974767
0.217584178 0.377356052 0.247817993
0.224288732 0.380012274 0.246299729
0.235673621 0.378494561 0.247438371
0.243769512 0.376976520 0.247438371
0.255534381 0.381404191 0.250600904
0.263124377 0.381404191 0.252878189
0.275268942 0.385958195 0.255154908
0.287412971 0.389121056 0.261100382
0.299557388 0.391144931 0.266666442
0.312839746 0.389247179 0.268564194
0.330423832 0.394307196 0.270967990
0.345603734 0.397343606 0.270967990
0.361037165 0.405186772 0.279064178
0.385325581 0.409740567 0.289689988
0.399873376 0.408602357 0.287918776
0.420619965 0.416825145 0.299557179
0.439595342 0.420114160 0.307653338
0.458191156 0.428842634 0.319797635
0.475395322 0.430866390 0.327893376
0.493358940 0.436179370 0.334345490
0.517647028 0.448323786 0.349525481
0.540417373 0.458950192 0.363187462
0.564706087 0.469702840 0.378367841
0.594307244 0.480329186 0.395445973
0.615559876 0.496521413 0.409614205
0.639848113 0.507527173 0.422138155
0.671473384 0.524984360 0.440607160
0.697912991 0.545351148 0.459329575
0.729412019 0.563567221 0.489057183
0.235800549 0.402403116 0.256040126
0.241239980 0.404806942 0.266919732
0.244275972 0.408475727 0.267172754
0.244908541 0.408349365 0.262492150
0.245288000 0.403415143 0.268184572
0.259456336 0.409234822 0.271220893
0.265148818 0.408349216 0.271726966
0.272106260 0.408981532 0.274383545
0.281340957 0.414168119 0.280202538
0.293484956 0.414168119 0.280202538
0.305629134 0.416445404 0.284123987
0.318406075 0.419481277 0.290195972
0.332321495 0.422011137 0.295888543
0.347248137 0.422011137 0.295635581
0.362048954 0.424667954 0.295256138
0.374826163 0.431878746 0.302466750
0.392030597 0.437065542 0.310942352
0.416824967 0.437697947 0.319417715
0.428969026 0.443769932 0.322454125
0.449462354 0.444908530 0.327640563
0.467552155 0.451233536 0.337507695
0.489310563 0.459962130 0.350917131
0.504617393 0.460341603 0.357242137
0.527893603 0.471979558 0.371916473
0.549904823 0.481846839 0.384819567
0.574446261 0.492220193 0.398987800
0.597723126 0.502340615 0.413156062
0.624668002 0.520430148 0.425173551
0.648576736 0.530676782 0.438583195
0.676913083 0.546869099 0.457811475
0.707020581 0.566603541 0.479190171
0.731309414 0.584819555 0.506514609
0.257052988 0.432763964 0.280329019
0.260088623 0.432763964 0.286400974
0.265528023 0.437317967 0.292979002
0.269829184 0.439342171 0.293991148
0.272612453 0.436812371 0.292473406
0.275648057 0.439848006 0.295509040
0.282226741 0.440607011 0.296015024
0.291334987 0.440353990 0.297659725
0.302466899 0.441619098 0.301707983
0.311701000 0.444528967 0.307527006
0.323845774 0.444528967 0.304617167
0.338014215 0.446805716 0.308412045
0.354079992 0.449841619 0.315622687
0.371536970 0.452371955 0.322960019
0.383680969 0.452371955 0.319924414
0.396078587 0.457431972 0.326755196
0.409740776 0.462239236 0.334345043
0.425932616 0.465022385 0.340670168
0.441113055 0.468058020 0.346742988
0.461606413 0.471347392 0.349778652
0.473371029 0.476027995 0.354965031
0.487792164 0.481594115 0.363820314
0.513725102 0.484630436 0.375458956
0.531941891 0.493738085 0.387602955
0.552941263 0.503099322 0.400000006
0.579759598 0.514990687 0.414927334
0.609867096 0.529665053 0.431372881
0.628083825 0.544845402 0.440480500
0.657684922 0.554965138 0.457811654
0.689057112 0.571157217 0.479063928
0.718911529 0.590638638 0.498924613
0.740417063 0.606072009 0.509551048
0.286653996 0.465907365 0.315749764
0.292472988 0.465907365 0.319038361
0.297659367 0.465907365 0.320809364
0.302466542 0.469449520 0.324351519
0.305502921 0.469449818 0.324731380
0.308539152 0.467678428 0.325363815
0.316634744 0.470714688 0.325869739
0.322960019 0.470967740 0.327514023
0.332068115 0.471726835 0.331309199
0.341176271 0.474763215 0.337381750
0.353193760 0.477672368 0.343074203
0.361290544 0.479696631 0.344085813
0.374193728 0.481594086 0.349398762
0.390512019 0.482985705 0.356609464
0.405186385 0.485515386 0.361164153
0.422137976 0.490322381 0.362934917
0.435041338 0.493358403 0.369765729
0.448956281 0.495129615 0.374572754
0.464136750 0.498165786 0.376343966
0.482099771 0.503984749 0.385199398
0.497659385 0.508918345 0.392030507
0.511574626 0.513978481 0.397975981
0.536622286 0.517141342 0.404554009
0.552182198 0.523592830 0.411385030
0.570398331 0.534977734 0.423529595
0.593927681 0.544592083 0.434282035
0.623023093 0.555977464 0.447817743
0.645793855 0.566603780 0.461479932
0.674636662 0.584440351 0.481214166
0.704996645 0.595698714 0.496014982
0.735609889 0.613029599 0.520682752
0.760657370 0.630107760 0.548766792
0.317014456 0.495508701 0.344591975
0.323086470 0.499304205 0.345730364
0.325363457 0.497406483 0.352308452
0.331435472 0.497406483 0.351043284
0.334345281 0.499810278 0.353194088
0.334345669 0.499810278 0.356230468
0.348134130 0.499936789 0.356230468
0.353953153 0.502972782 0.357874751
0.359772205 0.503225744 0.360910565
0.367741972 0.505123436 0.365844697
0.377861738 0.508159578 0.371916711
0.391650528 0.511195242 0.377862185
0.398861647 0.513092995 0.378620803
0.412270457 0.513346016 0.382415801
0.425806135 0.516382039 0.388488561
0.441492587 0.518026471 0.394054651
0.458191156 0.522580326 0.398608446
0.471347302 0.523592353 0.404680461
0.486527741 0.526628733 0.407210469
0.500695765 0.532447755 0.411764830
0.517014503 0.536622465 0.415180475
0.531182468 0.542694449 0.424288601
0.553447008 0.546742678 0.429221720
0.570398629 0.552814722 0.435293764
0.587855697 0.559645712 0.445920318
