Assets/Resources/EldamarStudio/100 Horror LUTs Pack/LUTs/cube/Selen LUT.cube
LUT_3D_SIZE 8
DOMAIN_MIN 0.000000 0.000000 0.000000
DOMAIN_MAX 0.903226 0.903226 0.903226
0.070588000 0.078431003 0.074510001
0.074889451 0.081973456 0.078431003
0.095636003 0.078431003 0.075268902
0.153067634 0.084629998 0.083491646
0.242631376 0.108032994 0.110436186
0.344465464 0.144844994 0.141049996
0.465907544 0.195699275 0.195699275
0.587349653 0.270967782 0.269575775
0.070588000 0.090575546 0.074889451
0.079569548 0.087413445 0.074889451
0.113599092 0.096015446 0.089816548
0.169133186 0.108918093 0.096015349
0.246679187 0.133080095 0.118658833
0.350410730 0.169892475 0.155091807
0.469702542 0.220493242 0.206325024
0.585705221 0.289563358 0.266413808
0.085389003 0.151170194 0.107274093
0.103731640 0.151549652 0.108918093
0.147248194 0.159013197 0.122200996
0.200885639 0.171537012 0.131562084
0.278684288 0.200506091 0.152688190
0.381024718 0.233270183 0.192536175
0.481720477 0.279570103 0.237950459
0.601770759 0.343959689 0.308665216
0.141809002 0.245540634 0.159772292
0.162175998 0.252245277 0.165717751
0.196584180 0.254016727 0.170651287
0.251739621 0.271347642 0.182795629
0.333333611 0.293991029 0.211511984
0.412270725 0.320177168 0.245414630
0.506261945 0.358886898 0.286021620
0.614168048 0.419481218 0.362302244
0.216951385 0.369639188 0.234155178
0.224288732 0.380012274 0.246299729
0.263124377 0.381404191 0.252878189
0.312839746 0.389247179 0.268564194
0.385325581 0.409740567 0.289689988
0.458191156 0.428842634 0.319797635
0.540417373 0.458950192 0.363187462
0.639848113 0.507527173 0.422138155
0.317014456 0.495508701 0.344591975
0.334345281 0.499810278 0.353194088
0.359772205 0.503225744 0.360910565
0.398861647 0.513092995 0.378620803
0.458191156 0.522580326 0.398608446
0.517014503 0.536622465 0.415180475
0.587855697 0.559645712 0.445920318
0.685262620 0.603794932 0.498671532
0.440101266 0.628969312 0.457431972
0.451739728 0.630866528 0.469070554
0.471347570 0.633649349 0.473497748
0.502339900 0.637950897 0.491713971
0.544971347 0.648450375 0.502593279
0.595319271 0.655787289 0.514231682
0.653130829 0.675015569 0.544971585
0.727767348 0.699557304 0.586337507
0.588867724 0.780897915 0.625426590
0.610878944 0.781151056 0.627324462
0.616318762 0.784819603 0.629474699
0.644402385 0.783301413 0.635420740
0.683617949 0.791271627 0.647438407
0.715243459 0.801770747 0.665022016
0.765338242 0.816824615 0.686147809
0.812397420 0.826691747 0.703858554
0.078051552 0.085515901 0.082732551
0.078431003 0.078431003 0.079190098
0.099936552 0.082732551 0.087413445
0.157369092 0.092473000 0.104237899
0.233775929 0.115496635 0.130423531
0.336495459 0.156989440 0.167868733
0.459961832 0.201644540 0.214927539
0.582162738 0.273877352 0.284756631
0.078051552 0.080328546 0.079569548
0.084250547 0.085009545 0.077545993
0.107653543 0.097533539 0.100316092
0.162808195 0.111195184 0.111574635
0.242758185 0.141049907 0.141429350
0.344085813 0.176596835 0.181277543
0.460088730 0.226944983 0.221125826
0.576723516 0.291460872 0.286654174
0.093232095 0.146489203 0.118658639
0.110436186 0.154712453 0.129285082
0.140543655 0.153067648 0.119291641
0.195699081 0.173055112 0.146868750
0.274004102 0.201644644 0.173814178
0.370018899 0.235673562 0.204806834
0.481214732 0.283365279 0.257052600
0.591271639 0.350537628 0.325996101
0.140164196 0.242251635 0.179000542
0.156609908 0.245794073 0.180139199
0.194940075 0.252878189 0.189879730
0.249335840 0.265780926 0.202403545
0.319038838 0.289690256 0.218343079
0.407590032 0.318659186 0.258317471
0.506767929 0.363314182 0.307653278
0.615559459 0.421252459 0.371157289
0.212903380 0.372169197 0.251106739
0.234029189 0.369259924 0.258823723
0.269070417 0.377482474 0.266287088
0.314484626 0.389626831 0.281214178
0.384946018 0.401012182 0.303352624
0.451866090 0.424161822 0.332700640
0.540544271 0.457431972 0.371284157
0.643010616 0.510563135 0.433017164
0.319291264 0.491840273 0.359392673
0.329917908 0.492219806 0.355091542
0.356356472 0.497280389 0.364705563
0.397849381 0.506768048 0.376976728
0.452245533 0.514990628 0.397849262
0.513472557 0.531688452 0.419734448
0.579633117 0.557621539 0.450727612
0.680834770 0.607716620 0.506514788
0.437571287 0.623402536 0.469702512
0.451612830 0.625426829 0.474130124
0.467679024 0.631625473 0.479190469
0.499557257 0.637444854 0.494117379
0.544339061 0.646426201 0.506261826
0.595951676 0.658190966 0.523465872
0.653383791 0.676280856 0.549145997
0.730297327 0.705882370 0.591777265
0.595066130 0.766350150 0.621758342
0.602277040 0.771916449 0.614168167
0.616065860 0.774193108 0.625679851
0.638709664 0.779126644 0.638330221
0.670082271 0.791397750 0.648197412
0.715243459 0.799240768 0.659961641
0.759898782 0.808728516 0.682352901
0.809740543 0.821885049 0.713472188
0.072105996 0.075268902 0.095509090
0.082732551 0.078051552 0.105376549
0.104237907 0.082353003 0.112839997
0.163693994 0.099177644 0.131182730
0.240354270 0.125363901 0.167489186
0.344085723 0.166856289 0.209867075
0.461227089 0.215307087 0.260088563
0.579379916 0.293358624 0.322833717
0.074889451 0.088931441 0.109297641
0.079063997 0.087792896 0.110815637
0.124605000 0.104996994 0.129285082
0.175078645 0.121442094 0.151170090
0.256167084 0.150790647 0.185325637
0.356356561 0.194307193 0.223276272
0.468311369 0.241619438 0.269702792
0.580265641 0.308791608 0.335483909
0.097153999 0.153574005 0.153573990
0.121948458 0.164579198 0.169765636
0.161416993 0.178621188 0.175458267
0.216951191 0.191904098 0.197849542
0.292093396 0.215433195 0.216951191
0.386970401 0.250601083 0.250853926
0.480835259 0.294370443 0.295888662
0.593295336 0.359771907 0.361163914
0.153574005 0.260088265 0.211764634
0.176723540 0.266414076 0.220873088
0.211891547 0.276913553 0.236938730
0.262365282 0.285894990 0.245161265
0.334851414 0.306641519 0.267805278
0.414674103 0.333965719 0.300189823
0.510309815 0.375079274 0.341303051
0.610373199 0.428589672 0.400000066
0.230993077 0.382289410 0.294370294
0.248197377 0.388108730 0.303605437
0.275648266 0.390132993 0.304617286
0.324984193 0.398735076 0.319164813
0.390133202 0.407337368 0.334598184
0.454269350 0.432005018 0.358633548
0.538899362 0.462871730 0.399367452
0.644149005 0.514105022 0.456672966
0.340164632 0.505376458 0.397469729
0.348513365 0.500569403 0.397469729
0.370777786 0.506008983 0.395572364
0.408096254 0.513092995 0.411258370
0.459203094 0.526881754 0.421884835
0.511954606 0.536116123 0.438583493
0.589373887 0.563946724 0.473118365
0.684882760 0.608981788 0.521188915
0.443896532 0.629728198 0.485515565
0.456546277 0.634788215 0.497406483
0.475268573 0.633649349 0.500316381
0.503858209 0.639215648 0.508159518
0.544212461 0.650094688 0.520809352
0.595951557 0.661859572 0.538646460
0.651612818 0.675142467 0.563061357
0.733839393 0.706767917 0.604806900
0.592789471 0.776723742 0.633523047
0.603794813 0.783301592 0.630992889
0.615180612 0.779000700 0.642884493
0.643896341 0.786717355 0.650600910
0.678051770 0.793421686 0.660847366
0.715875864 0.799746692 0.675521731
0.759645820 0.811385274 0.697153687
0.814041674 0.827450812 0.728020489
0.070588000 0.080076002 0.159266636
0.084629998 0.078431003 0.160784632
0.117520288 0.084250547 0.173434541
0.165970996 0.101454638 0.182795644
0.244276181 0.128399804 0.216571644
0.339658380 0.169639632 0.256167084
0.459202915 0.219228283 0.306641638
0.579506636 0.303352326 0.367741823
0.071726546 0.097533450 0.160405084
0.089690343 0.099810541 0.166603193
0.124857545 0.111195184 0.184313729
0.176091194 0.128399909 0.196837544
0.248071074 0.155092001 0.221125722
0.347122014 0.191018283 0.264642388
0.465022355 0.245414332 0.317520618
0.578241765 0.318911880 0.378241539
0.102213740 0.161669746 0.206704378
0.118532538 0.169512659 0.210878819
0.154206112 0.177735373 0.225553364
0.218469173 0.194181100 0.242378622
0.290069729 0.219228089 0.261480182
0.382163078 0.252878070 0.300189734
0.483238548 0.310056865 0.350790471
0.586590588 0.372296125 0.405186534
0.146362990 0.252878278 0.257937908
0.171916634 0.255914271 0.269702643
0.211891443 0.274004012 0.284250289
0.278684288 0.298292279 0.310057282
0.346110165 0.321062475 0.323718935
0.423655987 0.343326926 0.349146366
0.511827886 0.385199249 0.391397536
0.611638427 0.440860450 0.446299642
0.235294014 0.377103001 0.342820823
0.254901826 0.385325402 0.341049731
0.287286371 0.392789543 0.357115358
0.341049820 0.408855289 0.371536821
0.397849381 0.417836845 0.388488263
0.462112635 0.443769753 0.407716632
0.541682541 0.472359478 0.440986574
0.638962865 0.522201359 0.484376818
0.342188388 0.500063002 0.425173998
0.356230259 0.502466857 0.426945090
0.381024837 0.507147670 0.440986454
0.418216288 0.515370011 0.448070973
0.463504255 0.526754975 0.456167012
0.525237024 0.541682601 0.475015730
0.592536211 0.567109287 0.502466738
0.687159896 0.612144411 0.550411344
0.450221270 0.630613267 0.520809293
0.456799716 0.633143663 0.525363564
0.477672428 0.632384598 0.528146923
0.507400572 0.639595211 0.533712626
0.548134267 0.650094748 0.543832898
0.600632250 0.662998140 0.562934875
0.660468221 0.678937554 0.585958242
0.739152253 0.714231193 0.626692057
0.596710742 0.772675455 0.649082780
0.603036165 0.769639492 0.643390238
0.615433335 0.778494537 0.649462461
0.643137217 0.785958230 0.659961879
0.673497975 0.788614810 0.670082331
0.711954296 0.800505579 0.682732582
0.762175739 0.811385393 0.706641018
0.818975568 0.829601586 0.732953548
0.061227195 0.082353003 0.251359999
0.082732357 0.080328740 0.253763199
0.137255013 0.092473090 0.257685006
0.193927646 0.112460442 0.270967990
0.264642566 0.139405385 0.289689988
0.347501457 0.175837919 0.322327435
0.458823264 0.229475081 0.365591258
0.582036555 0.307653159 0.424667776
0.079190098 0.113219343 0.258570403
0.103858545 0.116002090 0.256419927
0.144086003 0.126122907 0.270209104
0.207590088 0.146616101 0.283238530
0.271727145 0.164958552 0.297153831
0.359392464 0.198481828 0.327640742
0.465654552 0.253257602 0.372801989
0.582669139 0.324857563 0.428336352
0.112081096 0.180265903 0.288298309
0.135989755 0.184060991 0.295382977
0.170018896 0.193548292 0.300063282
0.229854628 0.205565929 0.310183376
0.303225994 0.225553274 0.328146487
0.385452181 0.259203166 0.353573620
0.487286389 0.312460274 0.402656257
0.588235021 0.377735674 0.457684994
0.166856289 0.272612184 0.332447618
0.188108906 0.279696316 0.342314988
0.221631989 0.287413180 0.346995443
0.281973273 0.307400405 0.363061607
0.349272460 0.325363606 0.381783634
0.426059455 0.353573829 0.408855259
0.512207448 0.392283350 0.439721823
0.618469357 0.441239893 0.480834991
0.240480989 0.384693384 0.389247179
0.257558286 0.394940197 0.396837622
0.295256287 0.397976190 0.405692488
0.354079366 0.414421380 0.426565528
0.419101954 0.441113204 0.445667386
0.479316980 0.459076345 0.464136600
0.557621777 0.485768199 0.489690155
0.652624786 0.527387857 0.530297339
0.347248733 0.499430746 0.470841169
0.361796260 0.501707733 0.471979916
0.384566575 0.508032680 0.472106546
0.424668074 0.521695197 0.483238488
0.476407379 0.542188227 0.505250156
0.529158890 0.557748258 0.521062493
0.605692446 0.581657112 0.547627985
0.695002854 0.619607806 0.589373946
0.448703557 0.630487084 0.550537467
0.462871373 0.632131517 0.551043570
0.475268751 0.639974713 0.560025215
0.510183632 0.648197234 0.568247855
0.556736410 0.659582615 0.585072517
0.602530003 0.669197083 0.597469687
0.664136767 0.685135603 0.617710173
0.745097756 0.718153000 0.654269040
0.588994205 0.777861893 0.670082152
0.598861635 0.775837958 0.675015688
0.614041507 0.779632747 0.673877239
0.640100956 0.785705209 0.686400771
0.669449806 0.790006459 0.693990946
0.714104712 0.803668499 0.709171295
0.764832139 0.816065669 0.727893770
0.817583621 0.831245959 0.748134136
0.068690740 0.088172257 0.363946468
0.099051446 0.098292448 0.368627459
0.151802465 0.110056832 0.376470566
0.220366731 0.129664734 0.378494829
0.295129478 0.156230450 0.391144902
0.379633456 0.193801731 0.413029730
0.471473843 0.238709271 0.438203722
0.581530690 0.311954677 0.488045543
0.081973359 0.130803093 0.359645724
0.114863731 0.134598076 0.363693446
0.162808284 0.145350829 0.376217544
0.230486810 0.158507541 0.383934021
0.299303919 0.183175087 0.394939929
0.384566486 0.216824979 0.417457283
0.466793060 0.262239069 0.435799927
0.584566474 0.332700431 0.496141613
0.118912086 0.209108099 0.396837562
0.146868825 0.206957743 0.394433677
0.189500093 0.211637929 0.399114460
0.249335721 0.225806713 0.405186743
0.324098676 0.249335811 0.418595850
0.404048085 0.279949665 0.435799927
0.489437073 0.318659097 0.465654641
0.594433725 0.380518734 0.508918405
0.176976725 0.296268106 0.422390819
0.195951819 0.298545033 0.421631932
0.240986452 0.307653397 0.430613369
0.296647370 0.323339283 0.437697470
0.362555176 0.340544075 0.451107085
0.430992991 0.364073277 0.465654641
0.513725400 0.397090286 0.492599368
0.622137725 0.447564811 0.545856953
0.270588368 0.401011974 0.475268930
0.285768479 0.404807359 0.468311280
0.313219279 0.417077839 0.472359180
0.358760148 0.425300300 0.479696512
0.417077720 0.440986663 0.493358672
0.475648046 0.459455937 0.512713611
0.556103706 0.482099742 0.535104275
0.655028403 0.522454083 0.579759657
0.360404968 0.507147670 0.511195719
0.367235988 0.510563195 0.518785536
0.389626741 0.516887963 0.524731457
0.427577466 0.529917896 0.538772464
0.477925181 0.543579996 0.553826690
0.546362758 0.567868471 0.573940754
0.621125519 0.590385735 0.599746943
0.702593505 0.621125519 0.622011483
0.448323846 0.628969312 0.593548417
0.456166834 0.634028912 0.588362038
0.477292806 0.637191832 0.598861575
0.507779837 0.646299541 0.608981848
0.559139729 0.657684982 0.618975282
0.614927292 0.679190278 0.637571454
0.673118293 0.693611503 0.659709334
0.757748365 0.726249218 0.694623530
0.581277668 0.774446607 0.701454699
0.594939768 0.774319887 0.702593386
0.604680419 0.778494358 0.704996765
0.630233765 0.783428192 0.710689366
0.665907919 0.795319259 0.715876043
0.712586641 0.800505579 0.725742817
0.764326513 0.818089783 0.750663877
0.824288428 0.837191582 0.778494358
0.076154292 0.118279576 0.503478825
0.117267258 0.126502439 0.505502999
0.184187099 0.137001798 0.505882442
0.252371907 0.158127710 0.510815918
0.332700670 0.188614979 0.516761482
0.419986993 0.222643733 0.523465812
0.505755544 0.273118585 0.544339001
0.591524065 0.331561804 0.558507204
0.099556997 0.153826833 0.501328051
0.129791260 0.161290288 0.501707494
0.187602833 0.169892281 0.505882561
0.263377637 0.189879745 0.511701703
0.341303200 0.214421272 0.524351656
0.424288481 0.254775643 0.532447696
0.509044826 0.301707506 0.543959260
0.593927920 0.349905342 0.570398271
0.141809002 0.227830380 0.509804070
0.164199904 0.236812115 0.510689437
0.212903291 0.241872087 0.516129255
0.282985628 0.260341763 0.523086309
0.361037254 0.281846970 0.529411435
0.442125231 0.312713653 0.540796995
0.519165039 0.347501636 0.558380604
0.603289068 0.390006065 0.578621089
0.209234625 0.331309289 0.532700896
0.229601637 0.331182480 0.536116064
0.269196659 0.339405417 0.535230815
0.327387542 0.348766625 0.537634194
0.395445883 0.367994964 0.548134148
0.464769185 0.392283291 0.562302530
0.547754645 0.422138005 0.580265582
0.632131398 0.452245623 0.604048252
0.297406673 0.429854661 0.560531437
0.309171468 0.440607101 0.562681854
0.335357249 0.441745758 0.565464735
0.376596749 0.444528848 0.567741513
0.434029073 0.455913961 0.579506695
0.500695884 0.477419615 0.594307303
0.575585008 0.496521473 0.612523556
0.662112832 0.526628733 0.636685610
0.372422457 0.537761033 0.605186582
0.384566575 0.541303039 0.606578171
0.407842845 0.545477450 0.606578052
0.441366017 0.550410748 0.612903118
0.489183813 0.558886826 0.626312613
0.546742260 0.574193239 0.638456821
0.621884525 0.596458018 0.652498484
0.705629230 0.619860768 0.679063797
0.468817264 0.645287812 0.661606848
0.471094549 0.643643558 0.651612520
0.490828454 0.646805644 0.660088599
0.519165218 0.657052279 0.666034222
0.562302470 0.670335412 0.675015569
0.619607747 0.687666297 0.688045740
0.692346275 0.715876281 0.715876222
0.767615378 0.739784718 0.738519549
0.592662573 0.776343763 0.735990047
0.594560504 0.774952233 0.740037858
0.603541613 0.780518472 0.739784837
0.632384539 0.784313798 0.751802742
0.666034102 0.793548346 0.760151982
0.710183263 0.807590008 0.769765913
0.771790028 0.824667633 0.788235068
0.834155321 0.843010783 0.808222651
0.112713799 0.164958954 0.669955552
0.150158063 0.167868525 0.665022135
0.220999226 0.183427796 0.668058336
0.298165649 0.205059960 0.671473801
0.389753371 0.244149342 0.670967817
0.481593698 0.287033558 0.677166522
0.577608943 0.338393092 0.691334605
0.663377404 0.391271621 0.699936569
0.125743151 0.200885341 0.665022373
0.168248072 0.207337350 0.668944001
0.224541172 0.216698349 0.668058336
0.307147443 0.238203689 0.667299449
0.397217005 0.272991538 0.671853244
0.489563793 0.314104825 0.682226300
0.581910312 0.359645516 0.691587448
0.669955552 0.403542191 0.699051321
0.181277648 0.280076057 0.662492335
0.212903276 0.280961156 0.672865152
0.258191049 0.293738186 0.670588374
0.332827091 0.309044987 0.676407576
0.413156271 0.332067966 0.675648391
0.501328349 0.368247777 0.684629917
0.590132833 0.406704813 0.698797941
0.670841455 0.439974636 0.708159387
0.242504433 0.376597255 0.674889386
0.268437535 0.377735615 0.679316580
0.309930444 0.385072649 0.679190457
0.368753970 0.398482263 0.681467175
0.443137437 0.417963237 0.692093253
0.521441996 0.436559200 0.696520865
0.605565846 0.466160834 0.710563064
0.688045382 0.497912467 0.720809758
0.320429802 0.476534009 0.692093611
0.329791397 0.479316980 0.694244027
0.353194177 0.477672368 0.699683845
0.402909547 0.482479364 0.697279751
0.475015789 0.493611991 0.703099072
0.544085741 0.514484227 0.712966144
0.623529375 0.536875010 0.722074389
0.708538592 0.563693702 0.736116111
0.411385298 0.589120805 0.718658864
0.418722451 0.589247227 0.727514148
0.433902681 0.586843669 0.727008224
0.462618351 0.587855816 0.724478126
0.509677529 0.585452020 0.726628661
0.579886258 0.598861694 0.737634599
0.652245522 0.619607985 0.748387218
0.733586252 0.644149244 0.765970588
0.509045064 0.696521103 0.752308547
0.516002476 0.696394384 0.761670053
0.535610259 0.694623351 0.762049198
0.554965258 0.699304461 0.761669874
0.592662811 0.707906544 0.767235994
0.642630935 0.710942745 0.775711179
0.701960683 0.726376057 0.791398048
0.779126942 0.748386800 0.807084024
0.616318762 0.797975540 0.801517844
0.624921024 0.798734605 0.815812826
0.627577364 0.800126433 0.803415596
0.647691369 0.803288579 0.807083726
0.680961370 0.809740603 0.816445231
0.725743234 0.820746541 0.827197731
0.779126883 0.838077188 0.840354443
0.848956585 0.864642560 0.868564546
