Assets/Resources/EldamarStudio/100 Horror LUTs Pack/LUTs/cube/Senexen LUT.cube
DOMAIN_MIN 0 0 0
DOMAIN_MAX 1 1 1
LUT_3D_SIZE 32
0.078431003 0.050980002 0.011765000
0.078431003 0.054016385 0.008728613
0.082732551 0.054901998 0.009993774
0.091334999 0.054901998 0.010499839
0.104237996 0.055281546 0.008981547
0.122453995 0.058317933 0.018089935
0.140670642 0.061353676 0.019608000
0.157242283 0.061100710 0.017963292
0.173181191 0.058823999 0.017203998
0.191397980 0.058823995 0.023275999
0.215433002 0.055914126 0.020619871
0.233649254 0.054901998 0.017583745
0.253383636 0.056040641 0.014547646
0.280202031 0.058570966 0.011511968
0.301454395 0.055534583 0.008475584
0.329917580 0.057305802 0.005439809
0.361796170 0.060341805 0.005439805
0.394560128 0.063377574 0.007843001
0.424920976 0.066413976 0.007843004
0.449715734 0.069449648 0.010626357
0.477798998 0.074382998 0.009867260
0.510183275 0.080455258 0.009866998
0.546995521 0.086401477 0.015559520
0.592536747 0.089437097 0.012523903
0.631245971 0.097027287 0.016318996
0.671852946 0.103352316 0.022390990
0.717394054 0.107400060 0.027957063
0.762934387 0.116508439 0.030993450
0.811132252 0.130929813 0.039342143
0.861480057 0.144338965 0.053763397
0.912207127 0.157368585 0.067552380
0.960784018 0.172548994 0.070588000
0.081467390 0.050980002 0.011765000
0.075395390 0.057052772 0.014800613
0.086148165 0.055787612 0.009614000
0.093611836 0.056167159 0.012523774
0.101581156 0.058317836 0.015433388
0.122453995 0.061353546 0.005945936
0.135609999 0.061859611 0.017584000
0.156103626 0.066033997 0.017963292
0.176217392 0.066413619 0.016445097
0.194433600 0.061859615 0.020240387
0.215559483 0.067678608 0.020493386
0.239721507 0.067046002 0.013535747
0.262492031 0.065907642 0.009614000
0.289563447 0.064642966 0.008728613
0.313599169 0.061606582 0.008475584
0.337254763 0.063377798 0.010246804
0.364832193 0.064895995 0.009994000
0.393295139 0.067678794 0.009614398
0.418848962 0.075521596 0.004807397
0.449209750 0.081341326 0.013156036
0.477798998 0.082732774 0.016698353
0.510183275 0.086527772 0.016951386
0.546742499 0.092473477 0.018848866
0.586463928 0.095509097 0.021631517
0.634282351 0.103099279 0.023149900
0.676533699 0.112207666 0.024288328
0.719923735 0.119038768 0.024414614
0.762934387 0.125616819 0.024920676
0.811132252 0.137381360 0.035926878
0.857938111 0.152182177 0.043643367
0.905249774 0.165591374 0.060341790
0.951676428 0.178620994 0.082732774
0.088804774 0.057431772 0.011765000
0.087033778 0.059202999 0.012650387
0.083112001 0.063124999 0.013535774
0.095762387 0.061353773 0.008728613
0.102466770 0.063504450 0.014294773
0.121947929 0.066540062 0.014548001
0.142061770 0.064895771 0.011891223
0.155850470 0.066540062 0.015812937
0.177862093 0.071347095 0.014294676
0.197469786 0.069449775 0.017330708
0.214294642 0.070714772 0.015307001
0.239595026 0.072738774 0.015307001
0.262871653 0.072738774 0.009993774
0.288172036 0.071220972 0.009740742
0.314358026 0.071979582 0.007843000
0.336495966 0.069449805 0.010246804
0.362302184 0.074004002 0.014800997
0.390891522 0.076533988 0.014801010
0.419734210 0.084123813 0.008729005
0.451739728 0.088298716 0.012270652
0.483997732 0.092473261 0.015686000
0.513598919 0.094750218 0.018469354
0.546616018 0.100822218 0.019734479
0.584060669 0.105882101 0.022770097
0.623908579 0.111322060 0.023655513
0.672485769 0.119038761 0.026691897
0.717520118 0.127893999 0.026185839
0.763313830 0.137254998 0.027830549
0.815433264 0.144338965 0.034155652
0.864010334 0.160025388 0.048071180
0.909044981 0.174699754 0.058823746
0.953320980 0.186843768 0.084124222
0.094117999 0.069070160 0.010499839
0.099177994 0.069070160 0.014295000
0.102087542 0.068690613 0.007969839
0.099051155 0.071727000 0.015559838
0.108159542 0.071347453 0.012143999
0.123719156 0.072612062 0.016824774
0.146995485 0.073118322 0.017077677
0.164958864 0.073371612 0.015306550
0.180139259 0.074889228 0.010752939
0.200379670 0.076913483 0.011764678
0.218343034 0.078305162 0.012776872
0.240354240 0.078305162 0.011765000
0.265401661 0.079443514 0.012903354
0.286654055 0.079569995 0.012776871
0.311954409 0.081593744 0.009740746
0.333206624 0.083617806 0.011511642
0.361290187 0.081341162 0.012270998
0.389247119 0.088045575 0.018342992
0.422011167 0.094750002 0.014801001
0.452877909 0.098039351 0.014547647
0.485009730 0.099810421 0.015686000
0.519418299 0.103858158 0.016698128
0.547881126 0.110056661 0.019608000
0.584313631 0.117267326 0.021505259
0.624288201 0.123339571 0.022264162
0.662871301 0.130677149 0.024920672
0.712460160 0.136749148 0.027450999
0.762554824 0.147375152 0.029728288
0.815180063 0.158001319 0.037950825
0.865022361 0.168627396 0.050601177
0.912713587 0.186843961 0.065781586
0.955597818 0.199746996 0.083618164
0.097153999 0.083491549 0.008222548
0.109297998 0.083491549 0.015812838
0.117394224 0.082479320 0.009993774
0.122960389 0.081214160 0.006451548
0.120683089 0.083112001 0.022011001
0.129791468 0.080075614 0.015939001
0.152561769 0.082479320 0.016065547
0.172549158 0.085515708 0.014927001
0.187729552 0.087033898 0.013788550
0.202909961 0.083997518 0.004680939
0.223909318 0.086780861 0.009741000
0.247185513 0.087792993 0.011765000
0.270714641 0.088551894 0.012903354
0.291461021 0.091587514 0.015939033
0.312460393 0.091713995 0.013156421
0.332827091 0.095761992 0.014168192
0.359392375 0.098418646 0.014547647
0.393801123 0.097153954 0.011891444
0.424161971 0.106261581 0.017963452
0.452118933 0.110942349 0.016824642
0.481720477 0.112460546 0.015686000
0.513725698 0.114104994 0.016318580
0.550284922 0.120177016 0.019228453
0.586969972 0.129032448 0.019228453
0.627956510 0.135863543 0.020367000
0.669196308 0.142947659 0.022390990
0.707147121 0.151929542 0.027830547
0.761795819 0.158001542 0.027830547
0.813408971 0.171284258 0.038076974
0.861479998 0.185452506 0.053383850
0.906641543 0.198228970 0.070715040
0.952181995 0.216444999 0.085895449
0.121441990 0.092599936 0.011258936
0.133586004 0.092599936 0.008222548
0.132826984 0.096900940 0.011511840
0.135610223 0.097659707 0.010246934
0.141935483 0.095256001 0.012903390
0.144971862 0.089184001 0.009867001
0.159139603 0.093737938 0.016445322
0.173054755 0.097659707 0.014168230
0.184693158 0.099177904 0.008855000
0.199873567 0.096141517 0.007716550
0.220872924 0.098924868 0.010246935
0.244149551 0.099936999 0.011765000
0.268437922 0.099936999 0.012903354
0.291461021 0.100695908 0.015939033
0.306641400 0.103731513 0.018975416
0.334851593 0.103857994 0.016192196
0.363187879 0.107905999 0.015686000
0.393295139 0.111827642 0.013915073
0.418089956 0.115369976 0.008855073
0.448450744 0.127260938 0.014927069
0.480202645 0.132194728 0.015686000
0.513093114 0.134724796 0.015686000
0.547248542 0.138393015 0.016192066
0.586716950 0.144465804 0.016192066
0.627956510 0.151043937 0.023023348
0.673244238 0.157115921 0.026438998
0.718785107 0.164200068 0.027957063
0.761795819 0.173181921 0.030866936
0.811132252 0.181910068 0.038836081
0.858444035 0.197343469 0.051992178
0.903099239 0.211891308 0.067678653
0.946110010 0.222516999 0.082859069
0.145730644 0.109297998 0.011765000
0.147754639 0.109297998 0.011258936
0.153446868 0.111448772 0.012523548
0.152308494 0.113346159 0.014294676
0.158507332 0.110689320 0.013915226
0.163693935 0.108918317 0.010879387
0.166730314 0.105375998 0.010373322
0.180265635 0.108158998 0.016192291
0.190259412 0.111068867 0.012902997
0.201897815 0.113346159 0.012902996
0.220366865 0.116128862 0.005692871
0.243643492 0.115117259 0.010752997
0.266793638 0.115749672 0.012903354
0.289943337 0.117140993 0.015939033
0.314231724 0.117899895 0.018975416
0.336622298 0.120936118 0.017204195
0.366730064 0.124098636 0.017204192
0.395825267 0.130803213 0.018216323
0.420113653 0.137634605 0.015939329
0.447438747 0.138899654 0.020999324
0.479696721 0.145350903 0.023276320
0.514105260 0.150411129 0.023276320
0.549272835 0.156609640 0.023023328
0.588741243 0.162681803 0.018216323
0.632764161 0.171031281 0.018216323
0.676913261 0.175964639 0.026565664
0.724351406 0.181910127 0.029981323
0.770904124 0.193042770 0.030993450
0.816192269 0.204680771 0.039342143
0.861227334 0.215559602 0.051992178
0.906008899 0.232258201 0.070714571
0.950158000 0.246299952 0.092473000
0.165085703 0.124224991 0.013409289
0.161796287 0.124224991 0.011765000
0.170524925 0.126375765 0.012270938
0.168500870 0.129411831 0.014041712
0.171916708 0.127513990 0.014800712
0.183048695 0.127513990 0.015559934
0.188235313 0.123339377 0.008476003
0.186337993 0.123592407 0.010120291
0.197723091 0.123592407 0.013156099
0.206831500 0.127893969 0.014041709
0.223023713 0.131056115 0.011891158
0.243643492 0.130044252 0.009614284
0.266793638 0.130423993 0.012270935
0.288298994 0.133459657 0.014041712
0.314231694 0.132067993 0.015686419
0.342441678 0.136116505 0.017204195
0.368247896 0.140670687 0.015686000
0.396584541 0.146110117 0.019228281
0.419860750 0.153194264 0.021252289
0.448577076 0.158886984 0.020240299
0.481341034 0.159139961 0.024162002
0.516761661 0.164199829 0.024162002
0.553826988 0.173308179 0.024414994
0.591777682 0.180897996 0.024414994
0.635800123 0.187602982 0.026185993
0.679949582 0.196711004 0.027577668
0.725237191 0.201770827 0.035673995
0.772675574 0.213915586 0.037950993
0.820240438 0.224414974 0.045920555
0.864010334 0.236559361 0.056925885
0.909171522 0.249588758 0.075648278
0.956229985 0.267046273 0.102972701
0.179507002 0.138646096 0.015685998
0.175711319 0.138646096 0.011891291
0.183174863 0.140037775 0.010247001
0.190512165 0.144592032 0.013282998
0.182542995 0.146109655 0.011765000
0.198481992 0.144971102 0.015560003
0.208095998 0.141429096 0.012523998
0.208349094 0.138772815 0.007084287
0.206072181 0.140291005 0.009360999
0.215180591 0.140291005 0.012397389
0.229348868 0.142441213 0.015433225
0.248577237 0.142947361 0.017203998
0.268311620 0.142568007 0.015306548
0.289816976 0.148134008 0.012270936
0.314104974 0.145603687 0.011765001
0.341682583 0.149019614 0.012650195
0.370525181 0.155851081 0.017203998
0.397849530 0.161923081 0.017203998
0.419355005 0.165085256 0.023022996
0.450474739 0.173687369 0.020240091
0.483871102 0.177862093 0.018342644
0.519797266 0.180139124 0.019608002
0.559392869 0.189120993 0.019860994
0.597090721 0.197596192 0.025933001
0.639595270 0.205186576 0.031246096
0.685262322 0.213409409 0.036685672
0.727767110 0.222011089 0.040228002
0.773055196 0.233649790 0.046299994
0.821252465 0.245414332 0.057305720
0.863251269 0.257052481 0.066666864
0.909171522 0.269323558 0.083238475
0.960784018 0.284503192 0.110562898
0.191651016 0.159898505 0.015685994
0.194686636 0.159898505 0.009614000
0.201644272 0.159898505 0.005819291
0.207210496 0.163820162 0.009234997
0.206831023 0.170398429 0.017836995
0.206831023 0.161290050 0.005693005
0.217710003 0.160151511 0.014547993
0.221378729 0.158254221 0.017457286
0.221252590 0.155471414 0.015433000
0.230360985 0.152435020 0.015433000
0.242378488 0.152435020 0.018469386
0.260721236 0.154585764 0.021505222
0.279696614 0.157368869 0.020998999
0.295888990 0.160278022 0.015306549
0.320176989 0.160278022 0.012270944
0.344465584 0.162555307 0.009361204
0.370525181 0.168754205 0.014167997
0.397849530 0.177103490 0.023275997
0.425174028 0.183175519 0.023276003
0.460594773 0.191903636 0.026312355
0.494876742 0.197216749 0.025173744
0.528399646 0.201138496 0.022390649
0.562428474 0.207337007 0.019860998
0.604933321 0.213409007 0.025933005
0.647185087 0.221884787 0.029728290
0.692599237 0.232257992 0.034282476
0.739911139 0.243263498 0.040227998
0.782415867 0.249335498 0.046299998
0.830360055 0.266287148 0.062997967
0.868310869 0.282353133 0.073750503
0.906261683 0.296521455 0.086274095
0.960784018 0.308791965 0.113598526
0.215433002 0.175331876 0.006957873
0.215559483 0.175331876 0.012523869
0.212143868 0.181783646 0.006451871
0.217457160 0.181530744 0.003922000
0.223149881 0.182036877 0.008729002
0.228209868 0.185578793 0.011765001
0.230740190 0.179000735 0.002150679
0.241745740 0.179886028 0.011638126
0.245793864 0.180139005 0.015686000
0.248450488 0.179253384 0.015686000
0.248829991 0.173307866 0.015686000
0.262998253 0.171284124 0.016698129
0.282479644 0.171410874 0.017710000
0.302214026 0.172928736 0.016191998
0.329158843 0.178241745 0.021125549
0.351043642 0.180644944 0.022896931
0.376344204 0.186717197 0.017836679
0.403668553 0.195192993 0.018342577
0.430992991 0.201265022 0.020619875
0.463883370 0.210120365 0.023402520
0.494496822 0.217330739 0.026438870
0.526881397 0.222390860 0.027450997
0.562428474 0.228715852 0.028463351
0.602150679 0.240353867 0.031752001
0.646932125 0.244149163 0.030993294
0.692852259 0.250600845 0.032764319
0.741935194 0.260214925 0.039848190
0.791650712 0.273497730 0.057937987
0.834155440 0.284882694 0.069322973
0.876912951 0.300822169 0.078178219
0.912460208 0.316002578 0.091967039
0.954964995 0.330170870 0.125363737
0.237697244 0.194560245 0.001897744
0.239721507 0.194560245 0.014041996
0.235420510 0.194939762 0.005439744
0.234408498 0.198988155 0.001897744
0.242378250 0.195193261 0.002277292
0.248450249 0.201265261 0.006705004
0.256040573 0.201265246 0.008222675
0.259076536 0.198482245 0.004047996
0.268564165 0.199620411 0.011638004
0.271094501 0.198355258 0.011638004
0.275142491 0.196584240 0.013662260
0.277166247 0.192536503 0.015686000
0.291207969 0.190639243 0.016824644
0.308791757 0.190639243 0.017963223
0.325490147 0.193169251 0.022263994
0.358127773 0.200885445 0.023908548
0.382416189 0.203921437 0.028463129
0.409108132 0.212017819 0.024414923
0.435041279 0.219481513 0.027450960
0.465907365 0.224288359 0.028462902
0.499304205 0.231498986 0.027703997
0.529917479 0.238583118 0.027451001
0.566602945 0.245920241 0.027703991
0.607969463 0.258064270 0.034535099
0.649968266 0.269449770 0.043137025
0.694117308 0.275268793 0.041492734
0.740923166 0.283491313 0.045920052
0.789500296 0.298671693 0.064136423
0.833143592 0.311195225 0.075395234
0.873877108 0.321568429 0.087539218
0.916002154 0.336242825 0.098418564
0.956988990 0.351423264 0.131435737
0.258949637 0.216951281 0.000000000
0.259709030 0.215812638 0.009487746
0.260847628 0.215812638 0.008855226
0.262112617 0.216824800 0.002276998
0.267425627 0.214168638 0.002276998
0.271979630 0.218722641 0.004554288
0.277166307 0.220872998 0.004174679
0.284123927 0.220872998 0.006704646
0.289436847 0.220872998 0.007463548
0.296268612 0.218216151 0.007843001
0.300063640 0.218089640 0.008475873
0.307527006 0.216065899 0.012650386
0.310562640 0.213029996 0.016824644
0.322200716 0.212777033 0.019608000
0.330423683 0.211891636 0.021758225
0.355471253 0.216824830 0.025806289
0.386211187 0.225173831 0.025426742
0.414168119 0.228842616 0.030234357
0.439468980 0.237444952 0.032764040
0.469323277 0.243263930 0.035294000
0.504996538 0.247058630 0.035673741
0.537381649 0.254142761 0.035673998
0.573560655 0.263377637 0.030360285
0.614041448 0.275521636 0.036432546
0.657684863 0.288804591 0.043263637
0.703604937 0.300695926 0.053257290
0.745603859 0.309803694 0.054269288
0.789879918 0.323719054 0.067552082
0.832764208 0.337381244 0.081973463
0.875774741 0.350031465 0.097406596
0.915243208 0.360025257 0.108665235
0.963060975 0.374952644 0.134471640
0.280202031 0.241239995 0.000000000
0.277419388 0.238962635 0.000000000
0.280582041 0.237824067 0.000253032
0.288678020 0.239089161 0.002529999
0.300063044 0.241239995 0.008349000
0.300063044 0.241239995 0.008349000
0.300316006 0.243769750 0.003036033
0.304111093 0.245667070 0.001897676
0.310689241 0.245161071 0.004427935
0.322833985 0.245161071 0.007463547
0.323846012 0.245414034 0.005186839
0.331942022 0.243390292 0.008222964
0.340670466 0.240101427 0.014041998
0.343706071 0.237065032 0.020113999
0.349778831 0.234029412 0.020113999
0.367362797 0.235547230 0.027071768
0.389880002 0.241366193 0.030107841
0.414927155 0.250348061 0.028210033
0.445288002 0.256420046 0.028210038
0.476154685 0.264769375 0.033270039
0.513346016 0.270335287 0.037697740
0.552055299 0.275901169 0.041239999
0.582669020 0.285136014 0.047185481
0.619101822 0.297280014 0.047311965
0.662365794 0.311448336 0.047818031
0.709677637 0.324984014 0.051739659
0.760025203 0.337381124 0.060847998
0.799494267 0.346489489 0.066919990
0.841619551 0.360657841 0.085768789
0.885389090 0.375838190 0.108032957
0.929158568 0.390132993 0.130676657
0.968626976 0.402277023 0.139785066
0.301454395 0.265527993 0.000000000
0.301454395 0.271599978 0.000000000
0.302972764 0.269323170 0.002150774
0.307906389 0.269449651 0.004554254
0.315622956 0.271346956 0.008601999
0.324351817 0.265527993 0.014420994
0.326881468 0.268058300 0.006831318
0.334218800 0.272738814 0.004933705
0.342062235 0.274509817 0.006451675
0.344086349 0.269449800 0.004427940
0.350411385 0.272358924 0.007463550
0.359266400 0.270714641 0.011258573
0.367995054 0.266540408 0.016192222
0.371031195 0.261353791 0.020113999
0.374066800 0.258317381 0.026185993
0.387349784 0.257684976 0.030992988
0.406831175 0.261353403 0.033143774
0.429348558 0.269323140 0.032005407
0.454396397 0.280708790 0.037318412
0.490322441 0.283997446 0.037318412
0.523592830 0.290195972 0.042378411
0.558886945 0.298671514 0.045793995
0.591777444 0.312460393 0.047185481
0.628210247 0.324604392 0.050221100
0.671473682 0.336748958 0.054902151
0.714231491 0.348134100 0.059709400
0.757748485 0.359392524 0.067425989
0.805566311 0.376850247 0.079063982
0.847691596 0.388614804 0.093105793
0.888425112 0.403162569 0.109551176
0.929158568 0.417457372 0.134598583
0.968626976 0.429601401 0.170145810
0.329917580 0.294623584 0.000000000
0.337128401 0.293484777 0.000000000
0.334977627 0.295255780 0.008601999
0.336242795 0.292473137 0.006072187
0.340037793 0.294370621 0.003415553
0.347121924 0.300442606 0.007463812
0.353573471 0.292346299 0.005692520
0.359898478 0.293737978 0.003162904
0.369765997 0.298291981 0.005439809
0.373054981 0.298797965 0.004048484
0.378873974 0.299050897 0.004427938
0.382922232 0.302087039 0.007463548
0.390512407 0.299810141 0.013156002
0.394054770 0.295508981 0.017710194
0.401391387 0.294623345 0.023782190
0.411638379 0.286780596 0.029854806
0.420746386 0.285262406 0.035926804
0.437318146 0.289310366 0.036180001
0.461606979 0.299683928 0.038710009
0.494623840 0.305882424 0.048829991
0.531056285 0.314610779 0.048829991
0.564959109 0.323719025 0.052878123
0.598734975 0.337508053 0.054522790
0.639721811 0.351928800 0.059835702
0.678431273 0.361796051 0.060594603
0.722327232 0.375205636 0.069196977
0.763820350 0.387349665 0.078304991
0.810499847 0.403668672 0.090448983
0.853763580 0.414168566 0.110056788
0.898039043 0.429854512 0.132321134
0.937887192 0.444781750 0.151802555
0.975837767 0.456925780 0.183681190
0.357242376 0.324984372 0.000000000
0.364832580 0.321947992 0.001518192
0.368374407 0.322580576 0.005566002
0.370398343 0.321315408 0.010120003
0.371536911 0.318279654 0.000000000
0.376470566 0.324730992 0.001897743
0.381024390 0.326755255 0.001391678
0.387222886 0.322580576 0.001644708
0.396331280 0.322580576 0.003162904
0.403162390 0.327134579 0.002403809
0.409234375 0.328905374 0.003922000
0.414800435 0.332447439 0.004427935
0.420113832 0.333206832 0.006325195
0.423909187 0.329917580 0.012144197
0.430487156 0.327387571 0.020746190
0.438962787 0.323212981 0.025300225
0.446552992 0.318659186 0.035926804
0.451486349 0.314990371 0.040733807
0.472233146 0.319671154 0.040733818
0.503352404 0.325996161 0.048829816
0.535610497 0.335863173 0.057937995
0.574067295 0.349019319 0.058950122
0.608981669 0.361669958 0.061733484
0.647311807 0.375458270 0.063630812
0.689057469 0.389120460 0.071220800
0.731309175 0.399620503 0.079570122
0.773434401 0.415180385 0.089943185
0.816951275 0.431372613 0.098039180
0.858317435 0.442757815 0.121188983
0.901075065 0.452625126 0.142947331
0.945730150 0.471726775 0.173813745
0.983428001 0.485768378 0.198861182
0.383428544 0.355977535 0.000000000
0.388235539 0.354838699 0.002403811
0.392156780 0.354838729 0.004807235
0.397722691 0.356609941 0.005945577
0.405313104 0.353573531 0.000253028
0.407843471 0.350537181 0.000000000
0.412776798 0.353826612 0.000000000
0.418089718 0.357242525 0.001644708
0.425553232 0.357242525 0.003162905
0.434661627 0.357242525 0.000126518
0.440860122 0.358886659 0.002277295
0.446932107 0.362681538 0.003922000
0.454142749 0.367235750 0.005186990
0.463251084 0.364453107 0.004933958
0.467046380 0.359140098 0.015180420
0.470588535 0.355471283 0.021378778
0.477039903 0.352688104 0.030486772
0.480708122 0.352688104 0.045034569
0.492852926 0.346616089 0.045034576
0.517900169 0.349778533 0.051233146
0.547628045 0.358380526 0.058570307
0.580139279 0.370271683 0.065022126
0.622643948 0.385578543 0.068184987
0.657558501 0.398734719 0.066666655
0.696521163 0.413155824 0.075015552
0.739784956 0.427577287 0.087412745
0.784314096 0.439722061 0.105123483
0.823782384 0.457685113 0.105755977
0.861985743 0.469955534 0.127767354
0.903857887 0.482226312 0.154712141
0.943832755 0.492346555 0.178115129
0.986337602 0.513598979 0.217583567
0.416824996 0.389374018 0.000000000
0.416824996 0.395446032 0.000000000
0.419481218 0.394307226 0.000253034
0.425047159 0.394307226 0.001771163
0.432637572 0.396078438 0.003289420
0.429601967 0.393042058 0.000253033
0.439722031 0.392535985 0.000000000
0.449462682 0.394686759 0.001644707
0.459076941 0.396711022 0.003162902
0.471094489 0.396711022 0.000126520
0.477292985 0.393801153 0.000000004
0.483364999 0.393295020 0.002277290
0.490575612 0.396078289 0.006198996
0.499683976 0.400885999 0.011005962
0.508791566 0.400885999 0.007969581
0.507779896 0.397976190 0.015812829
0.513092995 0.393422008 0.027451154
0.523212969 0.389120996 0.041998953
0.529285014 0.389120966 0.054142978
0.541429758 0.385831624 0.062492330
0.564579725 0.389247030 0.069449939
0.594181120 0.396837145 0.073750973
0.628715992 0.406831026 0.074257009
0.671220839 0.425047815 0.080329023
0.708412528 0.440480620 0.090195984
0.748134255 0.455660641 0.099556975
0.790386081 0.470082134 0.108159110
0.829854429 0.482226908 0.123339489
0.864009798 0.492220134 0.139911667
0.904996574 0.506894410 0.169512883
0.945857167 0.521695375 0.201138228
0.977229953 0.531815052 0.226692006
0.450221390 0.433902383 0.000000000
0.450221390 0.434408396 0.000000000
0.456673175 0.436179399 0.002150774
0.460973948 0.435040742 0.002783357
0.466666460 0.435799956 0.003542452
0.470841646 0.432764173 0.000506065
0.475395739 0.434787780 0.000000000
0.483744740 0.435040742 0.000000000
0.492473364 0.436179399 0.001897739
0.504617393 0.436179399 0.002909873
0.510942400 0.433270246 0.002783357
0.521062374 0.434281826 0.002783357
0.530929685 0.437318027 0.003922000
0.540923774 0.442884743 0.006198995
0.542441666 0.442884743 0.005692936
0.551549315 0.445287943 0.014674342
0.556103587 0.443010956 0.025679994
0.565717757 0.438203961 0.040227778
0.571789801 0.433902383 0.056673363
0.583428502 0.431119740 0.063251361
0.595572770 0.428083360 0.072359249
0.618469477 0.432510883 0.080328777
0.648197353 0.441872239 0.086021513
0.680076182 0.457432210 0.094750367
0.720303595 0.473371655 0.107653648
0.760025322 0.487160057 0.117520705
0.802024007 0.500442743 0.125110775
0.841492414 0.512586892 0.140291154
0.875648499 0.527387857 0.160784513
0.912586808 0.543832898 0.191524476
0.953447223 0.561290383 0.229854271
0.987603009 0.572295785 0.263630390
0.489310473 0.477545470 0.000000000
0.491208196 0.475648195 0.000000000
0.499557227 0.477545470 0.004048030
0.502340436 0.478810638 0.003289257
0.503478646 0.479063690 0.002024260
0.508032858 0.476027668 0.000506065
0.516002715 0.478051901 0.000000000
0.520430446 0.477798522 0.001644708
0.527767479 0.479063451 0.001138644
0.539911509 0.481340438 0.001897744
0.546236455 0.482226342 0.002024260
0.556356490 0.481340945 0.002024260
0.567362130 0.484376848 0.002024260
0.578494728 0.489437431 0.002024260
0.583428502 0.491081715 0.002024260
0.588741422 0.491587639 0.007843254
0.600885391 0.490069449 0.023023643
0.611385167 0.486021757 0.037824295
0.619987190 0.479949296 0.057305947
0.622137725 0.484250546 0.070082262
0.632384717 0.479316711 0.079949722
0.644528687 0.476280600 0.090069473
0.667298973 0.481593937 0.100189716
0.694117844 0.489689887 0.111068897
0.731309235 0.501075268 0.122833528
