Assets/Resources/EldamarStudio/100 Horror LUTs Pack/LUTs/cube/Senexen LUT.cube
LUT_3D_SIZE 8
DOMAIN_MIN 0.000000 0.000000 0.000000
DOMAIN_MAX 0.903226 0.903226 0.903226
0.078431003 0.050980002 0.011765000
0.104237996 0.055281546 0.008981547
0.173181191 0.058823999 0.017203998
0.253383636 0.056040641 0.014547646
0.361796170 0.060341805 0.005439805
0.477798998 0.074382998 0.009867260
0.631245971 0.097027287 0.016318996
0.811132252 0.130929813 0.039342143
0.097153999 0.083491549 0.008222548
0.120683089 0.083112001 0.022011001
0.187729552 0.087033898 0.013788550
0.270714641 0.088551894 0.012903354
0.359392375 0.098418646 0.014547647
0.481720477 0.112460546 0.015686000
0.627956510 0.135863543 0.020367000
0.813408971 0.171284258 0.038076974
0.179507002 0.138646096 0.015685998
0.182542995 0.146109655 0.011765000
0.206072181 0.140291005 0.009360999
0.268311620 0.142568007 0.015306548
0.370525181 0.155851081 0.017203998
0.483871102 0.177862093 0.018342644
0.639595270 0.205186576 0.031246096
0.821252465 0.245414332 0.057305720
0.258949637 0.216951281 0.000000000
0.267425627 0.214168638 0.002276998
0.289436847 0.220872998 0.007463548
0.310562640 0.213029996 0.016824644
0.386211187 0.225173831 0.025426742
0.504996538 0.247058630 0.035673741
0.657684863 0.288804591 0.043263637
0.832764208 0.337381244 0.081973463
0.357242376 0.324984372 0.000000000
0.371536911 0.318279654 0.000000000
0.396331280 0.322580576 0.003162904
0.420113832 0.333206832 0.006325195
0.446552992 0.318659186 0.035926804
0.535610497 0.335863173 0.057937995
0.689057469 0.389120460 0.071220800
0.858317435 0.442757815 0.121188983
0.489310473 0.477545470 0.000000000
0.503478646 0.479063690 0.002024260
0.527767479 0.479063451 0.001138644
0.567362130 0.484376848 0.002024260
0.600885391 0.490069449 0.023023643
0.632384717 0.479316711 0.079949722
0.731309235 0.501075268 0.122833528
0.882099688 0.557748258 0.184693515
0.663251519 0.671726525 0.072991535
0.664010525 0.677419305 0.081593633
0.693611622 0.674889266 0.097406536
0.732700884 0.684629858 0.107653253
0.772928655 0.686527371 0.128146738
0.805566251 0.689436793 0.177356288
0.837444842 0.665528238 0.219101846
0.910183489 0.680455506 0.296268374
0.813662589 0.852877617 0.358001351
0.821252167 0.856040597 0.357115626
0.839341819 0.855660737 0.368627191
0.869576395 0.855281353 0.385325551
0.907020807 0.864769101 0.415812522
0.946615994 0.868311226 0.440733284
0.965717793 0.859709024 0.477419227
0.989879608 0.845034599 0.534598172
0.090575546 0.063124545 0.024667548
0.112080991 0.058823999 0.024288097
0.172042653 0.064263098 0.029728092
0.240101635 0.080328740 0.030486997
0.332068384 0.091713995 0.043137196
0.459455699 0.108918279 0.059835542
0.608096123 0.121442281 0.070588283
0.794180691 0.149525374 0.093485430
0.110183448 0.084250547 0.021125998
0.123845994 0.088551991 0.028968997
0.170778111 0.100316092 0.034029454
0.244781747 0.107779540 0.039974906
0.332827389 0.114357993 0.043010902
0.462238967 0.133586362 0.058317736
0.605439246 0.153826848 0.072738990
0.796584606 0.181910202 0.091967247
0.164199650 0.141050011 0.039342005
0.180265993 0.137887195 0.044402454
0.197849527 0.140670553 0.034029450
0.265275449 0.145730197 0.042252000
0.352435261 0.163693905 0.056799453
0.466666460 0.180898190 0.057811286
0.626312315 0.210246652 0.075901277
0.815433085 0.248071074 0.105755806
0.244402289 0.210246637 0.037065350
0.255408078 0.213029996 0.031625543
0.283618093 0.217330724 0.041872546
0.306641519 0.213029996 0.048070736
0.379506618 0.228336632 0.060215190
0.493358433 0.254522294 0.070841350
0.642757773 0.287665933 0.086780570
0.817963243 0.334092379 0.117520422
0.355344653 0.323086649 0.049968556
0.355976939 0.320682853 0.050600547
0.382922202 0.321441948 0.052877646
0.419102073 0.329285026 0.055154741
0.441745549 0.313598812 0.075395629
0.531309009 0.335357100 0.091967441
0.682732344 0.385831565 0.108538985
0.855660915 0.440733552 0.159898713
0.485894918 0.470461458 0.058190830
0.488171816 0.471979618 0.054395642
0.519418180 0.474636108 0.061986025
0.555091560 0.480581582 0.063503832
0.594307482 0.484882891 0.082858987
0.625679970 0.474003881 0.111954533
0.725237072 0.500063479 0.157874376
0.885388911 0.555091739 0.225047067
0.643137276 0.662492275 0.126122653
0.657811403 0.662745297 0.132701099
0.675774753 0.663504303 0.132953838
0.713345706 0.666160583 0.147375003
0.753067970 0.674889266 0.165970743
0.790259302 0.675901592 0.190512359
0.822264314 0.657558799 0.236305907
0.896015048 0.666919827 0.304997057
0.807969511 0.852245569 0.378747761
0.815306842 0.846046925 0.386970222
0.834028959 0.848703146 0.380518496
0.860721052 0.849209607 0.396457642
0.900063396 0.856546462 0.421504915
0.937255025 0.865907729 0.452498317
0.965338349 0.860215187 0.499177366
0.981277585 0.842252016 0.534850895
0.116761193 0.066666998 0.080581993
0.135610089 0.059962448 0.072359547
0.183428004 0.069702990 0.079063997
0.244022727 0.083491646 0.073244743
0.339152396 0.096394904 0.075142197
0.444022477 0.121569000 0.098418646
0.591018260 0.150537819 0.129159003
0.787476242 0.176849976 0.171284080
0.135230541 0.095256448 0.064516544
0.145730093 0.102340452 0.066540092
0.177862078 0.102720000 0.066160545
0.251106650 0.112080894 0.070462003
0.335610539 0.127767086 0.085768551
0.447312087 0.153194457 0.108032994
0.594307482 0.181404248 0.134598106
0.783807516 0.204427570 0.172548816
0.155976996 0.149652004 0.058697097
0.165338188 0.152815014 0.076787092
0.224161983 0.165338188 0.089310996
0.267932057 0.166097090 0.081340998
0.340670168 0.182542980 0.104237907
0.457684904 0.202529728 0.122833572
0.611385524 0.226312190 0.143200099
0.801138520 0.265528083 0.178747818
0.222137719 0.222137734 0.071600541
0.243643194 0.220114097 0.089310996
0.277672648 0.224035278 0.095888637
0.305882633 0.221632093 0.097027190
0.378368169 0.237318292 0.114737444
0.485894918 0.264262944 0.130550086
0.637824178 0.300696105 0.154459029
0.815433145 0.345983446 0.196710825
0.332827210 0.321947992 0.118153088
0.341808736 0.318659186 0.115622744
0.366477102 0.323466182 0.112586990
0.404933453 0.326881707 0.120809637
0.437191367 0.317900091 0.130676985
0.521062791 0.341682434 0.150158197
0.676533759 0.392156690 0.180645287
0.845287919 0.451233089 0.236685544
0.466540456 0.471600175 0.143453732
0.477166086 0.470335275 0.145730630
0.501960516 0.472738534 0.147754565
0.544591963 0.479443192 0.155344635
0.581657350 0.486527652 0.168500930
0.619987369 0.474509567 0.188361466
0.725743175 0.506388247 0.226565465
0.879569650 0.571916282 0.303478777
0.632637680 0.666287541 0.224920750
0.638077438 0.667552292 0.230613664
0.669449627 0.668690562 0.229474753
0.701707602 0.672232926 0.240227833
0.749525547 0.681214392 0.253130853
0.785705268 0.682479262 0.278937370
0.823276281 0.663251162 0.315876245
0.901581049 0.681467295 0.377735317
0.797216833 0.850347757 0.448576480
0.810879052 0.850348055 0.448576361
0.819228351 0.856546402 0.446426272
0.852751374 0.855281591 0.463630378
0.891081810 0.862112761 0.488804251
0.928652704 0.869829416 0.506767690
0.953573465 0.860088289 0.541808784
0.974826097 0.850727499 0.576850116
0.147375003 0.058823999 0.159266636
0.164579093 0.064642638 0.153067634
0.204806820 0.076407447 0.147501633
0.258949637 0.088551998 0.140164286
0.352055848 0.095635802 0.146362990
0.459203094 0.119417734 0.147374719
0.595445931 0.130043998 0.187349632
0.784566641 0.155471355 0.231245905
0.170904189 0.105376542 0.135736629
0.180139095 0.109677091 0.137760997
0.208349183 0.117140733 0.135736629
0.254901826 0.122580633 0.132195085
0.342567831 0.132448003 0.141682193
0.450221270 0.152435452 0.157748535
0.604807138 0.170018896 0.192789629
0.780645072 0.190638736 0.236559197
0.179759637 0.155976996 0.137381643
0.197343186 0.158633649 0.134977743
0.231498823 0.170019105 0.143706635
0.271347523 0.172296092 0.135736734
0.359898835 0.187982291 0.143959180
0.461606741 0.209993899 0.171410292
0.609740734 0.238077283 0.212270722
0.791397750 0.289310545 0.271853268
0.208475992 0.230993271 0.136875272
0.223276287 0.239722088 0.145224646
0.266413987 0.245920286 0.151422918
0.330170631 0.261859596 0.174446285
0.390006185 0.265021801 0.181150824
0.487413138 0.288551629 0.208222374
0.626944840 0.314611286 0.235673904
0.794307113 0.366603285 0.287539452
0.294244558 0.326881826 0.142315179
0.309930444 0.329664379 0.150537625
0.351296633 0.333965868 0.181909829
0.399873644 0.339785188 0.200379267
0.435041010 0.339405537 0.207969472
0.527008414 0.366729826 0.232004911
0.668184876 0.409361452 0.267931819
0.834155619 0.469196767 0.330676705
0.431878716 0.471979469 0.229221970
0.445287734 0.471094340 0.233902454
0.479190379 0.475901246 0.242504463
0.519418001 0.482985377 0.249589175
0.571157396 0.491967022 0.250980347
0.609234452 0.484883100 0.275395274
0.722327769 0.522833765 0.314990371
0.866287470 0.585072756 0.398735017
0.602150261 0.659961820 0.333712935
0.609108269 0.665528536 0.327767015
0.630866647 0.661100209 0.326755464
0.669955909 0.667805493 0.336748540
0.726881683 0.676027775 0.347501487
0.766350091 0.681214273 0.361796260
0.801138520 0.665528238 0.389373839
0.882226408 0.688298523 0.453383923
0.778873980 0.850727618 0.515749276
0.783554733 0.847058833 0.512966394
0.795698583 0.848956347 0.515749693
0.828336298 0.852624953 0.525489986
0.868437707 0.856420040 0.546362996
0.914484322 0.865528405 0.565718055
0.942188442 0.863503993 0.601137996
0.965338409 0.853763580 0.631499231
0.194307387 0.072991811 0.274636179
0.211891353 0.075268999 0.268816918
0.242758080 0.090955094 0.262239367
0.292979002 0.105755806 0.258317381
0.364199996 0.114358187 0.248071179
0.472106457 0.121062540 0.249462366
0.616951466 0.134851187 0.281720281
0.802529752 0.162681967 0.331688643
0.207210541 0.126122996 0.252751380
0.224920988 0.124984346 0.249335736
0.259329379 0.135230541 0.250474274
0.300063282 0.139025629 0.247438371
0.361543536 0.148134187 0.244655639
0.468816996 0.151549637 0.249588981
0.612650216 0.172042832 0.279696554
0.793548226 0.195319325 0.327514023
0.241492897 0.184060991 0.238836274
0.253890187 0.189247549 0.239468455
0.274256974 0.188741088 0.242758080
0.316128731 0.195445627 0.242631376
0.372043163 0.202150196 0.235547274
0.470841020 0.211891532 0.251866072
0.627071381 0.238077193 0.287792444
0.806577682 0.274256796 0.353573620
0.249082983 0.252624631 0.242125005
0.266034365 0.252624750 0.250601083
0.302087545 0.252119094 0.250094742
0.351296604 0.273371160 0.253890008
0.394307613 0.281214207 0.261353463
0.504996538 0.294370383 0.277798980
0.638077259 0.329158634 0.318911910
0.805565834 0.377861947 0.381910056
0.272106200 0.354585350 0.249588981
0.280202627 0.361416727 0.261226892
0.322074294 0.361796170 0.266034275
0.388108820 0.373434365 0.293358386
0.484882951 0.405566365 0.335610539
0.561163902 0.413788825 0.343580365
0.674256623 0.443137467 0.377229393
0.825047433 0.497280002 0.441745996
0.344971746 0.488930941 0.252498448
0.358760089 0.486527622 0.262745351
0.409740448 0.491461366 0.287919194
0.489183813 0.503352344 0.336242825
0.564073205 0.513472617 0.374067366
0.613156319 0.516761601 0.378874183
0.729158759 0.553447127 0.427450925
0.858570576 0.611764967 0.503858328
0.535863161 0.671853483 0.395825475
0.552308679 0.670335233 0.402656645
0.588235259 0.673497736 0.425679624
0.634408414 0.675521851 0.447818011
0.696394384 0.682099819 0.459961951
0.750664055 0.691587567 0.472359210
0.789626539 0.679063857 0.496268451
0.879822731 0.717899978 0.558001399
0.742441356 0.848703206 0.601897240
0.750537395 0.852498412 0.605060101
0.765211463 0.853510201 0.607336998
0.802276969 0.855028391 0.617710471
0.842504978 0.860214889 0.622137725
0.894876480 0.866793036 0.647185206
0.928779185 0.868817329 0.670714498
0.954459131 0.859202802 0.689942777
0.246805996 0.088172257 0.442125469
0.260847270 0.090954997 0.437697887
0.299683839 0.102719903 0.433776200
0.346489638 0.114737637 0.425426841
0.416698366 0.132827446 0.420999259
0.500948489 0.144971475 0.416571736
0.633396745 0.139405280 0.426312745
0.811132252 0.163566977 0.468564451
0.255787551 0.139405087 0.425300181
0.269955754 0.139911547 0.419608116
0.304743975 0.147248372 0.422011197
0.353953302 0.154712543 0.412523717
0.410373360 0.168753833 0.413408995
0.505375981 0.173560917 0.414674461
0.627450943 0.173181280 0.413156152
0.799493730 0.199240804 0.466413438
0.281720728 0.215053841 0.406325191
0.303858280 0.213030010 0.397469968
0.316761762 0.218975350 0.410499811
0.365718096 0.221632004 0.406831354
0.424541175 0.230234265 0.407210827
0.508918464 0.233016834 0.411891103
0.640101194 0.244022831 0.427071542
0.820240378 0.287286788 0.478937298
0.288298488 0.272359461 0.398988187
0.313851833 0.278304815 0.410373181
0.355218023 0.294876724 0.404427469
0.393927902 0.302972972 0.401138455
0.445161015 0.311575085 0.411764711
0.518912494 0.317900181 0.412017852
0.648197651 0.330550104 0.435673535
0.815433204 0.383554906 0.486021280
0.306008548 0.387096941 0.422137916
0.323592275 0.388741136 0.418342620
0.368247986 0.390258908 0.425806403
0.422517538 0.387855917 0.431372195
0.497659892 0.416445166 0.445920646
0.567741692 0.426692367 0.460088462
0.691334724 0.456040800 0.476027727
0.836053133 0.512207150 0.541302681
0.319291741 0.528399467 0.449715436
0.329664737 0.528399467 0.443896204
0.374193668 0.534977794 0.453636944
0.445414633 0.537760675 0.463883460
0.531815231 0.556609690 0.501201749
0.644149184 0.591144502 0.547754467
0.736242533 0.611890972 0.570398629
0.849462271 0.654522419 0.616318583
0.436179280 0.677419245 0.432511032
0.443643361 0.687286675 0.439341843
0.481214374 0.683870792 0.458190739
0.550664008 0.688551366 0.498545080
0.644402444 0.701707780 0.557621717
0.732574284 0.709424496 0.592789531
0.776723564 0.707400262 0.610752285
0.877672076 0.740670323 0.659456015
0.667805016 0.858949780 0.624288380
0.680581927 0.858949900 0.634408474
0.706514776 0.859582365 0.649335980
0.752435148 0.859582365 0.682606101
0.807842910 0.864389777 0.710562706
0.863124609 0.869070351 0.728652477
0.907653153 0.878051698 0.741049767
0.941682577 0.874762595 0.754206240
0.289816260 0.102592997 0.671346843
0.307653546 0.110815540 0.668058097
0.347881198 0.119038478 0.664516151
0.406957924 0.129031986 0.657938123
0.477039993 0.151043281 0.659708917
0.552814722 0.173054993 0.651486337
0.675015569 0.178367987 0.647817850
0.822896600 0.181277648 0.648703218
0.299430996 0.156483084 0.658444285
0.313598812 0.159898996 0.653889835
0.356483102 0.165717840 0.658570468
0.412776470 0.176217467 0.649968266
0.482858837 0.187096983 0.644402266
0.556482971 0.209487632 0.649588823
0.672612250 0.211005539 0.640986562
0.805566132 0.209614053 0.635420680
0.323592454 0.244275898 0.647185266
0.338519812 0.247817844 0.649462759
0.372043192 0.249715477 0.647058725
0.427324563 0.257938117 0.647565007
0.490196049 0.269323289 0.643263698
0.565085173 0.278178424 0.640859902
0.678178489 0.286274642 0.641619086
0.821631610 0.298291981 0.649335742
0.361416996 0.337001622 0.640480459
0.369639575 0.344844937 0.635294080
0.405060172 0.347121924 0.636812329
0.450094640 0.351043642 0.635420561
0.512207389 0.360025287 0.640607297
0.575205863 0.373434573 0.638330102
0.688425303 0.378621280 0.643769860
0.824541330 0.393801272 0.647944331
0.357874364 0.420240462 0.644654930
0.377482563 0.424288392 0.655281544
0.416571677 0.438330263 0.643896043
0.485515267 0.461100459 0.645414174
0.544339001 0.470461756 0.639974833
0.612523615 0.480202019 0.653257191
0.700063288 0.490069747 0.651992440
0.837064743 0.520430088 0.674383283
0.370651543 0.586464167 0.662871838
0.389626741 0.586843729 0.664010108
0.434914708 0.585578680 0.662365496
0.504364371 0.584819734 0.670082510
0.586969972 0.585452437 0.673497856
0.662112653 0.616572022 0.680202544
0.741808832 0.627451181 0.693105221
0.860088348 0.663630724 0.716255546
0.387476563 0.725996494 0.664516091
0.405692399 0.728273273 0.671094537
0.447311908 0.729158640 0.670335293
0.516888261 0.726502180 0.681214571
0.586717486 0.733965635 0.689183950
0.689183950 0.740670025 0.710436285
0.789120793 0.766223848 0.747248292
0.873497844 0.783048749 0.768880129
0.599493682 0.861100197 0.678431034
0.607842803 0.867678523 0.684376836
0.634282053 0.865022182 0.698798239
0.676027894 0.872232974 0.711195290
0.731435418 0.875142097 0.738393366
0.816698194 0.877292931 0.788235426
0.881847024 0.882479191 0.814927101
0.922454357 0.884123743 0.827450991
0.340037972 0.171663612 0.877798557
0.353320658 0.171916336 0.872485638
0.397469908 0.182795525 0.871220767
0.453889608 0.196078628 0.872738957
0.530676961 0.225679606 0.866919577
0.610752702 0.258190870 0.868437648
0.696773767 0.294496924 0.865654707
0.837191582 0.319670737 0.860847414
0.345857203 0.219228163 0.870714605
0.362555265 0.220999613 0.865401626
0.401391715 0.228210047 0.874256670
0.460341454 0.239848331 0.866413653
0.528273225 0.258697152 0.861353576
0.610879540 0.283997357 0.858317375
0.698292077 0.315622687 0.850347698
0.830486953 0.339658290 0.856166780
0.376976788 0.311701417 0.864262819
0.395572066 0.309550732 0.867299139
0.427324653 0.318406045 0.858570457
0.489310533 0.329158425 0.866413414
0.553320825 0.345983386 0.863757014
0.630487025 0.369006872 0.864516139
0.706261873 0.398229152 0.861353636
0.839721620 0.417457491 0.857937753
0.432131439 0.424794227 0.855787337
0.449462175 0.426565319 0.853257537
0.481720358 0.433016866 0.860215187
0.523466408 0.440480500 0.855787337
0.584819555 0.450727314 0.856925726
0.648323715 0.465148807 0.850347579
0.724351525 0.483997464 0.852118850
0.839089036 0.501454711 0.849462390
0.471220791 0.526754916 0.855787456
0.495382607 0.532447755 0.854269624
0.535736978 0.551675916 0.861479759
0.579380155 0.561416626 0.858064413
0.622517347 0.569639504 0.851612747
0.687159777 0.580139101 0.855407894
0.748007238 0.593548179 0.851612747
0.847944379 0.607463419 0.856420040
0.515496552 0.645161271 0.866793156
0.528526366 0.644528627 0.871473789
0.558633566 0.645287752 0.869196653
0.604807258 0.652751267 0.863251209
0.673750997 0.680708170 0.861859262
0.729664683 0.693358719 0.858950078
0.785578609 0.710562944 0.865654707
0.867552340 0.714357674 0.865148664
0.533080101 0.786464334 0.870714366
0.548386753 0.789626777 0.871853471
0.576090813 0.788488388 0.866666794
0.623655915 0.785831928 0.863757074
0.680961311 0.782289684 0.869955599
0.751043499 0.781910300 0.863377452
0.816192269 0.802782655 0.872485638
0.880329132 0.807843029 0.873371303
0.587602615 0.916887760 0.871094584
0.605060160 0.914231598 0.878810585
0.632384658 0.910309672 0.876913369
0.669702947 0.909171283 0.881593764
0.716381550 0.907779634 0.883111954
0.781783581 0.905123413 0.888551533
0.850853920 0.905123413 0.901834309
0.919291615 0.918026745 0.915496767
