Assets/Resources/EldamarStudio/100 Horror LUTs Pack/LUTs/cube/Senexen LUT.cube
LUT_3D_SIZE 5
DOMAIN_MIN 0.000000 0.000000 0.000000
DOMAIN_MAX 0.903226 0.903226 0.903226
0.078431003 0.050980002 0.011765000
0.157242283 0.061100710 0.017963292
0.301454395 0.055534583 0.008475584
0.510183275 0.080455258 0.009866998
0.811132252 0.130929813 0.039342143
0.165085703 0.124224991 0.013409289
0.186337993 0.123592407 0.010120291
0.314231694 0.132067993 0.015686419
0.516761661 0.164199829 0.024162002
0.820240438 0.224414974 0.045920555
0.301454395 0.265527993 0.000000000
0.334218800 0.272738814 0.004933705
0.374066800 0.258317381 0.026185993
0.558886945 0.298671514 0.045793995
0.847691596 0.388614804 0.093105793
0.528779149 0.523086369 0.000000000
0.560911000 0.526375771 0.004680576
0.625047565 0.541049838 0.009108121
0.680961251 0.527893245 0.103226118
0.892726064 0.590638757 0.214547932
0.813662589 0.852877617 0.358001351
0.835040808 0.854142725 0.371157169
0.887413085 0.860088229 0.403795183
0.951928794 0.869829416 0.448829591
0.989879608 0.845034599 0.534598172
0.111448288 0.068943709 0.067678705
0.159898683 0.064389706 0.060847409
0.289690375 0.085642412 0.061479993
0.469323128 0.131435588 0.095888704
0.790512502 0.172042817 0.149778396
0.141555697 0.131435990 0.050347995
0.192283377 0.142567992 0.068058401
0.296268374 0.158254415 0.084376991
0.492852509 0.191904113 0.105629697
0.800379395 0.240480483 0.155471340
0.282859087 0.259962112 0.091587409
0.308286101 0.265527993 0.086021282
0.362301975 0.262238979 0.094876818
0.538646102 0.307147115 0.128526285
0.835926592 0.399367332 0.199999914
0.517393827 0.513599217 0.131561980
0.540417671 0.517520308 0.142188817
0.611258864 0.530550241 0.149905249
0.671347082 0.520809293 0.190132678
0.887413085 0.599494100 0.302213758
0.798735082 0.848576665 0.429601371
0.814168334 0.852498293 0.420872837
0.871727049 0.855407953 0.452371925
0.940290630 0.863250911 0.494117320
0.975837886 0.844655275 0.565465093
0.169386402 0.062112574 0.213915378
0.215433285 0.081720419 0.197217107
0.308032393 0.100695997 0.189752966
0.502973020 0.124225415 0.203541815
0.795445740 0.156356558 0.284630209
0.204933703 0.155977115 0.183807403
0.239342391 0.161543399 0.180898115
0.316508383 0.171663702 0.182542816
0.497786283 0.197849274 0.204806983
0.800632596 0.252878100 0.300063103
0.245919973 0.295003384 0.191017985
0.277925432 0.293991089 0.198229223
0.406830817 0.327640384 0.244022369
0.547121942 0.349272400 0.270208806
0.818216145 0.433776200 0.368501037
0.436938435 0.516761661 0.257811666
0.481973439 0.526375771 0.297786415
0.573561251 0.538393259 0.324225098
0.661606550 0.541049838 0.352055639
0.869702637 0.625679910 0.458696753
0.758001208 0.850853980 0.549019337
0.773561001 0.845920503 0.555471182
0.833143651 0.856040180 0.573939979
0.912840188 0.866540134 0.609993815
0.959898770 0.855407596 0.656925499
0.257938147 0.090195999 0.493738383
0.298924983 0.101961002 0.489183962
0.395066410 0.126881570 0.479317129
0.547501206 0.150031865 0.470208347
0.817710578 0.165338248 0.516635120
0.281467706 0.198861554 0.465274811
0.323086828 0.201770693 0.466919363
0.406198651 0.215180397 0.462112516
0.545857131 0.224668115 0.461985797
0.820240140 0.265022218 0.521441817
0.309550852 0.330297381 0.469575942
0.354332566 0.337254643 0.464642495
0.455155224 0.364705950 0.472486109
0.576343834 0.383681536 0.484630108
0.833143353 0.450727224 0.548007369
0.332447857 0.577988386 0.508412242
0.373687714 0.587096751 0.506768107
0.493737966 0.591398060 0.533965707
0.685642123 0.639721513 0.603415430
0.853763342 0.686401129 0.656799376
0.645540535 0.862997890 0.619987249
0.673117995 0.865148365 0.652371645
0.764199436 0.865275145 0.708791912
0.868690491 0.872106433 0.752941012
0.934092462 0.877039731 0.774193704
0.340037972 0.171663612 0.877798557
0.382289499 0.179759666 0.871220767
0.492473364 0.208222613 0.867932022
0.629475117 0.265527904 0.866413713
0.837191582 0.319670737 0.860847414
0.369892687 0.284376502 0.863756716
0.410120398 0.290575802 0.862365723
0.512080789 0.315496206 0.864389539
0.647438228 0.351549596 0.859456003
0.838203669 0.399747282 0.860214829
0.472485721 0.483618140 0.852119029
0.504490614 0.494370461 0.858570218
0.574319720 0.507147133 0.855534554
0.686527312 0.533965588 0.857432008
0.853510141 0.566097021 0.864136875
0.520050585 0.687919080 0.868311286
0.557115436 0.681720018 0.867931604
0.641366065 0.688172042 0.865275145
0.752688110 0.720177233 0.866287291
0.871853411 0.741429150 0.868184745
0.587602615 0.916887760 0.871094584
0.625047326 0.910056829 0.880961657
0.695382178 0.904364169 0.882858753
0.794939756 0.906135380 0.889057636
0.919291615 0.918026745 0.915496767
