Assets/Resources/EldamarStudio/100 Horror LUTs Pack/LUTs/cube/Siurin LUT.cube
DOMAIN_MIN 0 0 0
DOMAIN_MAX 1 1 1
LUT_3D_SIZE 32
0.070588000 0.070588000 0.070588000
0.073624387 0.067552388 0.070588000
0.080961771 0.068817228 0.072738774
0.088804998 0.070588000 0.073244840
0.096015446 0.070967548 0.071346998
0.111195058 0.074003935 0.077418998
0.131435320 0.077039681 0.080961324
0.151043415 0.078431003 0.083997712
0.168501094 0.079190098 0.087793000
0.183681503 0.082226492 0.093865007
0.210499868 0.091081873 0.108665124
0.231751993 0.098165996 0.115749255
0.252245277 0.106514998 0.121062644
0.276028007 0.117900029 0.129664958
0.294243962 0.120936416 0.132700577
0.314863771 0.131182984 0.135736808
0.336116195 0.143326998 0.141809195
0.359266132 0.154838577 0.150917411
0.389626950 0.163946986 0.160025060
0.417204380 0.173055366 0.169133365
0.442631483 0.184060991 0.176343992
0.467932135 0.195193127 0.185452119
0.495509475 0.204427987 0.200505987
0.528905928 0.216572002 0.212650001
0.564579546 0.230993271 0.224794567
0.602403641 0.243390307 0.236938983
0.640860081 0.253004134 0.248071000
0.674256384 0.265148908 0.254143000
0.720935583 0.282605976 0.270840973
0.767741561 0.300821930 0.290828168
0.813282788 0.320809186 0.314737171
0.858824015 0.345097989 0.345097989
0.073624387 0.073624387 0.073624387
0.070588000 0.070588000 0.076660000
0.075774617 0.069702610 0.074509770
0.086527385 0.073118001 0.071980000
0.099430703 0.076280549 0.069070384
0.117267832 0.074003935 0.080455385
0.140037775 0.077039681 0.083997704
0.155218095 0.085009411 0.085389383
0.170019105 0.089816682 0.087793000
0.189753503 0.088298485 0.093865007
0.213661984 0.100062996 0.108665124
0.234788120 0.107273608 0.115749255
0.251866043 0.114484258 0.119923994
0.270462006 0.124224991 0.127134636
0.294243962 0.130044028 0.135736972
0.312460601 0.135483608 0.138772592
0.334598392 0.146363005 0.144844815
0.359266132 0.159139961 0.154585600
0.389626950 0.173055366 0.166097045
0.414421022 0.184946403 0.172422707
0.439595073 0.192409992 0.183175385
0.464895725 0.201265126 0.192536518
0.492599577 0.210626498 0.203668863
0.528905928 0.225680396 0.218722001
0.564579546 0.233270392 0.226312563
0.601012290 0.246173650 0.235547304
0.639342487 0.259076774 0.246552676
0.680329204 0.271220893 0.260214984
0.719038546 0.286021799 0.271599978
0.761163473 0.302087128 0.289057404
0.805059791 0.319923580 0.311701357
0.852751195 0.342061609 0.342061609
0.076660231 0.080961771 0.070208997
0.077925391 0.082226388 0.077545613
0.087792553 0.079190545 0.076280773
0.092599392 0.080455385 0.078305162
0.104617089 0.086021319 0.076660678
0.122833863 0.090069711 0.078178227
0.141809002 0.087792456 0.084883317
0.162808403 0.092472769 0.087919287
0.174193785 0.101328321 0.089943230
0.191271499 0.101075299 0.096015237
0.215433002 0.112586774 0.106514893
0.235673502 0.118659027 0.117647022
0.255028635 0.125742897 0.123213127
0.272486001 0.134598061 0.130044028
0.292978972 0.140670538 0.135357410
0.318911821 0.148892775 0.148260742
0.337128609 0.154964775 0.151296347
0.360784322 0.165844366 0.157874584
0.389626950 0.179506972 0.165464789
0.416571796 0.189753234 0.176343933
0.440860242 0.201897696 0.184313953
0.466160893 0.209487632 0.195193127
0.493864715 0.218469247 0.204301476
0.530297041 0.227577910 0.215433106
0.566729784 0.240227997 0.225932792
0.601771176 0.247691661 0.234788209
0.638457119 0.261859983 0.246173128
0.680961847 0.277292997 0.262998194
0.722959995 0.289943039 0.275521755
0.767741978 0.310436606 0.296520919
0.810120106 0.328526139 0.316761583
0.857431769 0.349778533 0.343326777
0.079696164 0.093864992 0.071727000
0.082732551 0.096900605 0.078304939
0.094370618 0.095635764 0.077545613
0.107021004 0.097660154 0.082100004
0.111954153 0.100316316 0.090069838
0.130170703 0.106768101 0.085768297
0.148387164 0.109550998 0.088551648
0.165338397 0.110183150 0.094244450
0.182796091 0.115496248 0.096521154
0.195446178 0.118532643 0.101581171
0.215433002 0.127767146 0.109297872
0.235673502 0.133839414 0.118406251
0.256166995 0.138014153 0.126376003
0.277545869 0.146995276 0.135104164
0.296773970 0.154079676 0.139152408
0.318405926 0.161290511 0.146742806
0.343706220 0.168880314 0.157115966
0.363187969 0.176217288 0.162681729
0.389880002 0.188361958 0.168248132
0.415939212 0.197722971 0.175838009
0.441366315 0.206198469 0.184819564
0.468690962 0.218343005 0.194940090
0.496774316 0.227703661 0.204554468
0.532068014 0.234914809 0.215939090
0.567235708 0.241745830 0.223782450
0.602276802 0.255028516 0.235546976
0.636685848 0.265148908 0.248197064
0.678431511 0.282606006 0.265654743
0.720935941 0.298038960 0.277292997
0.768247604 0.313472211 0.295762151
0.815939605 0.335990041 0.323086560
0.861480176 0.356862992 0.345097989
0.083871000 0.113978542 0.083491549
0.087286830 0.116634704 0.087286830
0.098165765 0.115369864 0.084629990
0.111195154 0.115876153 0.085135713
0.120683089 0.124225549 0.098418549
0.138899088 0.124225549 0.098418549
0.157115638 0.130044535 0.102087319
0.173308164 0.134092376 0.106008992
0.188868105 0.136369094 0.111321993
0.204048514 0.139405489 0.111322001
0.219607681 0.145351008 0.116761543
0.237191498 0.149399266 0.124857701
0.257305533 0.153194547 0.132448003
0.281087548 0.159266546 0.138267040
0.302213401 0.168247670 0.144212544
0.320683062 0.175711602 0.149019808
0.341555983 0.182163537 0.153573990
0.365464598 0.188361973 0.160405025
0.389753431 0.200506017 0.175585419
0.414421022 0.209867358 0.180392191
0.439468473 0.217457533 0.185705096
0.465654671 0.224415004 0.192662716
0.499177516 0.236432508 0.204933956
0.532826900 0.245540917 0.220113650
0.565844297 0.251233250 0.229981020
0.599620640 0.259455740 0.238330290
0.634408593 0.274256617 0.253889591
0.673876941 0.289436966 0.269069970
0.715243101 0.306894064 0.278937370
0.761542976 0.322959721 0.294370621
0.810626209 0.339025617 0.316255569
0.856167436 0.357242435 0.343580008
0.096014999 0.147374928 0.092599936
0.102086991 0.147374928 0.101707548
0.109803841 0.145730644 0.103352055
0.121188931 0.142694712 0.101075090
0.132827088 0.142441541 0.101454936
0.144971862 0.145477936 0.101454936
0.163187861 0.155597925 0.111574933
0.178114995 0.160151929 0.115622997
0.192283258 0.159898773 0.118152991
0.210120514 0.157621488 0.123465993
0.228210002 0.163566992 0.126375869
0.247944176 0.167615250 0.133965671
0.268690616 0.170651630 0.140796706
0.290195942 0.174446926 0.144339040
0.308411896 0.180518925 0.147375420
0.324730784 0.191903859 0.158127934
0.343453258 0.201518193 0.165717989
0.365211546 0.208855361 0.171789989
0.386717051 0.212650016 0.178621039
0.413788438 0.222011358 0.188235417
0.442504466 0.231119737 0.196331665
0.469829261 0.237697795 0.202909738
0.496141881 0.242504507 0.207969561
0.532573998 0.251612902 0.223149970
0.563946545 0.262997985 0.240606919
0.597596347 0.273624271 0.248450056
0.634535134 0.286274850 0.254016131
0.676913381 0.298545361 0.272106349
0.713725567 0.313725740 0.281973749
0.752941012 0.327640831 0.294623643
0.794433892 0.342061907 0.311701268
0.834915042 0.360278070 0.331436008
0.113219641 0.180771321 0.111828320
0.116761319 0.183301643 0.115875930
0.120683089 0.181150869 0.118532315
0.131562486 0.178115159 0.119797476
0.145351097 0.175838098 0.120050766
0.159645543 0.178873941 0.122200996
0.174319997 0.181910321 0.122200996
0.192536414 0.187476322 0.131055996
0.208728731 0.188235417 0.133586094
0.228716284 0.188741475 0.137887314
0.239341989 0.189373970 0.135989547
0.259582251 0.195445955 0.139025941
0.279696286 0.198987991 0.147121966
0.299304336 0.202276990 0.153447285
0.317520291 0.208348989 0.161037087
0.338140100 0.212017804 0.166477278
0.355091721 0.220746309 0.176850125
0.375964612 0.228209987 0.183933988
0.399114311 0.233143374 0.190006018
0.425932676 0.241745681 0.203921348
0.455154777 0.248956323 0.207336992
0.484503448 0.257432133 0.215559930
0.510563016 0.263630629 0.223403111
0.542188644 0.270335227 0.233775914
0.580897927 0.283997595 0.244402289
0.616192341 0.295002937 0.260467976
0.653763652 0.306008816 0.267172635
0.692219853 0.318153322 0.277292907
0.731941938 0.332954139 0.295129508
0.768374681 0.349905252 0.313093066
0.810626149 0.366223902 0.333206594
0.856673002 0.386084646 0.354712009
0.123213284 0.201011702 0.126502290
0.131182611 0.205692381 0.126249328
0.137507766 0.215939343 0.138646409
0.144338995 0.207842961 0.136116400
0.158380836 0.204427704 0.137634695
0.171030760 0.208728462 0.139405474
0.184566319 0.208475307 0.144844696
0.201391399 0.213156402 0.143200412
0.218849093 0.213915303 0.149272412
0.238330483 0.216951475 0.153194189
0.252877831 0.217077985 0.152055547
0.266792953 0.217836976 0.154711962
0.285768330 0.222770631 0.156609699
0.303985000 0.226312369 0.164200023
0.324983954 0.233775690 0.173307985
0.343959481 0.235799789 0.176723599
0.366729707 0.240354359 0.182795987
0.386464417 0.246426389 0.192409694
0.410752743 0.252498418 0.200505719
0.437824070 0.259709060 0.209993362
0.467046171 0.268564403 0.222264409
0.495382696 0.274636388 0.224288404
0.522454023 0.283238679 0.234914988
0.555850804 0.292346686 0.242504820
0.589753270 0.300316274 0.253257275
0.626438975 0.314104974 0.263756961
0.664390087 0.324477762 0.278684348
0.699683666 0.337760895 0.288172007
0.738772690 0.350917101 0.303225696
0.781404316 0.364579648 0.318405688
0.817837179 0.384566665 0.341808885
0.865654707 0.406578004 0.365337998
0.131562188 0.217710286 0.138646096
0.140670180 0.223782271 0.137887374
0.152181953 0.233143538 0.149019763
0.160278097 0.241999030 0.159646109
0.172422081 0.227577642 0.154712543
0.181909919 0.231752098 0.155092001
0.192030191 0.232510865 0.158886775
0.207463399 0.232131511 0.162934810
0.225679994 0.237444982 0.161416993
0.240860403 0.240480602 0.167488992
0.258190989 0.241366193 0.169259995
0.275142342 0.241366193 0.171790004
0.290322542 0.242504641 0.176344097
0.306008935 0.245541036 0.176597059
0.329790980 0.253636748 0.184693307
0.350031495 0.257052183 0.187350005
0.370525002 0.260088384 0.190385997
0.396078110 0.266160995 0.197090566
0.420619965 0.272232980 0.209108114
0.446932465 0.278305024 0.217204094
0.474636376 0.285515636 0.224035367
0.505250037 0.294370979 0.234914988
0.529790998 0.300442964 0.241239980
0.564958811 0.311322004 0.248576999
0.597596288 0.320430189 0.258444101
0.631751895 0.328526080 0.270588070
0.665148973 0.341176152 0.283238173
0.698545277 0.356356531 0.298418522
0.738772810 0.370398283 0.312080920
0.780265450 0.381024510 0.327008069
0.824668109 0.398229033 0.344844669
0.861100912 0.422517091 0.366097093
0.155850977 0.257179439 0.159898505
0.155850977 0.263251454 0.165970489
0.167109743 0.262871683 0.173813760
0.176976800 0.263251156 0.178368151
0.181530491 0.264010429 0.175964937
0.193674490 0.254902065 0.179000542
0.200632662 0.259076476 0.174320012
0.213535964 0.259835690 0.173814207
0.231751978 0.258697391 0.176597401
0.249967992 0.261732996 0.179632992
0.265148371 0.264769375 0.185705006
0.282479525 0.265654981 0.187476009
0.299430847 0.266793370 0.188867658
0.315116554 0.269829065 0.191777468
0.336368918 0.272865444 0.194813073
0.357747793 0.278557986 0.198102340
0.378873706 0.284377009 0.202530012
0.402150124 0.290449023 0.209234580
0.432510972 0.296521008 0.218342975
0.457052708 0.302593023 0.230360493
0.481467485 0.308665007 0.234661490
0.509044647 0.315875649 0.238203660
0.541935027 0.324730992 0.247311994
0.572295845 0.330803007 0.259456009
0.600632250 0.341682583 0.269070268
0.632384300 0.352182299 0.279696465
0.668184578 0.362428576 0.292346567
0.701580942 0.377608895 0.307526916
0.745603979 0.395446122 0.317394316
0.787349582 0.406325430 0.332068413
0.827956676 0.419734448 0.354459047
0.870208502 0.449841499 0.387349486
0.165591121 0.264643013 0.175331876
0.165591121 0.273624122 0.175584882
0.176343903 0.281846911 0.183807641
0.187729120 0.283111870 0.192916036
0.192409545 0.284882993 0.194181323
0.196963876 0.288424939 0.176976934
0.214167863 0.276786894 0.187602878
0.223402828 0.280581862 0.190385863
0.237824172 0.282099992 0.193928003
0.256040722 0.282985389 0.194813386
0.271346867 0.286021709 0.194939867
0.288551509 0.291081876 0.201011881
0.307906657 0.293991238 0.203921512
0.327134788 0.297026902 0.206957832
0.348387122 0.300063282 0.209993452
0.367235720 0.305502862 0.213029683
0.392536253 0.310057074 0.220619872
0.418595701 0.314737737 0.230107442
0.444401979 0.320809752 0.239215836
0.466413379 0.326881737 0.237191513
0.494370610 0.331055999 0.244907975
0.520683110 0.337128013 0.249968112
0.548134267 0.346236378 0.259076506
0.575711668 0.355091721 0.268437862
0.608349144 0.363441020 0.273750573
0.638330162 0.374952853 0.282985449
0.673244894 0.385578811 0.296141863
0.716255248 0.395952165 0.313725442
0.746995509 0.408475727 0.326248974
0.787729084 0.422643960 0.342694283
0.825426757 0.435420573 0.363820195
0.861859858 0.459708869 0.391144872
0.182795241 0.292979240 0.188487992
0.184819505 0.298039347 0.190512255
0.187476292 0.299051046 0.190891773
0.197596356 0.305629432 0.197470158
0.203668252 0.306388497 0.204301462
0.211637929 0.309171498 0.196205050
0.225300252 0.308159500 0.198734984
0.238582954 0.300948799 0.201012000
0.248450249 0.306641370 0.205565989
0.264136702 0.310436517 0.208095998
0.283491373 0.313345850 0.214168251
0.298671484 0.314357996 0.214168251
0.318026602 0.320429981 0.219101891
0.338773012 0.324351281 0.221885249
0.356483400 0.327387661 0.223150089
0.381404251 0.328779221 0.230233803
0.402656645 0.334851235 0.237824365
0.429475218 0.337760985 0.246805936
0.450980306 0.341049969 0.250347972
0.474509895 0.347122014 0.254395902
0.495761752 0.353193998 0.253257245
0.524731100 0.357368529 0.259076238
0.550284982 0.365464985 0.267172515
0.579506636 0.374572873 0.276280910
0.609361291 0.385705531 0.286906958
0.644149303 0.396205217 0.292725891
0.676787078 0.407843322 0.304237962
0.717773676 0.416951686 0.319417983
0.756103635 0.426691949 0.332320988
0.788235128 0.440607190 0.349778175
0.825426757 0.453889847 0.371030599
0.858824015 0.472865254 0.394180715
0.198355287 0.324478000 0.199493647
0.201391399 0.327514380 0.202530041
0.204427779 0.328526497 0.204553992
0.210879475 0.326881826 0.205819160
0.214294642 0.329918087 0.208475992
0.224920645 0.330677003 0.210752711
0.238456309 0.331815630 0.216318637
0.251486331 0.332447916 0.218089640
0.262871653 0.330929726 0.215812728
0.275774628 0.339279145 0.222264290
0.295508862 0.342567742 0.227830514
0.314990252 0.343579620 0.230866641
0.330170631 0.344718277 0.234281987
0.351170063 0.350790292 0.237571403
0.367236048 0.354712039 0.239342630
0.394307435 0.358760267 0.246552825
0.417836756 0.359519243 0.252624720
0.440860510 0.365591258 0.262871921
0.459076643 0.366603285 0.260847658
0.483997703 0.372169286 0.267299294
0.507526875 0.379379898 0.272991627
0.531814933 0.385451913 0.275015622
0.559266508 0.391524643 0.280834645
0.588614643 0.399620384 0.286906898
0.621252179 0.411005557 0.297153652
0.655534267 0.420873255 0.309044629
0.690449178 0.433017284 0.318153054
0.724984467 0.442758083 0.329664618
0.761796415 0.453004420 0.345224261
0.798861384 0.465654463 0.362681448
0.829601228 0.484376848 0.383933872
0.862239361 0.500569284 0.405186266
0.205945998 0.343959093 0.209867075
0.208222657 0.346995413 0.212144434
0.211511776 0.350284755 0.214927286
0.218343005 0.351550013 0.219228193
0.229475036 0.352182478 0.221379027
0.235547036 0.355218112 0.221379027
0.246932060 0.357748330 0.226185992
0.259076416 0.361037344 0.228968993
0.272233009 0.363820106 0.230993122
0.290448993 0.366856515 0.240101516
0.308665037 0.370145202 0.240733996
0.328652292 0.371157080 0.240987033
0.347880691 0.372548670 0.243896380
0.364073098 0.375585049 0.252498060
0.382289857 0.381657034 0.258570820
0.411258817 0.389879823 0.266540170
0.437571049 0.394940019 0.271853030
0.456040174 0.395952046 0.272485614
0.474256992 0.402024060 0.275521994
0.500316381 0.407843024 0.283618331
0.526502073 0.415812761 0.292726278
0.552308321 0.423909009 0.300822020
0.582795501 0.430107534 0.306894034
0.610372961 0.436306089 0.307147026
0.644022584 0.446426064 0.313978314
0.681087613 0.456546396 0.324478000
0.718785167 0.463378012 0.336369067
0.746110260 0.475522012 0.345477432
0.778494716 0.487160027 0.364705771
0.813662291 0.500569165 0.385958165
0.846552968 0.518785596 0.407969624
0.870841026 0.546110034 0.429222047
0.230233967 0.377356231 0.234155819
0.224161983 0.380391836 0.228083819
0.228589401 0.385578364 0.228210405
0.236558989 0.385957956 0.236432821
0.247564524 0.382668972 0.248450384
0.250727415 0.388614446 0.242631406
0.264389724 0.386590689 0.245161057
0.277292818 0.389753401 0.247184977
0.289436966 0.393674821 0.248703167
0.302592993 0.394180894 0.255281866
0.320809752 0.400126398 0.258570522
0.339025795 0.401517808 0.260974228
0.357874691 0.403794825 0.263377756
0.376217842 0.408981413 0.267678440
0.403542221 0.412017792 0.270714819
0.421758384 0.418089807 0.274383187
0.446173370 0.424794406 0.281720161
0.468564391 0.428968966 0.287665993
0.489437371 0.432384789 0.290702373
0.510436773 0.435673445 0.293738037
0.540544152 0.443137139 0.301834315
0.569006801 0.451233387 0.309930384
0.594939470 0.457431912 0.316002399
0.628336668 0.466540307 0.322074383
0.658190787 0.472738832 0.329158694
0.689816236 0.484250456 0.339658380
0.722074568 0.496521294 0.351802409
0.752182305 0.505881965 0.363693416
0.782162964 0.512713671 0.378114790
0.816697955 0.521821558 0.398102164
0.849588811 0.535736561 0.422011167
0.873877406 0.558254004 0.450474381
0.242504805 0.408348978 0.253636986
0.243642986 0.416192204 0.257178992
0.246173531 0.419228375 0.248956740
0.252245605 0.421252221 0.250727803
0.262112617 0.417077601 0.261353791
0.271220714 0.419101596 0.255281806
0.272359312 0.424794078 0.266413450
0.290828675 0.421758473 0.264515787
0.306008875 0.424035579 0.264515787
0.319797605 0.424035579 0.270588160
0.335357547 0.429854602 0.273750931
0.351549536 0.427830577 0.270714790
0.369386286 0.430486917 0.276028007
0.387856007 0.437317789 0.282605797
0.410879403 0.438203394 0.283491403
0.438203782 0.446046770 0.293737978
0.454901993 0.450600982 0.295255780
0.477166533 0.457052559 0.301707566
0.501960993 0.465401769 0.308285952
0.528020382 0.468438029 0.313725412
0.554965436 0.473371387 0.318658769
0.584819794 0.480961591 0.325237125
0.609360754 0.486907065 0.330170780
0.640480697 0.491460890 0.340796769
0.669323266 0.502846599 0.349146068
0.698165417 0.510562897 0.356862783
0.727008045 0.522707045 0.366476864
0.755471051 0.531815171 0.376723588
0.783427954 0.543073654 0.401138395
0.820872307 0.556230366 0.419860750
0.856799185 0.567235768 0.441113174
0.884123981 0.582415760 0.466919810
0.257685184 0.440227568 0.270335197
0.260720789 0.446299583 0.273371190
0.259835362 0.451106966 0.270208746
0.268438101 0.454143018 0.269955963
0.276154637 0.451992184 0.275395542
0.289436996 0.451992184 0.270462185
0.291460991 0.454016179 0.274510056
0.299936682 0.458190888 0.281214386
0.318911970 0.455914170 0.278178364
0.333333284 0.455914170 0.284250379
0.351549685 0.458697200 0.285895050
0.365212113 0.461227357 0.287412971
0.381530374 0.459709376 0.287033617
0.400000006 0.467931539 0.298039138
0.421252370 0.469196379 0.299303979
0.442757964 0.474888980 0.304364175
0.468564183 0.482479185 0.313472182
0.485642135 0.485515565 0.314104766
0.512081265 0.495003194 0.321442157
0.539405584 0.500316322 0.329284996
0.568627238 0.503732145 0.335357398
0.596964061 0.509804189 0.343453377
0.621505201 0.515876174 0.348134190
0.651866019 0.520303488 0.357495189
0.679949462 0.528652728 0.367362469
0.705882132 0.538014174 0.376470476
0.733586133 0.547501385 0.384693116
0.761922598 0.557621598 0.396837622
0.787729144 0.569386125 0.415812969
0.819354534 0.577482343 0.438077152
0.858317375 0.596584558 0.461986154
0.888678193 0.608222365 0.485136181
0.275774986 0.474256963 0.285515577
0.280075759 0.478557706 0.287412971
0.279822558 0.479696304 0.284376949
0.280075729 0.482732564 0.281467557
0.290702403 0.485388696 0.292093575
0.304617047 0.485388696 0.289310902
0.309677154 0.485388696 0.289437413
0.317267269 0.485768229 0.290069968
0.332953542 0.489310533 0.291587949
0.345097542 0.489310533 0.297659963
0.364073038 0.489943117 0.299177945
0.381151080 0.491334796 0.300569266
0.395572543 0.496141970 0.305249602
0.413535565 0.501960993 0.314104974
0.434028953 0.504996717 0.317520112
0.454775572 0.509803712 0.318658799
0.474762946 0.515243113 0.323845565
0.499051094 0.520682693 0.329285145
0.523339987 0.523719132 0.332321554
0.549146354 0.528905571 0.340923220
0.577103138 0.533080280 0.348766446
0.605439246 0.537128508 0.355597973
0.629854500 0.543074071 0.367488980
0.659709215 0.548640132 0.373560965
0.687792659 0.556356847 0.382542849
0.713725507 0.565971136 0.393548429
0.738519609 0.572043180 0.403162122
0.768753827 0.583934128 0.421125859
0.793801606 0.596078098 0.436685801
0.822138131 0.605439305 0.454269499
0.854649007 0.611891150 0.473497599
0.885009825 0.633143544 0.503858387
0.281847060 0.510689020 0.300696015
0.290955395 0.519797444 0.309803635
0.299557209 0.517647028 0.311701030
0.306134999 0.516129196 0.307400167
0.311954051 0.518785954 0.301201999
0.311954051 0.518785954 0.301201999
0.323339671 0.518785954 0.303478718
0.334471971 0.517141283 0.306261778
0.348387003 0.516888022 0.309804022
0.366349995 0.522706985 0.315876037
0.378494740 0.525616884 0.321948022
0.397470236 0.526375949 0.323466033
0.416824996 0.530044377 0.325995982
0.434788018 0.538393080 0.332321018
0.449968398 0.541429460 0.338393003
0.475268781 0.544465780 0.334598005
0.497280031 0.547754765 0.336875230
0.517267168 0.551043630 0.344465613
0.541556001 0.554080009 0.347501993
0.563061416 0.557115674 0.356103659
0.586717486 0.560404778 0.365211755
0.611512005 0.564453065 0.373055041
0.635926604 0.570398569 0.379633009
0.663250983 0.573434949 0.385705054
0.690828383 0.579001009 0.396331638
0.716761410 0.589500666 0.411005974
0.741556048 0.602404058 0.427450985
0.768880367 0.608476043 0.439594984
0.793801606 0.620366991 0.454901874
0.819861114 0.634282172 0.473624200
0.848576963 0.647564948 0.493737966
0.878937066 0.660468042 0.512966096
0.315749764 0.552687764 0.324225008
0.313725412 0.559013426 0.327767342
0.320683002 0.559519291 0.330423713
0.327893376 0.557874918 0.331688553
0.333965480 0.560531735 0.330170542
0.338773072 0.560531735 0.332574368
0.346362740 0.563061416 0.330044061
0.359898716 0.563314378 0.334218800
0.373181343 0.562934816 0.337634742
0.387349367 0.566983044 0.339658737
0.405313104 0.572928607 0.342947394
0.421505362 0.573940754 0.349019378
0.440860301 0.576217771 0.351676017
0.459076732 0.582922101 0.356103718
0.476786762 0.583428204 0.362175703
0.501581132 0.584060788 0.368247718
0.525869608 0.586717606 0.371283919
0.545983315 0.589753509 0.379127145
0.568121374 0.592789352 0.382162988
0.595192790 0.598608434 0.387982726
0.614547908 0.605439484 0.398988068
0.638077497 0.610246897 0.406957626
0.664136708 0.614548087 0.411384881
0.688804269 0.620240688 0.420113742
0.713851929 0.625553787 0.430739760
0.740670383 0.630234063 0.442884356
0.765844405 0.639342129 0.458317727
0.788614750 0.649968743 0.475015730
0.810626090 0.656040728 0.492472708
0.836559117 0.666160941 0.507779598
0.862112582 0.680202723 0.530550122
0.886780381 0.696141720 0.558254421
0.342694730 0.591397464 0.348513454
0.343453318 0.595572472 0.355344862
0.350664198 0.595192909 0.358127713
0.352941036 0.595951676 0.359392881
0.357495010 0.599240959 0.359772086
0.365085602 0.599240959 0.352181911
0.375585139 0.603668869 0.357748151
0.384693176 0.605060220 0.358001173
0.399367541 0.605819106 0.362302750
0.412650198 0.608855188 0.362302750
0.426818490 0.612903476 0.367109597
0.443137437 0.616824687 0.370271742
0.461353451 0.616824687 0.376343727
0.479823023 0.620619774 0.380392045
0.499683708 0.618975461 0.386464477
0.521315515 0.620872736 0.394433737
0.545603931 0.622390926 0.402023911
0.566856265 0.625427127 0.411132306
0.588108718 0.628462732 0.416698217
0.611132085 0.636179447 0.418722421
0.634661496 0.640354156 0.426691979
0.652877986 0.646426439 0.434787989
0.677545726 0.648703754 0.437317759
0.703604996 0.654775739 0.448197365
0.727893591 0.660847783 0.459582478
