Assets/Resources/EldamarStudio/100 Horror LUTs Pack/LUTs/cube/Siurin LUT.cube
LUT_3D_SIZE 5
DOMAIN_MIN 0.000000 0.000000 0.000000
DOMAIN_MAX 0.903226 0.903226 0.903226
0.070588000 0.070588000 0.070588000
0.151043415 0.078431003 0.083997712
0.294243962 0.120936416 0.132700577
0.467932135 0.195193127 0.185452119
0.720935583 0.282605976 0.270840973
0.123213284 0.201011702 0.126502290
0.201391399 0.213156402 0.143200412
0.324983954 0.233775690 0.173307985
0.495382696 0.274636388 0.224288404
0.738772690 0.350917101 0.303225696
0.230233967 0.377356231 0.234155819
0.277292818 0.389753401 0.247184977
0.403542221 0.412017792 0.270714819
0.569006801 0.451233387 0.309930384
0.782162964 0.512713671 0.378114790
0.363947123 0.627830267 0.372801989
0.413029701 0.642505109 0.382289678
0.520303547 0.651992679 0.412776828
0.667046249 0.678810954 0.463124245
0.826438785 0.715749502 0.540543914
0.637318432 0.862997949 0.651486576
0.666666448 0.873624623 0.668564558
0.720682919 0.878810823 0.678305030
0.808222651 0.887665927 0.708285809
0.904996634 0.894496799 0.754965425
0.057179291 0.071221001 0.116381988
0.144212693 0.081087992 0.141935408
0.284503788 0.148134112 0.181151405
0.459076256 0.209234998 0.241619125
0.711448312 0.286527634 0.314990669
0.128146991 0.186717108 0.175584689
0.192915976 0.204048395 0.195572391
0.311954379 0.234787986 0.222011685
0.478431702 0.280202687 0.264515936
0.733206570 0.353826642 0.333586246
0.222643703 0.374699801 0.267425388
0.277925372 0.386843681 0.276281089
0.392409801 0.406451523 0.302467078
0.558254421 0.443390250 0.336116374
0.777229548 0.512839794 0.417077482
0.370271832 0.630486846 0.411131948
0.408854842 0.626945078 0.410119832
0.511574805 0.645161331 0.439215690
0.658317566 0.667678833 0.473244667
0.826944768 0.710562706 0.558380663
0.643137455 0.861226916 0.652245581
0.654901981 0.862745047 0.663377523
0.708665013 0.870335400 0.678684473
0.797849178 0.878431439 0.709044576
0.897406697 0.894876659 0.756483316
0.067932002 0.074510001 0.226818413
0.151043415 0.097406998 0.243516713
0.279823005 0.150410995 0.271979958
0.459076256 0.213156417 0.337507665
0.719544590 0.280582219 0.405565947
0.137634277 0.194813415 0.275901407
0.191524401 0.203288987 0.281087965
0.311575115 0.233396411 0.309297979
0.487539560 0.281467289 0.351423115
0.736875236 0.348260671 0.431372523
0.221631572 0.372675836 0.347122401
0.273624688 0.383174986 0.368121415
0.387096792 0.406704843 0.383174956
0.564706147 0.442378134 0.422770500
0.777609169 0.512713671 0.485895246
0.367236137 0.621505141 0.484883130
0.400506318 0.623149872 0.489437103
0.510056794 0.639848113 0.504237831
0.653637111 0.664009988 0.543453395
0.823909163 0.713472247 0.614421129
0.627198219 0.860467970 0.684756219
0.643516779 0.859329700 0.688677728
0.701581359 0.866287291 0.707526982
0.801770747 0.877166450 0.737761021
0.891840637 0.894496918 0.772296131
0.086274996 0.103984997 0.393295139
0.166729987 0.120303579 0.401265115
0.300189823 0.159519002 0.421505570
0.475775123 0.217709988 0.463124245
0.726122737 0.284882933 0.543579936
0.131941587 0.204680562 0.426691711
0.196078554 0.215433687 0.433902532
0.328905791 0.242884278 0.449968398
0.504238009 0.281846851 0.485641956
0.744591713 0.353826404 0.564705849
0.207843423 0.380518824 0.490828544
0.263757259 0.395319521 0.508159399
0.394307524 0.411638290 0.525742948
0.566730142 0.444655389 0.550031662
0.775585234 0.506514668 0.603921354
0.369892120 0.626818419 0.594433963
0.403415412 0.636559129 0.603921354
0.512713373 0.646426141 0.623529136
0.663124263 0.667046249 0.643516958
0.831119597 0.708791792 0.696394801
0.627197564 0.859329581 0.749904811
0.648576915 0.866666675 0.765338182
0.701328099 0.871600211 0.767362475
0.791018128 0.877545655 0.785452008
0.894876599 0.902087092 0.826185703
0.046932179 0.124225155 0.672612429
0.181403860 0.133712873 0.673877597
0.358506978 0.163441002 0.683618009
0.558001280 0.213282987 0.716128707
0.775711417 0.303604960 0.739152551
0.028083501 0.212523818 0.686274588
0.182795525 0.219354704 0.689816356
0.370145380 0.242252111 0.703225613
0.573687255 0.286780536 0.726628721
0.781910062 0.367994517 0.749904692
0.017710406 0.391777217 0.720682800
0.176090881 0.390385807 0.726502240
0.389120549 0.412017792 0.739152431
0.600126326 0.454269528 0.759772301
0.808348775 0.517394066 0.776976585
0.352055252 0.656293392 0.774825752
0.395825386 0.655914247 0.780518770
0.497406930 0.653004527 0.784819782
0.658191144 0.666792929 0.796584427
0.836432636 0.707273960 0.816192567
0.629348636 0.869829416 0.847438514
0.648323596 0.874256730 0.859961748
0.708412111 0.873624563 0.856672764
0.793042243 0.889563620 0.871600330
0.902466595 0.902466595 0.894623518
