Assets/Resources/EldamarStudio/100 Horror LUTs Pack/LUTs/cube/Siurin LUT.cube
LUT_3D_SIZE 8
DOMAIN_MIN 0.000000 0.000000 0.000000
DOMAIN_MAX 0.903226 0.903226 0.903226
0.070588000 0.070588000 0.070588000
0.096015446 0.070967548 0.071346998
0.168501094 0.079190098 0.087793000
0.252245277 0.106514998 0.121062644
0.336116195 0.143326998 0.141809195
0.442631483 0.184060991 0.176343992
0.564579546 0.230993271 0.224794567
0.720935583 0.282605976 0.270840973
0.083871000 0.113978542 0.083491549
0.120683089 0.124225549 0.098418549
0.188868105 0.136369094 0.111321993
0.257305533 0.153194547 0.132448003
0.341555983 0.182163537 0.153573990
0.439468473 0.217457533 0.185705096
0.565844297 0.251233250 0.229981020
0.715243101 0.306894064 0.278937370
0.131562188 0.217710286 0.138646096
0.172422081 0.227577642 0.154712543
0.225679994 0.237444982 0.161416993
0.290322542 0.242504641 0.176344097
0.370525002 0.260088384 0.190385997
0.474636376 0.285515636 0.224035367
0.597596288 0.320430189 0.258444101
0.738772810 0.370398283 0.312080920
0.198355287 0.324478000 0.199493647
0.214294642 0.329918087 0.208475992
0.262871653 0.330929726 0.215812728
0.330170631 0.344718277 0.234281987
0.417836756 0.359519243 0.252624720
0.507526875 0.379379898 0.272991627
0.621252179 0.411005557 0.297153652
0.761796415 0.453004420 0.345224261
0.257685184 0.440227568 0.270335197
0.276154637 0.451992184 0.275395542
0.318911970 0.455914170 0.278178364
0.381530374 0.459709376 0.287033617
0.468564183 0.482479185 0.313472182
0.568627238 0.503732145 0.335357398
0.679949462 0.528652728 0.367362469
0.787729144 0.569386125 0.415812969
0.342694730 0.591397464 0.348513454
0.357495010 0.599240959 0.359772086
0.399367541 0.605819106 0.362302750
0.461353451 0.616824687 0.376343727
0.545603931 0.622390926 0.402023911
0.634661496 0.640354156 0.426691979
0.727893591 0.660847783 0.459582478
0.822390795 0.687159956 0.517520428
0.458696961 0.732574522 0.464895844
0.481847018 0.736875117 0.483744264
0.506514847 0.744212270 0.478937387
0.560657561 0.750537515 0.501328170
0.624161661 0.753700197 0.518279254
0.689563274 0.759392560 0.540290534
0.762302279 0.771789968 0.570777833
0.848324060 0.784693062 0.616824925
0.637318432 0.862997949 0.651486576
0.654901743 0.871347368 0.663630843
0.673244715 0.874130368 0.666034281
0.707273602 0.874509633 0.674636483
0.742441595 0.878810823 0.683997214
0.795066655 0.884630024 0.701707482
0.846552789 0.893737793 0.726122320
0.904996634 0.894496799 0.754965425
0.072612457 0.070967548 0.090954997
0.092093542 0.070588000 0.088172443
0.164579093 0.089310899 0.113219440
0.240101635 0.122959994 0.138266638
0.321948200 0.157115549 0.164073542
0.421758711 0.194813356 0.202277005
0.551296353 0.234661743 0.243643284
0.710689127 0.283870816 0.284377277
0.088551991 0.109677091 0.094370544
0.124984540 0.117899641 0.127767086
0.175078645 0.134345442 0.130044088
0.244781837 0.157874644 0.152435452
0.330170751 0.189626992 0.181024894
0.426059246 0.221252546 0.211258739
0.550790668 0.255660832 0.242884293
0.695888281 0.304617345 0.287666082
0.137128085 0.204047740 0.157874539
0.165717646 0.215433195 0.166476741
0.208349079 0.216192201 0.171916544
0.275775075 0.235420644 0.193168655
0.358633399 0.256167084 0.214674190
0.461353540 0.282732397 0.235420734
0.587349713 0.321568847 0.275901318
0.733333290 0.368374527 0.320556611
0.188741192 0.307653368 0.212523729
0.211891547 0.315623194 0.223276183
0.250980616 0.323466271 0.229980737
0.321441829 0.333586276 0.242884293
0.398861825 0.349651903 0.256167114
0.500316381 0.370777845 0.276660293
0.617330909 0.406830847 0.310562819
0.748766482 0.448196977 0.356356621
0.253510565 0.445035189 0.269070357
0.267552346 0.449715197 0.286527663
0.307020962 0.448830187 0.286654115
0.375585020 0.458570719 0.299683601
0.457305372 0.471473575 0.317267179
0.551802814 0.493105739 0.341556191
0.669323087 0.526755035 0.375458419
0.789120793 0.562302172 0.427703708
0.329917908 0.580771923 0.352308273
0.351170003 0.590132713 0.363693714
0.391524464 0.590891778 0.364959091
0.453763723 0.600759029 0.381783515
0.534597933 0.614168286 0.400253087
0.615180016 0.629348755 0.426312715
0.720683098 0.655281425 0.465022445
0.815559745 0.685009539 0.521695137
0.451739579 0.722707093 0.468943536
0.466286808 0.730044544 0.475015819
0.495003104 0.727261066 0.477799088
0.545983434 0.736748934 0.494243801
0.609993756 0.740796864 0.513092935
0.680835009 0.752055526 0.537128448
0.760151803 0.762681842 0.567362249
0.837950528 0.779633284 0.612650394
0.630360305 0.858696938 0.633143485
0.638330400 0.862365544 0.646679342
0.653383851 0.859961808 0.641618907
0.684629977 0.860215127 0.656293273
0.729791105 0.868564248 0.678051829
0.784946442 0.874383628 0.700442791
0.840227783 0.883744299 0.723845541
0.887412786 0.891587317 0.742947102
0.054901998 0.068943903 0.128526002
0.092473090 0.074510001 0.136748642
0.169260010 0.090955101 0.167741999
0.252751529 0.131688908 0.182163432
0.333839089 0.164579093 0.206072196
0.432763726 0.202909380 0.244149446
0.556103528 0.243770003 0.276533902
0.713725328 0.287792802 0.325363725
0.085009553 0.118785553 0.142188549
0.135737002 0.127008095 0.169765547
0.186970457 0.146236449 0.179886460
0.255913734 0.171283737 0.199493736
0.342441201 0.199873209 0.225806192
0.441113383 0.232384741 0.252751648
0.562428534 0.266413718 0.288045734
0.707906306 0.310309768 0.333080083
0.139532089 0.215560108 0.199114203
0.170145184 0.232891008 0.221884996
0.220999092 0.235167891 0.229728103
0.285262287 0.244908556 0.234409004
0.370651305 0.268058270 0.253131032
0.472865641 0.291840643 0.277419209
0.589753449 0.325996101 0.307906270
0.739784837 0.370018899 0.348513663
0.200632200 0.331562072 0.264516354
0.223023549 0.335863531 0.273244649
0.268437713 0.338519990 0.271600544
0.334218621 0.343959183 0.284123749
0.410878837 0.363567293 0.290954918
0.506261945 0.382289469 0.314610630
0.622517526 0.415939301 0.346995384
0.760783970 0.454016447 0.394939899
0.258570373 0.447438180 0.309551001
0.282479644 0.450853825 0.313346207
0.319671094 0.455155283 0.326754987
0.382289469 0.464642316 0.332953990
0.464642406 0.477166295 0.351043284
0.556482911 0.498671830 0.371284157
0.672106266 0.528779447 0.405819178
0.790259004 0.568247974 0.457052439
0.345983624 0.598608375 0.397722721
0.366097629 0.601391613 0.399873525
0.398228824 0.602150679 0.408096075
0.462491900 0.610752642 0.418216377
0.538140178 0.622517645 0.432890743
0.625933111 0.635041058 0.457052618
0.722074747 0.655281425 0.495382726
0.824667990 0.689057708 0.547754645
0.458823264 0.734092414 0.500316381
0.482732534 0.734977603 0.505755723
0.512966514 0.741302967 0.516129076
0.560025394 0.743580282 0.529411674
0.621252179 0.751423120 0.546616316
0.689563513 0.753446937 0.565464675
0.761669874 0.767235935 0.591271281
0.842758000 0.786590815 0.628209770
0.647691488 0.866286933 0.664136708
0.653889775 0.868690789 0.673497856
0.670841277 0.866792977 0.678051889
0.703099072 0.872612357 0.685894728
0.740290701 0.874256730 0.698545098
0.792536378 0.880455732 0.712586582
0.844275713 0.888171971 0.735230863
0.896394551 0.896394551 0.760531485
0.063377991 0.074510001 0.192915633
0.101454541 0.077166550 0.197976276
0.165717736 0.100315996 0.220113993
0.236052930 0.126122996 0.236559272
0.332068384 0.166476831 0.265148640
0.430739999 0.201770738 0.290195733
0.555597901 0.232637569 0.323466271
0.719164789 0.282732457 0.376976818
0.101074994 0.123339646 0.213789091
0.131688893 0.129917890 0.215686649
0.176217288 0.146489277 0.224668175
0.247438282 0.168374196 0.246679291
0.332447827 0.196204841 0.270714819
0.433902562 0.223276272 0.294117659
0.563440919 0.259329289 0.332447827
0.710562766 0.301580995 0.376217723
0.148134008 0.209867194 0.258317292
0.170398444 0.220113993 0.275016099
0.213409543 0.228716090 0.267805189
0.282732278 0.241998985 0.279569983
0.365338534 0.258823752 0.301201761
0.464010000 0.289943099 0.325869471
0.592283189 0.323592663 0.359645993
0.738140464 0.369765878 0.404048264
0.192283645 0.319544286 0.301075637
0.212650657 0.313978255 0.308665186
0.257305712 0.323845625 0.311701268
0.319038630 0.338646621 0.315116912
0.402023792 0.352435082 0.337887734
0.503731906 0.379379898 0.354712248
0.621885180 0.408222646 0.389753550
0.755471110 0.451360106 0.433143407
0.253131092 0.440986365 0.356103599
0.271347553 0.449968725 0.359771937
0.315243721 0.450348288 0.370145619
0.379127175 0.458950281 0.377862036
0.456166923 0.470588386 0.385578752
0.555344641 0.494623750 0.410373151
0.671347499 0.525110722 0.448323905
0.786843836 0.567741513 0.492346644
0.337381482 0.587349534 0.435547113
0.358127832 0.588235378 0.435800105
0.398228824 0.593927979 0.444781363
0.456926107 0.601897717 0.453889996
0.534092247 0.618469119 0.472738832
0.619987071 0.634155631 0.493864626
0.717899919 0.651360035 0.525363564
0.819101870 0.686906934 0.576344311
0.459835619 0.728652537 0.532700956
0.473118067 0.730423927 0.532068133
0.502466619 0.732068181 0.537001729
0.549019217 0.733206868 0.548386931
0.610626101 0.743832886 0.567362249
0.681087852 0.751802504 0.582542479
0.760025263 0.764579296 0.614420891
0.840354145 0.782416105 0.650094688
0.632637382 0.860594749 0.673497796
0.642125070 0.860594511 0.680328906
0.661353827 0.860341549 0.683111727
0.689437270 0.867678821 0.690702438
0.732194662 0.870841026 0.705502689
0.785578668 0.876407325 0.724098563
0.840227842 0.884630263 0.744338989
0.896773815 0.895635426 0.775964320
0.078431003 0.083871193 0.276660383
0.109803900 0.088551797 0.274257183
0.169386089 0.111322001 0.283744276
0.243010998 0.135230541 0.300948799
0.328273207 0.174067184 0.325869352
0.434281915 0.206198812 0.354712188
0.564452648 0.235927001 0.390765399
0.725869358 0.285135984 0.449209303
0.107653350 0.135610089 0.284882724
0.129285187 0.144718558 0.296015352
0.183807746 0.152814895 0.298671991
0.255534172 0.176470801 0.310689449
0.337381661 0.202656657 0.331056535
0.438709497 0.227324292 0.362428844
0.565085292 0.259708911 0.398228854
0.715749443 0.299557328 0.443516999
0.149778903 0.217837006 0.314864099
0.176470906 0.227324203 0.327893734
0.211511984 0.232005000 0.330676973
0.284503192 0.244529009 0.342441171
0.363567382 0.264136881 0.358760178
0.468817025 0.290195942 0.388994336
0.597596467 0.323719025 0.424667895
0.738393426 0.367741823 0.465781331
0.195192993 0.313345999 0.357242256
0.216698557 0.324478209 0.371030807
0.259708941 0.330297559 0.373307794
0.323971927 0.342694759 0.386211187
0.403794855 0.354838282 0.401138365
0.504870534 0.380771369 0.421379060
0.627956748 0.406830937 0.450221449
0.757621706 0.450474083 0.492978990
0.250727177 0.439595401 0.415812582
0.276660204 0.447438389 0.428336531
0.316635072 0.449715286 0.429348171
0.380012482 0.463883460 0.439848006
0.463124394 0.475522161 0.454395980
0.556609750 0.495888650 0.468437672
0.672232568 0.522580385 0.496015012
0.792283416 0.562428892 0.545603752
0.341555983 0.588488460 0.492220163
0.359519362 0.592283487 0.495129257
0.396458209 0.596204937 0.503858268
0.452878088 0.606071830 0.510942280
0.533080161 0.616318941 0.525363684
0.619734466 0.633522868 0.542820990
0.724351525 0.658823490 0.581530750
0.821884751 0.688298404 0.620114028
0.466793180 0.728779078 0.584566534
0.476913571 0.730802894 0.586717248
0.502087355 0.735863328 0.591650963
0.545983493 0.739026248 0.594307661
0.614168286 0.744465470 0.607969582
0.686780691 0.754205823 0.626059353
0.763946533 0.766350329 0.648576677
0.848197103 0.787982166 0.686654031
0.625679731 0.865527987 0.702846110
0.632764280 0.866287053 0.699936569
0.652371466 0.865654707 0.708538771
0.689057469 0.867931545 0.719671011
0.732574165 0.873750806 0.730044127
0.788614869 0.878558159 0.746362984
0.840101302 0.887792468 0.770271838
0.898038924 0.892599404 0.789373815
0.084250741 0.101961002 0.357874721
0.114737540 0.110056542 0.363946468
0.179380000 0.121062733 0.374699622
0.256166995 0.144591644 0.383048803
0.337887436 0.173940271 0.403288990
0.438330442 0.207589984 0.426691979
0.566982806 0.243770003 0.477419734
0.725869596 0.281847060 0.524604559
0.110942543 0.142188355 0.362428665
0.137634367 0.156736284 0.369259655
0.189247549 0.161416903 0.379379809
0.263124436 0.177482635 0.393421829
0.344085723 0.200126454 0.407210469
0.441113204 0.233775720 0.434535474
0.562555313 0.260847479 0.471347481
0.715622663 0.302213877 0.520936131
0.144591838 0.219607741 0.404174715
0.175078824 0.230234280 0.410879254
0.215559736 0.236179829 0.414927363
0.288424909 0.247944444 0.422390938
0.377609074 0.267552525 0.437065095
0.471347451 0.291461110 0.463124722
0.598102570 0.321568757 0.498418719
0.741808712 0.365211785 0.545224488
0.190132648 0.315243274 0.445034713
0.209234998 0.324984252 0.450853735
0.252498716 0.330929726 0.452371836
0.321442008 0.339785159 0.462239087
0.411384940 0.355091810 0.475142270
0.506768107 0.380139023 0.499430358
0.623149753 0.402403533 0.521315575
0.764073431 0.449715167 0.567742050
0.248956189 0.444402128 0.495888472
0.268817276 0.449082732 0.500695825
0.305376291 0.453004718 0.504996657
0.373181701 0.461732924 0.515749514
0.460594565 0.478937626 0.528652728
0.560404658 0.495003194 0.544844747
0.674383342 0.520050585 0.571790159
0.784692764 0.559519112 0.606957555
0.340543956 0.587349474 0.558001220
0.355471253 0.594180882 0.562175632
0.398102641 0.597849250 0.566729784
0.456546366 0.604174793 0.581277370
0.533712924 0.615306973 0.593168736
0.626691937 0.630613446 0.607084453
0.723845541 0.653004766 0.631625950
0.823023319 0.681214750 0.673371375
0.465274990 0.719797254 0.637064993
0.473877102 0.725110531 0.634788334
0.500316262 0.730803311 0.634029090
0.546616256 0.737887263 0.650853753
0.610120356 0.744338989 0.665148437
0.683364987 0.755977511 0.673877299
0.762555301 0.765717804 0.694370687
0.849968255 0.787223279 0.723972261
0.626185596 0.860341668 0.737507939
0.634914339 0.863883674 0.742694378
0.650094748 0.861100554 0.747375071
0.680834830 0.867299318 0.751929283
0.720809639 0.872485876 0.758633971
0.777861953 0.876027644 0.770524681
0.836432517 0.886653900 0.786843956
0.899936736 0.899556994 0.820619702
0.083997712 0.116002284 0.493990958
0.123086996 0.121189453 0.493611515
0.195066288 0.129285276 0.499430537
0.275901645 0.152435347 0.509171188
0.372549087 0.177862272 0.528399587
0.474763006 0.203415453 0.546489298
0.596584558 0.244401991 0.573054552
0.728273213 0.287792802 0.612144053
0.100442730 0.154459000 0.489942968
0.133333296 0.160404846 0.497027010
0.197216645 0.168627292 0.500316381
0.281593949 0.183048636 0.510563016
0.373054922 0.206198812 0.530550182
0.478810996 0.232005000 0.546868801
0.591397822 0.261227012 0.574699283
0.722327590 0.306261927 0.607084036
0.110057004 0.230360270 0.516888142
0.154838547 0.229095623 0.532195032
0.220366910 0.240607098 0.538267136
0.301201850 0.250474364 0.539152205
0.399367481 0.266413987 0.555091500
0.504364371 0.295129657 0.576344073
0.620872676 0.325743288 0.600505531
0.743959308 0.368500829 0.624035358
0.140417367 0.324604630 0.559392571
0.169133440 0.327514201 0.559519172
0.237571001 0.332700551 0.569513202
0.327261329 0.342441261 0.576344311
0.424035639 0.358380705 0.586970091
0.527767122 0.381150931 0.601897657
0.644781947 0.412650257 0.619607925
0.762808204 0.449209630 0.651233315
0.213535622 0.456673086 0.600000262
0.235673547 0.461100638 0.606957495
0.288551718 0.461353540 0.610120356
0.359772116 0.462618828 0.615180075
0.460594445 0.473244905 0.625933290
0.565591276 0.495129645 0.641998708
0.677419543 0.520936072 0.656420052
0.788362026 0.556483030 0.685009480
0.329411715 0.602909446 0.662239313
0.349145859 0.604933262 0.667172730
0.386717260 0.603668511 0.658191025
0.447564811 0.613662481 0.670334935
0.524098635 0.617330730 0.678431332
0.618216455 0.634281993 0.684756517
0.720303535 0.654901981 0.708539009
0.818343043 0.677925229 0.727514148
0.458696961 0.729285538 0.710942507
0.468058556 0.733839273 0.702214003
0.499683589 0.732574582 0.707527161
0.543200672 0.737634182 0.715243280
0.607084334 0.742821217 0.720050454
0.681214750 0.751169980 0.733712673
0.762302279 0.767868578 0.748260617
0.848576665 0.788235545 0.776091099
0.621125877 0.858950019 0.772928774
0.630613208 0.860721111 0.789626539
0.642251730 0.863504231 0.782921970
0.682352960 0.866919577 0.794307470
0.724351823 0.871473551 0.805060089
0.774193048 0.879190385 0.812397301
0.828968942 0.885009527 0.827071548
0.899050832 0.894244254 0.851107001
0.046932179 0.124225155 0.672612429
0.111701742 0.128146827 0.667678893
0.207210541 0.138772994 0.677166462
0.304617256 0.151297003 0.677419424
0.419102013 0.175584987 0.697406590
0.530929565 0.204933643 0.712333679
0.653004527 0.248071268 0.725743175
0.775711417 0.303604960 0.739152551
0.047438350 0.159140006 0.668564081
0.119291425 0.161037266 0.679190516
0.206072107 0.170398340 0.676913261
0.311068624 0.182163343 0.682099998
0.416571647 0.205566108 0.695635617
0.534092426 0.234534815 0.707906306
0.649462223 0.268564343 0.719924033
0.776723266 0.321315825 0.745224178
0.024035409 0.230993181 0.688298583
0.111954279 0.236179933 0.688804328
0.208602205 0.241366193 0.696394801
0.317014366 0.253889978 0.705376625
0.430613488 0.271853179 0.709424615
0.549398720 0.298418999 0.726375699
0.664010465 0.333965838 0.737001657
0.784439862 0.386464000 0.752940834
0.011259016 0.328020453 0.714610755
0.086906940 0.331309378 0.718785405
0.206198722 0.334724635 0.714358091
0.320682913 0.348513454 0.720176816
0.437065095 0.363187671 0.724857569
0.556103706 0.386843562 0.734345436
0.677292705 0.422137976 0.748134017
0.793295562 0.463377446 0.764579415
0.110815771 0.462618530 0.732574403
0.164452881 0.463883370 0.742188275
0.227071479 0.459456086 0.738899350
0.335483998 0.462491810 0.743579745
0.457432359 0.475648016 0.747121811
0.579885960 0.499051005 0.760784149
0.699051201 0.531435728 0.770904422
0.811258793 0.567994773 0.785325646
0.307526797 0.618342698 0.762934566
0.328399926 0.617583871 0.771536887
0.370777726 0.623782098 0.775964677
0.434029371 0.618089497 0.777861953
0.513472557 0.615686178 0.777482688
0.618722498 0.630613446 0.786464512
0.734345257 0.654016197 0.796963811
0.832637489 0.680708468 0.813915491
0.472992092 0.756609857 0.809234321
0.487665802 0.755977273 0.807336867
0.514104724 0.755344868 0.804806888
0.557748139 0.757116020 0.811258614
0.607590139 0.757874966 0.811384916
0.682099819 0.761922777 0.818216205
0.758760393 0.766603351 0.825553358
0.858570576 0.793169141 0.839721620
0.629348636 0.869829416 0.847438514
0.644402385 0.875142276 0.850221455
0.655154645 0.875521958 0.859202564
0.686147690 0.876280785 0.860467970
0.728146553 0.877545655 0.857684970
0.778621316 0.887286723 0.869070351
0.834661484 0.893864572 0.879569650
0.902466595 0.902466595 0.894623518
