Assets/Resources/EldamarStudio/100 Horror LUTs Pack/LUTs/cube/Slayer LUT.cube
LUT_3D_SIZE 5
DOMAIN_MIN 0.000000 0.000000 0.000000
DOMAIN_MAX 0.903226 0.903226 0.903226
0.003922000 0.000000000 0.062744997
0.071979985 0.017330708 0.080075711
0.253763795 0.041871995 0.124857575
0.438583136 0.126628861 0.189374119
0.680328608 0.235546961 0.286527634
0.011511698 0.125236705 0.114104696
0.118405990 0.130803406 0.131435990
0.267172694 0.168374285 0.162808403
0.446047008 0.220746279 0.221631825
0.690069556 0.305502802 0.315243393
0.140670404 0.308032393 0.230866402
0.193674818 0.322454393 0.226944983
0.311954379 0.330929786 0.254396379
0.481720537 0.375079274 0.304996699
0.712334037 0.458570212 0.376091212
0.279696137 0.542568088 0.348260134
0.325489938 0.552055657 0.369512826
0.426185519 0.563187718 0.381277829
0.560152113 0.582795262 0.413915277
0.758633733 0.644908071 0.478304803
0.543453336 0.812143803 0.595445573
0.564832449 0.815180480 0.591650426
0.628715992 0.822011173 0.617710412
0.725363612 0.833143771 0.635293841
0.845034540 0.840986848 0.681720555
0.002277292 0.021252289 0.143200412
0.071347401 0.022896998 0.148133695
0.241366386 0.080455415 0.196837410
0.420873135 0.163820133 0.263883710
0.662618756 0.256419808 0.341049701
0.018342994 0.120050691 0.176217705
0.117773406 0.141302973 0.196204975
0.256420195 0.175964400 0.227577403
0.429981142 0.231878519 0.279569685
0.677039742 0.315875798 0.358001351
0.152055696 0.311954409 0.276280671
0.203415394 0.317520678 0.276913673
0.314231664 0.335483402 0.300442696
0.474509925 0.376723379 0.342947721
0.708412230 0.458190918 0.415053517
0.291081429 0.543580234 0.395066410
0.331056237 0.547121942 0.396078348
0.425173819 0.558633685 0.410752833
0.558886707 0.576976240 0.436179429
0.755091906 0.644149244 0.508918405
0.544338584 0.806957603 0.599493742
0.561163425 0.809614301 0.603415310
0.627957046 0.817457199 0.622643769
0.724351943 0.831499100 0.648197174
0.827956736 0.842631519 0.689436555
0.000632584 0.015686000 0.301454395
0.089310274 0.037950993 0.311575115
0.245287389 0.095508985 0.316508800
0.420619994 0.173054695 0.353826404
0.666540205 0.262871832 0.437571377
0.036685824 0.157621816 0.311574697
0.132447705 0.165464997 0.316508383
0.263251096 0.192915991 0.330550075
0.428715974 0.244275957 0.368501127
0.671473682 0.321442097 0.456546664
0.164199397 0.313219398 0.357621402
0.215180397 0.330929816 0.366223782
0.343327224 0.370778263 0.409993380
0.483997226 0.395698816 0.430992782
0.705756068 0.465022236 0.495129526
0.304743826 0.539911330 0.471094131
0.336242974 0.550917149 0.478051841
0.428336233 0.562808156 0.488804698
0.569386542 0.584693253 0.518912137
0.754585743 0.647438407 0.574193656
0.541050017 0.806957781 0.638962388
0.557874739 0.805945635 0.646046758
0.625300586 0.815433204 0.661227226
0.727640748 0.827577531 0.684756637
0.835167289 0.839594960 0.723465800
0.000000000 0.063883863 0.499431103
0.123339534 0.085768417 0.495762408
0.294117659 0.138393536 0.499684006
0.459203243 0.200126261 0.506262004
0.669829428 0.274762958 0.568374395
0.063124277 0.206957266 0.490575820
0.165844679 0.207969397 0.494750530
0.312334090 0.230233967 0.501328528
0.462744981 0.267805129 0.518659234
0.683238506 0.332321405 0.581151366
0.190006271 0.363693804 0.517773509
0.245540693 0.370145231 0.526122510
0.360784531 0.382922083 0.537001789
0.502340376 0.409108281 0.556230545
0.712966621 0.461353660 0.612144232
0.300190002 0.552308381 0.587603092
0.347501695 0.560151577 0.584946096
0.444022804 0.575205564 0.603541851
0.605313122 0.617078125 0.642505169
0.767109454 0.654901981 0.674510121
0.539152443 0.807337046 0.719671130
0.556103587 0.813156247 0.724351645
0.626312435 0.819101691 0.735104620
0.724098802 0.834155619 0.747628093
0.837064803 0.843516767 0.776217580
0.067299418 0.154458806 0.784946442
0.208475500 0.171790093 0.785452187
0.387222946 0.206830949 0.785579026
0.581277728 0.261100650 0.785325587
0.752181709 0.324604630 0.779632747
0.126881644 0.264263242 0.784313440
0.231372654 0.272485644 0.777735472
0.400126338 0.294370383 0.780644894
0.580644906 0.328146666 0.783554792
0.756103694 0.376217782 0.785199523
0.210120216 0.433016777 0.779506743
0.276533902 0.437570959 0.780391872
0.425173789 0.448071212 0.783427954
0.593548357 0.468690664 0.785072505
0.760658026 0.504996836 0.792030156
0.369512826 0.637697756 0.797722876
0.405945688 0.637318313 0.797343433
0.496521235 0.637697756 0.799620330
0.628842533 0.644528925 0.802782893
0.784946144 0.670335114 0.809361041
0.554965377 0.818848789 0.827703953
0.571536839 0.822643578 0.828209937
0.632511079 0.825300395 0.841619194
0.725363612 0.836432636 0.845793784
0.855281770 0.867172599 0.877672434
