Assets/Resources/EldamarStudio/100 Horror LUTs Pack/LUTs/cube/Slayer LUT.cube
DOMAIN_MIN 0 0 0
DOMAIN_MAX 1 1 1
LUT_3D_SIZE 32
0.003922000 0.000000000 0.062744997
0.003922000 0.000000000 0.062744997
0.003922000 0.000000000 0.058443997
0.003922000 0.000000000 0.054901998
0.005819450 0.000758999 0.056040544
0.020999063 0.006830999 0.065148935
0.046299964 0.012902999 0.074256673
0.071979985 0.017330708 0.080075711
0.095509097 0.019608000 0.084630102
0.116761506 0.019607998 0.093738489
0.152561739 0.016698129 0.102846123
0.176849991 0.019733995 0.107906252
0.199620277 0.026944643 0.113219641
0.229475066 0.035799999 0.121821970
0.253763795 0.041871995 0.124857575
0.278051972 0.052751601 0.127893806
0.303858191 0.066413797 0.135483995
0.331815124 0.081593566 0.146995574
0.362175971 0.096773982 0.156103984
0.384187371 0.106388360 0.162429005
0.409234732 0.115496732 0.174193740
0.438583136 0.126628861 0.189374119
0.471852988 0.141935006 0.204680979
0.502213836 0.160151809 0.222897008
0.530297279 0.176091284 0.232005000
0.561796308 0.189879984 0.240859970
0.598735034 0.202530071 0.253510058
0.638203382 0.217710435 0.268690437
0.680328608 0.235546961 0.286527634
0.722833335 0.253763407 0.306515157
0.766223788 0.272865593 0.326881975
0.811765015 0.294117987 0.345097989
0.000885613 0.003036387 0.056672998
0.000885613 0.003036387 0.062744997
0.005186612 0.000885613 0.062744997
0.004427613 0.002529999 0.062239159
0.003542159 0.006451548 0.064389832
0.024035448 0.009867387 0.068184547
0.046806030 0.013409063 0.074762613
0.071979985 0.018974997 0.085009411
0.097027093 0.021884711 0.091461390
0.122833498 0.019608006 0.093738489
0.146995738 0.031245995 0.102846123
0.174825981 0.034914382 0.109929994
0.197343275 0.040986385 0.113978252
0.223656029 0.048450068 0.119291641
0.250727415 0.060088769 0.127893969
0.275016189 0.066160768 0.128526390
0.302340388 0.075522184 0.135483995
0.331182539 0.087033756 0.146995574
0.359139562 0.099810377 0.156103998
0.381150991 0.114990756 0.173561022
0.408096075 0.126502380 0.184439987
0.437571257 0.137760997 0.195445880
0.468690872 0.151043400 0.204554468
0.496141821 0.169260189 0.219860613
0.531056583 0.180645093 0.233523175
0.563441038 0.194307268 0.245288044
0.598735034 0.208602071 0.259076774
0.638203382 0.223782435 0.271726817
0.675015569 0.241618946 0.289563358
0.718532562 0.259835392 0.304237545
0.764958858 0.278051972 0.324351400
0.814800620 0.297153592 0.351170003
0.000000000 0.006072226 0.057052772
0.000000000 0.010373225 0.065274999
0.002150774 0.008223000 0.067046002
0.006957613 0.007716612 0.068311162
0.006578094 0.012902998 0.070968002
0.026059708 0.017710160 0.072232835
0.056293644 0.020746451 0.077798776
0.077292994 0.023782484 0.085515477
0.099810094 0.030107450 0.095635995
0.124351494 0.032637488 0.098419003
0.148766741 0.041998770 0.102846123
0.177102983 0.050094765 0.111954249
0.201644272 0.055028412 0.117014416
0.225933060 0.060341515 0.120303772
0.251360148 0.070588052 0.127514407
0.280581802 0.082226768 0.138014004
0.303352416 0.086780578 0.141049996
0.330550134 0.096521363 0.150663987
0.356356740 0.111701787 0.158254221
0.384566367 0.120177366 0.173561007
0.407716453 0.133459985 0.186084732
0.436559141 0.144592121 0.197975770
0.465907693 0.155850753 0.206451729
0.497280151 0.174067035 0.217583880
0.529285550 0.187602699 0.230486795
0.565717936 0.199493647 0.242631197
0.601391375 0.214674070 0.258570582
0.642504394 0.229854435 0.277292997
0.679316580 0.245540738 0.292599738
0.722833276 0.267299145 0.309044927
0.767868400 0.285389155 0.325110495
0.815685987 0.302340001 0.352941006
0.001265161 0.016698159 0.065148838
0.000000000 0.021505320 0.069196776
0.002150774 0.021125773 0.073118001
0.007716838 0.023150161 0.075648323
0.012650094 0.026185771 0.078305162
0.030866871 0.031372160 0.078305162
0.060468160 0.034914482 0.083365165
0.085642152 0.039215706 0.088551544
0.105376162 0.043010999 0.097659931
0.127134487 0.051612679 0.104238003
0.151296735 0.058191027 0.107400127
0.179633304 0.066540316 0.114484251
0.206577957 0.071473673 0.121315643
0.230740160 0.074762993 0.124605000
0.255028635 0.082858726 0.130676985
0.282858968 0.094370440 0.141555980
0.309930354 0.103226125 0.150663987
0.333080113 0.107526734 0.157368571
0.358633816 0.123845786 0.164073184
0.384692997 0.133460164 0.175964534
0.411258459 0.143327147 0.189879894
0.436559141 0.154459283 0.200000152
0.464262992 0.163820624 0.212017670
0.498798102 0.180898011 0.221126065
0.530929863 0.195825145 0.232511148
0.564453125 0.206830814 0.244655132
0.601391196 0.222011223 0.256799132
0.643136859 0.237191603 0.278051734
0.684123755 0.252371967 0.295635819
0.725110471 0.270335227 0.308285832
0.771916330 0.294624031 0.327893853
0.814421177 0.310942322 0.352941006
0.003542452 0.038709544 0.079190098
0.001265161 0.041366383 0.077672385
0.002150774 0.040860321 0.077039778
0.009614385 0.042125158 0.082479320
0.020240093 0.049715545 0.087033994
0.038456868 0.052751161 0.087033994
0.064895540 0.056546416 0.092093997
0.089057408 0.060847539 0.096521288
0.108412549 0.066540092 0.100316092
0.132700562 0.072612099 0.109424479
0.156989187 0.076533869 0.113092676
0.184566960 0.083238706 0.119797252
0.211891636 0.090069897 0.127008095
0.233396992 0.093358546 0.130803511
0.257684976 0.099430539 0.137128547
0.284376770 0.110309541 0.146868989
0.310183376 0.119417936 0.155976996
0.334977955 0.125743508 0.162681580
0.365338027 0.134851143 0.171789974
0.387728930 0.146742716 0.181657359
0.411258459 0.158507541 0.193801731
0.436938673 0.169639587 0.208349451
0.464389503 0.178874463 0.220240474
0.500316262 0.193801194 0.229095906
0.532194972 0.208601832 0.241239995
0.564706087 0.220999211 0.252245545
0.598735034 0.231878608 0.265148550
0.638203382 0.247058988 0.277292550
0.682226419 0.261859834 0.294370651
0.725616753 0.278810948 0.308791846
0.767742097 0.298039198 0.322580189
0.810246944 0.322328001 0.352941006
0.000506065 0.066033930 0.085262865
0.003542452 0.066033930 0.094370484
0.003415935 0.068690769 0.086401001
0.014041997 0.070714712 0.088172100
0.035420477 0.074003547 0.099178001
0.056672864 0.070967935 0.093106002
0.072359316 0.079064183 0.098166004
0.093358636 0.083871156 0.102593288
0.114105098 0.087413028 0.105629094
0.135736957 0.090828873 0.109424487
0.160024941 0.099809989 0.115622997
0.184313565 0.105881989 0.121188931
0.209614336 0.111321703 0.127766997
0.233396992 0.114610933 0.133839116
0.257684976 0.120682925 0.145983890
0.284376770 0.131561920 0.149905130
0.310183376 0.140670314 0.155976996
0.334471971 0.146742925 0.162681580
0.359266013 0.153067932 0.171789974
0.384060711 0.164958879 0.186464369
0.409740657 0.175205722 0.196837738
0.437571257 0.184819803 0.208981872
0.467425883 0.194054082 0.223276079
0.497785956 0.206198886 0.229348868
0.529158592 0.218848869 0.245034993
0.563693643 0.230107591 0.255281657
0.601644158 0.241239995 0.262365907
0.638203382 0.262239397 0.280328929
0.677672446 0.274762928 0.295129746
0.718153059 0.290954947 0.314358175
0.758127630 0.309171200 0.332700849
0.798102140 0.328400016 0.352941006
0.000000000 0.098418318 0.098924674
0.008096387 0.098418318 0.102972932
0.019734774 0.098418318 0.109930322
0.027957156 0.099809997 0.103858158
0.048070543 0.101580866 0.110309772
0.069322936 0.102846257 0.112840317
0.088045642 0.102340311 0.111828320
0.106515020 0.108159706 0.116255604
0.127008319 0.111954637 0.120809413
0.146489501 0.116761796 0.127387807
0.165591627 0.123086765 0.123213314
0.187855884 0.128146380 0.131309062
0.212776959 0.135989606 0.139025643
0.238456994 0.143200606 0.146236360
0.262744993 0.146995321 0.151549831
0.287033588 0.153067306 0.163693994
0.312713295 0.161922693 0.168627307
0.337001801 0.167995304 0.175331891
0.361290365 0.174067333 0.184440300
0.385578394 0.185705334 0.199114695
0.415559888 0.194054320 0.206704572
0.444149435 0.203541994 0.214547798
0.472865492 0.214167818 0.226438820
0.500822365 0.223908812 0.234914809
0.531182885 0.236052990 0.247818276
0.567109644 0.248197332 0.264389604
0.607716680 0.258950323 0.274003744
0.646173120 0.274130434 0.290195972
0.682732403 0.289943308 0.303225487
0.723972321 0.305629253 0.320177078
0.765970826 0.323845506 0.342441559
0.808728337 0.342062324 0.365591317
0.011511698 0.125236705 0.114104696
0.020620085 0.123592407 0.113852091
0.034029473 0.126881406 0.122327700
0.042884700 0.126881406 0.124604538
0.057305414 0.128019959 0.121947698
0.079822637 0.133586347 0.125490159
0.098544925 0.130803406 0.128146991
0.118405990 0.130803406 0.131435990
0.138140380 0.134598702 0.132953599
0.155471012 0.140670687 0.138519764
0.173687741 0.146742687 0.139658689
0.193928242 0.150790438 0.140417427
0.216318995 0.153826341 0.149525344
0.242884353 0.163946986 0.158380702
0.267172694 0.168374285 0.162808403
0.289816588 0.172169417 0.171410695
0.315623194 0.179759219 0.182036504
0.340037644 0.187223420 0.189500138
0.364326268 0.195319712 0.199620679
0.388614714 0.205312997 0.206072375
0.413662195 0.213662401 0.218595952
0.446047008 0.220746279 0.221631825
0.474256784 0.232257709 0.229728177
0.504617155 0.242884308 0.241872191
0.537507832 0.252624691 0.253890276
0.570651591 0.266160339 0.269070655
0.612144470 0.278557986 0.284250349
0.651613116 0.290701985 0.299430430
0.690069556 0.305502802 0.315243393
0.725110590 0.320809633 0.325995684
0.768501043 0.340796888 0.345097870
0.814041734 0.360531718 0.370904297
0.031246094 0.147248194 0.130803093
0.040354483 0.146489471 0.127767488
0.049968775 0.147628188 0.128653005
0.063377999 0.152688190 0.137507826
0.064895995 0.153067648 0.135610089
0.087665997 0.161416933 0.136369199
0.106894195 0.159392998 0.138140410
0.125995800 0.155851096 0.142061993
0.146489099 0.156609997 0.148893103
0.161669508 0.162681997 0.145856708
0.180518642 0.168753996 0.150031745
0.201518238 0.172801927 0.155597940
0.221632093 0.175837830 0.159392640
0.245920092 0.179127187 0.167995036
0.270208716 0.185199186 0.173561081
0.293611676 0.190385804 0.182795793
0.315623194 0.195699096 0.190385997
0.342947543 0.203541711 0.198861182
0.367362142 0.215306967 0.210752949
0.392409742 0.224667847 0.215560094
0.418216467 0.232637569 0.222390980
0.441492975 0.239721969 0.232258022
0.472232491 0.248829603 0.235800385
0.506894112 0.260341793 0.250980198
0.541808665 0.271726906 0.262365460
0.578241408 0.282858759 0.275901556
0.615180135 0.298039168 0.291588038
0.654649198 0.310436189 0.307020724
0.694876790 0.323718995 0.324098557
0.730803132 0.338140279 0.337760955
0.768500686 0.355977088 0.350410789
0.814041913 0.380265921 0.371663213
0.046426497 0.171536982 0.152055487
0.055534877 0.177608982 0.149019882
0.058191493 0.176850274 0.137381732
0.066414014 0.177988976 0.133459836
0.083112016 0.183428437 0.141682103
0.095256016 0.186464041 0.147754878
0.112966649 0.187223017 0.148513988
0.131182969 0.185325727 0.150284782
0.149525493 0.183934391 0.154965103
0.167741507 0.186970010 0.164073497
0.188740879 0.193042010 0.163946986
0.211891010 0.197090283 0.170272276
0.232637644 0.200126633 0.176850334
0.248956487 0.203415990 0.180139050
0.273244441 0.209487990 0.183175430
0.299936295 0.217963174 0.193548486
0.322453916 0.225300387 0.201012209
0.342947543 0.230866879 0.204933971
0.370271981 0.233902514 0.211005986
0.397469848 0.242884368 0.225680366
0.426565468 0.251992732 0.236432746
0.452624977 0.260974348 0.244654998
0.472232491 0.270081997 0.250979990
0.511701703 0.279190391 0.266160429
0.546363294 0.292979270 0.274509490
0.581277788 0.306514949 0.285009176
0.618216515 0.319291562 0.300695658
0.657684863 0.334471911 0.318912417
0.699810088 0.344212800 0.334345102
0.736875117 0.355344951 0.347880930
0.774699092 0.371157467 0.362555534
0.823149502 0.395445496 0.383807957
0.061606869 0.198734865 0.158760011
0.064895518 0.201897740 0.161543384
0.076154679 0.207969740 0.160658002
0.085515708 0.204680696 0.158127859
0.101707540 0.202530012 0.164832279
0.116381861 0.208095923 0.168374732
0.125996187 0.208601862 0.166856542
0.143073991 0.211890861 0.171410695
0.161290199 0.213408992 0.176976636
0.179506749 0.214294389 0.181783482
0.194813609 0.217330724 0.182163000
0.216065988 0.221378997 0.184187263
0.237191856 0.225553736 0.189247355
0.254649043 0.230360836 0.192536056
0.276280850 0.233776003 0.198229283
0.298165649 0.242251813 0.203668863
0.322959870 0.249841735 0.211764872
0.346489251 0.255913973 0.216824979
0.376090974 0.261226922 0.222896993
0.397849381 0.264263213 0.226186365
0.423023462 0.275015861 0.238962993
0.452372104 0.284123987 0.249082997
0.480581850 0.291334361 0.257179201
0.511701703 0.300442755 0.266792923
0.542062283 0.309551150 0.277419299
0.576976597 0.323466152 0.289689839
0.615939260 0.337634057 0.306894153
0.657811403 0.352814406 0.325110912
0.691966772 0.365338653 0.338013977
0.735483706 0.380012810 0.356483042
0.774320066 0.395319462 0.372042954
0.814800858 0.413535744 0.387223125
0.076787248 0.228083506 0.172928512
0.083870858 0.227071375 0.167868391
0.093358278 0.230234250 0.174826249
0.104237884 0.233776242 0.176091090
0.117520243 0.228462949 0.181403995
0.131055921 0.232890233 0.186084673
0.139152572 0.233902231 0.188108921
0.153194234 0.233902231 0.188361958
0.170651361 0.238456339 0.194434255
0.187602967 0.239721507 0.196205035
0.204933599 0.242631361 0.196331516
0.222138256 0.245667249 0.198355258
0.244528979 0.247564971 0.201391637
0.264516056 0.251865983 0.204933479
0.283997655 0.256672829 0.212776572
0.305250049 0.264516056 0.220872983
0.329538435 0.270588458 0.225427181
0.353067487 0.276154488 0.230360672
0.377861947 0.282226503 0.235041007
0.401897639 0.287539631 0.240354091
0.428842247 0.292473257 0.247185469
0.454396099 0.303352386 0.258191109
0.485768735 0.310815960 0.267552495
0.518026829 0.323718876 0.280455619
0.552182496 0.334851533 0.291587532
0.582289875 0.343959570 0.300695896
0.619987369 0.357368380 0.316002518
0.659456074 0.371030927 0.331182897
0.696014762 0.385578901 0.344085991
0.732953608 0.399493963 0.354459196
0.776217580 0.415686190 0.374699593
0.813788712 0.429728240 0.390259266
0.095382988 0.256166995 0.191144988
0.101075254 0.254269242 0.185452238
0.111195289 0.255534410 0.185831755
0.119797163 0.258444279 0.192410126
0.129285097 0.258444279 0.194686741
0.141429275 0.260720998 0.198481649
0.149651989 0.261226922 0.199746966
0.164579630 0.262365282 0.202783078
0.182036743 0.263124377 0.207337454
0.197217152 0.266160756 0.208475992
0.216445282 0.269196868 0.209614351
0.232384503 0.271094352 0.212777033
0.251739621 0.272991627 0.214674279
0.275774688 0.273497641 0.217710599
0.294876814 0.279569626 0.225047216
0.316635132 0.286906779 0.235293791
0.338646531 0.292979211 0.241366193
0.365338475 0.296647996 0.245034993
0.384566665 0.302720010 0.248576701
0.408349365 0.311068982 0.257811278
0.434155643 0.317141294 0.265781015
0.464515895 0.324225157 0.274889141
0.491967469 0.333206981 0.283618003
0.523339927 0.345350742 0.293738246
0.556736529 0.358254224 0.305503011
0.594054639 0.369006932 0.317393988
0.627957106 0.379126698 0.327514410
0.664389849 0.391903907 0.340290993
0.700822234 0.406704813 0.352434993
0.741302550 0.424162000 0.367362171
0.779886186 0.440227479 0.379127175
0.819101632 0.452878267 0.400126636
0.119418032 0.280708015 0.209614038
0.119671062 0.281214088 0.208855003
0.125363797 0.283617824 0.208602041
0.132953867 0.285895199 0.210879207
0.136622131 0.288552016 0.213662490
0.148766905 0.288552016 0.210626096
0.158380717 0.289058030 0.206831321
0.175205439 0.290449351 0.207337320
0.197217137 0.292979091 0.211385131
0.212397531 0.296015471 0.220493510
0.233143866 0.299051166 0.224288151
0.248323992 0.300063044 0.228589505
0.264136672 0.300569057 0.232890993
0.284630060 0.300569057 0.233144015
0.305882394 0.306641042 0.236179635
0.329538047 0.312713057 0.245920062
0.352055222 0.317014217 0.253257215
0.373940170 0.321189016 0.257685065
0.398229003 0.327261031 0.263757080
0.422517687 0.337887019 0.277419418
0.447312027 0.346742511 0.288804710
0.473371267 0.353826910 0.297406882
0.503605485 0.362934530 0.306641012
0.530929863 0.369133055 0.307147026
0.560784459 0.379506618 0.313978314
0.595066607 0.390765399 0.324225038
0.633776069 0.400885075 0.336622089
0.670208812 0.416065454 0.351802468
0.706894577 0.431245834 0.364579052
0.748387098 0.448956192 0.381530225
0.790512204 0.469829172 0.401897192
0.826945007 0.488045961 0.420114011
0.140670404 0.308032393 0.230866402
0.143706784 0.314105183 0.221758008
0.143959820 0.318912238 0.218848765
0.152182236 0.319291800 0.224035561
0.163693488 0.315876395 0.235167861
0.170019269 0.315876395 0.237950444
0.179633081 0.320936412 0.227324396
0.193674818 0.322454393 0.226944983
0.212397501 0.322327733 0.231625497
0.227577895 0.320303470 0.235673890
0.245667413 0.323339850 0.244781524
0.260467976 0.324351817 0.244528666
0.277166277 0.326628804 0.246805996
0.299810410 0.330929816 0.251360029
0.311954379 0.330929786 0.254396379
0.335610569 0.337001801 0.259835809
0.356862813 0.340037793 0.264136821
0.376976550 0.343200356 0.267931968
0.401265383 0.354585379 0.281973809
0.425553441 0.355091393 0.288045824
0.453637034 0.365211874 0.297912687
0.481720537 0.375079274 0.304996699
0.509677529 0.384186894 0.309677392
0.537001908 0.393295288 0.321821421
0.568880320 0.401771098 0.329158694
0.603035867 0.414295048 0.338267058
0.639595091 0.428210139 0.348513812
0.673244417 0.443389833 0.360910833
0.712334037 0.458570212 0.376091212
0.752941310 0.470208585 0.390639007
0.791650951 0.486274362 0.407969803
0.820872962 0.509297550 0.426185995
0.164326593 0.340164393 0.247311801
0.164959177 0.341429561 0.240607202
0.170145780 0.343200773 0.240100816
0.173181772 0.347501636 0.240101144
0.184187144 0.345603973 0.249209538
0.192283660 0.345603973 0.252245665
0.196078479 0.343453795 0.252245575
0.206830785 0.349525809 0.248323873
0.222011387 0.351802707 0.252118796
0.235547498 0.352055311 0.253510475
0.256040812 0.352434844 0.255154908
0.274256766 0.353446990 0.262238801
0.288298428 0.354585618 0.261480004
0.308539033 0.359139800 0.265275031
0.327134788 0.361290604 0.272612393
0.346489578 0.363693774 0.275648773
0.366224170 0.368247956 0.280202597
0.384819746 0.370398581 0.282352984
0.409108162 0.379000574 0.292220175
0.438203812 0.382415771 0.303858191
0.458696783 0.388108522 0.306135178
0.488045573 0.398735136 0.314737260
0.518026769 0.407969564 0.322201282
0.543073893 0.419354677 0.332067996
0.579506814 0.428463072 0.339658558
0.611764550 0.441745758 0.352814764
0.646173120 0.456419975 0.364959061
0.681467175 0.465907335 0.375205785
0.715369642 0.483491391 0.380392015
0.754838765 0.496900558 0.404427558
0.794940174 0.511954367 0.423655957
0.826818764 0.537760615 0.441872001
0.185578987 0.370525181 0.264009982
0.187097177 0.372042984 0.257937998
0.182289794 0.372042984 0.258317620
0.193422124 0.374573320 0.261353225
0.200885639 0.377103031 0.264769077
0.209993735 0.375964373 0.268944114
0.215560064 0.374952495 0.267931998
0.225047171 0.375332385 0.268058479
0.237191379 0.379886389 0.271094292
0.249336168 0.382163078 0.271853387
0.265654862 0.382289559 0.270335197
0.284882963 0.383807391 0.275901377
0.303099275 0.383807391 0.279696375
0.318912208 0.386211187 0.280202389
0.338899374 0.387982398 0.288045585
0.358633965 0.392536372 0.293864787
0.379886359 0.395572364 0.299937189
0.395699143 0.397976190 0.302340388
0.418216228 0.402277172 0.306641370
0.443516731 0.407084018 0.310689211
0.472359389 0.413915128 0.321315169
0.494623363 0.424035370 0.325363427
0.527261317 0.433776170 0.337128669
0.552941024 0.445920199 0.343453288
0.585578859 0.454269260 0.353320360
0.620872974 0.466160625 0.362176120
0.651739180 0.483744264 0.378621101
0.687160015 0.492852360 0.387729228
0.725490153 0.504996836 0.403668731
0.756356537 0.522707105 0.410499543
0.794940174 0.534851134 0.437318176
0.831372976 0.559013009 0.455534190
0.202529982 0.399747103 0.283491135
0.206831381 0.402150303 0.278051555
0.200379595 0.403035700 0.275901347
0.200885296 0.403668314 0.280834973
0.216824979 0.410120517 0.282352597
0.225173622 0.408096194 0.287160277
0.232384622 0.406325132 0.286274672
0.242125437 0.407337248 0.285515577
0.257178754 0.410246968 0.285642087
0.269323528 0.410246968 0.288678467
0.282099962 0.410246968 0.287792683
0.298292160 0.411638260 0.292220235
0.317140847 0.414800525 0.299177945
0.335104585 0.414800525 0.299683928
0.352941126 0.414800525 0.305755943
0.370525002 0.420240104 0.309930563
0.390259594 0.424161732 0.315623164
0.410246938 0.427198112 0.323466420
0.428463012 0.427198112 0.323466420
0.449462354 0.432131529 0.321948200
0.475142449 0.439468712 0.328399539
0.504870594 0.448324114 0.338013649
0.535230577 0.460468113 0.350284934
0.563061059 0.472612143 0.355344653
0.593674839 0.481467128 0.364579171
0.627577543 0.489816189 0.376723319
0.657937706 0.504996598 0.388867974
0.691208303 0.520177007 0.398102105
0.731309593 0.530044377 0.419987470
0.766856492 0.544465482 0.438077539
0.794940174 0.560278177 0.447058946
0.831372976 0.572422147 0.465274990
0.214674026 0.436179996 0.307779968
0.223782420 0.436179936 0.304743588
0.221632034 0.436432928 0.297153771
0.225173965 0.435167789 0.297912985
0.241113037 0.434408605 0.306641430
0.241113037 0.443516970 0.297533035
0.249462321 0.438962966 0.297280043
0.258317739 0.436685950 0.298671722
0.269450068 0.437697887 0.300696015
0.284503967 0.440607041 0.300822526
0.299557149 0.440607041 0.306768030
0.316508532 0.440607041 0.312081009
0.335863590 0.443136990 0.318406016
0.356357008 0.448197007 0.323972017
0.371537417 0.448197037 0.330044001
0.386970133 0.455407828 0.328905821
0.405439258 0.459708989 0.328146994
0.425426632 0.460594624 0.329538435
0.440607041 0.463630974 0.332574040
0.461606413 0.466413617 0.335357398
0.484756500 0.471600026 0.343580008
0.510563135 0.477925301 0.351675987
0.538267016 0.484756976 0.353320569
0.568627775 0.496901006 0.368500978
0.596458256 0.509045005 0.378115296
0.629854679 0.517899990 0.388867944
0.667046130 0.526249051 0.401012033
0.697406828 0.541429460 0.413156033
0.733333588 0.551296830 0.425047636
0.770271897 0.565717995 0.443770200
0.803288877 0.581277609 0.461986363
0.831372976 0.590638995 0.477419019
0.237950727 0.472612739 0.320936024
0.244275764 0.469829381 0.320682973
0.251233369 0.469829381 0.321948141
0.252751380 0.471094549 0.320430219
0.263377398 0.471094549 0.326501995
0.268184364 0.470588297 0.324604422
0.273245007 0.472106367 0.320556700
0.283744723 0.469829381 0.321948022
0.293991268 0.471347392 0.324984103
0.305123121 0.476407260 0.327008367
0.323086858 0.479317099 0.335610747
0.336242706 0.479317099 0.335610479
0.352941304 0.479317099 0.337128371
0.372043341 0.481847048 0.339405358
0.387223065 0.484376758 0.340417355
0.407210439 0.491587549 0.348893136
0.424667776 0.496141762 0.348893374
0.444022685 0.496774167 0.348893374
0.461353391 0.499809980 0.349778771
0.482099771 0.505629718 0.361163706
0.507147074 0.508665323 0.364200115
0.534345269 0.513851702 0.373687714
0.563314378 0.519924045 0.381024718
0.588362157 0.526755035 0.388235301
0.618722320 0.538899601 0.398861676
0.647944331 0.551043689 0.409361362
0.681720495 0.560910702 0.421505392
0.712081194 0.573813856 0.433649361
0.742441237 0.586338103 0.448450208
0.776850224 0.599114478 0.462492198
0.811385334 0.617204010 0.482605964
0.842504978 0.633902371 0.503478348
0.258443981 0.507147729 0.333079994
0.260720998 0.507906318 0.344465464
0.270588458 0.507020712 0.342820734
0.276660472 0.508285880 0.339531988
0.281593949 0.510183692 0.340543747
0.283111751 0.505629539 0.346615732
0.296773881 0.508918464 0.345983297
0.301201940 0.510562778 0.346236676
0.314105004 0.510815740 0.348513454
0.326628268 0.514610708 0.350411236
0.340670466 0.515875816 0.351676106
0.356736451 0.518785715 0.356483489
0.370018810 0.517647088 0.355724096
0.387729287 0.517647028 0.356989056
0.406198293 0.523972034 0.360278457
0.422390491 0.524225235 0.359898776
0.445161104 0.533333242 0.367488980
0.464136720 0.534471691 0.368880570
0.482352763 0.536242485 0.370145768
0.501454890 0.540164411 0.381277770
0.522707224 0.544338942 0.389626712
0.549019456 0.547374845 0.392663121
0.577229500 0.552561462 0.401771218
0.599747062 0.558633447 0.406071991
0.626691997 0.567362309 0.414421290
