Assets/Resources/EldamarStudio/100 Horror LUTs Pack/LUTs/cube/Slayer LUT.cube
LUT_3D_SIZE 8
DOMAIN_MIN 0.000000 0.000000 0.000000
DOMAIN_MAX 0.903226 0.903226 0.903226
0.003922000 0.000000000 0.062744997
0.005819450 0.000758999 0.056040544
0.095509097 0.019608000 0.084630102
0.199620277 0.026944643 0.113219641
0.303858191 0.066413797 0.135483995
0.409234732 0.115496732 0.174193740
0.530297279 0.176091284 0.232005000
0.680328608 0.235546961 0.286527634
0.003542452 0.038709544 0.079190098
0.020240093 0.049715545 0.087033994
0.108412549 0.066540092 0.100316092
0.211891636 0.090069897 0.127008095
0.310183376 0.119417936 0.155976996
0.411258459 0.158507541 0.193801731
0.532194972 0.208601832 0.241239995
0.682226419 0.261859834 0.294370651
0.031246094 0.147248194 0.130803093
0.064895995 0.153067648 0.135610089
0.146489099 0.156609997 0.148893103
0.221632093 0.175837830 0.159392640
0.315623194 0.195699096 0.190385997
0.418216467 0.232637569 0.222390980
0.541808665 0.271726906 0.262365460
0.694876790 0.323718995 0.324098557
0.095382988 0.256166995 0.191144988
0.129285097 0.258444279 0.194686741
0.182036743 0.263124377 0.207337454
0.251739621 0.272991627 0.214674279
0.338646531 0.292979211 0.241366193
0.434155643 0.317141294 0.265781015
0.556736529 0.358254224 0.305503011
0.700822234 0.406704813 0.352434993
0.185578987 0.370525181 0.264009982
0.200885639 0.377103031 0.264769077
0.237191379 0.379886389 0.271094292
0.303099275 0.383807391 0.279696375
0.379886359 0.395572364 0.299937189
0.472359389 0.413915128 0.321315169
0.585578859 0.454269260 0.353320360
0.725490153 0.504996836 0.403668731
0.258443981 0.507147729 0.333079994
0.281593949 0.510183692 0.340543747
0.314105004 0.510815740 0.348513454
0.370018810 0.517647088 0.355724096
0.445161104 0.533333242 0.367488980
0.522707224 0.544338942 0.389626712
0.626691997 0.567362309 0.414421290
0.753826618 0.617836654 0.462112576
0.367868543 0.660974264 0.427704275
0.382163286 0.666793108 0.429601818
0.417836845 0.666413844 0.443137467
0.465401620 0.676660299 0.455787569
0.529917538 0.676786780 0.466666639
0.603415728 0.689436972 0.483744264
0.682226539 0.697912574 0.501834571
0.773181319 0.717773676 0.543453276
0.543453336 0.812143803 0.595445573
0.546109915 0.814294755 0.588488281
0.570145309 0.816951454 0.593421817
0.606704593 0.820113599 0.601770818
0.653889954 0.824161828 0.621884704
0.709930241 0.832890630 0.633016765
0.769512773 0.835167587 0.656546295
0.845034540 0.840986848 0.681720555
0.000000000 0.008222548 0.095635995
0.005819450 0.008602000 0.088551991
0.096647643 0.021126000 0.110815637
0.187476546 0.057052188 0.145350739
0.288551629 0.095509186 0.174699187
0.399367452 0.139152274 0.212270990
0.517646968 0.186337993 0.253763586
0.670208871 0.246299520 0.307906359
0.003542452 0.042631548 0.108918086
0.027324095 0.047311638 0.119923994
0.104490638 0.071600445 0.130044088
0.194181174 0.101454638 0.153953552
0.291208178 0.131941751 0.188108906
0.401391715 0.168627739 0.221631989
0.523592532 0.215306997 0.267425805
0.670841277 0.269323349 0.318912268
0.041872546 0.144845098 0.156736091
0.076280639 0.155092105 0.152688101
0.136242986 0.156230554 0.169260100
0.216951191 0.173814207 0.185705200
0.308538973 0.200506091 0.213409528
0.415559918 0.232637554 0.245920077
0.530297160 0.276027650 0.284250379
0.684250593 0.328020364 0.339025974
0.105249733 0.249715373 0.215433300
0.132321104 0.254522294 0.212270990
0.178873837 0.261606365 0.222896740
0.252119184 0.271347642 0.237444997
0.332068264 0.291334361 0.253763288
0.430360615 0.318026185 0.284250468
0.548513830 0.354712367 0.320303380
0.688425064 0.400506109 0.361037165
0.179632723 0.368500829 0.277925342
0.199999735 0.372422546 0.283744365
0.243516982 0.374446392 0.287159711
0.306262076 0.383427918 0.298924714
0.374825746 0.394433707 0.310689628
0.464389443 0.413029730 0.329032093
0.583048820 0.454143196 0.363061547
0.719291806 0.505502820 0.413155913
0.270588517 0.503099203 0.345856905
0.275142521 0.507147729 0.349778533
0.317900211 0.507400274 0.357115477
0.370777905 0.514484346 0.366729975
0.439594924 0.525869846 0.376343936
0.518785715 0.538519740 0.395446002
0.624920726 0.566982746 0.426312745
0.750790656 0.618216395 0.472991735
0.364958972 0.653889835 0.444528818
0.376976520 0.654269397 0.442884117
0.401644349 0.653130651 0.442504466
0.452498376 0.659835637 0.453004599
0.514737844 0.667045951 0.463124633
0.591524541 0.675142467 0.479696542
0.669702828 0.688298702 0.499936789
0.762555361 0.704111516 0.532068253
0.538140178 0.808981776 0.597849548
0.549272418 0.811258554 0.589499831
0.556609631 0.808855176 0.587855697
0.593674958 0.814041436 0.596837163
0.648323834 0.817077816 0.616065621
0.707400203 0.826945066 0.629348516
0.768754065 0.832890391 0.657178998
0.820620060 0.844908476 0.678810894
0.000000000 0.024288096 0.163694099
0.006957997 0.019608000 0.162176013
0.100189991 0.028968999 0.176217183
0.189879730 0.062239353 0.195445731
0.285895079 0.104110993 0.224921077
0.395572454 0.153447092 0.264389843
0.509804249 0.200379372 0.300063074
0.660088480 0.256419808 0.350410908
0.003162904 0.069323540 0.169260100
0.031625543 0.076407455 0.181404442
0.101328537 0.082985096 0.183681533
0.194560543 0.113978542 0.202529728
0.294623792 0.144086093 0.239468545
0.397217214 0.188361540 0.274636447
0.508918405 0.230234087 0.311701387
0.666413784 0.277545810 0.354459107
0.032004997 0.151170179 0.200506091
0.076660186 0.161796555 0.213156089
0.151929095 0.176976278 0.231119171
0.227577537 0.185579091 0.239342451
0.308539063 0.209108189 0.264010191
0.411258459 0.245540738 0.297026992
0.525363386 0.282732397 0.329032272
0.679569721 0.333586067 0.373181820
0.118911989 0.260088265 0.253004283
0.140164196 0.266793549 0.262112737
0.197343275 0.269450009 0.267552435
0.258064747 0.281593740 0.280075729
0.338393182 0.297280520 0.297406644
0.430740178 0.323466390 0.325489819
0.551296413 0.363314271 0.358001381
0.691714168 0.411385089 0.399873346
0.193422183 0.371284068 0.312460482
0.212523833 0.377988666 0.320809603
0.250601083 0.379886389 0.325110257
0.303099185 0.383807570 0.332195073
0.377609074 0.392410100 0.343959361
0.463124812 0.417836726 0.363567173
0.582542658 0.456672877 0.397976190
0.716635048 0.507020891 0.444655359
0.275142610 0.509171426 0.383934081
0.286527395 0.508159399 0.384313643
0.321189076 0.508918464 0.388994455
0.377862096 0.516887963 0.399240732
0.445161045 0.525869846 0.405312836
0.517900109 0.539278865 0.416951180
0.625300229 0.566982746 0.455028296
0.753067732 0.617077708 0.500822008
0.372675568 0.662618577 0.463757187
0.386717290 0.657811522 0.469070464
0.417457461 0.665022194 0.481088251
0.463504285 0.668437839 0.482858837
0.524731159 0.675142407 0.495003283
0.596078336 0.681467593 0.507906616
0.676027596 0.689563274 0.528020024
0.770778000 0.716634989 0.568627477
0.541302621 0.812270761 0.606324971
0.555470884 0.813535929 0.610372901
0.575584710 0.815180361 0.614294827
0.608475447 0.817583919 0.621505558
0.659961820 0.821884751 0.633902669
0.712460399 0.827704012 0.648450315
0.767868221 0.837824047 0.671220839
0.834028721 0.841872275 0.694749713
0.001138644 0.024035357 0.253383636
0.003036094 0.018848903 0.256546527
0.110689454 0.038330097 0.261985838
0.190638632 0.068437643 0.267931968
0.287413180 0.112713180 0.284376979
0.388488352 0.158633739 0.316128731
0.510689557 0.209107995 0.357621640
0.663124382 0.264262825 0.409740448
0.001897547 0.080961645 0.251739651
0.034408901 0.091587894 0.251739711
0.122833289 0.099430993 0.264769167
0.199240729 0.117014542 0.266287178
0.290575266 0.146363094 0.289816171
0.389247358 0.185958534 0.320935726
0.513598979 0.237318188 0.359139830
0.658443809 0.280328989 0.405313104
0.047185443 0.169133291 0.278937310
0.088045642 0.171030745 0.272106647
0.153826654 0.180898085 0.290702105
0.221884832 0.196963742 0.294117659
0.309803814 0.217204541 0.310562730
0.402403563 0.252245277 0.342694461
0.526122630 0.294876635 0.383175164
0.674636185 0.339405328 0.429474890
0.116128631 0.262365282 0.304996639
0.145604089 0.266287267 0.310310096
0.202783093 0.280455202 0.318785280
0.277545631 0.302213997 0.346995264
0.346489608 0.311321616 0.354079455
0.433396727 0.334471971 0.372548610
0.543832898 0.367235988 0.406451583
0.681467474 0.407463610 0.445161104
0.199620366 0.375584841 0.367488980
0.220746279 0.375584841 0.367236078
0.265907705 0.388108760 0.375331998
0.320303470 0.396331161 0.386211157
0.387223005 0.404427826 0.395192713
0.471093923 0.426818371 0.413662285
0.583807945 0.463630468 0.446426243
0.714990437 0.512207389 0.487539798
0.284250498 0.502213836 0.430107474
0.297153741 0.510309815 0.432890564
0.328526109 0.512586713 0.431878626
0.381277442 0.518026590 0.443769723
0.448197126 0.529791117 0.450727642
0.525869846 0.542694449 0.467299044
0.625553429 0.568880081 0.490955353
0.749525487 0.618595719 0.542567730
0.374066979 0.659329534 0.508791983
0.388741195 0.659329593 0.506768107
0.412902921 0.655407846 0.507020712
0.462112904 0.659835935 0.518026590
0.525110900 0.667299390 0.527134478
0.595192671 0.681087911 0.537254453
0.669955850 0.687286675 0.557241976
0.766603053 0.709677398 0.586590469
0.542947352 0.813788772 0.639342070
0.551296294 0.812776804 0.633143783
0.567362607 0.810626209 0.635673702
0.604933441 0.814294577 0.643896043
0.648576617 0.818975270 0.653384089
0.710562825 0.826438844 0.669070005
0.768374443 0.835167408 0.689563811
0.831498742 0.843769848 0.705123484
0.001518192 0.018721998 0.365970969
0.006578546 0.027324386 0.356862813
0.122960098 0.053131189 0.355724186
0.214548081 0.087665997 0.358760178
0.304744184 0.126754999 0.365718186
0.398734987 0.163946927 0.383554727
0.511322260 0.213788897 0.417457253
0.664769113 0.265527993 0.469576001
0.001518192 0.099430993 0.353826731
0.032257929 0.111321904 0.355724186
0.135736734 0.116635092 0.352940857
0.221632004 0.139911354 0.362808168
0.304237843 0.162934899 0.368627548
0.396331251 0.196963921 0.388994545
0.515749633 0.238203898 0.425427258
0.659329295 0.286021471 0.472865522
0.064895995 0.193422005 0.353194296
0.111574732 0.187476546 0.365591645
0.168374196 0.202909291 0.361164182
0.241619617 0.211005643 0.371410400
0.318026185 0.229475081 0.382416278
0.412397116 0.260847449 0.405439734
0.526122451 0.298418790 0.443390459
0.674889565 0.340670168 0.483617812
0.135357276 0.274889261 0.382416278
0.164073631 0.285136074 0.382668942
0.216571733 0.288931280 0.388994575
0.283111662 0.307021081 0.402656466
0.351296633 0.319164932 0.415307075
0.439721793 0.338772833 0.434788197
0.550916910 0.375964552 0.466413915
0.689183950 0.411132246 0.504111588
0.213914990 0.381404191 0.417584181
0.222770646 0.380645365 0.428589195
0.264769077 0.390006274 0.431752175
0.329791278 0.406071931 0.443010718
0.420620173 0.436306149 0.471600175
0.491840452 0.445919931 0.482099950
0.592915773 0.468437493 0.499810487
0.726375759 0.509677351 0.544591963
0.282732487 0.507147729 0.480328977
0.298418790 0.510309935 0.484629750
0.332068205 0.517267525 0.487160087
0.389753640 0.527134657 0.496268004
0.458950371 0.543959558 0.513852000
0.543959558 0.555724025 0.526754916
0.637064993 0.580771983 0.549019694
0.752055526 0.624541283 0.585831642
0.376850009 0.656420052 0.554838598
0.386590630 0.661227286 0.554964900
0.415812761 0.661227226 0.557874560
0.464642495 0.669070244 0.566476941
0.525616407 0.676154375 0.575079024
0.600253165 0.682353079 0.587729156
0.676913261 0.689437211 0.604048133
0.773813844 0.718405962 0.633396685
0.547121763 0.805692732 0.666540384
0.550790548 0.814421356 0.664389551
0.565717697 0.812903225 0.676154613
0.601770937 0.814294815 0.675774813
0.651865780 0.819860935 0.684123755
0.708918154 0.828969121 0.699050844
0.770018756 0.834408641 0.714990318
0.832384527 0.844148993 0.729664564
0.000000000 0.052751735 0.470082462
0.018216349 0.064895801 0.470335037
0.147881091 0.084503382 0.464389563
0.241998985 0.111827984 0.471853197
0.330423445 0.149525285 0.470335007
0.426818490 0.183933988 0.473877460
0.521062553 0.219228283 0.496267796
0.670588374 0.271220744 0.548639774
0.005819450 0.121694833 0.456040710
0.065148734 0.129917800 0.459582657
0.156483293 0.142820820 0.464010179
0.246932626 0.158886805 0.463630676
0.337001950 0.182795718 0.469070464
0.420113921 0.211005732 0.479822725
0.519797504 0.245540544 0.492599368
0.662618458 0.286527544 0.542821050
0.093485445 0.220873088 0.464769125
0.119924016 0.218469173 0.462618560
0.187855989 0.226439089 0.463124722
0.265275180 0.237697735 0.469449729
0.349146187 0.251360089 0.480455637
0.432637721 0.272106349 0.484503657
0.531562388 0.301960737 0.509424627
0.680708349 0.345730633 0.564199805
0.154585630 0.307273626 0.477292806
0.186084554 0.309677452 0.479317009
0.230107367 0.315243542 0.483617932
0.299304277 0.321948171 0.487160057
0.374825835 0.335483760 0.498418808
0.452498466 0.347628295 0.506641388
0.546742380 0.369892627 0.524098814
0.691840470 0.413282543 0.574320078
0.224161923 0.406072140 0.509677291
0.234914482 0.407084167 0.506767988
0.277925253 0.413915128 0.514611065
0.338393390 0.422517538 0.521695197
0.413915128 0.432258189 0.531056404
0.496267915 0.450727433 0.546742499
0.597849071 0.473497719 0.563946545
0.724730968 0.505249918 0.603035867
0.281973481 0.516887963 0.552182436
0.299936801 0.521442175 0.547880888
0.336622447 0.523213029 0.556103468
0.392410010 0.533712804 0.566350520
0.470714480 0.551802933 0.579253912
0.565844238 0.581657231 0.607084453
0.659076750 0.597975731 0.625426710
0.759772360 0.625806451 0.653257430
0.371790171 0.654648542 0.615053713
0.394560307 0.653763354 0.616571665
0.413156301 0.657684922 0.617204309
0.464516193 0.668311000 0.626185715
0.532068014 0.679063857 0.637571156
0.606451690 0.690828264 0.644528568
0.686780214 0.697027445 0.652751029
0.777229369 0.723719120 0.680202484
0.537128270 0.808854878 0.705249846
0.542567849 0.811258674 0.712586939
0.567235649 0.810879171 0.710183382
0.601138413 0.814674377 0.714104533
0.647058666 0.821252108 0.724984109
0.707906544 0.830360651 0.735230684
0.767109334 0.836559236 0.749904871
0.836305797 0.842251658 0.765591323
0.000000000 0.103225991 0.623402536
0.063630536 0.105629280 0.615939140
0.181530476 0.121442288 0.609234571
0.286021620 0.143074274 0.618469238
0.388235271 0.174446374 0.613156557
0.481340736 0.206072286 0.615180135
0.576976538 0.240480989 0.617836833
0.678684294 0.273370981 0.633396745
0.016445246 0.156483084 0.613788962
0.096521251 0.161416814 0.608096123
0.188488185 0.175458461 0.609867394
0.289816260 0.187602550 0.606577933
0.381404400 0.211132362 0.606198370
0.480835170 0.236179531 0.614800572
0.574193299 0.265022010 0.613915324
0.664136469 0.293358535 0.625047565
0.095509283 0.248323798 0.606704593
0.147248372 0.244275898 0.618469119
0.216698185 0.253637105 0.609234571
0.302846253 0.265401661 0.612776935
0.400000095 0.281973302 0.618595719
0.490954965 0.296774358 0.620113850
0.584693432 0.321821481 0.627324581
0.687792122 0.346236557 0.642505109
0.164832652 0.340290606 0.616192579
0.187856093 0.338267088 0.616698205
0.245920181 0.344086021 0.615939319
0.326755017 0.352055609 0.619481564
0.409487367 0.365338445 0.623023152
0.497533023 0.375584900 0.623276412
0.590385795 0.389626622 0.631878555
0.693232000 0.412650466 0.644022882
0.221125796 0.440860391 0.629474759
0.251106828 0.447944164 0.635547101
0.294497371 0.447185189 0.636559308
0.353699803 0.451992393 0.638835967
0.433017194 0.455913961 0.642378151
0.524351954 0.465781212 0.645920098
0.617077768 0.477799118 0.651739359
0.719670892 0.505629301 0.675395310
0.303478748 0.553953052 0.658191025
0.317773461 0.561669588 0.660847545
0.351296544 0.559139609 0.658696949
0.412776649 0.563946724 0.663630247
0.482226253 0.574446738 0.670082092
0.564959049 0.584313512 0.683364809
0.661100507 0.600379467 0.692852497
0.761796355 0.623908699 0.718785703
0.380645275 0.666540504 0.691714287
0.388867795 0.664009809 0.684629977
0.420746297 0.667552292 0.685642064
0.462492198 0.670335174 0.691587627
0.532954097 0.680076241 0.701328278
0.616445661 0.694370270 0.717141271
0.704490960 0.717900276 0.734218836
0.793042541 0.730676711 0.747754693
0.531688333 0.803541839 0.762934625
0.539911449 0.810120046 0.756736159
0.562681675 0.806577921 0.756862760
0.597343385 0.812776625 0.766223669
0.645920336 0.820999324 0.774066925
0.706514537 0.830486953 0.780644774
0.768500924 0.840227842 0.792030275
0.839974344 0.845161200 0.809993327
0.067299418 0.154458806 0.784946442
0.128779054 0.161669821 0.783807516
0.234281898 0.173561051 0.786970496
0.333459646 0.192030415 0.785452127
0.447817832 0.217837006 0.783428252
0.554459155 0.252245605 0.786843717
0.652118921 0.282859087 0.781910002
0.752181709 0.324604630 0.779632747
0.081593946 0.203794897 0.778747201
0.142694622 0.200632796 0.769386411
0.236432791 0.212776348 0.778747201
0.341935545 0.230107650 0.777355969
0.444528550 0.246552959 0.775711179
0.543326855 0.273118347 0.771157324
0.646805823 0.300569266 0.771157324
0.745224118 0.339911193 0.778494298
0.143832877 0.286527544 0.786084592
0.176217496 0.290069818 0.779253542
0.259203076 0.294496894 0.777229369
0.352561891 0.304617286 0.778367639
0.456799507 0.320177168 0.780391812
0.556609631 0.339785069 0.783048689
0.653384089 0.361669749 0.777608752
0.753573418 0.389626890 0.786717355
0.176723585 0.379127294 0.775711417
0.214168236 0.380898207 0.778620958
0.277925253 0.384440452 0.777355969
0.364705443 0.393168896 0.780644894
0.462239087 0.401138425 0.777988434
0.555344701 0.413915426 0.774066746
0.653636634 0.430487245 0.777608871
0.751676083 0.452245235 0.781530619
0.241872370 0.488045365 0.787223399
0.269955844 0.493358672 0.789247394
0.317267597 0.489057422 0.786337495
0.387476236 0.490955144 0.783427954
0.480708361 0.497153848 0.781277776
0.573181331 0.508412242 0.787096560
0.669576287 0.521821797 0.786464334
0.759645522 0.544465184 0.791777611
0.344212562 0.607590437 0.799240768
0.361037076 0.608349442 0.794180870
0.396331280 0.609993458 0.793801308
0.445793897 0.607337236 0.791524231
0.517520428 0.606831312 0.798987627
0.601011813 0.615939379 0.801011860
0.695762098 0.629727900 0.802150309
0.778114796 0.647311687 0.807336867
0.444022626 0.709045053 0.799999714
0.454269171 0.716888011 0.806957304
0.477545798 0.715749443 0.801897585
0.514231265 0.720050395 0.806704283
0.573687434 0.717773676 0.808728576
0.635800421 0.719038546 0.813029766
0.716381788 0.723845243 0.816698372
0.797469854 0.740417004 0.822644114
0.554965377 0.818848789 0.827703953
0.564832568 0.824415028 0.833143771
0.584439814 0.822896779 0.830739796
0.614421368 0.824035585 0.835546970
0.656166553 0.825300395 0.835547030
0.708665371 0.833143771 0.844781637
0.777735353 0.841872096 0.855281770
0.855281770 0.867172599 0.877672434
