Assets/Resources/EldamarStudio/100 Horror LUTs Pack/LUTs/cube/Slimerot LUT.cube
LUT_3D_SIZE 5
DOMAIN_MIN 0.000000 0.000000 0.000000
DOMAIN_MAX 0.903226 0.903226 0.903226
0.109803997 0.039216001 0.039216001
0.165085703 0.041492712 0.052624710
0.289690375 0.061479993 0.047059000
0.537761271 0.115749255 0.079443134
0.924857557 0.129538149 0.128272980
0.117647000 0.134724990 0.049335711
0.161163703 0.138646409 0.048703291
0.283491671 0.173307985 0.067046277
0.546995640 0.226944983 0.097406998
0.932700574 0.264895380 0.135736689
0.089437433 0.317899793 0.088298410
0.157874703 0.320809692 0.092852987
0.295635790 0.334218383 0.100063413
0.581657052 0.405565798 0.105629124
0.943706155 0.475522041 0.160404384
0.112334244 0.624162257 0.116634868
0.246552944 0.632890403 0.118405834
0.462998360 0.640100956 0.128020540
0.700695515 0.658317387 0.144339114
0.970651507 0.706641078 0.256673068
0.551296353 0.925869823 0.393168539
0.591144502 0.925995946 0.400632262
0.697279692 0.928525925 0.428463042
0.850474298 0.935357511 0.468817234
0.988614798 0.945603609 0.521189213
0.105881996 0.050980002 0.122959986
0.164073005 0.052624710 0.116381988
0.268437684 0.095508993 0.140923694
0.495256245 0.139531717 0.190259412
0.908285677 0.137381136 0.230233967
0.122580700 0.133080691 0.115116991
0.165085703 0.147121996 0.133080691
0.262239397 0.176596984 0.155344695
0.507147610 0.223276705 0.186717257
0.913472414 0.265907526 0.245667517
0.107780010 0.305123091 0.168753982
0.166097403 0.312334090 0.163187683
0.287159801 0.324731082 0.171663702
0.561416626 0.396078527 0.204047829
0.940164328 0.473877490 0.269576192
0.125742957 0.620493412 0.217836827
0.247311503 0.626312554 0.216318533
0.459456056 0.632890582 0.226059541
0.692473412 0.644655406 0.245034680
0.956356466 0.710562885 0.349272341
0.573813975 0.930170655 0.465275258
0.607210517 0.927514076 0.469955593
0.711068690 0.926248908 0.484503388
0.852118790 0.930802941 0.516508400
0.986970067 0.936748683 0.565844297
0.117647000 0.053636990 0.304111391
0.178873688 0.071600288 0.289437085
0.284503371 0.111194983 0.276027828
0.508412242 0.140923128 0.325743407
0.904617190 0.148640215 0.398987800
0.130044416 0.175584689 0.267172694
0.171916410 0.182795689 0.266540080
0.272738367 0.191271693 0.272105962
0.511701226 0.228842407 0.325363666
0.905249774 0.282099783 0.414800793
0.107147001 0.325110376 0.279949814
0.171916410 0.326375782 0.283491671
0.339532197 0.373434365 0.330929816
0.576470494 0.403288931 0.355218351
0.918152928 0.494623750 0.446173638
0.188235238 0.612270474 0.384060621
0.289816767 0.617836654 0.390259355
0.471473932 0.625300705 0.398102522
0.691461265 0.638709366 0.415433228
0.948766351 0.720177233 0.514863729
0.618342996 0.918026805 0.579000354
0.650727332 0.911574781 0.591144741
0.733206987 0.919417918 0.606578112
0.856672943 0.928905606 0.631119311
0.978747368 0.939025760 0.672738552
0.072485998 0.116761126 0.581910372
0.207969829 0.126249418 0.576343834
0.400758952 0.131435990 0.567868650
0.619354606 0.130423859 0.565212250
0.921947718 0.179885909 0.606704414
0.067552298 0.233523250 0.552435100
0.197596401 0.236052826 0.552814722
0.392283082 0.240733653 0.553573489
0.612397254 0.244276121 0.548513353
0.927008033 0.310309768 0.619102001
0.076407120 0.418975532 0.547628224
0.216951519 0.418089658 0.549146116
0.423402637 0.426185966 0.552814662
0.644528627 0.430487245 0.552814662
0.927640438 0.529032350 0.636432767
0.262492359 0.636812389 0.563314259
0.354206085 0.640354276 0.577229500
0.534977913 0.651107132 0.595572531
0.760278344 0.697533131 0.646553159
0.940923631 0.744339228 0.697532892
0.663504243 0.913978279 0.731941760
0.693737864 0.916129172 0.740417421
0.769512892 0.919418216 0.756862760
0.866160750 0.921441734 0.762049019
0.975584745 0.934724867 0.791397750
0.145603597 0.233143777 0.905249596
0.296647429 0.233396500 0.906261683
0.517394066 0.250854015 0.897279918
0.761669934 0.282099873 0.898418725
0.979506612 0.353826374 0.892093599
0.225679979 0.346489489 0.898544908
0.333966017 0.351170301 0.897659600
0.546995342 0.365211725 0.896647334
0.774446547 0.396711171 0.894496739
0.971410334 0.449841976 0.893484592
0.427830786 0.578494608 0.884756148
0.494117677 0.572169304 0.887159884
0.630739689 0.583681464 0.885515571
0.800885737 0.598734736 0.887539148
0.966983020 0.621631503 0.887539148
0.588741183 0.761922657 0.892093599
0.622517467 0.767868340 0.889563441
0.714990318 0.774067342 0.889437020
0.835800231 0.780898213 0.894623578
0.962049305 0.794054151 0.891081452
0.707779527 0.935104430 0.909044743
0.729917645 0.933080196 0.910436451
0.788741469 0.930550158 0.915117025
0.880455613 0.933712721 0.913345933
0.964832127 0.950663924 0.945730448
