Assets/Resources/EldamarStudio/100 Horror LUTs Pack/LUTs/cube/Slimerot LUT.cube
DOMAIN_MIN 0 0 0
DOMAIN_MAX 1 1 1
LUT_3D_SIZE 32
0.109803997 0.039216001 0.039216001
0.109803997 0.039216001 0.039216001
0.111954227 0.037065227 0.039216001
0.118785322 0.035294000 0.040480837
0.130550444 0.035673548 0.043895997
0.139658064 0.038709935 0.049968001
0.151296645 0.041745678 0.050980002
0.165085703 0.041492712 0.052624710
0.179507002 0.039216001 0.054142904
0.191651016 0.039216001 0.051106516
0.209613994 0.039216001 0.050980002
0.229854241 0.043263994 0.050980002
0.249968290 0.049335998 0.049841646
0.268438041 0.055407997 0.047059000
0.289690375 0.061479993 0.047059000
0.315749794 0.069955796 0.049462192
0.343074203 0.080581993 0.054016385
0.372296125 0.091460988 0.059456415
0.408728987 0.097533010 0.062492035
0.442378372 0.100822359 0.065528356
0.487160206 0.107653253 0.072359249
0.537761271 0.115749255 0.079443134
0.587096930 0.121569000 0.082479514
0.653889835 0.121569000 0.085515901
0.711574554 0.119291715 0.090828992
0.764831960 0.116255328 0.098292306
0.817457199 0.114737131 0.107400060
0.875142276 0.120809898 0.116508439
0.924857557 0.129538149 0.128272980
0.969892323 0.142188177 0.143959403
0.999114394 0.158254206 0.159519374
0.996078014 0.176470995 0.168626994
0.112839609 0.036179613 0.033144001
0.109803997 0.039216001 0.039216001
0.114105001 0.039216001 0.041366227
0.121821381 0.037065227 0.044781614
0.133586168 0.036052998 0.049588550
0.142694458 0.041745547 0.053004384
0.156862721 0.047311615 0.061606705
0.166223988 0.047564711 0.059835777
0.177229702 0.046046905 0.056420196
0.191651016 0.048323616 0.051106520
0.209613994 0.054143351 0.056799740
0.229854241 0.058444381 0.055028517
0.249968290 0.064516380 0.052877743
0.268438041 0.070588388 0.050094616
0.289690375 0.076660387 0.050094616
0.310942769 0.080329195 0.047691423
0.341555983 0.089690387 0.052498575
0.375331730 0.100569375 0.059456415
0.411764622 0.106641397 0.062492043
0.450980693 0.115496747 0.071094364
0.492473096 0.119038641 0.074636258
0.541809022 0.123845518 0.081467129
0.592536449 0.127767473 0.088424996
0.644782245 0.130676612 0.088551514
0.707020938 0.130676612 0.096141897
0.765970588 0.131182671 0.104364306
0.822517216 0.131435707 0.112966128
0.875142276 0.129917502 0.119544826
0.922200739 0.138646424 0.125996381
0.968627155 0.149525359 0.139152557
0.998229027 0.166097194 0.154332981
0.993042350 0.188614994 0.165591389
0.118026547 0.041745774 0.031373002
0.110689387 0.044781614 0.033144001
0.114105001 0.043517001 0.043517001
0.120177001 0.044781841 0.041492611
0.130929545 0.043896001 0.044655096
0.143579930 0.046425998 0.056546707
0.157748327 0.050347775 0.049588770
0.167995006 0.056419771 0.055408157
0.177862093 0.057178997 0.053131126
0.195825502 0.061606292 0.051233035
0.207463771 0.065401740 0.052498192
0.225679755 0.069449738 0.050474454
0.247944281 0.074256867 0.050727222
0.268691003 0.079570033 0.050980002
0.291840613 0.087539770 0.050980002
0.315243781 0.093358807 0.052877810
0.342568189 0.099430799 0.055914190
0.377102911 0.110309795 0.063124999
0.410499752 0.117900014 0.064642817
0.447565109 0.124604590 0.068943590
0.492726475 0.131815210 0.076154225
0.538519859 0.135104135 0.078431003
0.588108718 0.138140514 0.084250242
0.643769979 0.141176641 0.092346773
0.702213764 0.141935542 0.092726283
0.764326155 0.143326864 0.103225976
0.823782086 0.146363065 0.112586766
0.873750508 0.146616101 0.118659124
0.926502287 0.152055606 0.129032210
0.964958668 0.164705962 0.140417397
0.994813383 0.179000527 0.153826818
0.990006208 0.200759009 0.164706007
0.121569000 0.054648999 0.036433000
0.111195453 0.053889774 0.033902999
0.116635002 0.057684936 0.038709838
0.121442162 0.054648999 0.045793835
0.127893612 0.057684708 0.038203545
0.141302764 0.058570322 0.051992707
0.155218333 0.063630641 0.049968518
0.169260174 0.065781318 0.047311705
0.177609071 0.071094222 0.048070997
0.197849333 0.076660156 0.049588677
0.208728880 0.079823032 0.049715161
0.223908991 0.084124066 0.050727166
0.243263632 0.088298321 0.045793518
0.267425895 0.091461129 0.050980002
0.291714132 0.098545246 0.050980002
0.317267597 0.107780151 0.055913802
0.342315048 0.112839967 0.055661026
0.376976550 0.121947736 0.065401822
0.409235001 0.131056130 0.067931846
0.446426600 0.138646334 0.071979649
0.487919301 0.143453151 0.076913320
0.538520098 0.147501156 0.082985327
0.585578442 0.150537506 0.083870798
0.645540714 0.155850902 0.094876647
0.701707721 0.156609997 0.096648000
0.760024965 0.158001646 0.100948818
0.822770178 0.161543325 0.111068837
0.873624027 0.165338621 0.115622833
0.927514076 0.169765994 0.128272980
0.969766021 0.181151181 0.140923336
0.992536485 0.196331576 0.156989127
0.989500165 0.214168161 0.167236000
0.120430455 0.073244549 0.046300001
0.111321770 0.068311095 0.041745998
0.116634771 0.071853325 0.041745774
0.127134621 0.075521931 0.044275545
0.130550444 0.072865091 0.042757548
0.139658064 0.075901479 0.045793936
0.151296645 0.083997764 0.046679452
0.164706156 0.088551991 0.049209449
0.179506898 0.089310899 0.053383999
0.194686532 0.092346519 0.047311999
0.208475739 0.095762417 0.047438450
0.225047544 0.100442991 0.051106997
0.242884174 0.106514990 0.053763356
0.264136583 0.112334020 0.051233035
0.288298786 0.115369670 0.051359549
0.315370232 0.125237152 0.057811350
0.341555983 0.133206889 0.061227001
0.368627131 0.137128115 0.057811528
0.408096403 0.146236524 0.069955558
0.447944403 0.156103909 0.076533556
0.489690006 0.161037356 0.082226478
0.536242843 0.164199546 0.088298991
0.591018081 0.164199546 0.094117999
0.654269278 0.172548905 0.102466650
0.708918273 0.175205544 0.103984743
0.763061285 0.176976666 0.105376311
0.817457199 0.180518985 0.114863545
0.875142276 0.186590984 0.114863545
0.929411530 0.190765247 0.127766818
0.972422123 0.199746728 0.141176417
0.995951653 0.214168131 0.155091971
0.992915988 0.229348540 0.173308000
0.111322060 0.094496936 0.040228002
0.123466052 0.097533323 0.046300001
0.122959927 0.096900865 0.046046998
0.128019989 0.095888935 0.049082931
0.133586064 0.091081865 0.051865932
0.139658064 0.091081865 0.039721936
0.151296645 0.099177606 0.042757679
0.163440987 0.104996771 0.043643065
0.176091060 0.107526898 0.045414165
0.188614532 0.110562518 0.047312003
0.212523729 0.116508737 0.049968131
0.232764244 0.120050669 0.052498322
0.248956576 0.124730997 0.053763356
0.261100948 0.130550027 0.051233035
0.282353312 0.133586407 0.054269414
0.311321974 0.141429663 0.056799736
0.339658260 0.149525926 0.063883737
0.368374109 0.155091867 0.069196574
0.405060023 0.161416918 0.072991945
0.447311819 0.176091298 0.079569943
0.491208196 0.180771932 0.083744675
0.539279222 0.184313744 0.088298991
0.594054461 0.191523939 0.094117999
0.651739657 0.191523939 0.094117999
0.705882192 0.195319280 0.102466635
0.763060987 0.199240923 0.105376065
0.823276222 0.204806998 0.109424055
0.875142276 0.210878983 0.123971932
0.924857557 0.219607815 0.134597912
0.969133139 0.225932837 0.147248417
0.996963620 0.234408528 0.161163971
0.998987973 0.244528934 0.179380000
0.114863999 0.113219641 0.046805676
0.116888002 0.116255380 0.042757679
0.126881763 0.117140993 0.046679452
0.130550310 0.117140993 0.048323840
0.136622325 0.114357993 0.052371677
0.142694324 0.114357993 0.048829678
0.148766324 0.114357993 0.044275999
0.162555382 0.120177023 0.047311611
0.177102998 0.123972312 0.050474096
0.192789018 0.128779158 0.057052482
0.208981410 0.134724736 0.055028774
0.227197930 0.138773248 0.056040645
0.246299952 0.142947644 0.057432320
0.260595024 0.148766607 0.056293610
0.281847388 0.151802421 0.059329413
0.307906777 0.162049606 0.064768992
0.339658499 0.171284124 0.067931868
0.370904446 0.178367987 0.073750742
0.407337308 0.184440002 0.076786660
0.446805745 0.188741371 0.082606323
0.495003194 0.200126737 0.088678315
0.542821229 0.204048321 0.091334999
0.594560504 0.211385116 0.094244480
0.652245700 0.213788316 0.096647680
0.712207556 0.216065601 0.101201676
0.767362237 0.220493302 0.107273668
0.827324450 0.226565316 0.110436313
0.880961299 0.232637316 0.123592429
0.929917574 0.238835812 0.131055966
0.969639122 0.249715418 0.143200412
0.996963620 0.259962231 0.163314551
1.000000000 0.272359639 0.193042323
0.117647000 0.134724990 0.049335711
0.117647000 0.134472027 0.048196997
0.127387762 0.137001693 0.048576768
0.130171001 0.138266861 0.044022836
0.135863543 0.137887403 0.046299554
0.145730719 0.135357410 0.052624710
0.146869004 0.138646409 0.046805616
0.161163703 0.138646409 0.048703291
0.175585002 0.141682595 0.050221100
0.192030013 0.146868989 0.055787489
0.208981588 0.152940989 0.059835870
0.224161968 0.156989247 0.058823999
0.240480706 0.161163986 0.059962351
0.259456307 0.167489022 0.061227318
0.283491671 0.173307985 0.067046277
0.304617345 0.180265605 0.069196701
0.338014126 0.192409977 0.072232708
0.372296125 0.200379282 0.077039979
0.408729017 0.205439419 0.083111741
0.447944403 0.213662058 0.085642003
0.493358493 0.218848720 0.093358994
0.546995640 0.226944983 0.097406998
0.597722948 0.233016998 0.097406998
0.653890014 0.237571210 0.098924808
0.715496540 0.240606979 0.102592997
0.773434222 0.246426359 0.108664989
0.830360532 0.252245337 0.112460420
0.885009587 0.257178694 0.122327700
0.932700574 0.264895380 0.135736689
0.974066854 0.272865117 0.145350695
0.995951772 0.285895288 0.159266487
0.996711016 0.301075697 0.193422005
0.116887905 0.157495201 0.050094999
0.118406095 0.155977383 0.051612809
0.127640679 0.155724421 0.053889871
0.135483906 0.160278171 0.053131029
0.130929902 0.162175998 0.038709644
0.144971743 0.156103998 0.050853938
0.146489680 0.159393102 0.048829678
0.155091703 0.162176102 0.049462188
0.175585002 0.162176102 0.054016192
0.187729016 0.165211722 0.050980583
0.204933643 0.171916097 0.058823865
0.222644150 0.175964355 0.061100900
0.238963082 0.180139095 0.061480351
0.257179111 0.186717093 0.064263001
0.282985389 0.196331412 0.071853317
0.305376083 0.203036189 0.073750906
0.332700461 0.212144181 0.077546000
0.373434603 0.222390592 0.076913588
0.410247028 0.225426957 0.088425100
0.449462414 0.236053094 0.091713995
0.494623452 0.244402096 0.094370738
0.545477450 0.251233190 0.101201907
0.603036046 0.257305175 0.101201907
0.657684922 0.263377815 0.101201907
0.719164908 0.268690914 0.106514797
0.778747320 0.272232741 0.109424084
0.832890272 0.281341016 0.117520094
0.887286782 0.284882665 0.124604799
0.933206856 0.292473018 0.138267055
0.974193335 0.303099185 0.152941063
0.999747038 0.313978583 0.169133201
0.993674994 0.329158992 0.187349990
0.113851517 0.175711975 0.062239006
0.119924292 0.178747594 0.059203390
0.127893716 0.177229792 0.058570966
0.133459508 0.179506809 0.058697484
0.133965522 0.186464012 0.056926418
0.140037522 0.180392012 0.047818042
0.143959358 0.181910336 0.049841687
0.153320700 0.183428496 0.057305422
0.169513017 0.183428496 0.066160977
0.187729016 0.183428496 0.066160969
0.202782869 0.192283109 0.071853474
0.222137764 0.197216764 0.071979739
0.241998807 0.201391503 0.070208520
0.260215491 0.207969502 0.070335008
0.278431475 0.220113486 0.070335001
0.304237783 0.227324620 0.070714526
0.334218681 0.236432984 0.078304708
0.370398194 0.246679395 0.089057595
0.415939480 0.249715000 0.086021975
0.455534399 0.258317351 0.094750129
0.500695467 0.265654504 0.095888741
0.551296473 0.272738636 0.095382869
0.606072426 0.281594008 0.098165520
0.660721302 0.287665993 0.098165520
0.722201288 0.296015322 0.109550796
0.781783700 0.300696015 0.117267475
0.835926652 0.302593440 0.120556481
0.887539744 0.311701059 0.138772473
0.931309581 0.317900181 0.145857185
0.972169578 0.329411745 0.155977458
1.000000000 0.344338626 0.172549084
0.999746978 0.359519035 0.199494004
0.110815868 0.196837872 0.068563998
0.116887905 0.205692485 0.062618516
0.122960135 0.200126648 0.059582900
0.132573992 0.199367866 0.057558838
0.138772547 0.206072181 0.057052672
0.137254879 0.207589865 0.063124932
0.150917202 0.204048201 0.064136542
0.162049577 0.206325158 0.068816870
0.176470876 0.207589984 0.073118225
0.190385878 0.207589984 0.066666998
0.202782869 0.207589999 0.063757122
0.219987512 0.214673877 0.069829121
0.239215866 0.220872641 0.072865002
0.258191139 0.228462905 0.076154031
0.284376979 0.232637733 0.073497869
0.307400584 0.244781733 0.080708668
0.337255061 0.254902005 0.086780541
0.371283978 0.265780985 0.096014999
0.409993976 0.271093905 0.095256090
0.455534369 0.279696226 0.089437120
0.500948429 0.292599589 0.094117738
0.552561343 0.300695628 0.095129870
0.609361112 0.306008518 0.098165512
0.669576705 0.314863890 0.100948870
0.728779435 0.320935875 0.105502866
0.786337972 0.328019977 0.116002664
0.837950885 0.332574069 0.123086803
0.884756446 0.341682285 0.138898984
0.931056619 0.353446722 0.151802659
0.972043097 0.358254224 0.165464938
1.000000000 0.368880332 0.180771589
1.000000000 0.384060740 0.200000003
0.111827739 0.220113993 0.070588000
0.111827999 0.229222119 0.072611995
0.123972252 0.229474753 0.066666506
0.127514258 0.224161983 0.062365733
0.135863274 0.228715986 0.060467996
0.137760937 0.233396292 0.071220674
0.151929066 0.233396292 0.077293187
0.165465161 0.230360687 0.077039801
0.177988991 0.232637405 0.079696164
0.187603027 0.233902231 0.073118217
0.203795001 0.233902231 0.073877379
0.219987512 0.239974484 0.070840992
0.239342630 0.244908139 0.075774640
0.258950263 0.251992494 0.080961257
0.284503400 0.256799668 0.083238408
0.307400316 0.267046243 0.081720799
0.339278907 0.277672440 0.090828799
0.375584841 0.287412941 0.097406588
0.414800733 0.292093277 0.096015260
0.457558393 0.304996610 0.098545246
0.503099203 0.312207252 0.094370514
0.555597484 0.325996220 0.097153872
0.614294469 0.332194746 0.100189738
0.673118353 0.339405388 0.103225641
0.737887859 0.348260224 0.112587251
0.794433892 0.357115567 0.115876250
0.845034897 0.363946676 0.123592995
0.890575707 0.370018691 0.137254789
0.938140452 0.381783754 0.149778396
0.973055124 0.390385747 0.165465131
0.999114394 0.396331489 0.184566841
0.997975767 0.410373241 0.202024266
0.111447997 0.247817636 0.072865002
0.110689387 0.254649043 0.077798642
0.117141128 0.257432163 0.076407000
0.129411995 0.255660921 0.073750637
0.130171001 0.255660921 0.068817183
0.136243001 0.260214925 0.078684285
0.150158003 0.261226922 0.083491646
0.165085137 0.260720998 0.084630288
0.177988812 0.259962291 0.084630094
0.185199365 0.263377428 0.083111808
0.204048008 0.263503909 0.082479514
0.222264513 0.266160518 0.082606032
0.240480989 0.272991627 0.081846640
0.261733383 0.276534021 0.084629998
0.285135984 0.283491611 0.088930994
0.310436428 0.293232262 0.091208160
0.338519812 0.303858161 0.089690447
0.377988160 0.312966555 0.097533070
0.419986993 0.317014337 0.095509335
0.463630378 0.330044001 0.101961002
0.514863849 0.339531630 0.100063264
0.562429011 0.347627878 0.102086999
0.622517228 0.359646112 0.105376355
0.679190338 0.366730005 0.107400097
0.740291119 0.375078976 0.116128922
0.800126612 0.384439975 0.123845994
0.851233125 0.395572633 0.124351926
0.897406638 0.399240851 0.134598345
0.944465578 0.411385298 0.151296616
0.979506493 0.422264606 0.169259742
0.999746978 0.430107623 0.186590925
0.997216642 0.442251623 0.207337350
0.104617029 0.281467050 0.079190031
0.108159356 0.285262436 0.081720419
0.113599002 0.286780804 0.080708295
0.120683134 0.289058030 0.080455191
0.130171001 0.289310992 0.082732551
0.136243001 0.289310992 0.085768931
0.146615967 0.289058030 0.087286994
0.160025045 0.288805008 0.084883317
0.172675133 0.290322989 0.084377065
0.187855527 0.296395004 0.093485445
0.208601862 0.297153980 0.088804998
0.227830499 0.297153980 0.086780995
0.246300027 0.297786415 0.087666377
0.265275061 0.300822020 0.090955034
0.286527425 0.309930384 0.090955034
0.314484566 0.319038779 0.094750024
0.346869230 0.328146845 0.097280167
0.382036537 0.337001592 0.095762417
0.421505034 0.346110016 0.098798044
0.466540128 0.358254075 0.105882362
0.521948159 0.367109060 0.104617260
0.582416356 0.375205278 0.101834029
0.634282410 0.387223512 0.113598511
0.689057767 0.396331161 0.113724999
0.745730817 0.405439347 0.120303310
0.800379634 0.414800674 0.127387673
0.851486146 0.423909009 0.131182969
0.900062859 0.429981023 0.134218574
0.945477426 0.443263888 0.154838592
0.978873909 0.456419975 0.179126963
0.996710598 0.468817055 0.202023655
0.999746978 0.480961055 0.217204064
0.089437433 0.317899793 0.088298410
0.098545052 0.330043793 0.085262798
0.106388360 0.320936143 0.085642412
0.113599002 0.318406403 0.087539829
0.121442132 0.322833836 0.091461413
0.136243001 0.325742960 0.085768931
0.139784679 0.323213309 0.096395001
0.157874703 0.320809692 0.092852987
0.178241834 0.320682943 0.086401314
0.190891907 0.326754957 0.090449065
0.208981410 0.332826972 0.093738452
0.227830499 0.333585978 0.092852995
0.247185647 0.332447588 0.092852995
0.268311441 0.331182778 0.093991414
0.295635790 0.334218383 0.100063413
0.319291383 0.343326777 0.095256418
0.352435142 0.352435172 0.099304222
0.391903907 0.360910803 0.105249554
0.436685413 0.367362380 0.110942006
0.481720507 0.382036746 0.102846339
0.527261138 0.394686788 0.105123259
0.581657052 0.405565798 0.105629124
0.640354455 0.417583466 0.110562898
0.698038876 0.426691860 0.113598518
0.752814651 0.435800105 0.118279576
0.805313289 0.446299791 0.127767414
0.854522526 0.457811385 0.138013989
0.903099239 0.469449371 0.149398953
0.943706155 0.475522041 0.160404384
0.977355719 0.485262573 0.182162955
0.996078014 0.496773988 0.208222598
0.996710598 0.511321843 0.235420823
0.079064198 0.356736392 0.097406797
0.085768625 0.354458779 0.089563578
0.092726007 0.358000785 0.090828963
0.105376199 0.354206115 0.088551991
0.116381742 0.359898776 0.090449452
0.127514124 0.356862664 0.094497181
0.142188489 0.362049103 0.098798186
0.156736210 0.360657781 0.101075195
0.180265903 0.359139562 0.093485184
0.194054216 0.361922592 0.094876513
0.212017804 0.365591407 0.097912863
0.236306056 0.367615402 0.096900739
0.256799638 0.367615402 0.096521191
0.278558016 0.366350561 0.096521191
0.305882394 0.369386166 0.098292194
0.330803603 0.372422367 0.097154006
0.359645784 0.380012572 0.098671801
0.397976100 0.389500350 0.105881996
0.441745847 0.400885582 0.108412005
0.489690095 0.408096164 0.110183343
0.542821169 0.425173789 0.106767997
0.591397822 0.437317938 0.108285800
0.646679461 0.448197097 0.110056989
0.708918512 0.461859494 0.115369901
0.757494867 0.468690604 0.118406087
0.811764777 0.479063779 0.127134979
0.860847831 0.490195811 0.139278993
0.903731823 0.498544753 0.151422992
0.951549530 0.507779598 0.170777783
0.980391979 0.519165158 0.193548158
0.997596204 0.530423522 0.217330769
0.996078014 0.544085801 0.241619200
0.063883819 0.393169194 0.100442812
0.076027811 0.394686967 0.098924607
0.082099810 0.388361573 0.095382772
0.091966964 0.392156720 0.095888838
0.110689104 0.399367452 0.091208346
0.125490129 0.393295169 0.098039255
0.141176313 0.394307166 0.100063004
0.158254400 0.400126547 0.107147194
0.182542995 0.400885463 0.101834096
0.199999735 0.401644349 0.101074994
0.221125931 0.401518226 0.102466673
0.245414436 0.405566365 0.104490936
0.271600187 0.405566365 0.100316197
0.293991059 0.405566365 0.099557191
0.322580576 0.407337129 0.099557191
0.350537777 0.410372972 0.101707801
0.374826193 0.413409352 0.101707801
0.410120100 0.419481367 0.108917996
0.452624977 0.432005167 0.108917996
0.499177933 0.438836187 0.108665355
0.553447366 0.452498555 0.109803997
0.611132264 0.467678428 0.112840123
0.661353469 0.477039695 0.114484668
0.719544709 0.492220104 0.119164996
0.769639671 0.503605187 0.122960277
0.813788712 0.512460530 0.132953972
0.867426097 0.523592591 0.145857066
0.910942376 0.529664576 0.159013182
0.952308595 0.538392961 0.177608788
0.984946191 0.548007309 0.204174355
0.998229027 0.562302172 0.229221970
0.994560182 0.574446142 0.246172994
0.043896440 0.430360675 0.099936567
0.060215034 0.437571496 0.104743578
0.073624015 0.435041308 0.104996763
0.085388742 0.431625664 0.102593407
0.100948572 0.439975053 0.098798022
0.124731280 0.434661388 0.100822359
0.145224586 0.433649272 0.100063257
0.165338397 0.436305940 0.102340125
0.185705557 0.441619605 0.109044902
0.209993586 0.444655210 0.106008515
0.233649731 0.441872388 0.105881996
0.260594815 0.444908530 0.107273676
0.288045555 0.448703527 0.109424412
0.313092649 0.448956549 0.103858411
0.343832940 0.449336082 0.103858411
0.374826133 0.450474292 0.108032987
0.403415710 0.454142720 0.112586953
0.427703679 0.457179099 0.113092586
0.470208555 0.463251114 0.113092579
0.516129076 0.469323099 0.111574762
0.568627596 0.480455458 0.111701563
0.625047684 0.496900976 0.113472544
0.682479024 0.506008625 0.122327931
0.734092295 0.520177066 0.125363678
0.781151235 0.533080101 0.130297258
0.825933278 0.545856893 0.139025956
0.867932081 0.556989551 0.158254117
0.919038415 0.563061535 0.173813999
0.957368612 0.571789861 0.191650525
0.984946191 0.580897748 0.216318339
0.999494016 0.590259075 0.243896112
0.993421972 0.602403104 0.256040126
0.028716037 0.481973946 0.109044962
0.037824430 0.481973946 0.109044977
0.058444008 0.480582207 0.109550975
0.081214331 0.478304982 0.109298006
0.103984974 0.479443550 0.107906416
0.122200981 0.482479930 0.098798037
0.145983711 0.482226908 0.100822352
0.171410695 0.483871192 0.103352256
0.197976127 0.487160116 0.106135018
0.225174010 0.490196496 0.106008515
0.246552870 0.487413108 0.105881996
0.274130523 0.490449041 0.105882004
0.304237992 0.494244039 0.108412035
0.334345073 0.494497061 0.112966038
0.367742240 0.497533441 0.112966031
0.400885761 0.495509207 0.115369841
0.432511389 0.497532994 0.118659198
0.461100906 0.502719641 0.119165368
0.485388994 0.505756021 0.110056974
0.533459783 0.511828005 0.112839617
0.585578501 0.517899990 0.117267512
0.639468372 0.528020203 0.121821836
0.691587448 0.542441487 0.125363559
0.743200719 0.551549911 0.128399953
0.790259242 0.563440979 0.138266966
0.835799992 0.576976657 0.149652004
0.880076051 0.590386033 0.164326146
0.919544458 0.596458018 0.188614890
0.957368612 0.605186820 0.206830949
0.984946191 0.614294708 0.230360135
1.000000000 0.623402596 0.257052213
0.999494016 0.632763982 0.280328989
0.033017006 0.528020382 0.107020639
0.044908036 0.528020382 0.112586647
0.066919975 0.534472167 0.112586647
0.089310713 0.532701075 0.111321807
0.110942550 0.529285550 0.109424450
0.136369362 0.527514338 0.105123065
0.162175685 0.530550718 0.101075329
0.190006405 0.530803740 0.101961002
0.217710361 0.532701015 0.103858255
0.243010506 0.535736918 0.105881996
0.275648594 0.538520277 0.105881996
0.300948977 0.537508130 0.109929994
0.330550373 0.539785087 0.112586647
0.360910445 0.539785087 0.116255328
0.391777247 0.540291190 0.113724999
0.429981411 0.545730770 0.118532605
0.464136928 0.546868920 0.120430358
0.497027487 0.550410748 0.120303847
0.529918134 0.551296353 0.113345683
0.562555492 0.554332733 0.112586647
0.609234452 0.556609750 0.117520481
0.655154645 0.563946843 0.124604866
0.697912455 0.578874230 0.131562024
0.749525726 0.587982655 0.142568275
0.798861504 0.599367678 0.152435362
0.842124999 0.611511707 0.163188040
0.884376764 0.624288499 0.175458789
0.926122427 0.632637739 0.197470233
0.962934613 0.638709724 0.229728132
0.986970186 0.647691607 0.252118647
1.000000000 0.658570707 0.280202180
1.000000000 0.671474099 0.310183734
0.063757196 0.573561192 0.111574732
0.074003458 0.575458467 0.113851734
0.089310303 0.580012500 0.109930001
0.117900304 0.584060907 0.116255164
0.137887448 0.579759896 0.115116991
0.157621667 0.579759479 0.104490809
0.186843783 0.579886079 0.109044574
0.214168161 0.581277728 0.109297961
0.245034814 0.582795739 0.108791895
0.272738487 0.586969972 0.109550513
0.300063342 0.588108599 0.111574732
0.331309229 0.589120746 0.113725476
0.362049282 0.587982357 0.116381839
0.394180566 0.587476432 0.117900029
0.426186025 0.589120746 0.118153065
0.458064377 0.592030466 0.116634868
0.496015370 0.598102510 0.122707255
0.529158831 0.600252807 0.124098830
0.563061714 0.598987937 0.121821538
0.598608851 0.601770818 0.119417734
0.633902431 0.606704414 0.125110477
0.677419126 0.605692565 0.128146857
0.714863956 0.615306914 0.133965492
0.759392738 0.624414921 0.147881076
0.806831241 0.632005453 0.165717974
