Assets/Resources/EldamarStudio/100 Horror LUTs Pack/LUTs/cube/Slimerot LUT.cube
LUT_3D_SIZE 8
DOMAIN_MIN 0.000000 0.000000 0.000000
DOMAIN_MAX 0.903226 0.903226 0.903226
0.109803997 0.039216001 0.039216001
0.130550444 0.035673548 0.043895997
0.179507002 0.039216001 0.054142904
0.249968290 0.049335998 0.049841646
0.343074203 0.080581993 0.054016385
0.487160206 0.107653253 0.072359249
0.711574554 0.119291715 0.090828992
0.924857557 0.129538149 0.128272980
0.120430455 0.073244549 0.046300001
0.130550444 0.072865091 0.042757548
0.179506898 0.089310899 0.053383999
0.242884174 0.106514990 0.053763356
0.341555983 0.133206889 0.061227001
0.489690006 0.161037356 0.082226478
0.708918273 0.175205544 0.103984743
0.929411530 0.190765247 0.127766818
0.116887905 0.157495201 0.050094999
0.130929902 0.162175998 0.038709644
0.175585002 0.162176102 0.054016192
0.238963082 0.180139095 0.061480351
0.332700461 0.212144181 0.077546000
0.494623452 0.244402096 0.094370738
0.719164908 0.268690914 0.106514797
0.933206856 0.292473018 0.138267055
0.111447997 0.247817636 0.072865002
0.130171001 0.255660921 0.068817183
0.177988812 0.259962291 0.084630094
0.240480989 0.272991627 0.081846640
0.338519812 0.303858161 0.089690447
0.514863849 0.339531630 0.100063264
0.740291119 0.375078976 0.116128922
0.944465578 0.411385298 0.151296616
0.063883819 0.393169194 0.100442812
0.110689104 0.399367452 0.091208346
0.182542995 0.400885463 0.101834096
0.271600187 0.405566365 0.100316197
0.374826193 0.413409352 0.101707801
0.553447366 0.452498555 0.109803997
0.769639671 0.503605187 0.122960277
0.952308595 0.538392961 0.177608788
0.063757196 0.573561192 0.111574732
0.137887448 0.579759896 0.115116991
0.245034814 0.582795739 0.108791895
0.362049282 0.587982357 0.116381839
0.496015370 0.598102510 0.122707255
0.633902431 0.606704414 0.125110477
0.806831241 0.632005453 0.165717974
0.967109323 0.673244715 0.236938775
0.290954828 0.774699271 0.185831845
0.317773521 0.776976585 0.184313565
0.397596359 0.776090920 0.186337560
0.501454532 0.782542825 0.201518267
0.612903118 0.779253840 0.211511642
0.738772988 0.782542825 0.231752023
0.856040597 0.788741589 0.257052273
0.972549260 0.801644087 0.334218621
0.551296353 0.925869823 0.393168539
0.559518933 0.933080494 0.395445764
0.603288829 0.928019822 0.404933214
0.664895415 0.930044115 0.420366585
0.737634301 0.932447612 0.433523238
0.827957153 0.932321429 0.464769214
0.902213812 0.935104489 0.490069687
0.988614798 0.945603609 0.521189213
0.116888002 0.043516546 0.068943992
0.126628548 0.043136999 0.065781094
0.175205544 0.052498195 0.077545993
0.233143643 0.076407455 0.094497353
0.315243632 0.103731737 0.108159088
0.464516014 0.125363991 0.127008289
0.685768306 0.131056294 0.145983741
0.915496111 0.132447705 0.177609071
0.114863545 0.076407544 0.071726546
0.138014004 0.080328546 0.069702990
0.168121547 0.090069897 0.085009545
0.232763991 0.116002090 0.099936545
0.316887707 0.141049892 0.115243092
0.465781450 0.170398548 0.130423725
0.689816236 0.180771843 0.150411293
0.918785095 0.189753503 0.183681533
0.125869542 0.144086093 0.095635995
0.128146544 0.157495096 0.086907096
0.162555546 0.154333100 0.100316100
0.226059526 0.175837830 0.102213539
0.323339492 0.205186397 0.117899738
0.478557706 0.240481094 0.130676985
0.701833963 0.265907615 0.153826743
0.929411650 0.289690375 0.182163060
0.117773712 0.251360089 0.111574732
0.128526002 0.252245307 0.113978542
0.176344082 0.250980526 0.113092728
0.230234176 0.259582639 0.119797274
0.331815273 0.300822198 0.130803183
0.502340317 0.333206743 0.144591838
0.731941581 0.373434275 0.160531193
0.928020298 0.409108013 0.196710899
0.073624358 0.390006363 0.142694101
0.113345541 0.385578811 0.136242896
0.178494290 0.389500022 0.141049996
0.264895737 0.399367452 0.144212291
0.372042924 0.406704724 0.141049907
0.542188406 0.448956311 0.152308732
0.764326453 0.498418897 0.171663642
0.951169908 0.536242545 0.226438910
0.063883908 0.573054731 0.153447285
0.136243016 0.576470196 0.153826550
0.243137151 0.576470196 0.153699920
0.355724454 0.583934367 0.152814910
0.492093474 0.587223351 0.165717542
0.629095435 0.598482013 0.171284184
0.800506055 0.632131577 0.204174355
0.964326501 0.673118174 0.278431445
0.293991119 0.767235816 0.221505105
0.329791069 0.768121302 0.227450788
0.397343367 0.767615259 0.226186097
0.498924822 0.769513011 0.236305907
0.616318941 0.773940384 0.245793819
0.731055975 0.778621316 0.262238801
0.855534554 0.784819603 0.283617824
0.962934852 0.799746752 0.351043433
0.559392691 0.931815326 0.413788795
0.572422326 0.926628828 0.425300390
0.606198370 0.924098670 0.425679952
0.668184638 0.927260756 0.439215779
0.741808951 0.930044115 0.458064586
0.823908508 0.929538012 0.480202019
0.906135380 0.936369479 0.509550452
0.985578537 0.934471786 0.541935086
0.106641091 0.050980002 0.145730197
0.138772994 0.043516546 0.142188549
0.173940092 0.057179097 0.134598181
0.234281987 0.080328740 0.149272650
0.319671094 0.111195281 0.164453000
0.446932346 0.136495903 0.200126454
0.657305777 0.134218812 0.221505374
0.901960731 0.137634158 0.251486391
0.119923994 0.092093542 0.125996187
0.135989651 0.087286547 0.123339541
0.174446538 0.097912997 0.133207098
0.222137645 0.122580647 0.147627741
0.303732067 0.147248298 0.173181280
0.448197216 0.172042727 0.198228911
0.668564260 0.178747997 0.222643629
0.906388342 0.197216973 0.264516264
0.128652900 0.153573990 0.137887195
0.135610089 0.158254206 0.133080184
0.180265889 0.168374196 0.154333085
0.217330635 0.180518642 0.159013093
0.310815990 0.212270901 0.178621188
0.457811445 0.241239995 0.203668386
0.687033832 0.263251275 0.227956891
0.917014599 0.293485075 0.270714730
0.119923994 0.252245277 0.160910726
0.138014004 0.255408078 0.167235658
0.181024984 0.254901826 0.175837830
0.229475081 0.263503909 0.169892296
0.325237006 0.292473018 0.185579002
0.482732564 0.329664379 0.210752904
0.719291747 0.368374646 0.230866477
0.922833443 0.413409382 0.277545631
0.095888808 0.378115356 0.198228985
0.121062443 0.378494799 0.195825189
0.181657180 0.382795453 0.201391101
0.264895707 0.391903728 0.199240834
0.368627459 0.400885433 0.203668386
0.534851253 0.443896174 0.221252441
0.756103635 0.492473185 0.251233459
0.947248220 0.541429102 0.308791846
0.097153723 0.565844417 0.233523086
0.146742463 0.568627179 0.236812010
0.243010551 0.569386184 0.225932717
0.357495248 0.578115106 0.238077089
0.486274272 0.582795918 0.239721999
0.620114207 0.589500487 0.246046826
0.798988163 0.631878436 0.281214744
0.953826666 0.678431213 0.353826761
0.314990520 0.765970647 0.300822258
0.345983744 0.766476810 0.301201969
0.416445047 0.766729772 0.311195582
0.510436475 0.765591204 0.314610898
0.619987488 0.773813844 0.324478179
0.733333290 0.774699509 0.337760746
0.852118731 0.781024635 0.356609613
0.967488766 0.805439353 0.426944703
0.582163274 0.930423677 0.479696214
0.594686508 0.921695054 0.485894620
0.627450705 0.922706962 0.487412930
0.683744311 0.926501870 0.498545140
0.752434790 0.925869823 0.510183454
0.830107629 0.927767038 0.524098396
0.909550846 0.934345365 0.553067446
0.987222791 0.937760592 0.577988684
0.112080999 0.041492999 0.246679276
0.143959552 0.047691286 0.238456726
0.188109085 0.068058088 0.232637286
0.235420644 0.086906999 0.226438984
0.319164753 0.117140837 0.237318277
0.456293464 0.132574096 0.268564373
0.665780842 0.131562367 0.312839627
0.898545206 0.147627965 0.349399298
0.126628548 0.113219440 0.218848646
0.140670553 0.111574642 0.217204541
0.178621083 0.118658639 0.214927644
0.228336543 0.128020540 0.215307087
0.317646831 0.149904847 0.234408721
0.451107085 0.175585181 0.270461738
0.672612071 0.179127544 0.312080711
0.897279859 0.204427510 0.356230259
0.122327998 0.183681548 0.222011551
0.145350739 0.182542995 0.214168549
0.186970547 0.187982097 0.221631989
0.228716090 0.188741088 0.221632093
0.313093156 0.220493540 0.243896455
0.459456474 0.241239995 0.275521994
0.681214035 0.261606574 0.317900002
0.903605580 0.307906538 0.369006574
0.122074358 0.254522294 0.222011641
0.141935095 0.258444279 0.224668190
0.186464101 0.267046183 0.241619632
0.256799281 0.298292279 0.261859626
0.341303289 0.306641638 0.268184632
0.495256364 0.330423445 0.289690256
0.708918512 0.366729915 0.332574278
0.913851798 0.420240462 0.381151259
0.104870453 0.380139023 0.266413987
0.133206889 0.389120370 0.263377696
0.203288838 0.395446211 0.276913553
0.278558254 0.400505811 0.277799070
0.380265594 0.410246581 0.283744723
0.538266838 0.447438121 0.311195493
0.753952801 0.496394485 0.347122103
0.937254965 0.549525321 0.413029581
0.131562456 0.562934518 0.315749615
0.173687816 0.563314140 0.316761643
0.265781373 0.565970778 0.320936263
0.369512916 0.570651531 0.323719114
0.491334468 0.580518782 0.335231096
0.619355083 0.591144443 0.338013738
0.797090650 0.633902848 0.380139053
0.949904859 0.682352841 0.454648912
0.350411117 0.759645820 0.400505841
0.375838369 0.760404766 0.400126487
0.436052859 0.757748067 0.403162390
0.521189213 0.761922836 0.410626262
0.627198100 0.766476810 0.420872748
0.737887323 0.770271957 0.430992901
0.847058952 0.775331855 0.447058916
0.961037159 0.802530110 0.508665264
0.605439365 0.922201157 0.552055478
0.620999157 0.916002333 0.540923238
0.651865661 0.918152928 0.558380485
0.701201558 0.918152928 0.560910881
0.763314426 0.923592448 0.579000592
0.835547090 0.927640498 0.590891421
0.908791721 0.931182742 0.611132324
0.982669115 0.939405620 0.634914398
0.109803997 0.072106190 0.365718186
0.141555741 0.077925548 0.357874572
0.202909291 0.087666094 0.353067547
0.270588607 0.110056639 0.347628176
0.350031555 0.127640992 0.342188179
0.469576448 0.138772801 0.360151470
0.689436793 0.128020093 0.414168447
0.909550726 0.160025135 0.459962010
0.116508454 0.136622354 0.349525839
0.148766547 0.132700741 0.345224351
0.197849542 0.147248372 0.340164512
0.267046273 0.154332906 0.340670288
0.340670377 0.162934899 0.341808736
0.466413647 0.177861989 0.358633459
0.691334426 0.179886445 0.412144125
0.910436451 0.212144166 0.461479932
0.120683186 0.209867090 0.324857473
0.143959463 0.216698557 0.330423385
0.202276915 0.213029996 0.332954109
0.262365460 0.220493555 0.329664469
0.338140279 0.226312369 0.331941575
0.477039814 0.245920286 0.358127803
0.701834023 0.265528172 0.419607639
0.912207603 0.319165140 0.468058228
0.107527003 0.296521634 0.334218383
0.143200353 0.292852461 0.339152187
0.195825279 0.298671722 0.330423564
0.270841181 0.314357907 0.340923607
0.359519213 0.319923848 0.351169914
0.516128898 0.344212741 0.380012721
0.723592281 0.379253715 0.436053276
0.912839890 0.440733850 0.484376907
0.105881996 0.389879376 0.352182180
0.135610193 0.393801391 0.359519184
0.202656478 0.406325281 0.360910565
0.314864010 0.429475009 0.380518377
0.455407560 0.459582388 0.413409352
0.582416236 0.472611904 0.423529565
0.758001328 0.507273734 0.452498645
0.928399384 0.565844357 0.513092816
0.155091450 0.569006741 0.411764443
0.204554364 0.567615449 0.414168268
0.290448874 0.571031213 0.416824907
0.403162479 0.585578501 0.436053276
0.518405914 0.592283189 0.439974666
0.642884135 0.600126207 0.451992124
0.801518142 0.642757475 0.493232131
0.941302955 0.693358898 0.553320527
0.402909607 0.752688229 0.495129615
0.428083539 0.753826916 0.509297907
0.484882832 0.757368743 0.509550691
0.556356728 0.759013474 0.515117168
0.645034671 0.764452636 0.520430446
0.741176069 0.764199734 0.529285371
0.841239512 0.775458336 0.544844985
0.953573644 0.812270582 0.603795111
0.638203561 0.915369987 0.633775771
0.646046996 0.914104819 0.632005215
0.673118353 0.915369987 0.633649707
0.719924212 0.918659031 0.648070514
0.775964618 0.920682907 0.654395998
0.841492832 0.924984097 0.664262950
0.910309851 0.928399384 0.682606041
0.981910110 0.930803299 0.699303925
0.086654015 0.103605248 0.528273463
0.140417099 0.107147187 0.528779030
0.226691827 0.118658833 0.525237322
0.326375455 0.124604896 0.521315575
0.436179698 0.131435737 0.515117228
0.549525201 0.133460000 0.510563195
0.715496540 0.129411995 0.525996447
0.922959805 0.172801778 0.574066877
0.084377259 0.161416814 0.513219535
0.137760729 0.160784349 0.513852119
0.220493346 0.167109534 0.517900109
0.321315825 0.172296196 0.509930193
0.429854393 0.175585091 0.506008863
0.553193748 0.180265799 0.504364014
0.709677637 0.181404248 0.522454023
0.913092852 0.224667877 0.580771565
0.081720367 0.247944355 0.503352463
0.131815284 0.247817636 0.497786433
0.214548096 0.251739532 0.496900469
0.314990520 0.250980437 0.499051005
0.429095298 0.256546646 0.501707554
0.552434802 0.259708852 0.499430448
0.726122499 0.271853387 0.526375949
0.925743222 0.329537958 0.581657290
0.068058357 0.345098376 0.484123796
0.123339541 0.347628295 0.493105650
0.218595833 0.346869081 0.491840810
0.327008277 0.355091631 0.498924702
0.433269918 0.356989354 0.497406811
0.560531259 0.357874483 0.500948489
0.737634361 0.385072738 0.535357356
0.923213065 0.455281436 0.596964180
0.102973178 0.459835738 0.505882204
0.158507362 0.463883698 0.504996419
0.253257275 0.464263260 0.509930193
0.365211755 0.471347272 0.514104843
0.492473096 0.479190171 0.526375949
0.617963195 0.486274540 0.529285252
0.774446785 0.524351656 0.565211475
0.925237000 0.589120686 0.623529375
0.202782929 0.585199177 0.518785715
0.242125273 0.586211443 0.531056046
0.327893823 0.590006053 0.531182826
0.430992842 0.598987937 0.543453395
0.568501055 0.621884465 0.561416686
0.708665431 0.649968505 0.598987937
0.819228590 0.667172492 0.619987428
0.939911366 0.711448371 0.665654480
0.419607818 0.758254111 0.600126266
0.450095028 0.757622004 0.599114478
0.500822186 0.756356716 0.609867334
0.582162917 0.762049377 0.612523675
0.676407278 0.771536589 0.631751955
0.761542976 0.778241754 0.638330162
0.848576844 0.782036722 0.651612520
0.949778378 0.819228292 0.697279811
0.662492275 0.913978815 0.713725269
0.674003482 0.913851976 0.723339796
0.698544979 0.915117145 0.721948147
0.740290821 0.917014599 0.726755202
0.791524351 0.919417739 0.735104561
0.844402432 0.922706902 0.739278495
0.911321938 0.928779006 0.758506954
0.981403828 0.934471905 0.776976287
0.049335707 0.148640275 0.727261543
0.139784828 0.153826535 0.724731266
0.263757169 0.152561277 0.721189320
0.390259206 0.156989351 0.723845899
0.528399765 0.155724183 0.717140794
0.664895594 0.152181834 0.711574554
0.801771045 0.155470982 0.709297776
0.934851170 0.200759053 0.710689068
0.057431832 0.200379565 0.714610994
0.146615818 0.204933837 0.713598967
0.257052630 0.203542084 0.714484036
0.391397864 0.208981484 0.714863539
0.524604678 0.207842827 0.713345587
0.663504004 0.208096072 0.711701334
0.806957364 0.208728567 0.705376267
0.930423856 0.241619170 0.706767619
0.069829181 0.291840374 0.707906365
0.147374928 0.300948650 0.708791733
0.268058360 0.297406435 0.709044814
0.393928021 0.297786027 0.706641197
0.531435728 0.302973002 0.703731716
0.672865033 0.302466631 0.705376446
0.801771045 0.310436457 0.703225613
0.932321310 0.350284755 0.713219225
0.142947540 0.412144214 0.696394861
0.203162387 0.408096015 0.697406650
0.294876993 0.413662106 0.697533250
0.420113862 0.412143916 0.695761800
0.549272597 0.416445345 0.700063348
0.678684413 0.421758533 0.698924780
0.806198478 0.429095507 0.693611801
0.929411829 0.467678726 0.713599026
0.238204002 0.535483420 0.694243789
0.292346358 0.529158533 0.704617441
0.371789992 0.540290594 0.700695693
0.474383086 0.543326735 0.696394861
0.580771446 0.542567968 0.697027326
0.696268082 0.548260212 0.700695693
0.809108436 0.552561700 0.700822234
0.936242938 0.599620521 0.734977961
0.369386554 0.654902220 0.709677279
0.396204859 0.656167030 0.711954296
0.456926107 0.660847545 0.707400143
0.542947471 0.661227047 0.710942507
0.640354216 0.675015569 0.714610994
0.736116290 0.679443002 0.719671249
0.836685777 0.683617532 0.724984288
0.943833053 0.729411960 0.759898961
0.482100129 0.776344001 0.726628542
0.500189960 0.767235875 0.727261305
0.543706417 0.770651400 0.720556319
0.612903595 0.771916211 0.729411960
0.692220390 0.780265570 0.729158640
0.783175290 0.793295324 0.746868789
0.872106254 0.817204297 0.778621256
0.948007762 0.842504680 0.802909255
0.672485590 0.911954343 0.801011622
0.687159836 0.914104700 0.796331167
0.708791733 0.907526910 0.805945694
0.748134017 0.918532431 0.810879230
0.801770985 0.920556545 0.816445231
0.858570337 0.924604654 0.828715801
0.910436273 0.931688607 0.835547209
0.969892502 0.936369598 0.848576844
0.145603597 0.233143777 0.905249596
0.210246325 0.228210241 0.903858542
0.328526050 0.236432686 0.908538699
0.450600892 0.244781956 0.899936557
0.594940007 0.255787432 0.900316119
0.727514446 0.276280582 0.898671746
0.858190775 0.305503041 0.896394491
0.979506612 0.353826374 0.892093599
0.177355677 0.276660621 0.907779694
0.233143687 0.277545899 0.893738270
0.339278728 0.279064000 0.899430752
0.463630795 0.288298309 0.896267951
0.594307661 0.302340120 0.901327968
0.730423748 0.320935667 0.896394551
0.855281293 0.344338864 0.888551176
0.972169816 0.387602687 0.891714036
0.247438237 0.375331819 0.894749761
0.287033468 0.379633158 0.896521151
0.375205696 0.382542729 0.904743791
0.496394932 0.388994277 0.895635426
0.618469298 0.402277052 0.892093420
0.747627974 0.416951239 0.891966581
0.858443737 0.437317938 0.890448809
0.974193633 0.470082283 0.891966581
0.364958644 0.504490733 0.886653781
0.396331221 0.506894231 0.887665808
0.463630408 0.507020712 0.891334534
0.544592023 0.513472021 0.884250641
0.655028582 0.524098396 0.886906981
0.758254409 0.531435907 0.884250641
0.863630891 0.548639894 0.884250283
0.967994988 0.567362249 0.883238375
0.478051752 0.627071559 0.882858932
0.504110992 0.634535015 0.894370317
0.551928818 0.634028971 0.885768652
0.613029420 0.638330221 0.885135531
0.695002973 0.643010736 0.882732391
0.781910241 0.648450255 0.881087720
0.877039790 0.654269338 0.883870900
0.962302446 0.670334935 0.886400580
0.568753898 0.734598458 0.891587317
0.580012560 0.740796506 0.893864453
0.617963076 0.745098174 0.885515451
0.678051710 0.745097816 0.886906922
0.741429627 0.749019444 0.888930857
0.812270522 0.756103694 0.887792468
0.888045728 0.761416674 0.892979026
0.964326382 0.769006491 0.889310420
0.644275427 0.839342356 0.892599344
0.651106834 0.843263805 0.900822163
0.676660299 0.838583291 0.896394551
0.723719299 0.840860307 0.899430871
0.775711417 0.842884302 0.893864155
0.835041285 0.849841595 0.893105149
0.899051249 0.851106763 0.895635486
0.961163759 0.861606538 0.905629516
0.707779527 0.935104430 0.909044743
0.723845482 0.926628828 0.909550607
0.743326724 0.929284990 0.912460446
0.770145476 0.931182742 0.906767726
0.816951334 0.928399384 0.911827803
0.867299497 0.931688547 0.914357722
0.915496230 0.936369658 0.916508317
0.964832127 0.950663924 0.945730448
