Assets/Resources/EldamarStudio/100 Horror LUTs Pack/LUTs/cube/Smash LUT.cube
LUT_3D_SIZE 8
DOMAIN_MIN 0.000000 0.000000 0.000000
DOMAIN_MAX 0.903226 0.903226 0.903226
0.000000000 0.035294000 0.101961002
0.033650000 0.036052998 0.106261544
0.114357993 0.055661097 0.123845898
0.193421990 0.079063997 0.137887284
0.273371190 0.108032994 0.169260189
0.367994994 0.142947733 0.199746996
0.505755544 0.181656986 0.234282285
0.688424528 0.222390980 0.276027828
0.006578546 0.077546000 0.115243092
0.053636547 0.084629998 0.123086996
0.122200996 0.097533539 0.135230646
0.196204633 0.112839893 0.155218095
0.277798831 0.137001991 0.179886445
0.377609193 0.167994738 0.211638004
0.502087116 0.204047844 0.240606993
0.691713810 0.242757976 0.279949814
0.071980089 0.155092001 0.162302002
0.102213643 0.166097194 0.164579093
0.143326998 0.166856200 0.166856185
0.215053737 0.178241640 0.186211452
0.294496983 0.192663088 0.206072196
0.394180834 0.224035189 0.228715986
0.527514577 0.260974199 0.257685006
0.709297597 0.302214086 0.300442725
0.126755282 0.242125288 0.195066288
0.151549652 0.241366193 0.206957906
0.193042636 0.245920286 0.212396994
0.250600994 0.253383636 0.219734639
0.331309259 0.269829601 0.235547349
0.426185995 0.295635730 0.258190721
0.563694179 0.326881915 0.283111930
0.735104203 0.373813927 0.325743467
0.213662177 0.337002188 0.260973990
0.229095727 0.341049731 0.261100799
0.260721177 0.343959183 0.257811278
0.315876007 0.346995175 0.264895976
0.390765369 0.363314360 0.275774986
0.484250516 0.390006185 0.297026992
0.630107760 0.423655987 0.328272998
0.785957813 0.475268841 0.374319971
0.322833717 0.473750472 0.313472480
0.341176480 0.474889189 0.322074264
0.376470476 0.479569733 0.322706997
0.430487365 0.486780614 0.330297351
0.501581371 0.495888889 0.338772744
0.594939947 0.514863729 0.360151440
0.710562766 0.541935444 0.395066738
0.839342296 0.597596347 0.450853646
0.481214285 0.635167539 0.400885284
0.494370848 0.638203859 0.407843083
0.528273463 0.642757714 0.414800823
0.577608824 0.656546175 0.431246251
0.637950540 0.660088658 0.439974755
0.713472247 0.670461535 0.463377744
0.784187555 0.685768247 0.488425285
0.886274159 0.719417930 0.541809082
0.700063407 0.822770417 0.578367591
0.716255128 0.832510591 0.596457958
0.724477828 0.835293889 0.592283487
0.761163771 0.836938560 0.607969403
0.799999774 0.843896210 0.631119430
0.845287502 0.856040478 0.642378211
0.889183939 0.865148783 0.669323444
0.944338739 0.873750746 0.690828443
0.000000000 0.043136999 0.130171001
0.028968999 0.036811996 0.123466447
0.110056639 0.061859898 0.141429543
0.173434645 0.093611643 0.168121561
0.256166995 0.121821538 0.188488543
0.356356472 0.155471265 0.220872551
0.484250724 0.191524252 0.245540544
0.670967698 0.228842661 0.284883112
0.028589547 0.073624089 0.147375003
0.059076544 0.085009545 0.148134097
0.111574635 0.101454541 0.156736106
0.176976293 0.118279278 0.174826086
0.258823723 0.148513645 0.196837187
0.353953063 0.173813999 0.222896725
0.485135853 0.209234998 0.251233250
0.669323564 0.243516982 0.292726427
0.072359540 0.150790557 0.175964534
0.102972537 0.161417097 0.180265993
0.133459643 0.159392655 0.187350005
0.204427272 0.175078735 0.200252637
0.281467527 0.192663088 0.217457548
0.377609015 0.223655641 0.238583356
0.519671023 0.258444279 0.272359520
0.700189769 0.302340358 0.307020992
0.131435990 0.231752276 0.213409632
0.151549563 0.231372729 0.213789001
0.185831830 0.242378533 0.226438984
0.241872177 0.247817636 0.231119290
0.316508710 0.264642447 0.250347644
0.416698098 0.293232024 0.268817186
0.555217862 0.326502293 0.294624031
0.727008104 0.373813927 0.337887526
0.211385190 0.334472001 0.261859804
0.230993077 0.338393390 0.270082355
0.257937819 0.341049820 0.268311441
0.313978285 0.345730752 0.278557748
0.382795364 0.353953183 0.288930953
0.479063570 0.379000574 0.307526916
0.622390866 0.418089539 0.338520110
0.783427954 0.469323218 0.383681148
0.319544703 0.465401888 0.320176989
0.338140249 0.464642704 0.321947992
0.365464658 0.468943655 0.320303261
0.422264308 0.475268662 0.333333403
0.493358701 0.488171816 0.344212741
0.578241706 0.500316262 0.362175912
0.695003092 0.537887454 0.394307524
0.837444603 0.596837282 0.461986065
0.483491540 0.628463149 0.413409293
0.497280091 0.631372333 0.419607520
0.519417644 0.631751955 0.415686280
0.567362547 0.639468849 0.430866718
0.626059532 0.650600851 0.444528848
0.701834023 0.665275335 0.465148717
0.783934295 0.681973279 0.486021399
0.879822910 0.719797313 0.544465184
0.691713691 0.819607735 0.582163036
0.700316191 0.818469584 0.583934367
0.718658686 0.816319048 0.589247584
0.746868670 0.824414670 0.601138294
0.785578489 0.835800171 0.617330790
0.836559236 0.845667481 0.639468729
0.885135949 0.860341132 0.667805135
0.936875403 0.871979713 0.697153866
0.000000000 0.047817901 0.177102998
0.037571095 0.048956450 0.178368449
0.108918190 0.072105996 0.186590895
0.176976189 0.100315996 0.197469994
0.264010191 0.132447794 0.223402888
0.359898627 0.165212080 0.251486391
0.485389292 0.203668579 0.275774807
0.675015688 0.235420823 0.320809811
0.033270452 0.095635898 0.185831994
0.068943992 0.099936545 0.182668999
0.121062547 0.112080991 0.194813550
0.190765634 0.134851098 0.214421451
0.267173082 0.157495111 0.230107531
0.361164093 0.190891743 0.255534291
0.497153640 0.215433285 0.287159860
0.681846857 0.253004372 0.322580338
0.085389003 0.157495201 0.202277094
0.109297536 0.174446553 0.215180546
0.165338188 0.181024998 0.224161983
0.215812728 0.189247459 0.235167891
0.292220086 0.211511999 0.252372116
0.380012810 0.233902723 0.265148759
0.522833645 0.265528381 0.300695896
0.705755830 0.304617107 0.342315078
0.153953448 0.250347733 0.248450190
0.175964549 0.255913705 0.256799519
0.211132541 0.255407989 0.260214984
0.260088295 0.262871623 0.267678648
0.330044001 0.278052092 0.276154459
0.425047457 0.302340299 0.296900898
0.563188016 0.332447648 0.322707385
0.730170608 0.375331819 0.363314182
0.222391188 0.340797067 0.293991089
0.249462545 0.345477283 0.293738186
0.270082206 0.347754270 0.295382798
0.326122642 0.353320390 0.303352088
0.389247358 0.361923099 0.311828077
0.490828574 0.387602597 0.331815422
0.627071500 0.423529446 0.359519273
0.785705388 0.474003792 0.414168268
0.340670466 0.474256724 0.346489489
0.354964912 0.473750651 0.354079396
0.383681476 0.476913363 0.359519362
0.436812341 0.484376937 0.363567173
0.506894171 0.498039365 0.371284187
0.594560146 0.510563076 0.389879555
0.710562766 0.547754705 0.423529476
0.836559415 0.602909565 0.485009611
0.490701973 0.638203740 0.436685562
0.512207270 0.640860021 0.445161104
0.541682541 0.643643379 0.452751309
0.583681226 0.652371526 0.457684904
0.641113400 0.657052517 0.465781271
0.713092864 0.668058395 0.491207808
0.788108706 0.686780572 0.516888142
0.881594241 0.726628780 0.566350400
0.707020700 0.827071488 0.600505590
0.713219285 0.823529124 0.599873185
0.729917705 0.831751645 0.612270415
0.761543095 0.833396316 0.625680029
0.801897526 0.841872513 0.640986562
0.841239452 0.850600660 0.656419694
0.888930976 0.862871647 0.681720495
0.940923691 0.878304839 0.714610577
0.000000000 0.054395642 0.234914273
0.048070639 0.065401547 0.230613723
0.117773540 0.081467189 0.233396381
0.180012286 0.105376355 0.235420644
0.259962201 0.133839279 0.262112647
0.361796379 0.170398742 0.282858968
0.486780554 0.204047933 0.316761613
0.681340754 0.235799968 0.358760476
0.048956547 0.108918183 0.233523101
0.076534085 0.110815637 0.221631989
0.125996187 0.119797185 0.241366178
0.187097088 0.133459732 0.243643194
0.263124257 0.162555560 0.265275419
0.358127803 0.188361630 0.290322632
0.493864655 0.222770646 0.323592573
0.673877478 0.252877951 0.365084976
0.099051550 0.173055202 0.251106620
0.122074284 0.170651302 0.256167203
0.162428737 0.183681443 0.252878189
0.215559810 0.195825100 0.271473646
0.293990850 0.215433195 0.281214207
0.395066530 0.237318084 0.305882514
0.528905749 0.271094084 0.337507874
0.705123365 0.307020783 0.382542700
0.147501633 0.239974633 0.267931998
0.172169194 0.245920181 0.273750633
0.214800730 0.260847360 0.294497192
0.278684288 0.275268614 0.305502951
0.339658439 0.287413090 0.310942173
0.433523357 0.305755734 0.325743377
0.569892168 0.333586305 0.364958972
0.735484064 0.382669449 0.410626084
0.237318188 0.344212562 0.333080292
0.250853807 0.348133922 0.331056625
0.288931072 0.356356472 0.330929816
0.338899463 0.360530943 0.339531630
0.403795272 0.374320269 0.350663722
0.498671442 0.391144931 0.368247986
0.632890403 0.432637542 0.402150810
0.787982225 0.480581850 0.454016358
0.344465107 0.468564183 0.383554339
0.359519094 0.474762797 0.386464119
0.393674672 0.477925003 0.392789423
0.446299970 0.486148268 0.397849351
0.516508698 0.497912467 0.413914919
0.598355174 0.515243471 0.430360734
0.710183442 0.547880709 0.459202915
0.843643129 0.607084036 0.521062613
0.501454592 0.633649468 0.473750561
0.516635180 0.636432827 0.479316831
0.538772881 0.636812329 0.475015521
0.586084843 0.643137217 0.486780524
0.643390417 0.654142916 0.502972603
0.713598907 0.667931676 0.521442354
0.785958171 0.687412858 0.541049540
0.877798796 0.730676830 0.592915833
0.710436463 0.820999205 0.622390568
0.711068749 0.821505487 0.626565576
0.726502120 0.821252584 0.632257879
0.757874429 0.828842223 0.641492546
0.793042362 0.835546851 0.651107073
0.842125237 0.847311616 0.668690503
0.889310479 0.859835386 0.696141183
0.946742237 0.873371601 0.731688738
0.029601382 0.076027803 0.297786176
0.074003734 0.083491549 0.296267986
0.138646290 0.098671801 0.297785997
0.207463488 0.123845994 0.304110974
0.276407152 0.145730183 0.311068982
0.369765908 0.178241730 0.329411745
0.502340436 0.206831291 0.365844280
0.696900427 0.239468634 0.423909009
0.077545896 0.120303549 0.295382977
0.092726544 0.130170897 0.301074982
0.152814895 0.142314643 0.304110974
0.213156089 0.151676357 0.305376440
0.277545810 0.167235836 0.311954379
0.371284187 0.194560736 0.331815541
0.508412242 0.226565287 0.370145530
0.689057410 0.259203255 0.417457253
0.125996277 0.188108906 0.310310096
0.148513645 0.192409649 0.309424281
0.180139184 0.197470084 0.312713295
0.236559078 0.208475903 0.314610749
0.306262195 0.220999286 0.329158992
0.399620831 0.242884085 0.350537628
0.538393319 0.275016069 0.391651183
0.720935583 0.312460274 0.444528818
0.173560828 0.260088265 0.330550194
0.195825279 0.263630748 0.332953990
0.232131720 0.275395662 0.339278996
0.291334271 0.287033647 0.349019617
0.356103450 0.290195823 0.358380795
0.452751100 0.317520738 0.382922173
0.586590946 0.343326837 0.413029611
0.745856762 0.390638649 0.463504255
0.246806189 0.349399000 0.365085363
0.267678529 0.352181733 0.374699384
0.301581264 0.361923069 0.374446154
0.370019019 0.379632831 0.394433796
0.448703349 0.399493992 0.413662165
0.534092426 0.413535655 0.427703977
0.653763652 0.440101475 0.455913961
0.797343612 0.492473364 0.506514609
0.365844190 0.480076194 0.430233985
0.376849830 0.484756261 0.432764024
0.414294362 0.489057630 0.439342380
0.473497838 0.504870534 0.457178801
0.537887454 0.513472557 0.469576120
0.624541223 0.530676723 0.481467515
0.729411721 0.562681854 0.519671023
0.848703444 0.618595541 0.566350460
0.517267346 0.640607357 0.521568298
0.537760556 0.645793915 0.522960365
0.559013426 0.648450315 0.530297458
0.599746883 0.655534506 0.536875188
0.655407906 0.666413605 0.545857012
0.724351525 0.675015628 0.567362309
0.797343433 0.693611860 0.588108778
0.886527777 0.737634242 0.634914577
0.715243459 0.822643936 0.661100447
0.716508627 0.826185763 0.657178700
0.733080268 0.828209817 0.661606491
0.762175918 0.831499040 0.669829130
0.798102379 0.842378438 0.685515404
0.841746032 0.851866007 0.700822353
0.893864512 0.862492144 0.724225163
0.941682577 0.884250641 0.743453503
0.079949729 0.101707987 0.379759461
0.119291529 0.113978542 0.381657183
0.181783840 0.124098636 0.385452211
0.246426359 0.139405280 0.385705203
0.322454393 0.161796257 0.389120668
0.407084465 0.186084732 0.397469729
0.525489986 0.212650433 0.432258010
0.707147300 0.245919973 0.486147970
0.109677531 0.143706545 0.372928709
0.137254730 0.152814806 0.368247926
0.185325369 0.158507451 0.379759461
0.246426269 0.169892475 0.382922381
0.324351817 0.183301896 0.387982041
0.409740746 0.204427481 0.401391715
0.521948397 0.229475096 0.428462982
0.704490602 0.264389545 0.483364820
0.158001080 0.210753098 0.392283380
0.175838187 0.216192186 0.399367452
0.221632004 0.219987184 0.391524464
0.275522083 0.226312265 0.391903818
0.347881019 0.238077074 0.401264936
0.433143824 0.255407989 0.413029701
0.554079652 0.279443473 0.447565019
0.732574344 0.321441919 0.511574686
0.207083821 0.282858729 0.401391447
0.221884638 0.289310753 0.409993738
0.256926000 0.288424909 0.408222824
0.318152905 0.300316632 0.419354647
0.386084825 0.308918536 0.423023283
0.470714688 0.321821392 0.437191725
0.597975671 0.350284815 0.473624349
0.762555242 0.397849202 0.532700717
0.273624629 0.371031195 0.441998929
0.288804263 0.375711381 0.440860242
0.323592693 0.384440184 0.447817534
0.384313345 0.391903937 0.458950162
0.466160655 0.404807180 0.471473485
0.554965198 0.421252191 0.487412930
0.675648570 0.451359898 0.515622735
0.807084143 0.499810159 0.565970719
0.383301467 0.491334736 0.489184469
0.394813210 0.490828693 0.491208017
0.432005435 0.501075447 0.505123436
0.490702271 0.509930074 0.514104784
0.570272088 0.533586264 0.533586264
0.665528417 0.561922729 0.565717697
0.751802564 0.581024468 0.584566891
0.858949840 0.624414802 0.617963433
0.535230815 0.643516541 0.580645323
0.544086277 0.645414233 0.576723754
0.569006920 0.649462283 0.581277847
0.614041686 0.660468280 0.592662752
0.672612309 0.675774813 0.611385167
0.737760782 0.687539279 0.619481206
0.809234679 0.704617262 0.639089227
0.895635843 0.750158072 0.682479143
0.709930480 0.822517395 0.694496810
0.722327769 0.828968823 0.701454580
0.732700586 0.826691806 0.702213585
0.760404646 0.831119299 0.713219464
0.797596157 0.843769908 0.723086894
0.838836491 0.852118671 0.733586431
0.893864334 0.864262998 0.760784209
0.943453491 0.878304780 0.785578549
0.160404697 0.133965999 0.518532276
0.188994259 0.136369288 0.516887963
0.245793894 0.148007467 0.516635180
0.323592633 0.160910636 0.517014623
0.409867167 0.176344082 0.524478376
0.495635718 0.196584478 0.527767301
0.612903535 0.222517282 0.542694271
0.729411602 0.258697093 0.562175691
0.161796272 0.170777991 0.506261706
0.194560543 0.167362556 0.507273793
0.247691333 0.179506987 0.507273793
0.323086560 0.191271186 0.514358044
0.407590181 0.204427570 0.518658936
0.502213717 0.223276272 0.527134717
0.605819106 0.241999000 0.538519561
0.737634122 0.276407361 0.564326525
0.193168983 0.237444803 0.515117168
0.219734251 0.240101561 0.512207389
0.264516294 0.246805802 0.521695018
0.338393211 0.250980437 0.522074580
0.428083271 0.260721385 0.525237262
0.520683110 0.276407272 0.538646519
0.625932872 0.296900809 0.550284624
0.752561510 0.326375663 0.584819734
0.238836288 0.314611286 0.527640581
0.263124377 0.318785489 0.528399646
0.302466631 0.322959930 0.531941831
0.370651603 0.326881915 0.536622167
0.459076822 0.339025885 0.545983374
0.551675737 0.351170003 0.556609571
0.652751505 0.369512975 0.569259882
0.779126942 0.407843441 0.599873424
0.316002369 0.413409382 0.555977225
0.334218681 0.420999527 0.562681794
0.373434454 0.422896892 0.560531437
0.430234104 0.424414903 0.562049270
0.510309756 0.432258278 0.574699521
0.603921413 0.447438002 0.588488340
0.700695515 0.465022385 0.599746644
0.818342924 0.509930074 0.638330460
0.433649749 0.534345031 0.600379705
0.451739579 0.535989940 0.607084155
0.481214643 0.540164590 0.606198490
0.530676603 0.546616077 0.608855247
0.602656722 0.558001220 0.624540985
0.680581748 0.572422504 0.633903027
0.767235994 0.596078455 0.655534267
0.869323552 0.638077319 0.693738461
0.564832211 0.659329534 0.646552801
0.561416864 0.658317804 0.646552801
0.587729454 0.661606789 0.653004348
0.627956808 0.668311119 0.660974264
0.683744550 0.682099640 0.673497498
0.760278225 0.706894279 0.695509315
0.833523273 0.735483825 0.719797313
0.905755937 0.762428999 0.748007298
0.718279600 0.825426579 0.752434850
0.726248860 0.832510591 0.750790656
0.742821038 0.829728007 0.759645820
0.767109215 0.836812079 0.762302279
0.805060089 0.848703384 0.777102947
0.846426308 0.856672883 0.783301592
0.892726064 0.869070351 0.802656353
0.945098221 0.889057338 0.822643757
0.247438446 0.170145810 0.706641555
0.271473348 0.170398533 0.699051321
0.329538077 0.182542890 0.696014881
0.413535565 0.194560423 0.702846408
0.510562778 0.212396801 0.704364598
0.616698444 0.236053035 0.707906425
0.726122737 0.272106528 0.718911767
0.838709414 0.312839925 0.722200751
0.245034665 0.209107876 0.698798239
0.270588040 0.205692634 0.699683845
0.329411417 0.214800805 0.698418677
0.416951358 0.225047618 0.703099132
0.510436296 0.239342138 0.705502987
0.617963374 0.266286910 0.710436463
0.725110471 0.295509338 0.718405664
0.839215577 0.338519633 0.730044365
0.263250798 0.275521964 0.702593207
0.287539631 0.279443055 0.703731894
0.345477879 0.282858908 0.705376625
0.433270276 0.290322542 0.704490781
0.523845971 0.305250078 0.703605473
0.634282291 0.327387810 0.716255486
0.738266706 0.355471075 0.723465919
0.841492712 0.392662704 0.731562436
0.307653278 0.367109269 0.704743922
0.325363755 0.369892627 0.705755711
0.382289678 0.374446630 0.709424436
0.461227268 0.381783426 0.712713420
0.552308798 0.392789245 0.718532383
0.650980294 0.408349365 0.719671130
0.758127689 0.433775991 0.731056273
0.852498412 0.468184561 0.742694438
0.397217005 0.475142360 0.724731028
0.412903339 0.481973529 0.722200751
0.447691262 0.478937268 0.728399873
0.510056615 0.478557706 0.727134824
0.597469985 0.492599785 0.730297387
0.684882760 0.507779598 0.742188573
0.785198927 0.530929983 0.747121990
0.874383211 0.561543167 0.759392798
0.523213148 0.608095944 0.752055407
0.534471869 0.609234214 0.759392500
0.559519410 0.607843220 0.755724192
0.602403224 0.605439365 0.753447175
0.660088658 0.609740734 0.756609321
0.725616693 0.625047326 0.758507252
0.817963183 0.638962388 0.774193525
0.896520853 0.667046547 0.790638864
0.641745925 0.735483766 0.783680916
0.649462104 0.731182754 0.788361609
0.664895713 0.732827485 0.789626956
0.694370568 0.736116350 0.789247394
0.734598458 0.739784837 0.790891945
0.789120972 0.747754574 0.795192719
0.851992071 0.759519517 0.811258852
0.919038296 0.780265689 0.823276639
0.738013566 0.848956525 0.824035645
0.744718254 0.856166720 0.832258046
0.758253992 0.846426547 0.826185644
0.780518770 0.855534434 0.835800231
0.808854997 0.857811391 0.838583231
0.855028450 0.867172599 0.845793664
0.899430811 0.880834758 0.861606300
0.950663924 0.905123413 0.893484652
