Assets/Resources/EldamarStudio/100 Horror LUTs Pack/LUTs/cube/Smash LUT.cube
LUT_3D_SIZE 5
DOMAIN_MIN 0.000000 0.000000 0.000000
DOMAIN_MAX 0.903226 0.903226 0.903226
0.000000000 0.035294000 0.101961002
0.093864702 0.050347995 0.117014416
0.235420823 0.096773997 0.152308583
0.399367392 0.153068006 0.211890996
0.688424528 0.222390980 0.276027828
0.057558414 0.139911413 0.156230003
0.125869706 0.147121981 0.160784006
0.250474393 0.172295690 0.190891579
0.422517419 0.218469247 0.229474828
0.701707661 0.286780536 0.290069699
0.178621382 0.285135984 0.228210405
0.214927524 0.286780685 0.238709390
0.311321825 0.304743797 0.249082565
0.489943236 0.350537390 0.286021709
0.763314128 0.423908800 0.350537628
0.358254105 0.510183275 0.327640980
0.398481816 0.517773569 0.343706548
0.501834393 0.528272927 0.358127534
0.648577094 0.554332435 0.389500111
0.849209487 0.630993068 0.472359061
0.700063407 0.822770417 0.578367591
0.720935583 0.830739558 0.593548536
0.772422194 0.838456750 0.618342876
0.855661094 0.856799603 0.647438407
0.944338739 0.873750746 0.690828443
0.002277292 0.044781707 0.158886984
0.087665990 0.063757285 0.168374702
0.216192096 0.108918272 0.196837410
0.386211544 0.172295704 0.251992702
0.676533699 0.230866820 0.310942531
0.068690993 0.139278993 0.190891996
0.131182685 0.155977115 0.203668684
0.237444386 0.182163104 0.224288404
0.399746835 0.227577567 0.260594308
0.697153449 0.288424820 0.326628685
0.183807403 0.281847388 0.251359701
0.217836812 0.289057821 0.263503969
0.313345790 0.308412075 0.279190391
0.483111948 0.350284666 0.311575115
0.760784030 0.426818311 0.383301795
0.368501246 0.506641328 0.352561414
0.405439526 0.510309815 0.358507216
0.496267915 0.523339808 0.376723409
0.641366422 0.548513532 0.409107983
0.845667362 0.630993128 0.497912616
0.700695574 0.823782444 0.599999607
0.720303476 0.825173736 0.601391613
0.771536887 0.832004964 0.623908758
0.851106763 0.849588752 0.654902041
0.938393593 0.876027882 0.705755472
0.009867410 0.062744997 0.266034424
0.110183284 0.086654119 0.265781134
0.224288404 0.123592407 0.274635971
0.396710694 0.179506868 0.315496534
0.687033415 0.232763991 0.389120549
0.097406574 0.164073408 0.269323409
0.147121981 0.165718123 0.271347404
0.246805698 0.188614696 0.288298398
0.417963445 0.234787971 0.328905582
0.705882132 0.295635641 0.405186683
0.202150404 0.293611407 0.313219398
0.235041127 0.303099096 0.330170393
0.360404402 0.335483402 0.362934381
0.514484525 0.364958823 0.387476265
0.766603589 0.438962370 0.457937777
0.383933842 0.511827946 0.424794137
0.423150092 0.518279612 0.425426871
0.514105260 0.528146565 0.439848542
0.658570230 0.558254123 0.474130392
0.852118611 0.645667195 0.559392631
0.713851988 0.812270582 0.638456583
0.719164908 0.823402584 0.641113639
0.767741621 0.831246197 0.658697009
0.851360202 0.853510201 0.689183831
0.936242759 0.879063725 0.732574582
0.099177867 0.113851994 0.407084137
0.181530535 0.129411995 0.416571826
0.300316215 0.157621995 0.416318685
0.448577106 0.194180995 0.425806254
0.713472307 0.249209404 0.506641269
0.152688131 0.196837410 0.414041847
0.208728805 0.208855122 0.412017822
0.318658799 0.225300685 0.425173819
0.473624408 0.249842003 0.442125380
0.735357165 0.307779849 0.519671142
0.238962546 0.337507814 0.446679413
0.289690405 0.342314869 0.452624828
0.396078527 0.357747972 0.468943655
0.552182078 0.376723826 0.490575671
0.791777313 0.450347930 0.564199507
0.424794137 0.530803084 0.533712983
0.458823532 0.540544093 0.534978032
0.562808514 0.559519529 0.559139729
0.716129184 0.603415430 0.606198251
0.872865081 0.658317566 0.647565067
0.716508627 0.827071309 0.708412230
0.735989928 0.828715563 0.715622723
0.781530380 0.841746032 0.733586311
0.855028629 0.858696759 0.751296699
0.943200469 0.882605910 0.797722757
0.247438446 0.170145810 0.706641555
0.312080950 0.179253653 0.696774006
0.457305193 0.201517805 0.701960981
0.642757952 0.246426076 0.709930420
0.838709414 0.312839925 0.722200751
0.260720938 0.255787373 0.705882430
0.323213369 0.263630658 0.700316489
0.471347451 0.279696524 0.706261873
0.655281484 0.315496355 0.714737296
0.835673690 0.375711620 0.730803549
0.342315018 0.418722630 0.710436583
0.397849202 0.422643781 0.714990437
0.525363386 0.434408635 0.721568167
0.697406769 0.465907604 0.737001836
0.866667032 0.514357746 0.753700256
0.553826928 0.638203740 0.753067374
0.579759598 0.637951016 0.762302041
0.650221348 0.641492903 0.764073610
0.760025263 0.657684922 0.768121302
0.901834011 0.694370925 0.793421745
0.738013566 0.848956525 0.824035645
0.753193855 0.851233304 0.833523035
0.790638983 0.858190596 0.841871977
0.867425740 0.870461762 0.850853801
0.950663924 0.905123413 0.893484652
