Assets/Resources/EldamarStudio/100 Horror LUTs Pack/LUTs/cube/Smash LUT.cube
DOMAIN_MIN 0 0 0
DOMAIN_MAX 1 1 1
LUT_3D_SIZE 32
0.000000000 0.035294000 0.101961002
0.003036387 0.032258388 0.101961002
0.008223000 0.033523228 0.099810228
0.018090161 0.035294000 0.100569002
0.033650000 0.036052998 0.106261544
0.051865995 0.042124998 0.109297931
0.072612323 0.045667320 0.112333678
0.093864702 0.050347995 0.117014416
0.114357993 0.055661097 0.123845898
0.132574007 0.058697488 0.132953510
0.153699875 0.064642996 0.130423874
0.172928512 0.070714995 0.131435737
0.193421990 0.079063997 0.137887284
0.217204064 0.090701997 0.149272963
0.235420823 0.096773997 0.152308583
0.253636986 0.100442804 0.160151809
0.273371190 0.108032994 0.169260189
0.296521127 0.120176978 0.177103415
0.326881975 0.132321000 0.180139050
0.343327373 0.136116356 0.188741356
0.367994994 0.142947733 0.199746996
0.399367392 0.153068006 0.211890996
0.432890952 0.164958999 0.223655507
0.469323009 0.171030998 0.226691902
0.505755544 0.181656986 0.234282285
0.543579936 0.192409664 0.241998985
0.584061027 0.201518074 0.249082997
0.629601419 0.210626453 0.261226982
0.688424528 0.222390980 0.276027828
0.745603681 0.234534964 0.291208178
0.801138759 0.249335587 0.309930563
0.858824015 0.270588011 0.337255001
0.006072000 0.029222000 0.101961002
0.006072000 0.035294000 0.098924614
0.017710384 0.036559388 0.103225611
0.026439000 0.040860385 0.104111001
0.037065160 0.044781838 0.107779540
0.057937995 0.048197001 0.121441931
0.073624320 0.054269645 0.114357680
0.095508993 0.057811674 0.120303407
0.118152700 0.062491998 0.126881897
0.138646007 0.067805104 0.126881510
0.156862751 0.079570353 0.133079991
0.177988648 0.083871126 0.136495605
0.197216988 0.087792642 0.142820641
0.216951028 0.093738385 0.152308658
0.232384428 0.099810384 0.155344978
0.253004402 0.108285576 0.160784394
0.274889380 0.114105001 0.167741999
0.298292339 0.123213373 0.175332174
0.323845565 0.135357395 0.183175445
0.345856994 0.144718736 0.194560409
0.372928321 0.148260653 0.200126737
0.403415382 0.155091748 0.207843244
0.432890952 0.165211990 0.217836499
0.469323009 0.177102998 0.226691902
0.503478825 0.187728986 0.232005000
0.544718623 0.198481664 0.240354270
0.589627087 0.207590058 0.248577058
0.632637799 0.216698438 0.258191377
0.680834949 0.225806817 0.272991538
0.741808891 0.235800147 0.289943010
0.795825541 0.250221193 0.306388587
0.840607226 0.273624390 0.325111002
0.005692774 0.040353999 0.108412229
0.007843000 0.044275772 0.101075388
0.014294773 0.048197545 0.098039001
0.033269998 0.049968772 0.107906163
0.045793548 0.053890225 0.112333775
0.063503936 0.056925837 0.118658930
0.081847094 0.060341645 0.126502231
0.098671764 0.066413999 0.122327544
0.119670868 0.070714779 0.130170897
0.138140276 0.076786786 0.129917502
0.156482965 0.084376968 0.137760773
0.174699739 0.092473224 0.141809031
0.194686994 0.096773997 0.147754550
0.213156030 0.100822255 0.155344740
0.232131407 0.104996994 0.158380643
0.254269570 0.111321963 0.163820222
0.275521934 0.120429963 0.169892609
0.298545539 0.127767414 0.175964758
0.321315795 0.138393238 0.183554977
0.349272370 0.147754580 0.195446014
0.374319702 0.154965222 0.203795001
0.405186385 0.160278127 0.207084358
0.432764471 0.169512987 0.214168265
0.467172801 0.181657001 0.227324679
0.501328051 0.191650763 0.232005000
0.540291190 0.202403441 0.239468664
0.588109076 0.211511716 0.250095010
0.633902848 0.220619664 0.264136672
0.686021566 0.231878817 0.276407659
0.739911497 0.246299937 0.291587293
0.801138759 0.259202987 0.309424430
0.848197579 0.280961782 0.325870007
0.003922000 0.058570322 0.113724999
0.009487612 0.059076384 0.108412221
0.021884771 0.062112771 0.108665384
0.029727999 0.066413999 0.105629317
0.053257097 0.066413999 0.119671158
0.069323093 0.068564221 0.121442162
0.087033480 0.074130476 0.123972155
0.103984989 0.076281160 0.130676836
0.122200996 0.082353160 0.131435931
0.137887344 0.088425167 0.134471685
0.155977175 0.091967165 0.142061874
0.174193352 0.098039158 0.148387104
0.193548471 0.102972515 0.151423484
0.212397069 0.108918063 0.157369003
0.234661564 0.112966575 0.161416754
0.255787432 0.118406154 0.168121323
0.274763167 0.127261192 0.174193367
0.297912925 0.136369571 0.180898398
0.321062833 0.145477355 0.187602848
0.350664169 0.152055353 0.197976008
0.376596868 0.160531163 0.206324995
0.404933393 0.167615294 0.211385131
0.432637960 0.176723629 0.214800984
0.464895755 0.187729001 0.228842750
0.502087295 0.197596282 0.236179695
0.539784849 0.206704661 0.244528666
0.585831940 0.215813071 0.252625078
0.634408653 0.224920854 0.267046154
0.689563513 0.236685649 0.281214654
0.742188334 0.251107097 0.295129716
0.798102558 0.269323140 0.312966198
0.855028868 0.287539840 0.331942022
0.006578546 0.077546000 0.115243092
0.015306707 0.074889161 0.115622543
0.030739773 0.075015768 0.120935768
0.047564548 0.078937545 0.126122609
0.053636547 0.084629998 0.123086996
0.071853317 0.084629998 0.129159003
0.090069547 0.091840766 0.129158765
0.106641248 0.096394993 0.130297095
0.122200996 0.097533539 0.135230646
0.140417010 0.103605546 0.138267040
0.159013182 0.103858545 0.144592002
0.176849991 0.107526988 0.150284544
0.196204633 0.112839893 0.155218095
0.217457026 0.116128542 0.158507511
0.241619274 0.122201279 0.164579555
0.260341555 0.128652990 0.172296256
0.277798831 0.137001991 0.179886445
0.292979509 0.148134023 0.186590955
0.323339581 0.157242417 0.195698604
0.352941185 0.161922738 0.204806909
0.377609193 0.167994738 0.211638004
0.401138693 0.176723570 0.217077583
0.431878924 0.185831949 0.220366955
0.462998003 0.194939658 0.232258007
0.502087116 0.204047844 0.240606993
0.544212282 0.213535666 0.249335647
0.587729096 0.222644061 0.264010072
0.636305809 0.231752440 0.267046452
0.691713810 0.242757976 0.279949814
0.744465292 0.256673187 0.295129716
0.793168664 0.272359520 0.311448187
0.844781935 0.290575534 0.335736990
0.027830934 0.101833992 0.127387866
0.033902932 0.101833992 0.130423471
0.038330093 0.097026929 0.130802929
0.051992159 0.096268162 0.134850994
0.068816930 0.099810384 0.138266608
0.074888930 0.102845997 0.135231003
0.093105704 0.107905999 0.143833324
0.109677635 0.112839773 0.145983875
0.124857835 0.115370095 0.146995872
0.140417010 0.118785933 0.147375420
0.161542863 0.119038932 0.156230062
0.178241313 0.121062666 0.160784274
0.196204633 0.125743002 0.164326280
0.217457026 0.131308928 0.167615116
0.238709390 0.137380928 0.173687890
0.253257662 0.145856857 0.177356124
0.275521934 0.152940989 0.182922050
0.301581204 0.160025001 0.189626634
0.326375961 0.166350037 0.198734999
0.351169944 0.178241774 0.207843304
0.374572814 0.183175132 0.213156193
0.396837324 0.188234985 0.217709988
0.422770530 0.194939569 0.223402560
0.462238967 0.204047978 0.232510969
0.500189841 0.213156208 0.244401991
0.540164530 0.223655909 0.251359671
0.581657112 0.234788060 0.258444071
0.630233824 0.243896455 0.273118436
0.678810537 0.250348002 0.281467825
0.730676651 0.262745172 0.295129716
0.780012548 0.277925581 0.309424222
0.826565146 0.293611914 0.323592991
0.044022676 0.123592317 0.144592002
0.050095320 0.123592317 0.147628263
0.058317546 0.127893314 0.148513645
0.065907635 0.124604478 0.149778485
0.082226634 0.124731317 0.153446868
0.092599638 0.125616699 0.150411263
0.103731640 0.126122639 0.152435005
0.120303698 0.130549937 0.156609684
0.135484084 0.134345189 0.158127680
0.150664181 0.139152795 0.161669672
0.171663508 0.139279321 0.162808120
0.188867897 0.141303062 0.171916246
0.205186635 0.145477325 0.175964639
0.225047350 0.151549324 0.179000601
0.246299714 0.157621309 0.182795510
0.262745112 0.158886313 0.184060678
0.281087995 0.166097373 0.191524386
0.308791548 0.172802046 0.198988065
0.334977657 0.180771336 0.204300985
0.359266341 0.187349394 0.210879028
0.387349784 0.197596416 0.218089670
0.413535655 0.201897457 0.222770259
0.441239506 0.206578121 0.228716120
0.475901544 0.215685904 0.233016908
0.513092637 0.229348272 0.244401991
0.553699911 0.240354329 0.255154639
0.595319152 0.251992583 0.261480063
0.641872168 0.261100441 0.272612423
0.692979217 0.270082325 0.285009503
0.743326724 0.279696286 0.299430609
0.797596335 0.295888573 0.319797188
0.851359963 0.314357996 0.341809005
0.057558414 0.139911413 0.156230003
0.065275058 0.146489412 0.155977398
0.071853630 0.145856693 0.165085703
0.080961250 0.149398699 0.160025388
0.090828836 0.147880986 0.160784006
0.096648000 0.150410980 0.159013227
0.115369990 0.147121996 0.167615384
0.125869706 0.147121981 0.160784006
0.142568097 0.149398699 0.164579093
0.159519508 0.153700247 0.173307702
0.178874150 0.157242283 0.175205410
0.196078539 0.159266442 0.176343963
0.213535920 0.162302345 0.183175072
0.232005030 0.167615384 0.186464280
0.250474393 0.172295690 0.190891579
0.270208806 0.175205410 0.193168700
0.289942980 0.178241402 0.197722897
0.313598543 0.184946567 0.208475992
0.338899016 0.194054455 0.212523758
0.363440722 0.202023715 0.215053722
0.393168747 0.208348721 0.224414691
0.422517419 0.218469247 0.229474828
0.452371508 0.223782688 0.234914988
0.485768735 0.234408513 0.239468798
0.524731398 0.241492689 0.249335691
0.565338016 0.253889740 0.260088354
0.609107792 0.265781403 0.269702703
0.655787289 0.276027948 0.279949427
0.701707661 0.286780536 0.290069699
0.751676083 0.299304366 0.300821930
0.803288758 0.313219368 0.324351162
0.861733317 0.333712697 0.356229991
0.071980089 0.155092001 0.162302002
0.081087708 0.164959088 0.161543474
0.086527452 0.167109430 0.168374673
0.092346936 0.166856200 0.173687771
0.102213643 0.166097194 0.164579093
0.101455025 0.170651197 0.166097090
0.115117095 0.168880105 0.172675416
0.133459702 0.166097105 0.176723495
0.143326998 0.166856200 0.166856185
0.164579406 0.166856200 0.182036579
0.182922095 0.171157196 0.184819862
0.199114352 0.175205261 0.185831994
0.215053737 0.178241640 0.186211452
0.236559093 0.181530997 0.189753130
0.253257394 0.185072675 0.196331188
0.273244798 0.188108906 0.199999809
0.294496983 0.192663088 0.206072196
0.318785131 0.198735088 0.213283002
0.340164095 0.207716987 0.219101995
0.366476715 0.216824844 0.222643986
0.394180834 0.224035189 0.228715986
0.426312327 0.231372342 0.237824127
0.454016149 0.243264079 0.240986988
0.488045633 0.254143119 0.247059003
0.527514577 0.260974199 0.257685006
0.572169662 0.266793400 0.268437654
0.617204189 0.276407093 0.278052002
0.665274918 0.288551807 0.290196002
0.709297597 0.302214086 0.300442725
0.758380532 0.315370172 0.311827928
0.806324720 0.331435978 0.323592246
0.857938051 0.349651992 0.360025078
0.093232490 0.179380015 0.168374002
0.102340095 0.182416409 0.174446777
0.104996487 0.183681503 0.177988723
0.106514677 0.186084971 0.177735537
0.111322030 0.190385967 0.173687488
0.126502410 0.184313983 0.185831487
0.128273487 0.186337665 0.179759815
0.139152497 0.187349498 0.179886490
0.155471012 0.188108593 0.185072973
0.167615011 0.191144988 0.191144973
0.185958251 0.191144988 0.191777483
0.202150747 0.193421721 0.191903993
0.217331126 0.196457654 0.191903993
0.233523473 0.199747011 0.192789540
0.257811457 0.205819011 0.201897904
0.279316783 0.209361315 0.206072167
0.299050987 0.213915497 0.212144181
0.318785131 0.219987482 0.219354987
0.343073964 0.226059511 0.219355017
0.375584871 0.235041365 0.230740011
0.402909458 0.242251977 0.238582999
0.429601729 0.249336109 0.243896127
0.460088938 0.258444458 0.247058988
0.496520996 0.264516503 0.253131002
0.535104394 0.273118198 0.263756990
0.578874230 0.281973153 0.274509668
0.626312613 0.291587472 0.284124017
0.668817341 0.303731501 0.296267986
0.714231193 0.321189165 0.308411986
0.768500686 0.335610449 0.323971927
0.824288547 0.349651963 0.340923548
0.870082021 0.367868006 0.356989473
0.108665124 0.194939867 0.183174863
0.103225611 0.197976261 0.186337769
0.116634771 0.198861867 0.190259218
0.120429866 0.198861867 0.193295166
0.122580543 0.201644883 0.191777319
0.132700920 0.205692872 0.186211005
0.142821312 0.199620873 0.198355645
0.152182147 0.201518029 0.196837872
0.167615205 0.202782869 0.198102772
0.179759756 0.203668490 0.197723001
0.194813624 0.206704870 0.197975993
0.211005613 0.210752860 0.200000256
0.226185769 0.214674100 0.202024236
0.241619200 0.217963055 0.203542039
0.260594845 0.224035740 0.202024415
0.280075848 0.230107740 0.211132184
0.303858191 0.233649671 0.219734386
0.328778982 0.237697586 0.229601860
0.357621849 0.241492882 0.234155864
0.379127234 0.253130883 0.236938506
0.408222616 0.260468006 0.241113007
0.435547262 0.267552137 0.246173128
0.466287464 0.276407510 0.253131002
0.505502880 0.279696852 0.259202987
0.541935444 0.290322870 0.265275002
0.583554626 0.300063044 0.276154339
0.629601240 0.310689121 0.288298875
0.672105968 0.327640742 0.305249840
0.714610755 0.334471732 0.314737678
0.761669338 0.349905193 0.326628685
0.817836642 0.364073455 0.346110195
0.873497844 0.380265743 0.371410877
0.115749255 0.218216240 0.188235000
0.121821247 0.219228387 0.195319384
0.120682769 0.222138241 0.198355734
0.133333147 0.220873073 0.200126514
0.136748806 0.219734520 0.202403724
0.145857185 0.220873252 0.199873328
0.156989306 0.224921241 0.200379387
0.166097686 0.220493525 0.205945745
0.179759517 0.222770348 0.205945745
0.191903979 0.224035501 0.204174519
0.204933599 0.226944864 0.206072256
0.222138256 0.227956995 0.206072271
0.237318143 0.232890636 0.207969993
0.252751499 0.236179501 0.210120231
0.270967841 0.242251828 0.210626155
0.295256257 0.246300235 0.219228700
0.313472241 0.252372265 0.226818502
0.338013530 0.256546497 0.236053407
0.364199698 0.260974228 0.240733743
0.388235390 0.268311262 0.246046633
0.413282722 0.274762988 0.245287746
0.440607131 0.281720400 0.247185260
0.470335215 0.290828496 0.255407989
0.509804189 0.297659874 0.265275031
0.555091798 0.305503249 0.275395513
0.590132892 0.317647219 0.281467497
0.632637382 0.327893496 0.292346984
0.675142109 0.343073905 0.307526976
0.721694827 0.354711980 0.317773819
0.765970826 0.366097152 0.328652948
0.812523723 0.382163167 0.344338953
0.866414011 0.398482263 0.372422487
0.126755282 0.242125288 0.195066288
0.135483637 0.240986645 0.200759038
0.140164286 0.243137404 0.205566123
0.142820805 0.243643478 0.207337350
0.151549652 0.241366193 0.206957906
0.159898922 0.239848569 0.208475709
0.169259995 0.242125630 0.210119992
0.183175340 0.246679574 0.212396994
0.193042636 0.245920286 0.212396994
0.205186650 0.249336123 0.212397009
0.217330649 0.251233399 0.218722507
0.231245846 0.252245277 0.218595996
0.250600994 0.253383636 0.219734639
0.265528411 0.256166995 0.219481602
0.281973630 0.260467976 0.220746219
0.307400435 0.266413808 0.230992943
0.331309259 0.269829601 0.235547349
0.351422817 0.276534021 0.242251933
0.373687297 0.283111989 0.246299699
0.396584362 0.288045615 0.250980288
0.426185995 0.295635730 0.258190721
0.456546277 0.299683988 0.257179111
0.484376609 0.308665127 0.263124645
0.520809710 0.317773521 0.273244649
0.563694179 0.326881915 0.283111930
0.608728945 0.337381601 0.295888960
0.644655406 0.349019706 0.302972972
0.688425124 0.360531271 0.315116972
0.735104203 0.373813927 0.325743467
0.779633164 0.388867468 0.337760955
0.823403180 0.405818880 0.352561593
0.865655005 0.424288630 0.376596630
0.151297033 0.260847986 0.213030040
0.152814656 0.258064628 0.213536039
0.156609774 0.259076774 0.214927286
0.160658032 0.259835839 0.216698050
0.167236030 0.257558554 0.217077583
0.173308030 0.260594934 0.214041978
0.179633066 0.260847986 0.216065705
0.192030445 0.263884038 0.220240027
0.208223030 0.270209014 0.224794030
0.220367044 0.276280999 0.224794045
0.232511029 0.276533991 0.235167742
0.244908065 0.276787013 0.237697735
0.260214657 0.277419388 0.237191603
0.280961066 0.280455053 0.239974961
0.293105841 0.280455053 0.236938581
0.316761792 0.287159801 0.245667025
0.341050178 0.293485224 0.248956054
0.363061547 0.297533453 0.246299610
0.390386015 0.306641102 0.255407989
0.413156390 0.310942382 0.258697361
0.443390459 0.319165021 0.268817306
0.479317039 0.329285026 0.279949129
0.515875518 0.335483521 0.283111989
0.546615899 0.344591916 0.289183974
0.584060848 0.353953272 0.295761973
0.624668300 0.364199996 0.305249661
0.667679071 0.376091063 0.320177019
0.716255784 0.385199428 0.332320988
0.761416733 0.399620801 0.344465673
0.803668499 0.416572005 0.358127773
0.843896508 0.435420632 0.375078619
0.883365035 0.456673026 0.396331012
0.178621382 0.285135984 0.228210405
0.163441002 0.285135984 0.234282404
0.171410412 0.284503400 0.230487406
0.177862152 0.285135984 0.228842825
0.182669401 0.284882933 0.229601830
0.194560409 0.287919313 0.235294342
0.203162730 0.285895079 0.237318084
0.214927524 0.286780685 0.238709390
0.228463396 0.291967273 0.239974409
0.235547423 0.300568998 0.239974409
0.247691408 0.300821990 0.237065285
0.261859655 0.302846253 0.241239741
0.277545810 0.302972764 0.244148999
0.296141416 0.301707417 0.249082565
0.311321825 0.304743797 0.249082565
0.330676764 0.307146996 0.255660772
0.353194177 0.312966347 0.259329587
0.374446541 0.318406373 0.258823812
0.396458000 0.324857891 0.270588368
0.429348350 0.336748838 0.271347404
0.458317429 0.343200386 0.277672738
0.489943236 0.350537390 0.286021709
0.521948338 0.356735885 0.289183974
0.561416745 0.365844280 0.295255959
0.601264954 0.377229393 0.305881977
0.641745567 0.387349635 0.313978344
0.682352662 0.397596389 0.323466361
0.725363374 0.409487426 0.338392973
0.763314128 0.423908800 0.350537628
0.805186331 0.440860391 0.362681925
0.848829746 0.459076792 0.378114998
0.895509005 0.477925390 0.399367422
0.193927988 0.314231604 0.245793983
0.197976202 0.311827779 0.247058988
0.189247593 0.311827779 0.253131002
0.199873596 0.311827779 0.249336138
0.206704780 0.311448336 0.248197779
0.214800775 0.310436696 0.250221789
0.222011313 0.318026453 0.246552676
0.231119692 0.316634774 0.247943997
0.244022980 0.317394078 0.248703092
0.253383994 0.319924146 0.250347793
0.267678797 0.322706789 0.249841869
0.279822767 0.322706789 0.250854254
0.294623613 0.325363636 0.252751589
0.311827838 0.325363547 0.256040573
0.331309199 0.328399390 0.258190781
0.351296574 0.331435770 0.260594606
0.369512945 0.334471762 0.268184811
0.390259326 0.340291172 0.269702971
0.415053785 0.348133981 0.278304994
0.440227985 0.357368797 0.284123987
0.473624319 0.365717769 0.287918985
0.505502939 0.373813778 0.295509189
0.537508011 0.382668793 0.300189495
0.574699700 0.389500469 0.308538824
0.611891329 0.396331578 0.314610809
0.654143095 0.411005586 0.326501757
0.694117606 0.423655778 0.335610300
0.732826829 0.435799778 0.348893106
0.774825573 0.448197395 0.356609643
0.814800262 0.465148509 0.381151110
0.857305169 0.485136181 0.403035969
0.902845979 0.506388605 0.428842604
0.213662177 0.337002188 0.260973990
0.212144390 0.344591975 0.256420195
0.221126184 0.337634385 0.253131002
0.217584178 0.341429234 0.261732996
0.229095727 0.341049731 0.261100799
0.238583371 0.335737109 0.263377786
0.243137181 0.341303051 0.259835750
0.250853866 0.343959183 0.258570194
0.260721177 0.343959183 0.257811278
0.272865176 0.341682464 0.259329677
0.287919044 0.344465494 0.262492180
0.302593380 0.346995175 0.262998253
0.315876007 0.346995175 0.264895976
0.331309408 0.349399000 0.265401989
0.351296574 0.351169765 0.269702762
0.371030748 0.355724186 0.274256796
0.390765369 0.363314360 0.275774986
0.407843143 0.366350591 0.281214565
0.434281975 0.373687208 0.286401182
0.458823711 0.379759550 0.289437205
0.484250516 0.390006185 0.297026992
0.520683050 0.396078169 0.304111123
0.555471003 0.407083690 0.310815692
0.589120805 0.414547801 0.319924086
0.630107760 0.423655987 0.328272998
0.662365854 0.431119651 0.335736632
0.704238117 0.447944194 0.346742183
0.742694378 0.460088164 0.356862694
0.785957813 0.475268841 0.374319971
0.825426519 0.489437312 0.387223125
0.865274787 0.510309935 0.417963177
0.905882001 0.535231173 0.447059005
0.240354136 0.354712546 0.272485584
0.230740115 0.371030957 0.265275359
0.234788328 0.370271981 0.256799787
0.246173546 0.365717977 0.256546557
0.246553093 0.374446154 0.266793102
0.260721475 0.366603464 0.272106171
0.265781224 0.368248135 0.271220893
0.272738695 0.370019019 0.270208865
0.283238530 0.367741704 0.273624063
0.295382529 0.367741704 0.270588458
0.309803814 0.370018989 0.275015980
0.324351817 0.373054862 0.277039975
0.340164602 0.376217127 0.278937548
0.355344981 0.376470149 0.278937548
0.373181522 0.376849711 0.284250557
0.391397536 0.380392164 0.290322572
0.410246372 0.387602985 0.293990970
0.427830517 0.397849530 0.293358564
0.452118605 0.400885165 0.296394944
0.476407290 0.404553890 0.297912955
0.501960516 0.411385149 0.301707834
0.531055808 0.422137558 0.311448127
0.573307574 0.428462565 0.320429981
0.604680359 0.438077033 0.329032302
0.643896222 0.449462146 0.338140279
0.682353199 0.461479783 0.348513216
0.711195529 0.470588058 0.358127564
0.753447235 0.482605517 0.364452541
0.797343314 0.499430627 0.386590362
0.838835895 0.517773688 0.409360737
0.873750567 0.533333540 0.425932765
0.907146990 0.560657978 0.450221568
0.264642984 0.382037014 0.281594008
0.264642984 0.391144603 0.281594008
0.263630986 0.394560039 0.276534021
0.269955993 0.394813210 0.277799010
0.279949546 0.398735017 0.288045555
0.282985926 0.404807001 0.285009921
0.287033707 0.402024329 0.285262972
0.295003027 0.401391983 0.283365309
0.307653159 0.401138961 0.283111989
0.322706997 0.401138961 0.288804501
0.334850997 0.401138961 0.288678020
0.347248554 0.403415710 0.289184034
0.361923009 0.407590002 0.292599678
0.379633069 0.412903011 0.300190002
0.394813478 0.415939391 0.300190002
0.412649989 0.416318953 0.305503011
0.432384193 0.418342829 0.310056806
0.452118635 0.422137648 0.311574608
0.467299044 0.425174057 0.308539003
0.491587758 0.430993021 0.314358026
0.519671023 0.434914738 0.316129029
0.551549315 0.440733850 0.320935994
0.588488042 0.449715048 0.332574010
0.624920845 0.461859822 0.338646024
0.658570290 0.473751009 0.347248346
0.692979097 0.487286657 0.359139651
0.726375997 0.500948906 0.373308003
0.762807965 0.510056555 0.385452002
0.802403510 0.524730861 0.399746805
0.844149292 0.545477450 0.423023134
0.882605970 0.565464973 0.446679175
0.913219035 0.578874052 0.465402007
0.291714370 0.431625396 0.299051017
0.291714370 0.432384342 0.299051017
0.296015352 0.435040742 0.301201791
0.299810380 0.435040742 0.300822198
0.308538914 0.436558932 0.306514561
0.316382319 0.440227747 0.303478926
0.327008367 0.438709438 0.305502683
0.332447737 0.438962728 0.304111362
0.343073845 0.440860480 0.303352386
0.358254224 0.442884743 0.309424400
0.364958733 0.442884743 0.306894004
0.381151229 0.446932733 0.310942531
0.397090733 0.449589103 0.312460721
0.415306747 0.451866090 0.315876365
0.433016807 0.452372164 0.315876365
0.445793986 0.453004748 0.318279564
0.466287076 0.457558542 0.322454214
0.490069300 0.462491721 0.325490147
0.513851762 0.463377357 0.326754957
0.534598112 0.471979737 0.332067996
0.556989133 0.476154476 0.336242735
0.585705101 0.481214613 0.340164512
0.620240569 0.490322262 0.350664198
0.654016554 0.499810219 0.364706069
0.685894728 0.511954367 0.375332057
0.721568346 0.522707045 0.386337698
0.757748485 0.534598410 0.399620354
0.791903734 0.545983255 0.411764354
0.820366561 0.563061357 0.429222018
0.859329581 0.581910253 0.446299672
0.897280276 0.605186701 0.470587969
0.927640378 0.624920726 0.494497031
0.322833717 0.473750472 0.313472480
0.326628715 0.469955474 0.313472480
0.327134728 0.473750472 0.315622777
0.334471881 0.475015640 0.319923997
0.341176480 0.474889189 0.322074264
0.348766655 0.473371387 0.316002667
0.356609702 0.477039874 0.323719144
0.367109418 0.477292508 0.323465765
0.376470476 0.479569733 0.322706997
0.392789215 0.481467485 0.328779012
0.399240732 0.481593996 0.326122612
0.413409233 0.481846988 0.325363517
0.430487365 0.486780614 0.330297351
0.448197514 0.487792701 0.331815273
0.468058169 0.489436954 0.336748987
0.483364552 0.491334736 0.337254941
0.501581371 0.495888889 0.338772744
0.525237024 0.503099203 0.340797007
0.550031424 0.503099203 0.342567772
0.571789861 0.507653058 0.350284457
0.594939947 0.514863729 0.360151440
0.616192341 0.517900109 0.362175703
0.646047235 0.525236964 0.368627489
0.679443657 0.534345388 0.380265892
0.710562766 0.541935444 0.395066738
