Assets/Resources/EldamarStudio/100 Horror LUTs Pack/LUTs/cube/Snake LUT.cube
LUT_3D_SIZE 5
DOMAIN_MIN 0.000000 0.000000 0.000000
DOMAIN_MAX 0.903226 0.903226 0.903226
0.011765000 0.003922000 0.007843000
0.103352405 0.029728293 0.019608000
0.281847388 0.031373002 0.016318584
0.504238009 0.077546127 0.044149127
0.791524589 0.144085795 0.109930143
0.115749404 0.127513990 0.015053997
0.147121996 0.119670987 0.014420994
0.290702105 0.134724990 0.026185993
0.504996836 0.171663269 0.063504413
0.789500475 0.223402843 0.126628518
0.257052392 0.273370981 0.043896403
0.299936652 0.282859117 0.049714994
0.348007798 0.266792983 0.072612412
0.532068551 0.302213818 0.111195415
0.814294994 0.368248224 0.176091224
0.515117109 0.495509118 0.126628861
0.554079294 0.498545080 0.138772845
0.613282919 0.513219357 0.145983249
0.671094239 0.501455128 0.187476128
0.857052505 0.558001280 0.268690795
0.797849476 0.825426579 0.375964403
0.820999503 0.836938560 0.397722781
0.872991979 0.839215875 0.423781961
0.929790795 0.848323584 0.458697259
0.970524549 0.826818585 0.514610708
0.040860288 0.038582996 0.071979985
0.108918689 0.030739997 0.070335694
0.247564688 0.070967704 0.079822987
0.443516970 0.140291125 0.124983989
0.752940834 0.190006688 0.184819520
0.067046285 0.115116991 0.058570698
0.139658704 0.129538402 0.087665990
0.249209389 0.154712111 0.098797984
0.459203243 0.193927690 0.136748984
0.756483316 0.252118707 0.195951834
0.234788403 0.265527993 0.119038403
0.266540110 0.272106409 0.117394112
0.321821362 0.264516115 0.130170822
0.498798102 0.305123359 0.167109281
0.791777492 0.383681089 0.233649805
0.503731787 0.479822963 0.196584120
0.514990687 0.488425076 0.198608533
0.587476254 0.502846539 0.212397113
0.649842083 0.490701824 0.235547245
0.850474477 0.564832151 0.325237066
0.792030573 0.816571653 0.420240164
0.805945694 0.816318393 0.426438868
0.855028510 0.825426996 0.445920140
0.917520523 0.838203311 0.476660430
0.954332650 0.825426698 0.543073893
0.100063413 0.024161585 0.220366567
0.151675999 0.047438279 0.216065690
0.257684976 0.092220411 0.200126827
0.458191127 0.139026120 0.211005688
0.752308547 0.198229238 0.283365041
0.146110117 0.147754416 0.199747130
0.171916410 0.160531282 0.190638691
0.257305712 0.175584689 0.188361406
0.452625245 0.209614113 0.217836812
0.748007476 0.272738963 0.293105513
0.187729403 0.274635971 0.186337560
0.236432686 0.284124106 0.202403694
0.359013408 0.328272969 0.251106977
0.505629241 0.344339103 0.270841390
0.775079012 0.416065812 0.350031376
0.437191576 0.484629869 0.276913166
0.467931688 0.488930970 0.299810290
0.550664306 0.498039544 0.317267239
0.631119192 0.504364252 0.339531809
0.836053073 0.586464345 0.432763904
0.755344331 0.810246348 0.508286178
0.766729891 0.809613764 0.508412182
0.817330837 0.819481254 0.527893364
0.895129621 0.837191463 0.563440979
0.945603728 0.828589261 0.614547789
0.193295121 0.093232125 0.456167132
0.246299699 0.107273996 0.447059125
0.349652112 0.139658540 0.427198261
0.510183275 0.174572989 0.414168239
0.772801876 0.209360808 0.449842095
0.238077253 0.210246697 0.418722421
0.277672529 0.213535696 0.412397534
0.362681657 0.228589684 0.410499692
0.510309815 0.239342406 0.404680520
0.775711358 0.285894811 0.454396099
0.287792414 0.323718965 0.412776828
0.342061967 0.333839357 0.406325072
0.428083539 0.359392524 0.411511660
0.546236277 0.369259536 0.417330801
0.794054627 0.437950671 0.482479513
0.363061249 0.532701135 0.427957267
0.414295107 0.532701135 0.439215690
0.517014086 0.543200433 0.463124663
0.677799106 0.596584260 0.534725130
0.831119597 0.648829818 0.587729096
0.670714617 0.826312423 0.577103019
0.697406411 0.831119776 0.597849190
0.767741740 0.832890332 0.645793557
0.861226797 0.845034599 0.674509585
0.914737642 0.850600958 0.702213883
0.327260762 0.193801627 0.786337435
0.372549057 0.202276781 0.778494418
0.482732624 0.233016789 0.770651400
0.622770011 0.281846941 0.764199376
0.818848729 0.323465914 0.758886397
0.377229452 0.293864638 0.766350269
0.414421499 0.300695509 0.769006670
0.511828065 0.321315765 0.764705956
0.638077080 0.351423204 0.757874489
0.822011471 0.392409742 0.760784566
0.480202466 0.462618321 0.755597830
0.517773449 0.471726596 0.758886576
0.588108838 0.485515594 0.758886397
0.683870912 0.505123377 0.756609559
0.830613613 0.531435609 0.759645760
0.544338644 0.646299958 0.772422254
0.575078845 0.646679282 0.767488837
0.647564709 0.649968147 0.764199793
0.740670085 0.679696023 0.767994583
0.856672764 0.701328158 0.771410525
0.617457449 0.876533687 0.773181438
0.644655466 0.870967686 0.787982285
0.703731775 0.867931962 0.790892005
0.798102677 0.871473789 0.806578040
0.912839890 0.899936557 0.852877557
