Assets/Resources/EldamarStudio/100 Horror LUTs Pack/LUTs/cube/Snake LUT.cube
LUT_3D_SIZE 8
DOMAIN_MIN 0.000000 0.000000 0.000000
DOMAIN_MAX 0.903226 0.903226 0.903226
0.011765000 0.003922000 0.007843000
0.034029547 0.016065547 0.004681000
0.126122996 0.027450999 0.019608000
0.233775914 0.028589644 0.022390647
0.343706369 0.042251997 0.018721998
0.469829470 0.068437733 0.035040993
0.617836833 0.099303991 0.066287279
0.791524589 0.144085795 0.109930143
0.037950546 0.045793545 0.001517999
0.065401539 0.045414090 0.018849000
0.137128189 0.064642549 0.022390550
0.233775914 0.076786898 0.022011099
0.341935545 0.093232185 0.020746548
0.465275377 0.110056728 0.043010995
0.601391256 0.143326998 0.068057992
0.778621018 0.172928646 0.112334251
0.134725094 0.145730197 0.018090002
0.147248194 0.154712543 0.004174544
0.166856185 0.138646096 0.022770099
0.239342630 0.146868631 0.023402996
0.339911282 0.162935004 0.041492902
0.468564123 0.182795733 0.055660732
0.616318643 0.209108204 0.089310803
0.787729621 0.244655237 0.129664645
0.199620277 0.233143643 0.024667645
0.227197975 0.226691723 0.030866642
0.252498627 0.231878191 0.037191547
0.271347612 0.224794284 0.051612996
0.353953183 0.231878176 0.066413991
0.477925122 0.254142731 0.091967344
0.625300527 0.283744335 0.111701272
0.797217190 0.321315438 0.149904951
0.323466182 0.326754987 0.068816997
0.343453526 0.327767015 0.071979895
0.364073277 0.328905553 0.067299187
0.398228824 0.334092557 0.076534182
0.420366734 0.322580576 0.100189991
0.508159459 0.330423445 0.117267177
0.664010227 0.370398462 0.144718483
0.823908746 0.417204320 0.193042159
0.477672458 0.458064467 0.117520481
0.492599249 0.463124692 0.118279479
0.512840033 0.465401709 0.117773734
0.550537467 0.471726716 0.121948086
0.588488162 0.472232670 0.137634188
0.618469417 0.459962219 0.164199993
0.709677100 0.479696453 0.198735178
0.851992369 0.530423820 0.245667264
0.639089584 0.627956510 0.189753264
0.647817552 0.637065291 0.188994259
0.677292585 0.635673881 0.195446074
0.710815907 0.647058904 0.205439553
0.745477676 0.650600731 0.214168459
0.776217580 0.647438109 0.237318009
0.804427564 0.627956510 0.271094531
0.875521839 0.640860081 0.325616658
0.797849476 0.825426579 0.375964403
0.815559626 0.829980552 0.394686669
0.826818466 0.835926473 0.400252819
0.853889823 0.833016932 0.417583585
0.888677955 0.837571144 0.425679564
0.923719049 0.846805811 0.452371955
0.943833053 0.840480626 0.484376550
0.970524549 0.826818585 0.514610708
0.028968997 0.023529001 0.017963095
0.038330097 0.020367000 0.010120095
0.121315189 0.032511450 0.030866642
0.200506091 0.057938091 0.049335998
0.299557656 0.081846736 0.062239353
0.429854453 0.106008731 0.079569742
0.579506576 0.131562099 0.109677278
0.763820350 0.162681550 0.136622533
0.035294000 0.042631548 0.017963095
0.061859995 0.043010999 0.018342545
0.112333730 0.070461996 0.035168000
0.200126544 0.090069890 0.046173092
0.293231726 0.110056728 0.064263195
0.425300270 0.131941542 0.082605734
0.576976717 0.154585838 0.107906088
0.742567718 0.187729359 0.142947629
0.106894545 0.128020540 0.038330097
0.122201093 0.130803198 0.039848097
0.147248179 0.127261549 0.049715452
0.213409647 0.140164107 0.059456091
0.310816079 0.163694009 0.079949096
0.437697649 0.186464295 0.092726439
0.591018260 0.215686351 0.123086818
0.777355790 0.246173516 0.155218199
0.188615084 0.212903187 0.058949735
0.207083926 0.214927539 0.064895995
0.233270183 0.221252531 0.068437636
0.254396170 0.210626185 0.077419184
0.337001950 0.226691723 0.093105987
0.448071092 0.250980526 0.112713277
0.605059803 0.280202359 0.132194981
0.771284163 0.318911999 0.170145348
0.307273746 0.324351192 0.086780377
0.326122701 0.318785399 0.097912893
0.348007739 0.321948200 0.099430896
0.376217723 0.326248825 0.108412437
0.399873555 0.314864010 0.124098733
0.493737936 0.326881826 0.142567992
0.647691548 0.366350263 0.159519076
0.809867382 0.413409352 0.213662073
0.458317906 0.441492647 0.140038177
0.467172444 0.452118725 0.142820925
0.498671651 0.449335754 0.137634277
0.531942010 0.454143137 0.145477369
0.570018649 0.459835827 0.158380717
0.600759208 0.449462265 0.184566468
0.693232298 0.471220553 0.211891279
0.845667481 0.526122630 0.269702733
0.624161541 0.615812778 0.194940105
0.636939049 0.614295125 0.204807088
0.652371824 0.612903357 0.198861614
0.682858825 0.617204368 0.209108010
0.727767408 0.624794424 0.216824889
0.757748008 0.625300109 0.245414332
0.788615048 0.609740555 0.274130285
0.856166601 0.623276651 0.319291472
0.793295443 0.817963123 0.387729108
0.804554045 0.815939605 0.384819508
0.809361160 0.811385155 0.381150663
0.835926354 0.814421356 0.388614506
0.871726632 0.824288189 0.415559471
0.908538759 0.835800111 0.441113114
0.935104370 0.830487013 0.487539262
0.960911036 0.818722129 0.519291401
0.044654999 0.042378098 0.093231998
0.073244549 0.038456902 0.092473097
0.131688893 0.037571099 0.090828992
0.219481185 0.057178997 0.089690447
0.303099304 0.088551894 0.102719910
0.412397116 0.127640992 0.126249090
0.552814543 0.173181564 0.162175894
0.745097637 0.202403724 0.197469890
0.065401547 0.071726546 0.072359547
0.090954997 0.077166542 0.080708198
0.125743449 0.083871000 0.081087649
0.202529639 0.100695640 0.085009553
0.296141982 0.130171001 0.105376445
0.403289199 0.166476935 0.133080095
0.553193986 0.191524550 0.162302330
0.734724522 0.217710361 0.191777185
0.082226105 0.137128100 0.078305095
0.108159088 0.147754550 0.100443006
0.168501094 0.160658091 0.108159095
0.218216538 0.162555546 0.108918190
0.300822198 0.184060991 0.122074485
0.426059335 0.206830993 0.144086078
0.576217413 0.236559182 0.174446583
0.760278583 0.271853089 0.217204243
0.180645540 0.226818532 0.099810347
0.198608547 0.232005090 0.117140733
0.232257724 0.231119186 0.125743359
0.257305533 0.228336528 0.124098547
0.333586395 0.240860522 0.143326998
0.445540667 0.264262944 0.161290184
0.596078217 0.296394736 0.190638825
0.771916509 0.338899553 0.227324709
0.291334480 0.322074264 0.151929095
0.307273805 0.322327644 0.153573900
0.335990101 0.326755166 0.152688190
0.372043163 0.323466182 0.159392729
0.400253266 0.318026185 0.168374196
0.485262543 0.337128401 0.183554813
0.640480638 0.374193400 0.214547798
0.803794980 0.429854274 0.259455919
0.457432270 0.452245742 0.196331352
0.466034383 0.453004718 0.200506181
0.490955353 0.456546485 0.203162730
0.524225056 0.458444118 0.203921631
0.565338492 0.464389354 0.212903172
0.599746764 0.453763634 0.227704078
0.695635796 0.479063570 0.260088831
0.843137264 0.541808665 0.323465914
0.623402774 0.618595779 0.263757199
0.629474998 0.624794483 0.260594308
0.652498424 0.628083706 0.271600187
0.687919080 0.635041416 0.275268853
0.725237310 0.637444437 0.288045287
0.756482959 0.636685431 0.300189674
0.788994193 0.621758521 0.324857295
0.860214889 0.643137336 0.376217842
0.792030394 0.823149681 0.437444419
0.791650712 0.823149800 0.441239297
0.807969809 0.827450752 0.450474501
0.838330030 0.827956855 0.460468143
0.872612000 0.832257867 0.472485393
0.908159256 0.841998577 0.489563584
0.928905487 0.838709652 0.522074699
0.952055573 0.828968763 0.552435279
0.076280639 0.033017002 0.170525283
0.100569442 0.027830547 0.177102923
0.149525374 0.048576999 0.161163986
0.206324935 0.068437636 0.163693994
0.310436547 0.092852540 0.157368898
0.419228196 0.126881987 0.170271650
0.562934816 0.158633649 0.202403635
0.745224357 0.195066184 0.246426448
0.093485437 0.084503196 0.148513377
0.112333730 0.096268192 0.156103641
0.149904832 0.100569539 0.151422724
0.200379372 0.111954279 0.145856917
0.294749826 0.131182626 0.160531178
0.405059993 0.156989455 0.174193636
0.553447306 0.184313729 0.203035921
0.723719180 0.218975440 0.246046603
0.114990182 0.150411099 0.158127993
0.138899535 0.146995276 0.152940735
0.173687369 0.166350543 0.156989440
0.215559721 0.168248191 0.145477280
0.311954618 0.189500198 0.167109445
0.415686339 0.218469203 0.188614994
0.564579189 0.251360089 0.228842527
0.741049886 0.297785997 0.280328900
0.148007289 0.221505284 0.154206276
0.161543533 0.227450833 0.155724183
0.207842931 0.236811832 0.162808180
0.287665933 0.262998283 0.197976276
0.339152008 0.267046094 0.195192829
0.439848274 0.281087875 0.210879028
0.577735424 0.311195612 0.247438192
0.745224237 0.352055252 0.288804621
0.252119005 0.321188986 0.170651376
0.274889201 0.323339403 0.185072735
0.317141294 0.330423474 0.209867075
0.363946557 0.331182480 0.214800835
0.396205276 0.332321018 0.225427091
0.483112067 0.353953183 0.242251635
0.629728079 0.389500111 0.271979719
0.789626956 0.442251623 0.331941783
0.418975204 0.446932465 0.246046722
0.433143795 0.444528639 0.249968529
0.457179397 0.449588895 0.257558376
0.501328111 0.454775453 0.265654713
0.549525499 0.462618440 0.269576102
0.586337566 0.455534339 0.284882963
0.686653912 0.489184201 0.320050567
0.831625342 0.554206312 0.384060651
0.588614941 0.614041865 0.322959930
0.599746764 0.613156259 0.326881558
0.616065860 0.609613836 0.326122642
0.652624905 0.619101822 0.331562579
0.700063348 0.623529494 0.336748779
0.740417182 0.627830684 0.353194207
0.769639194 0.620746553 0.372422576
0.848323822 0.643643379 0.424162060
0.767361939 0.815306425 0.485895038
0.769513071 0.814041615 0.485515565
0.788488388 0.812397242 0.481846750
0.808728576 0.818216622 0.492726028
0.852877855 0.823782623 0.511195362
0.888424993 0.836053133 0.526881456
0.923592329 0.837065101 0.557495058
0.948007405 0.830233574 0.590259254
0.120682992 0.040733807 0.286021173
0.142947644 0.050853994 0.278051972
0.187982187 0.070461899 0.267046392
0.238962993 0.099177644 0.255660832
0.320430189 0.115875989 0.249842197
0.426691979 0.134724796 0.249462634
0.578621268 0.162175894 0.272485971
0.758127630 0.201517805 0.316887975
0.141682193 0.110436186 0.250094831
0.159898907 0.117646992 0.262491971
0.194307178 0.127767086 0.251360178
0.238583446 0.139531910 0.245288089
0.311448663 0.148134187 0.243390352
0.421758533 0.164832547 0.239468455
0.568627357 0.191650555 0.267046273
0.734471858 0.221125722 0.310436517
0.173055097 0.179380074 0.240480989
0.192030296 0.192030191 0.243263826
0.222517073 0.190385997 0.249209195
0.257685184 0.201391280 0.241619632
0.325110286 0.205186382 0.238836288
0.427071720 0.219734550 0.247817829
0.580898404 0.256166995 0.284250379
0.754965246 0.290069699 0.335230857
0.187855989 0.247565001 0.242884278
0.214294642 0.256672740 0.244781837
0.252245188 0.259708732 0.242378533
0.300948650 0.273371160 0.251360178
0.349525630 0.285136074 0.255155176
0.455661356 0.298039436 0.268943816
0.594939649 0.328146636 0.307526886
0.752561450 0.367235899 0.358633816
0.233522981 0.339152157 0.249842197
0.250980645 0.343200147 0.256926209
0.293738097 0.345477372 0.261733085
0.364199996 0.359519362 0.281847179
0.455914170 0.394054174 0.321062386
0.518406332 0.391524374 0.319418162
0.635926723 0.418216199 0.353194267
0.782922208 0.467046022 0.409234822
0.344971538 0.461986452 0.262618542
0.367995173 0.460468143 0.272106558
0.416318804 0.463630557 0.300316423
0.489183813 0.475395292 0.332447648
0.553320646 0.485262543 0.353953391
0.601012170 0.488804460 0.368753970
0.697659552 0.520683348 0.403036177
0.826944768 0.578115106 0.462998271
0.548387051 0.617077589 0.373560995
0.560910761 0.621505082 0.381783634
0.590765178 0.623529434 0.401897579
0.630360842 0.626565695 0.411511630
0.682353079 0.635167539 0.422011256
0.724351645 0.642378330 0.426692277
0.761543572 0.629728198 0.448703557
0.848830044 0.672106326 0.499430627
0.746995747 0.814168036 0.550031602
0.748133898 0.819101870 0.550031364
0.767362297 0.819860697 0.556103766
0.793295026 0.827577293 0.564958572
0.833270013 0.830107450 0.573307931
0.878178418 0.841113567 0.592409670
0.910816014 0.844022870 0.615685880
0.935863197 0.835673451 0.641239524
0.174066737 0.076027729 0.412650198
0.196837544 0.090322539 0.406831443
0.236685812 0.104490638 0.396964192
0.296521276 0.123718992 0.391271472
0.358000904 0.145604193 0.375838012
0.461606443 0.162428722 0.373687744
0.590891838 0.169259995 0.384566903
0.770524621 0.209867075 0.414421201
0.187602460 0.138013825 0.371663451
0.207969472 0.145224735 0.383807629
0.248071179 0.151422918 0.384693205
0.294497013 0.165591538 0.371284008
0.354838818 0.176850095 0.369006693
0.450094461 0.189120546 0.362428665
0.578367829 0.196204841 0.365717977
0.751549721 0.223908976 0.409487754
0.239595190 0.215307087 0.369386464
0.249841914 0.219987288 0.366856366
0.270334929 0.226691827 0.366097480
0.317267716 0.228969008 0.360531360
0.369386435 0.238836080 0.356356829
0.458697349 0.244402096 0.359139532
0.591650665 0.256926090 0.375205815
0.771410227 0.301580995 0.420999348
0.249841809 0.273118287 0.366729826
0.280329078 0.280961275 0.360404551
0.313725352 0.292346686 0.359392822
0.354459286 0.300948709 0.354585707
0.398987651 0.308412194 0.356989086
0.474383205 0.310815990 0.363693833
0.602150261 0.327008098 0.378747404
0.765085280 0.374193072 0.430992931
0.284882963 0.373054922 0.371663451
0.306514710 0.375331908 0.378241926
0.341682643 0.375838369 0.380265653
0.399241179 0.378621072 0.379633456
0.474129915 0.397343636 0.389626443
0.535610497 0.410625935 0.403162658
0.659709036 0.434535176 0.424161553
0.794054270 0.482099742 0.475774705
0.336748987 0.487160176 0.383428484
0.356989473 0.485262454 0.384060472
0.392536193 0.487160206 0.393675119
0.451233178 0.496394575 0.406451792
0.537128389 0.511954427 0.437571466
0.638330460 0.554079711 0.491208225
0.717520237 0.573940754 0.501834452
0.825300455 0.614421308 0.555597544
0.460974276 0.625553250 0.395572722
0.474383295 0.632510781 0.404554278
0.504743516 0.629601300 0.414421350
0.565591276 0.634788036 0.453763336
0.646426022 0.649462044 0.497786343
0.719291925 0.659582257 0.525110424
0.756862938 0.657937944 0.536495745
0.846679509 0.698292494 0.579759777
0.688677847 0.825553536 0.576597095
0.697659612 0.824035227 0.577103078
0.718405902 0.820493519 0.593548059
0.756862581 0.824414611 0.615939319
0.802656591 0.833523333 0.640733719
0.852371573 0.839468598 0.648956537
0.892725766 0.851739168 0.673750877
0.918279648 0.846046746 0.687539458
0.246679276 0.124478281 0.588741541
0.265528113 0.128779247 0.586590827
0.313219368 0.138519794 0.583934367
0.373434275 0.155851007 0.574193239
0.444655240 0.174573272 0.573054552
0.521442294 0.198861286 0.559013069
0.649841845 0.207463279 0.556356788
0.779380023 0.217836812 0.552055657
0.258064538 0.171536997 0.567741811
0.280835032 0.178368449 0.565211833
0.321062356 0.181783795 0.569259822
0.377356291 0.194560438 0.558127761
0.442504764 0.207210645 0.549525619
0.517646968 0.226691738 0.545983315
0.640860260 0.230107561 0.537634552
0.763820410 0.232764080 0.543453336
0.304617256 0.254648775 0.556483507
0.320177317 0.260341614 0.554838836
0.348134160 0.259835362 0.558001518
0.400885552 0.265528083 0.551802754
0.465022177 0.278051913 0.547880828
0.533839464 0.284503520 0.541429460
0.648197353 0.293611348 0.545224488
0.779000640 0.308032811 0.555091619
0.347627997 0.334724903 0.541808903
0.367236078 0.336242706 0.545856953
0.391018122 0.343706578 0.535863638
0.434535295 0.346489608 0.537887514
0.488171875 0.355724007 0.540290952
0.548007488 0.360530913 0.534345448
0.652118862 0.365085214 0.537381530
0.778621018 0.384440362 0.549398959
0.366603583 0.401518285 0.542188644
0.386464089 0.409614176 0.553573668
0.421125650 0.415053457 0.543073893
0.479949534 0.434661657 0.549905062
0.536495507 0.444655448 0.543073833
0.589247048 0.449082911 0.552688479
0.676027834 0.457305461 0.555091798
0.802529812 0.494876742 0.579759777
0.409234524 0.551296711 0.569006562
0.423782289 0.549019516 0.564832091
0.461986244 0.546236634 0.567488551
0.514231443 0.544718444 0.571663558
0.590764999 0.551170230 0.584440291
0.661227167 0.575458765 0.583807826
0.723086238 0.587602735 0.595825553
0.834155321 0.630360544 0.629095078
0.459709257 0.657052219 0.560657561
0.461353570 0.658697009 0.559013247
0.494370461 0.661859393 0.561416566
0.545983553 0.662618577 0.571283937
0.607969582 0.668184876 0.583301783
0.689184010 0.683112264 0.615053773
0.779000521 0.723086298 0.654142976
0.852245510 0.746110082 0.679190576
0.625806332 0.829728007 0.604933739
0.640986741 0.826818347 0.613409162
0.649715185 0.830233812 0.617836773
0.693232059 0.837950706 0.644908488
0.743959486 0.843896210 0.676154137
0.814168334 0.849082828 0.714231312
0.872865498 0.853763342 0.747627854
0.910942733 0.857684851 0.758380830
0.327260762 0.193801627 0.786337435
0.344844818 0.194433808 0.779759586
0.385452092 0.207589880 0.779759586
0.443896413 0.222390980 0.774952531
0.520429850 0.243896320 0.766729712
0.601770699 0.272738516 0.767488837
0.687665999 0.303605378 0.767615139
0.818848729 0.323465914 0.758886397
0.344465464 0.226818636 0.772548795
0.352308661 0.236685619 0.769259751
0.393168867 0.244401872 0.770018578
0.454775542 0.256420046 0.766097128
0.522201359 0.270967990 0.760783970
0.597849369 0.289816797 0.758760393
0.681720376 0.317014456 0.754838407
0.809613764 0.333839595 0.747627616
0.391903609 0.314104915 0.763314486
0.407590359 0.320050746 0.768880129
0.435673892 0.325995892 0.766476572
0.485768795 0.331688553 0.763314486
0.549272597 0.346489638 0.759266198
0.622896671 0.365338415 0.758127511
0.699557066 0.385831892 0.756103516
0.821758628 0.403541833 0.753700256
0.452751577 0.413156033 0.759139776
0.466034055 0.415686041 0.752434969
0.491208017 0.421126068 0.753573656
0.529791236 0.424667716 0.749905407
0.581024408 0.430107623 0.747754812
0.640733719 0.441366255 0.745983303
0.709550858 0.457937866 0.747248411
0.816698432 0.471094251 0.743074059
0.492093593 0.491460919 0.757495463
0.506008983 0.500822127 0.761922657
0.543326855 0.512839794 0.754585683
0.584566832 0.528146625 0.751043379
0.629221976 0.532827318 0.752435386
0.680455208 0.540543795 0.749651849
0.737254739 0.556230068 0.747880936
0.830992579 0.570651591 0.756483197
0.536495745 0.609361112 0.775458634
0.548766673 0.609740555 0.772928119
0.575331926 0.611258626 0.768753648
0.617330670 0.615559757 0.767109334
0.672865212 0.637571335 0.764199376
0.724224806 0.654142678 0.763187706
0.773813605 0.666540384 0.765338242
0.853383839 0.679569602 0.772422314
0.557368457 0.752181888 0.775332034
0.565970719 0.753826499 0.773940444
0.590006351 0.747501671 0.773940563
0.631246030 0.745604038 0.771157265
0.680708408 0.744085848 0.772801816
0.745730519 0.740543902 0.772169173
0.805692434 0.757115602 0.779127300
0.862871706 0.767362237 0.777482331
0.617457449 0.876533687 0.773181438
0.634408116 0.864136398 0.782416403
0.649209559 0.872485638 0.784187317
0.685262382 0.870082378 0.788614392
0.730676591 0.866160810 0.796963811
0.784187496 0.870461881 0.805060267
0.836811960 0.876028001 0.818216622
0.912839890 0.899936557 0.852877557
