Assets/Resources/EldamarStudio/100 Horror LUTs Pack/LUTs/cube/Snake LUT.cube
DOMAIN_MIN 0 0 0
DOMAIN_MAX 1 1 1
LUT_3D_SIZE 32
0.011765000 0.003922000 0.007843000
0.011765000 0.003922000 0.007843000
0.013915226 0.008223000 0.005692774
0.020746322 0.013029839 0.003922000
0.034029547 0.016065547 0.004681000
0.055281930 0.019101935 0.010753000
0.079063997 0.027198322 0.016825000
0.103352405 0.029728293 0.019608000
0.126122996 0.027450999 0.019608000
0.144339025 0.027450997 0.019607997
0.185831740 0.024541130 0.013789002
0.212143987 0.025553256 0.017836737
0.233775914 0.028589644 0.022390647
0.260595024 0.031373002 0.019354967
0.281847388 0.031373002 0.016318584
0.310309976 0.036179997 0.015686000
0.343706369 0.042251997 0.018721998
0.379506528 0.047691416 0.022896586
0.412903011 0.050727043 0.019860975
0.437950730 0.059329361 0.025174003
0.469829470 0.068437733 0.035040993
0.504238009 0.077546127 0.044149127
0.535103977 0.086401477 0.047311991
0.577608824 0.089437097 0.053383999
0.617836833 0.099303991 0.066287279
0.660088599 0.108664989 0.080075979
0.704617202 0.115243062 0.091714062
0.744086266 0.124351434 0.100822441
0.791524589 0.144085795 0.109930143
0.838330090 0.161796182 0.122580178
0.887412727 0.178747579 0.139531583
0.945097983 0.200000003 0.160784006
0.011765000 0.006957613 0.001771000
0.011765000 0.009994000 0.004807387
0.011765000 0.012144226 0.002656613
0.024035547 0.014800613 0.005945612
0.045035001 0.016824547 0.012270613
0.058317542 0.025173934 0.007716613
0.077040255 0.025680000 0.013788613
0.101961084 0.029981321 0.014927324
0.126882091 0.031246291 0.015053999
0.147375405 0.033523001 0.019608000
0.177229390 0.039341997 0.019608000
0.207084104 0.038709387 0.015812743
0.230740011 0.038456645 0.018595643
0.258317679 0.037951000 0.020113999
0.287919372 0.043517001 0.025426969
0.306767970 0.043517001 0.019987389
0.337634385 0.049842190 0.018722387
0.374067128 0.057432380 0.020493392
0.409867406 0.062871814 0.019860990
0.437697768 0.071473427 0.039089367
0.467931718 0.080581740 0.044528641
0.503225863 0.088678002 0.049209002
0.538013875 0.095762119 0.050600633
0.577608824 0.104617484 0.062492386
0.617836833 0.107653096 0.066287093
0.657305598 0.116128653 0.078431264
0.699557185 0.124351442 0.091714062
0.744086266 0.133459821 0.100822441
0.783554733 0.145224363 0.107273988
0.830992937 0.163567394 0.117773347
0.878684163 0.180012748 0.137001559
0.929917634 0.196963608 0.166855991
0.016066000 0.014294773 0.006451774
0.016066000 0.015180387 0.007337387
0.016066000 0.013915226 0.006072226
0.022391159 0.019481160 0.004300999
0.045414545 0.022517320 0.011005549
0.062871769 0.028083710 0.006704775
0.086527638 0.029601775 0.012902999
0.103099696 0.034535058 0.012397002
0.127640992 0.038583323 0.011891322
0.150284722 0.041619293 0.019355003
0.175964773 0.047564771 0.023908999
0.206324756 0.049588773 0.021884743
0.230866507 0.050727416 0.019987000
0.256926060 0.049968772 0.021252228
0.283491820 0.052245770 0.019734219
0.312839955 0.057811771 0.022644004
0.334092379 0.060847770 0.019608000
0.367995113 0.069323570 0.019608004
0.404428005 0.076913781 0.019608021
0.438962609 0.081467427 0.034788370
0.470082462 0.086780511 0.042757999
0.502466738 0.095382638 0.048576772
0.536622226 0.102719501 0.053636760
0.574066937 0.111827910 0.065781035
0.611385047 0.118532479 0.071094483
0.650853813 0.122959763 0.072738774
0.692346394 0.131815121 0.084629998
0.741176486 0.142568216 0.098671667
0.790006518 0.154332742 0.107273988
0.831246078 0.170018718 0.116887957
0.879063904 0.189120814 0.136116162
0.927640796 0.206830770 0.170777768
0.024667999 0.027197998 0.007969839
0.025933161 0.024667999 0.013029839
0.027197998 0.026312385 0.007084227
0.033523157 0.024541158 0.011638161
0.048323996 0.033269998 0.011638161
0.066919774 0.037191775 0.009487934
0.091967322 0.038962997 0.012776837
0.113978535 0.042631444 0.017457001
0.129918024 0.049462158 0.012902999
0.153194189 0.051992487 0.020493325
0.176217735 0.056673162 0.022896999
0.204553977 0.061227158 0.025426744
0.233775914 0.062365513 0.022390647
0.258950204 0.065401867 0.022517130
0.286274791 0.066413999 0.019481005
0.311575145 0.071220987 0.018089805
0.338899225 0.076028153 0.019608000
0.365085542 0.082100153 0.021505570
0.400885999 0.090575978 0.023403175
0.436053187 0.094117641 0.033523366
0.469323188 0.097153731 0.041745998
0.501708031 0.102214120 0.043769997
0.532321036 0.111448303 0.055154990
0.568753839 0.121695057 0.065021999
0.606451392 0.128526151 0.071600124
0.649335742 0.134598136 0.079569995
0.688298225 0.140670151 0.080076061
0.736116290 0.151296720 0.094497144
0.786464274 0.163441136 0.109803982
0.837824166 0.179127112 0.119417958
0.878558040 0.195572138 0.135989562
0.925616860 0.215685993 0.171283826
0.037950546 0.045793545 0.001517999
0.041366383 0.040860094 0.012523548
0.044022772 0.042631093 0.007463549
0.051739253 0.046173092 0.005186613
0.065401539 0.045414090 0.018849000
0.077545546 0.051486097 0.018849000
0.098292090 0.055787321 0.019228453
0.118911989 0.059708994 0.020493289
0.137128189 0.064642549 0.022390550
0.155344978 0.064642549 0.022390548
0.177609324 0.067931861 0.019860871
0.204553977 0.072991990 0.020872740
0.233775914 0.076786898 0.022011099
0.260847986 0.080328584 0.019734452
0.293864846 0.083617963 0.022896579
0.318785787 0.089057542 0.021884808
0.341935545 0.093232185 0.020746548
0.366982609 0.097280532 0.021505570
0.400379837 0.103352554 0.030613977
0.433017373 0.106641188 0.036939006
0.465275377 0.110056728 0.043010995
0.496015549 0.115117118 0.048703451
0.526628494 0.124098986 0.055028468
0.563061237 0.135737002 0.061606545
0.601391256 0.143326998 0.068057992
0.646046400 0.149019539 0.077166200
0.695888519 0.155850545 0.091840513
0.732321262 0.161922544 0.094876893
0.778621018 0.172928646 0.112334251
0.829601288 0.187476486 0.126502290
0.879316628 0.203921527 0.140164122
0.915749431 0.216065541 0.167488545
0.059202932 0.067045934 0.013661998
0.065274931 0.070082322 0.016698387
0.066539995 0.069449872 0.010499937
0.072106250 0.070461869 0.004680773
0.083618313 0.069702871 0.009740613
0.086653933 0.063630864 0.012777001
0.098797932 0.072232544 0.015306678
0.114610761 0.075395003 0.016192066
0.131056190 0.077166095 0.015939098
0.149272978 0.079822943 0.013282937
0.179126993 0.085641928 0.013282937
0.205945298 0.091207996 0.014800740
0.233775914 0.092725992 0.016698001
0.260847986 0.089436971 0.016698064
0.285135984 0.098545350 0.022770060
0.315749675 0.104237929 0.025932804
0.343074203 0.107273929 0.027957192
0.369259894 0.109677561 0.029854938
0.394307047 0.118532941 0.030613977
0.422138184 0.121821575 0.036939006
0.456166953 0.126754925 0.043010995
0.490575492 0.133333117 0.048070870
0.523592889 0.142314985 0.051992085
0.560024917 0.148387000 0.064136870
0.596457601 0.155470997 0.072991639
0.638962269 0.160151690 0.080202341
0.687033176 0.165211931 0.089310870
0.729284883 0.177102923 0.103984505
0.771030664 0.185831755 0.112333879
0.816318631 0.195446193 0.123466261
0.861606598 0.206957921 0.136116520
0.900569081 0.219101936 0.158380941
0.090575315 0.100948639 0.013156323
0.094117634 0.103985026 0.011132065
0.100189641 0.102719866 0.012017678
0.104743801 0.101075158 0.006451677
0.114484765 0.099430546 0.008601999
0.117520377 0.095509320 0.013788613
0.120556638 0.094497308 0.009234678
0.132700637 0.097026929 0.012270709
0.146236315 0.096900411 0.014674321
0.160910651 0.099936806 0.016951485
0.188235641 0.105882324 0.019354677
0.210499629 0.107906319 0.019354677
0.236305952 0.111827962 0.019607645
0.263630688 0.110689610 0.018216323
0.290195972 0.115243405 0.019734317
0.316887766 0.121947989 0.025806319
0.347122043 0.126502186 0.030486997
0.375458539 0.128779307 0.035167672
0.401644349 0.135989979 0.038962692
0.426186055 0.144592285 0.052119002
0.461100698 0.147627905 0.052498739
0.499177426 0.152055457 0.057685189
0.535863161 0.158001319 0.063630320
0.574699640 0.164073318 0.066160485
0.613408864 0.172422603 0.078305244
0.651486337 0.180138946 0.087665953
0.696141720 0.185958132 0.095888667
0.740670145 0.194054633 0.109044529
0.785705268 0.203541815 0.118911810
0.829980731 0.216192171 0.135104164
0.876407146 0.231246188 0.149905205
0.920809269 0.249968648 0.169513315
0.115749404 0.127513990 0.015053997
0.113852091 0.130550385 0.010373321
0.125616699 0.130929932 0.009487708
0.127893537 0.130423859 0.005692547
0.134724826 0.127767026 0.006831001
0.137760758 0.123465925 0.017962996
0.145730317 0.122959986 0.013914999
0.147121996 0.119670987 0.014420994
0.159266189 0.116634794 0.017457381
0.171410426 0.117900185 0.022643998
0.193168893 0.122200988 0.022517130
0.217710704 0.127513990 0.021884711
0.237065345 0.128652632 0.024161709
0.263377726 0.131689027 0.023402996
0.290702105 0.134724990 0.026185993
0.316381782 0.140164405 0.029348701
0.343706191 0.144718215 0.032384705
0.375205398 0.148386985 0.039468687
0.405565977 0.154459000 0.047564708
0.431751996 0.160025343 0.048829660
0.465528399 0.168627664 0.062492028
0.504996836 0.171663269 0.063504413
0.544212222 0.174952492 0.072612211
0.580645025 0.182542697 0.077166408
0.618469238 0.189247280 0.081340857
0.659329236 0.196963981 0.092093952
0.700063467 0.206324831 0.101201646
0.745604098 0.214674592 0.112206988
0.789500475 0.223402843 0.126628518
0.835041106 0.232763872 0.131309167
0.880581796 0.249715284 0.155218184
0.928399682 0.273245007 0.176470995
0.134725094 0.145730197 0.018090002
0.130929992 0.151043490 0.015053998
0.140544191 0.149652004 0.012523904
0.149905026 0.152435169 0.012523835
0.147248194 0.154712543 0.004174544
0.149905041 0.149019420 0.019734094
0.159013093 0.145730197 0.018469002
0.166097105 0.143959194 0.018974997
0.166856185 0.138646096 0.022770099
0.179000974 0.135610476 0.025806485
0.195446000 0.136875317 0.024541130
0.214674309 0.141176090 0.023023261
0.239342630 0.146868631 0.023402996
0.260847986 0.149905026 0.029222030
0.287666291 0.152941421 0.034788091
0.314863980 0.157622084 0.037697803
0.339911282 0.162935004 0.041492902
0.367868215 0.166603193 0.042758055
0.404048085 0.172675192 0.054649092
0.434408367 0.175964355 0.051865730
0.468564123 0.182795733 0.055660732
0.505756140 0.189880058 0.066540025
0.545224488 0.193042189 0.075395413
0.579885960 0.201517999 0.083238810
0.616318643 0.209108204 0.089310803
0.655534387 0.215180188 0.094370663
0.699051201 0.221758127 0.104996994
0.744845271 0.233649775 0.114863627
0.787729621 0.244655237 0.129664645
0.834282160 0.255281299 0.144845188
0.878304660 0.266413689 0.149905086
0.923845887 0.287666112 0.180265903
0.155977488 0.163946986 0.012018004
0.159013107 0.176090971 0.018089995
0.168121561 0.172801703 0.017204225
0.174193814 0.171663165 0.018089518
0.171536982 0.179000556 0.022390546
0.171536982 0.175964952 0.019354936
0.176723495 0.167742148 0.017204162
0.183048502 0.163946986 0.018974999
0.188108593 0.162934899 0.022770103
0.191144988 0.159898505 0.019734489
0.203289002 0.156862900 0.022770133
0.215685993 0.158127725 0.025553260
0.234028950 0.162428498 0.029475000
0.260847986 0.168121025 0.035294034
0.285135984 0.171157420 0.038330421
0.316761285 0.174193814 0.039089493
0.345224380 0.178874493 0.043769810
0.370904624 0.184819967 0.051865675
0.401265472 0.190891981 0.057938464
0.437444508 0.194180623 0.067046143
0.473497480 0.201011747 0.073497489
0.508032739 0.208096147 0.077925004
0.539152503 0.211258978 0.078431040
0.578620970 0.217330977 0.081467435
0.617836833 0.225806788 0.089310810
0.658570766 0.233396962 0.096774481
0.702087581 0.239974916 0.104997009
0.750664294 0.249082491 0.123212978
0.793801606 0.263630331 0.133080304
0.843390286 0.278557658 0.154965356
0.893232048 0.293485075 0.179633319
0.932953477 0.308918476 0.195445523
0.165591121 0.185072869 0.017584000
0.171537340 0.182669014 0.006199005
0.174572960 0.194813550 0.018722229
0.185705274 0.192283288 0.018975001
0.192536324 0.192789093 0.018089548
0.190006003 0.197343811 0.020113936
0.197596326 0.191777229 0.019608000
0.204047874 0.187981993 0.023529576
0.209360957 0.187223107 0.028589645
0.212397352 0.184187248 0.025553484
0.212523863 0.178241745 0.028336871
0.222644120 0.177229866 0.031372484
0.237318367 0.177103102 0.033269998
0.261101007 0.178367868 0.036053032
0.288045853 0.189373419 0.044402413
0.314737678 0.194813609 0.049841993
0.348640263 0.196837872 0.052372191
0.379127413 0.200759277 0.058697145
0.407210976 0.209108010 0.067046069
0.437571019 0.215179995 0.073118135
0.471853197 0.218342602 0.078304738
0.507273853 0.224414870 0.082352996
0.541682124 0.229474992 0.084503733
0.578367949 0.235547006 0.090322778
0.620113552 0.243896291 0.095635869
0.660215139 0.251612991 0.108285964
0.702214122 0.258696973 0.119417995
0.750790834 0.270208389 0.123212978
0.788741589 0.279316694 0.141429633
0.836053073 0.292219818 0.154838607
0.887792289 0.306261599 0.174193472
0.933332980 0.321442008 0.187349871
0.178747252 0.210373238 0.021631740
0.192916021 0.211385354 0.015559993
0.196837455 0.208981529 0.012650486
0.199873403 0.212270826 0.024035260
0.211258799 0.206957251 0.021378703
0.214800820 0.213029593 0.021125674
0.217836574 0.215053856 0.023655996
0.223655969 0.210625783 0.026944993
0.229348496 0.210246250 0.033396740
0.233649731 0.208475471 0.031625517
0.235799968 0.204554245 0.034408867
0.239848495 0.200505972 0.039468993
0.248956606 0.199367642 0.042504609
0.266160756 0.196837470 0.043896057
0.286401123 0.203668237 0.051233664
0.319797784 0.211005330 0.053890251
0.350158185 0.215559930 0.059962250
0.384819865 0.216698572 0.064136989
0.413536012 0.223023564 0.071853302
0.439595014 0.231372252 0.080202520
0.469955474 0.235546991 0.082479514
0.501201808 0.239595249 0.084377259
0.534977496 0.245793760 0.086654469
0.577103078 0.253763527 0.094623744
0.620113552 0.262112260 0.106767982
0.661226988 0.269829333 0.107273996
0.701202154 0.276913494 0.119924068
0.746742845 0.289057493 0.127514258
0.792789578 0.298544824 0.143453375
0.832764268 0.309424400 0.159898922
0.878304839 0.322454095 0.175078854
0.921189010 0.337634504 0.188362002
0.199620277 0.233143643 0.024667645
0.212144405 0.236179739 0.023909030
0.220746517 0.236053213 0.024161996
0.223782152 0.235041112 0.025553642
0.227197975 0.226691723 0.030866642
0.235547274 0.230486631 0.028589353
0.240733966 0.234028965 0.030613318
0.247185349 0.234914571 0.031878639
0.252498627 0.231878191 0.037191547
0.259329617 0.231498629 0.037571002
0.262492061 0.230866507 0.042757869
0.266413510 0.227830365 0.045540992
0.271347612 0.224794284 0.051612996
0.280708283 0.221758604 0.055154674
0.295003057 0.223023206 0.062112827
0.321315587 0.228462622 0.064516351
0.353953183 0.231878176 0.066413991
0.388614684 0.234914571 0.072485983
0.420493603 0.237950966 0.078558005
0.446426302 0.246552944 0.083997712
0.477925122 0.254142731 0.091967344
0.510309935 0.258191258 0.093991339
0.538393259 0.264263272 0.094370857
0.580898404 0.272359520 0.101454735
0.625300527 0.283744335 0.111701272
0.670334935 0.292599350 0.122833647
0.709804177 0.299178064 0.119291700
0.751676500 0.310689628 0.133207068
0.797217190 0.321315438 0.149904951
0.843390286 0.332194418 0.169765830
0.885009527 0.347881198 0.186717212
0.918911994 0.363820642 0.202403635
0.229728028 0.249082997 0.028716030
0.232511386 0.252118647 0.032005388
0.237697989 0.253257096 0.034282260
0.243516907 0.254016191 0.037318129
0.246932074 0.256293476 0.039974969
0.253004044 0.253257096 0.039974969
0.259076625 0.255787343 0.042251676
0.267679006 0.256926060 0.042251680
0.279823005 0.256420016 0.040733937
0.291967005 0.253383607 0.043769553
0.295382917 0.255660892 0.051865868
0.298924744 0.254901797 0.055661030
0.301960677 0.251865655 0.057938028
0.305503070 0.248576999 0.063504033
0.317647070 0.245540619 0.072612412
0.335736811 0.249462068 0.076913193
0.359266192 0.252751023 0.080455191
0.388108611 0.253889591 0.084377021
0.427577853 0.256926000 0.090449028
0.456926376 0.265022397 0.090449028
0.491587758 0.273877323 0.098039016
0.529791296 0.282479256 0.108159028
0.566224039 0.288551986 0.114231020
0.602656841 0.294623971 0.117393903
0.643896520 0.306767702 0.122706994
0.687539577 0.319417715 0.130423695
0.732321143 0.328779101 0.140038028
0.771790266 0.337887466 0.149146408
0.813662589 0.349399060 0.163314179
0.857179105 0.362302065 0.182795376
0.901201606 0.376723200 0.206198588
0.940670013 0.401012003 0.227450997
0.257052392 0.273370981 0.043896403
0.257052392 0.276407361 0.049968399
0.261985987 0.279443592 0.046805982
0.271853149 0.279317081 0.046426252
0.283364803 0.277545840 0.049082574
0.289436787 0.274509460 0.049082574
0.295508802 0.281593710 0.049082574
0.299936652 0.282859117 0.049714994
0.307147384 0.281214803 0.049841668
0.319291383 0.280708730 0.052877925
0.322707266 0.277672380 0.053004410
0.329791129 0.277925402 0.060974251
0.335357010 0.276154190 0.067046404
0.338899404 0.272864968 0.072612412
0.348007798 0.266792983 0.072612412
0.355344802 0.268564194 0.076913193
0.370651394 0.272232622 0.082985193
0.392662525 0.275900960 0.090828560
0.421505123 0.284250379 0.099557407
0.460974276 0.287286758 0.094497405
0.496015459 0.293485373 0.101075403
0.532068551 0.302213818 0.111195415
0.566224039 0.312839985 0.117267407
0.602656841 0.318911970 0.123339415
0.645920277 0.324983954 0.128778979
0.689436853 0.335736722 0.137634322
0.732574105 0.347248822 0.149652347
0.774825871 0.359139830 0.164326012
0.814294994 0.368248224 0.176091224
0.852624893 0.385072976 0.188867792
0.892725766 0.400885582 0.206198588
0.934597969 0.413156003 0.227450997
0.291587591 0.302466601 0.056672990
0.289183795 0.300695390 0.055534802
0.302087337 0.301580995 0.057305802
0.306641400 0.303099185 0.056799795
0.313852042 0.302340090 0.060215056
0.313851774 0.305376470 0.058190800
0.319923788 0.302846104 0.062997796
0.327640504 0.305376083 0.059708796
0.333712876 0.303099185 0.058190800
0.344212562 0.303099185 0.059582479
0.357242465 0.309803903 0.062112797
0.360278338 0.306768060 0.062112797
0.364073217 0.304111302 0.067805350
0.365085572 0.300062776 0.072612196
0.374193370 0.298291802 0.076913193
0.380897969 0.292219788 0.086527795
0.386970371 0.293737978 0.088045605
0.405439556 0.295888364 0.094497211
0.438076794 0.301454753 0.103605159
0.464516103 0.304996550 0.103605181
0.502087414 0.313725650 0.105123185
0.538520277 0.322833776 0.115243316
0.573687792 0.334724784 0.122706987
0.614674628 0.340796769 0.128778994
0.653384089 0.349146068 0.137128279
0.698671401 0.358127564 0.144718468
0.741176069 0.369766057 0.155850992
0.779885828 0.380012780 0.169133335
0.822137594 0.396710813 0.186463848
0.861606717 0.405819178 0.196837395
0.899557173 0.424541563 0.212776572
0.940543771 0.439721584 0.237064987
0.323466182 0.326754987 0.068816997
0.324983984 0.328273177 0.070335567
0.330929518 0.327387571 0.063377798
0.341555983 0.327387571 0.065907806
0.343453526 0.327767015 0.071979895
0.347248435 0.332700878 0.072359443
0.348766357 0.332700878 0.070840999
0.354964882 0.332700878 0.071853191
0.364073277 0.328905553 0.067299187
0.373181671 0.327387571 0.067299187
0.386590868 0.331562251 0.070208669
0.395192921 0.337128460 0.074257180
0.398228824 0.334092557 0.076534182
0.396458209 0.328652412 0.079696380
0.403036147 0.327387571 0.083238378
0.411258370 0.325616568 0.092599407
0.420366734 0.322580576 0.100189991
0.426439345 0.321315438 0.100189991
0.454016417 0.321694970 0.106641226
0.474762917 0.324731022 0.110436186
0.508159459 0.330423445 0.117267177
0.548640251 0.340543985 0.124351308
0.586970448 0.351549476 0.132953674
0.625300586 0.359013170 0.134850994
0.664010227 0.370398462 0.144718483
0.702087283 0.380898148 0.152435184
0.746742308 0.393042177 0.162429065
0.785199046 0.403162420 0.175585181
0.823908746 0.417204320 0.193042159
0.861606359 0.433143586 0.207463190
0.901075363 0.444908381 0.223655775
0.940543771 0.465528190 0.252245396
0.352055520 0.347501129 0.078431010
0.359392703 0.353573769 0.086401179
0.363567114 0.354712546 0.081467591
0.370271683 0.355344981 0.076913141
0.369512677 0.355344981 0.081087597
0.382922053 0.358127624 0.085895285
0.386084527 0.358001143 0.083111919
0.389373541 0.359645694 0.078684285
0.397469640 0.362302542 0.077672563
0.406578034 0.356230527 0.077672563
0.417963147 0.355977535 0.080581695
0.426059127 0.358760536 0.085009500
0.433522761 0.362681895 0.089816988
0.436812103 0.359898537 0.095635958
0.440227926 0.357242405 0.096015409
0.445540905 0.355977535 0.103225753
0.455534369 0.354712546 0.109930173
0.465781540 0.354079992 0.112966560
0.471853554 0.348007202 0.112966567
0.485009760 0.348386914 0.117267571
0.512207687 0.353953123 0.126501977
0.551549673 0.360025138 0.136369124
0.599873424 0.366223633 0.145477504
0.634787917 0.375332028 0.144465238
0.670461535 0.387096822 0.152181983
0.708159268 0.402783096 0.163440958
0.744592071 0.413915128 0.170019045
0.786843836 0.425806135 0.184946418
0.824035585 0.438583195 0.201517954
0.860594690 0.452498734 0.217457101
0.894497156 0.467931986 0.233269796
0.933965564 0.486148000 0.266667008
0.385452032 0.377861977 0.078431040
0.397596806 0.383933991 0.093611412
0.398482174 0.383554816 0.095129825
0.403795153 0.383301854 0.095129952
0.415053964 0.385705054 0.099304408
0.408981979 0.385705054 0.090196021
0.412270695 0.383428335 0.089943044
0.416698009 0.383934289 0.087792695
0.425047100 0.386970162 0.087033980
0.439974517 0.389627010 0.092852980
0.449082881 0.389374018 0.095762104
0.456420004 0.389374018 0.098798230
0.465907633 0.391018361 0.100949012
0.479316980 0.393295020 0.101707980
0.485388964 0.393295020 0.104743585
0.483997822 0.390638858 0.112333834
0.488045752 0.386338025 0.119923972
0.496141642 0.381404430 0.125110582
0.499177992 0.378368050 0.128146976
0.508032680 0.372295976 0.128146976
0.527134597 0.376470774 0.134345233
0.555724204 0.384314001 0.141682148
0.590765059 0.390512496 0.145477533
0.633269846 0.399620891 0.154585943
0.670461595 0.406452000 0.162681654
0.709677339 0.420240641 0.174825698
0.750664175 0.438203990 0.188235089
0.787096918 0.444276005 0.197343469
0.824035585 0.458823800 0.209613994
0.864010334 0.473751187 0.225806430
0.903099597 0.488931388 0.244402543
0.937002003 0.504364073 0.266667068
0.435547084 0.419354737 0.103478372
0.439342529 0.422644079 0.107526757
0.445034981 0.424415082 0.107653365
0.447058767 0.423276722 0.106514849
0.455407947 0.424035549 0.109930202
0.451739728 0.421631753 0.105629429
0.455787748 0.421631753 0.099051371
0.462365806 0.422138095 0.101834357
0.471853346 0.425173998 0.102973014
0.487033248 0.428209871 0.104997009
0.490828604 0.431119740 0.102593131
0.501960754 0.431119740 0.105629258
0.511827767 0.431119740 0.107527003
0.524857461 0.432005078 0.107779972
0.533459783 0.429474741 0.110815585
0.539531708 0.434281737 0.118658803
0.542188346 0.432384580 0.126249000
0.550031304 0.427577764 0.132321000
0.557368755 0.422391117 0.137507632
0.560405076 0.419354737 0.143327370
0.573308170 0.415180504 0.149019629
0.594940066 0.419734746 0.157115370
0.622770250 0.426186234 0.162302017
0.651992202 0.440607637 0.174067274
0.692220151 0.454269439 0.183175072
0.731942058 0.461859733 0.192283034
0.773434758 0.474636734 0.203162372
0.809866905 0.485262722 0.209993452
0.840986609 0.499304563 0.229727805
0.877166331 0.516255677 0.249335751
0.917647183 0.535104573 0.274889529
0.956736386 0.555977464 0.305629730
0.477672458 0.458064467 0.117520481
0.482606113 0.461100847 0.116761386
0.481846988 0.461986452 0.120935984
0.486147732 0.463251293 0.116129145
0.492599249 0.463124692 0.118279479
0.495635629 0.458570540 0.119797669
0.503984749 0.456166714 0.119923986
0.503478706 0.461100429 0.115496695
0.512840033 0.465401709 0.117773734
0.528020024 0.469575971 0.115496732
0.531562328 0.468817323 0.114484608
0.540670455 0.471726716 0.121188983
0.550537467 0.471726716 0.121948086
0.561669528 0.471726716 0.121694982
0.575711668 0.470335037 0.126375303
0.582416236 0.470714450 0.128525794
0.588488162 0.472232670 0.137634188
0.595825195 0.469829470 0.143453315
0.606198490 0.466287464 0.148260489
0.609740853 0.462998092 0.158127695
0.618469417 0.459962219 0.164199993
0.631625831 0.457938462 0.171283871
0.651233494 0.461986452 0.176470459
0.673244596 0.468311638 0.185072809
0.709677100 0.479696453 0.198735178
