Assets/Resources/EldamarStudio/100 Horror LUTs Pack/LUTs/cube/Srendel LUT.cube
LUT_3D_SIZE 5
DOMAIN_MIN 0.000000 0.000000 0.000000
DOMAIN_MAX 0.903226 0.903226 0.903226
0.054901998 0.043136999 0.023529001
0.142567992 0.053257290 0.039216001
0.348640203 0.054269414 0.030740418
0.747628272 0.004933870 0.036306128
0.992030203 0.007969820 0.090448961
0.096394710 0.142188698 0.038582996
0.162808403 0.145477697 0.039216001
0.353193790 0.172295704 0.042125296
0.756862640 0.183807835 0.032384552
0.996711016 0.229475066 0.109550774
0.165464565 0.328399807 0.030613596
0.255155206 0.341809094 0.038836300
0.422643781 0.345350802 0.043769583
0.803541958 0.419607520 0.022897003
0.998102427 0.482732624 0.174319774
0.452498376 0.666160345 0.061353240
0.527008355 0.676913261 0.073497526
0.704743922 0.674636543 0.107400529
0.895383120 0.681847095 0.152688369
0.997722685 0.727893770 0.341302872
0.812143803 0.916761637 0.519924343
0.839848459 0.924857676 0.540164351
0.887918890 0.925869823 0.558506966
0.955091774 0.927134633 0.586843550
0.998734832 0.931055963 0.630993247
0.070588000 0.059456002 0.093864702
0.136369705 0.059835702 0.089942701
0.284883112 0.082353003 0.111195408
0.650980234 0.009740586 0.144338682
0.996710837 0.052245326 0.226439059
0.107906409 0.119670987 0.092219993
0.166476697 0.145856977 0.104364693
0.306514680 0.163188115 0.123592407
0.678178132 0.177229419 0.150790691
0.998734832 0.251106888 0.233017206
0.181783825 0.307779700 0.128526121
0.249588668 0.318912119 0.129791290
0.401770771 0.325743407 0.134092405
0.766097605 0.401012212 0.163314268
0.998355329 0.493611485 0.291714042
0.463756949 0.652118862 0.201771066
0.525616467 0.656420112 0.208475634
0.688551486 0.655407846 0.227957055
0.876281202 0.666540265 0.259708792
0.999367356 0.728905797 0.421378732
0.829221785 0.916128933 0.552814424
0.843263507 0.910815954 0.567868114
0.890954852 0.916381896 0.582289517
0.953194261 0.920682967 0.610752702
0.991777122 0.931435466 0.658697128
0.117014416 0.062112574 0.267425418
0.203668699 0.070588417 0.246173277
0.321821809 0.085642412 0.226945400
0.676913381 0.000000000 0.307779938
0.996078193 0.158001170 0.403035790
0.148387417 0.162428707 0.225933105
0.209234402 0.165085703 0.219733983
0.329285085 0.170018986 0.226944983
0.682732821 0.179506704 0.308412135
0.998355329 0.331182450 0.422643781
0.219101399 0.308664978 0.233396411
0.284503371 0.332574099 0.260974407
0.510309756 0.380644798 0.308032393
0.769512892 0.414421141 0.345730692
0.993421972 0.539785028 0.468437612
0.542062104 0.633649826 0.394939512
0.595572531 0.637318134 0.400252849
0.711828113 0.644149303 0.407590240
0.873877108 0.657305717 0.437950969
1.000000000 0.742567897 0.571410298
0.849336207 0.906894386 0.646932185
0.852498829 0.904869974 0.653510213
0.903604984 0.907526791 0.671853125
0.957747996 0.912713826 0.701707721
0.998734832 0.930423379 0.729411960
0.226692125 0.083365127 0.597470105
0.349272847 0.070588425 0.584946513
0.546869040 0.006072307 0.565844655
0.785072505 0.005819002 0.541809261
0.997090161 0.223276213 0.603289127
0.250095129 0.224667698 0.552055836
0.353320837 0.227830276 0.552941144
0.558380961 0.211005524 0.542314827
0.781024516 0.194433808 0.537760675
0.997469962 0.368374527 0.612017930
0.377356112 0.432637542 0.534850955
0.466160476 0.437318116 0.543327093
0.635800183 0.444149375 0.542947650
0.823149920 0.452751249 0.547627807
0.998355329 0.584566772 0.639974952
0.609361410 0.648450375 0.582795262
0.662871540 0.658823490 0.584693432
0.786970079 0.674256861 0.610499978
0.916888118 0.716129243 0.654396117
0.998987854 0.775585234 0.722707033
0.870082378 0.903351963 0.762934923
0.880961716 0.904364049 0.765338540
0.918153107 0.908539116 0.780518472
0.953447104 0.915496767 0.785199106
0.994054198 0.930550158 0.812270761
0.422770441 0.218848765 0.894623578
0.516635120 0.227071315 0.888424873
0.700442374 0.251106977 0.885515571
0.906009138 0.323592514 0.871853411
1.000000000 0.438962370 0.867172599
0.531561971 0.376723468 0.879949510
0.597470045 0.381404281 0.877292871
0.754206181 0.402023971 0.871094584
0.914104760 0.448576808 0.866160452
1.000000000 0.524478137 0.866160512
0.729538143 0.608475566 0.858696997
0.756862581 0.613662481 0.859961748
0.833776057 0.626186013 0.860720754
0.930423677 0.644781649 0.855787396
0.996078193 0.673244834 0.858696997
0.818595946 0.778620899 0.862365305
0.835420728 0.779000759 0.865022123
0.882985592 0.788108587 0.864895463
0.941682100 0.799873590 0.866160512
0.995445848 0.814547718 0.871853411
0.874889433 0.911448658 0.886780620
0.887665987 0.920682907 0.891334772
0.910689414 0.914104760 0.888804138
0.952308834 0.925869823 0.896900654
0.992156982 0.944085777 0.929917574
