Assets/Resources/EldamarStudio/100 Horror LUTs Pack/LUTs/cube/Srendel LUT.cube
DOMAIN_MIN 0 0 0
DOMAIN_MAX 1 1 1
LUT_3D_SIZE 32
0.054901998 0.043136999 0.023529001
0.057938386 0.040101387 0.023529001
0.067425996 0.041366227 0.027830549
0.078305162 0.044402160 0.033902999
0.088551991 0.047438450 0.039216001
0.106767997 0.050474066 0.039216001
0.122454315 0.053510323 0.039216001
0.142567992 0.053257290 0.039216001
0.165338203 0.050980002 0.039974902
0.183554977 0.050979998 0.043010511
0.210499868 0.048070870 0.037317999
0.239848495 0.049082741 0.033270262
0.272485971 0.050980002 0.030234357
0.309171110 0.051233035 0.027704032
0.348640203 0.054269414 0.030740418
0.392915785 0.050095003 0.036179997
0.443010747 0.044023003 0.039216001
0.498292506 0.036053438 0.039216001
0.555976987 0.020873014 0.039215997
0.616445482 0.005692635 0.036432642
0.682859182 0.001897740 0.035294000
0.747628272 0.004933870 0.036306128
0.802403510 0.007590008 0.039342482
0.860088706 0.001517999 0.042378098
0.915496528 0.000000000 0.047690995
0.963187575 0.002782990 0.056546334
0.996584058 0.006831001 0.067678995
0.999620438 0.000759007 0.073750995
0.992030203 0.007969820 0.090448961
0.993548214 0.041872069 0.121062562
1.000000000 0.104996316 0.158760563
1.000000000 0.196078002 0.192157000
0.048829999 0.043136999 0.023529001
0.060973998 0.043136999 0.026565386
0.068311386 0.042251613 0.028716162
0.078305162 0.048197322 0.032637838
0.087792993 0.056546837 0.035420615
0.100695997 0.059582449 0.030107614
0.123971984 0.057558708 0.040227611
0.142315030 0.061227381 0.043896321
0.164579481 0.062365677 0.044528902
0.189626977 0.060088385 0.043010511
0.213661984 0.062998250 0.040227871
0.242884114 0.062239386 0.034282394
0.272106230 0.064263128 0.030234357
0.303099096 0.066413417 0.028462999
0.342568219 0.069449805 0.039848030
0.382036775 0.067678586 0.038077421
0.436938733 0.060721196 0.039216001
0.497660071 0.051866237 0.038583424
0.552941382 0.039089002 0.036179613
0.618975103 0.015559984 0.036179613
0.682099819 0.003415650 0.037191741
0.746616066 0.000885613 0.037318259
0.805692852 0.001897513 0.036306124
0.869197071 0.004554385 0.039342485
0.913219631 0.000759099 0.042378094
0.959898591 0.001391672 0.049082659
0.996584058 0.004301324 0.060594611
0.999620438 0.000759007 0.076786608
1.000000000 0.000000000 0.093485251
0.995572150 0.048703279 0.117014535
0.996963620 0.117014512 0.149652168
0.996963620 0.193042383 0.183048606
0.059961997 0.051739547 0.027830549
0.065654777 0.049588773 0.033017159
0.067046002 0.051739547 0.025300227
0.078684390 0.053004384 0.032131776
0.089943223 0.062112775 0.037065227
0.102087222 0.068690836 0.032763999
0.117899992 0.070967548 0.031119775
0.142188415 0.069576226 0.041619059
0.162935004 0.072359324 0.044908226
0.188867718 0.069323294 0.043263510
0.215433002 0.074256867 0.038077097
0.239721507 0.075268999 0.035041489
0.270967633 0.076407641 0.033650000
0.301328093 0.079443514 0.034155741
0.340797216 0.082479417 0.040606987
0.388867766 0.082858972 0.038583033
0.432890356 0.081340775 0.035547420
0.494623691 0.074130423 0.036812406
0.552309036 0.063503809 0.039848030
0.618089736 0.042377982 0.037444774
0.679190159 0.014295018 0.031752039
0.743453503 0.003415648 0.034788225
0.806198955 0.000000000 0.035546992
0.863883913 0.001012130 0.040607132
0.915876269 0.001644712 0.045793708
0.958127618 0.000000000 0.051612660
0.996584058 0.002277290 0.061226998
0.999620438 0.002530326 0.076153979
1.000000000 0.032258321 0.094370641
1.000000000 0.069449350 0.123213343
0.995572209 0.141176358 0.154332712
0.991777003 0.207210764 0.188994005
0.070588000 0.065148838 0.032637838
0.069829226 0.063377611 0.032384679
0.077419549 0.063377611 0.033143774
0.080708325 0.065148838 0.026059324
0.095129609 0.068184547 0.037445001
0.106387995 0.075521939 0.037065227
0.123592317 0.079570003 0.036559161
0.139911249 0.082226165 0.033776287
0.163440943 0.083744161 0.040607002
0.187223017 0.082226485 0.040606998
0.210626036 0.085388996 0.037317999
0.238456339 0.087412998 0.033270262
0.266160756 0.089689992 0.030234357
0.300316215 0.092852861 0.035926837
0.340797216 0.095888734 0.039974578
0.388614923 0.099051155 0.040860001
0.442504704 0.096521154 0.038836192
0.491713852 0.096521154 0.035168007
0.550537765 0.089310333 0.041113194
0.615559757 0.074129954 0.039089192
0.677924991 0.050980177 0.036053263
0.737634242 0.024668163 0.033017125
0.803668678 0.014294830 0.038962651
0.858317852 0.006325160 0.041618999
0.909677386 0.001265161 0.045160994
0.958127618 0.003795161 0.053889826
0.996584058 0.008349221 0.063504152
0.999620438 0.017457606 0.075648151
0.998734832 0.056293584 0.096900642
1.000000000 0.104870193 0.121948183
1.000000000 0.163313940 0.158381000
0.992030144 0.222137988 0.194813162
0.070967548 0.081087545 0.034155454
0.066793092 0.080708094 0.027324161
0.076027997 0.080708094 0.027451001
0.090955451 0.080708094 0.032132000
0.102340452 0.080708094 0.030613905
0.111448064 0.083744481 0.036685903
0.131055862 0.087160312 0.041366227
0.149019241 0.089437284 0.039468553
0.165717646 0.093231991 0.035294000
0.186970040 0.099303998 0.035294000
0.206072181 0.099936545 0.034914549
0.231625527 0.100316092 0.034029260
0.263883352 0.101834089 0.030613905
0.297786534 0.107906088 0.028336545
0.340164781 0.111068957 0.034408540
0.387476593 0.116508536 0.039721545
0.439469010 0.117267549 0.043896195
0.497027516 0.112460546 0.046173457
0.548640072 0.112460531 0.040101446
0.610626101 0.104870185 0.036812190
0.672105968 0.089689910 0.035294000
0.733459353 0.070588097 0.037571128
0.797089994 0.052751586 0.046047010
0.852245629 0.032511182 0.042757645
0.904996812 0.019228645 0.043516546
0.954458833 0.015433626 0.048323788
0.996584058 0.023529699 0.061606996
0.999620438 0.050854061 0.073750988
0.997343183 0.091460839 0.097659782
0.997849226 0.136115849 0.124604590
0.999620438 0.182668775 0.153447077
0.999620438 0.228210002 0.189879909
0.074003935 0.102339931 0.025047068
0.083112322 0.099304318 0.034155454
0.085389093 0.098924868 0.029474933
0.092220061 0.098924868 0.031752225
0.099304065 0.098924868 0.036685906
0.105376065 0.098924868 0.024541130
0.127134636 0.104490928 0.035673775
0.145983636 0.105123281 0.036432941
0.162682042 0.105375990 0.032637838
0.183934435 0.111447997 0.035293996
0.208095923 0.114610866 0.032384872
0.231372565 0.117141187 0.035926931
0.262365580 0.118532866 0.035927001
0.300822169 0.120050870 0.031372935
0.340291291 0.126122862 0.037444931
0.387476593 0.131688923 0.038709935
0.436053365 0.134724930 0.039721936
0.488678157 0.133712932 0.040860415
0.548640072 0.133712932 0.043137059
0.605819106 0.130929574 0.039848417
0.664516211 0.123086676 0.036812194
0.723719180 0.111954674 0.036306128
0.784945965 0.101328358 0.039975010
0.845667660 0.092219964 0.033903003
0.900822520 0.085642159 0.041998930
0.949399233 0.085262790 0.049335923
0.987855971 0.092852861 0.058950126
0.999620438 0.108539224 0.079822987
0.997343183 0.133206755 0.094623804
0.997849226 0.162808001 0.117140926
0.999114394 0.196331099 0.142820641
0.996584058 0.234282002 0.171663120
0.089690000 0.126122639 0.031119321
0.091208063 0.125616699 0.032637388
0.096015446 0.122580543 0.035294000
0.101581156 0.122200996 0.033776160
0.109297544 0.122200996 0.039216001
0.117520317 0.122200996 0.035673775
0.136242643 0.124731317 0.033649646
0.157242402 0.127514318 0.039216001
0.174067318 0.126122639 0.037950996
0.193548501 0.128652647 0.042757832
0.217710629 0.136875510 0.039974548
0.244022891 0.137887642 0.036938936
0.273371309 0.142694667 0.041492999
0.311195046 0.146869004 0.040987000
0.348386884 0.148387000 0.037950993
0.392663062 0.152055815 0.039216001
0.442631543 0.158001319 0.040733807
0.496647954 0.160025313 0.041745678
0.563061595 0.160025313 0.042884033
0.623529434 0.159772277 0.042884029
0.685009539 0.154838637 0.037950683
0.743959665 0.148387194 0.033270001
0.803036153 0.142567843 0.031878673
0.861353993 0.138267055 0.035420679
0.915243626 0.138266683 0.038456675
0.961290300 0.141302973 0.050095014
0.994433999 0.150031686 0.060468316
0.998481989 0.165212065 0.079696432
0.999873519 0.183301583 0.105755806
0.998608351 0.211132005 0.131562129
1.000000000 0.242757514 0.162555099
0.998608351 0.280834645 0.196457967
0.096394710 0.142188698 0.038582996
0.098039001 0.145477697 0.038582996
0.108412474 0.144971639 0.038582996
0.110183701 0.144465253 0.033522997
0.118911862 0.144844696 0.035800293
0.130549923 0.144844696 0.040860288
0.141556039 0.145730317 0.039216001
0.162808403 0.145477697 0.039216001
0.181024998 0.144718602 0.041492902
0.199241012 0.143832996 0.048450287
0.223276734 0.152561873 0.045793835
0.249589249 0.158886984 0.041113261
0.279190630 0.160025626 0.039216001
0.315369755 0.168121368 0.044022970
0.353193790 0.172295704 0.042125296
0.393548399 0.176343799 0.040860288
0.446679354 0.180898368 0.039342482
0.498671949 0.186337829 0.042125124
0.562429249 0.187349692 0.043136988
0.628842711 0.187349692 0.033270009
0.693105459 0.186843708 0.034408301
0.756862640 0.183807835 0.032384552
0.815433264 0.182163119 0.029348701
0.868564308 0.180645302 0.035420708
0.921695292 0.180518821 0.039847996
0.969133317 0.186337426 0.052877642
1.000000000 0.196457759 0.066287346
1.000000000 0.211638123 0.083364971
0.996711016 0.229475066 0.109550774
1.000000000 0.248197049 0.140417129
1.000000000 0.279443264 0.173813790
1.000000000 0.317393690 0.211765006
0.096394904 0.155851096 0.042378098
0.100189611 0.162681997 0.041619003
0.111701451 0.161417007 0.042378098
0.123845905 0.163440943 0.041872092
0.125743449 0.164958656 0.030866545
0.140923157 0.163820192 0.041112997
0.149272636 0.164579093 0.042884223
0.160531700 0.164452821 0.039216001
0.181024998 0.162176102 0.039216004
0.199241012 0.159139708 0.048323616
0.224035636 0.165464967 0.048070870
0.249589249 0.173308000 0.043011002
0.279949546 0.179759637 0.040734001
0.313852012 0.183302030 0.041239999
0.353320479 0.192409769 0.044781670
0.395825475 0.199114189 0.043136999
0.442884445 0.205186382 0.043137193
0.504870176 0.210626587 0.037571438
0.557115972 0.213662237 0.039848018
0.623909116 0.216192096 0.027956985
0.688804448 0.216951191 0.023023449
0.756103396 0.217204228 0.025553254
0.819354475 0.220114097 0.031119976
0.868563890 0.220114097 0.034661811
0.917899966 0.220873192 0.039974712
0.964579284 0.225806594 0.052877642
1.000000000 0.235420272 0.075142056
1.000000000 0.250347614 0.091334425
0.996205032 0.266666651 0.115622774
0.995698988 0.285642028 0.145730212
0.999240935 0.310562760 0.183680862
0.999240935 0.343959183 0.217078090
0.105502523 0.183175504 0.039342485
0.111574523 0.192283124 0.036306102
0.119670771 0.186211005 0.037697777
0.127893522 0.182163000 0.041872486
0.134851068 0.186211050 0.046046935
0.150031462 0.177103430 0.043010548
0.160151809 0.178494662 0.048196997
0.169133708 0.181404218 0.045667231
0.181025013 0.183428496 0.039216008
0.199241012 0.183428496 0.039216008
0.226185873 0.183301985 0.045414489
0.251360029 0.189753234 0.043011006
0.280328989 0.198734656 0.041493002
0.316887617 0.207590058 0.047311999
0.356356740 0.216698423 0.053383987
0.405439883 0.223402977 0.047311686
0.455028832 0.229474977 0.044655193
0.507906556 0.234914601 0.043643437
0.574699521 0.237950996 0.028463032
0.638077080 0.246552646 0.027957000
0.696394444 0.251486242 0.029095739
0.756609380 0.253383994 0.031119961
0.825426459 0.253510535 0.031119971
0.877039731 0.253510535 0.025047192
0.923972368 0.255787790 0.030866317
0.966983080 0.262871981 0.048070632
1.000000000 0.274889469 0.075142056
1.000000000 0.287033468 0.102466412
1.000000000 0.299303979 0.123971790
0.999746978 0.317014188 0.150790349
0.999114394 0.344338655 0.187476248
0.996204555 0.386463970 0.238330483
0.114610866 0.195951998 0.039216001
0.114863873 0.210879356 0.041998610
0.123086639 0.213535741 0.043263771
0.134725019 0.208222568 0.043769836
0.145351201 0.208222419 0.044149127
0.150410935 0.204174802 0.043643065
0.163060993 0.202656865 0.045667320
0.177482545 0.203668743 0.049715161
0.193422094 0.204680875 0.049462318
0.213788867 0.204680875 0.053763866
0.229095742 0.201771006 0.050853997
0.254395872 0.207843259 0.048830003
0.282099754 0.216951385 0.045034997
0.317520082 0.226059705 0.046805967
0.362302214 0.235167414 0.044908125
0.411385387 0.244275808 0.050980128
0.464516371 0.255408049 0.044402197
0.517773628 0.265022159 0.040607423
0.577735841 0.268057972 0.034535028
0.644528627 0.273877710 0.030487353
0.706514955 0.279063851 0.024668135
0.762175798 0.283111870 0.021632003
0.819860458 0.287033379 0.020113762
0.871473730 0.289816737 0.027957059
0.923086822 0.294370741 0.033270154
0.967109621 0.302213818 0.047944516
0.998987973 0.313851923 0.071220927
0.994180977 0.323592722 0.093738295
0.996837199 0.341049701 0.126375645
0.995319366 0.353700161 0.153953224
0.995951951 0.372422576 0.187856019
0.998987854 0.402782857 0.233397007
0.125742987 0.226312235 0.039216001
0.133839503 0.235420883 0.050348122
0.132194757 0.239848495 0.045287773
0.143833145 0.241113335 0.047059000
0.158633992 0.238835931 0.045920253
0.166603312 0.232510924 0.049209252
0.179253504 0.229981244 0.051739573
0.191397488 0.229981244 0.051486544
0.208096087 0.230740145 0.053004257
0.226818487 0.232004970 0.056546707
0.246299848 0.231119365 0.053889871
0.265528232 0.230107248 0.048829749
0.294370532 0.239215612 0.045034744
0.329158545 0.248324007 0.045540743
0.371157229 0.257432073 0.047817580
0.415433109 0.270588279 0.041872259
0.468564063 0.276660293 0.046426069
0.525110364 0.287918985 0.039974745
0.585578680 0.292346299 0.035547026
0.643517017 0.300189704 0.030487096
0.702719688 0.306261986 0.023656009
0.758127809 0.310436249 0.016571876
0.808222234 0.316634744 0.014041733
0.867425501 0.323466152 0.023149649
0.919038534 0.328779221 0.040354017
0.962302387 0.336242884 0.053637061
0.995445728 0.347248584 0.075269058
0.996963978 0.356356949 0.099557415
0.996837378 0.369386464 0.125363514
0.998102248 0.385831684 0.155218333
0.996204972 0.400885850 0.188868150
1.000000000 0.424035490 0.231372997
0.137887284 0.260088265 0.041492999
0.146616131 0.265022427 0.050980747
0.153700218 0.267931998 0.054649223
0.155977145 0.268058479 0.048197355
0.170777991 0.270714641 0.047817905
0.182922006 0.263883352 0.051612999
0.197596312 0.262112588 0.054016680
0.213409275 0.261859626 0.053763650
0.227830380 0.262618721 0.052245453
0.243769780 0.265654445 0.052624997
0.267046154 0.264642268 0.048576776
0.286021531 0.265780926 0.048070647
0.309550911 0.266919285 0.044275641
0.346236676 0.275521666 0.044528607
0.385705024 0.282859027 0.049714994
0.430992842 0.295635790 0.046046812
0.478430986 0.308159441 0.035041168
0.534344912 0.313092768 0.035546955
0.597596228 0.320176899 0.028969001
0.655281425 0.329032004 0.026312353
0.712207675 0.337381274 0.025173904
0.766856551 0.345477253 0.020113770
0.812776387 0.351802289 0.017204616
0.870461345 0.359898806 0.021252099
0.922833502 0.366729915 0.041745566
0.963820279 0.374193281 0.069575958
0.990638614 0.383807749 0.088298693
0.996584415 0.393548697 0.114358060
0.998861372 0.405313253 0.142441228
1.000000000 0.419228464 0.171916232
1.000000000 0.438836247 0.203668803
1.000000000 0.460847616 0.246173635
0.150284961 0.285895079 0.045793969
0.153320655 0.289437443 0.045793969
0.163567066 0.291967303 0.050094970
0.173940226 0.293991089 0.052877869
0.183175027 0.293991089 0.050347518
0.195319042 0.293991089 0.047311902
0.211511403 0.296268374 0.046805967
0.227324441 0.299304336 0.044655323
0.245794132 0.302087128 0.043137062
0.267046541 0.305123538 0.046173450
0.294117898 0.302846223 0.041239999
0.314611256 0.303605318 0.043010961
0.334345639 0.305882454 0.047311965
0.361923069 0.308918059 0.046805967
0.401391417 0.311954439 0.049841579
0.449209392 0.321948051 0.047311779
0.501581252 0.334092051 0.037444621
0.555344284 0.345983177 0.021631595
0.616065919 0.358127981 0.012523971
0.675774753 0.367994756 0.014547647
0.736748874 0.377102762 0.020872738
0.795193255 0.386970043 0.028210094
0.849335968 0.398861051 0.031625953
0.894749939 0.404933810 0.026312223
0.939531863 0.411259025 0.045034848
0.977229655 0.418469369 0.077419609
0.999240935 0.428083122 0.114358053
0.993168950 0.440227896 0.135610431
0.995066166 0.452372044 0.166982770
0.997343242 0.466287196 0.201644331
1.000000000 0.485389024 0.240607202
1.000000000 0.515749037 0.283112049
0.165464565 0.328399807 0.030613596
0.168500960 0.337508202 0.030613596
0.184440181 0.336749017 0.034914598
0.196204990 0.337507963 0.039721757
0.201265275 0.339532226 0.041492879
0.210499406 0.339532226 0.044275519
0.240354359 0.339532226 0.043769583
0.255155206 0.341809094 0.038836300
0.266034514 0.344085813 0.034029331
0.282226920 0.344591886 0.037065078
0.309298277 0.347628266 0.040101461
0.338646382 0.347375214 0.041239738
0.364705592 0.345730811 0.046046581
0.392283022 0.342315197 0.049841579
0.422643781 0.345350802 0.043769583
0.459708989 0.353194177 0.034788016
0.511448324 0.364452809 0.026059406
0.570904076 0.375964373 0.016318591
0.634281874 0.385452360 0.012523971
0.683870733 0.400379777 0.014547647
0.744465232 0.410499483 0.017583741
0.803541958 0.419607520 0.022897003
0.855408013 0.429221809 0.028589567
0.897912800 0.435293823 0.040733583
0.936495960 0.443643242 0.058190968
0.973434627 0.450727373 0.087286614
0.999493957 0.458443820 0.120936058
0.996204615 0.470587850 0.147754431
0.998102427 0.482732624 0.174319774
0.995825410 0.496647537 0.204680353
0.995192945 0.514484167 0.242504761
1.000000000 0.540037811 0.292220414
0.192662597 0.375711590 0.034661800
0.193295181 0.384819984 0.022644004
0.204933554 0.381024808 0.020493230
0.220619947 0.382542729 0.027071368
0.227830783 0.387476593 0.031625651
0.243010640 0.387476593 0.030613270
0.253130943 0.385072768 0.033523008
0.283238679 0.383428484 0.030234013
0.298418880 0.384187400 0.025680201
0.316888273 0.384187400 0.030360522
0.341302842 0.387096643 0.033396877
0.366603464 0.388108760 0.032384750
0.395066231 0.386970401 0.031246010
0.422896624 0.382922530 0.032004982
0.455407590 0.385958135 0.032384213
0.490575373 0.386590570 0.031119205
0.528526306 0.397216767 0.026565388
0.583681226 0.408095956 0.019734241
0.647438586 0.415433586 0.009614169
0.706894338 0.432511151 0.014547647
0.757368803 0.443896532 0.019480996
0.815053701 0.453004271 0.026059447
0.866160512 0.462112278 0.035167783
0.906388581 0.470461577 0.047311801
0.944338739 0.481087595 0.070841067
0.975205481 0.488930762 0.098039292
0.999493957 0.495002925 0.130423859
0.996457577 0.503352404 0.161543205
0.996331036 0.515496433 0.200885370
0.999367416 0.532953978 0.233522937
0.996963978 0.551169991 0.266919762
1.000000000 0.573940575 0.310942769
0.223023385 0.424288362 0.025553819
0.229095370 0.428842574 0.016445428
0.239848152 0.426565588 0.015939422
0.247438207 0.426312357 0.014168195
0.255914092 0.434535176 0.020620005
0.271853387 0.434535176 0.016445268
0.290069491 0.428969234 0.021505132
0.304491073 0.427451074 0.022643810
0.331815451 0.425933272 0.017330905
0.354585886 0.426692158 0.021126006
0.377229571 0.428083479 0.021252492
0.404553682 0.429095358 0.023276750
0.432258099 0.430233985 0.021379005
0.460594565 0.428463310 0.016066004
0.492725730 0.431498915 0.015306779
0.530044138 0.432131350 0.018975198
0.564958751 0.433649540 0.017457006
0.605060279 0.443895966 0.020493390
0.662618995 0.449082911 0.010626229
0.719038963 0.461733192 0.011891199
0.772549212 0.475774735 0.017963191
0.823150277 0.485895246 0.028083190
0.873624206 0.495509028 0.041745804
0.911701739 0.504617095 0.059456188
0.948892951 0.514484346 0.087539650
0.979759276 0.522454023 0.116255328
0.999493957 0.530423582 0.146110058
0.996457577 0.540544033 0.177482396
0.997596204 0.548893154 0.212776572
0.997849226 0.563314319 0.250221133
1.000000000 0.584566772 0.289310575
1.000000000 0.605819166 0.327640980
0.253384143 0.472232699 0.003289424
0.266160518 0.472865105 0.001518189
0.279822916 0.471094072 0.004554207
0.291840523 0.468817085 0.009867433
0.289563239 0.480202109 0.009867433
0.300948977 0.480708092 0.004301425
0.321315527 0.473750830 0.008981694
0.342947364 0.470209092 0.013156018
0.362808645 0.470335603 0.013029531
0.390133053 0.473371208 0.009993916
0.412903428 0.472865105 0.008222715
0.439595103 0.473497689 0.007969692
0.471093893 0.474636167 0.009867436
0.504491031 0.477672547 0.010120469
0.535230696 0.480708241 0.005187012
0.573434472 0.480075687 0.008096424
0.607969701 0.480328709 0.010246813
0.640733659 0.482732534 0.009108000
0.683238566 0.485768139 0.012144391
0.730930090 0.493737876 0.014294988
0.780012846 0.504111111 0.018722562
0.827324688 0.516255200 0.029475139
0.875521898 0.528146982 0.047691118
0.912460804 0.536748648 0.070967808
0.948892951 0.545224428 0.103099547
0.979126692 0.554079592 0.136116534
0.999873459 0.557622075 0.166476712
0.997090161 0.575332105 0.193927586
0.997469842 0.585452080 0.227071166
0.999367416 0.596204698 0.260467678
1.000000000 0.611891150 0.296773762
1.000000000 0.633143544 0.342314988
0.283745021 0.517773986 0.000253032
0.298924625 0.520809591 0.003289416
0.311701566 0.525743008 0.001518193
0.326628983 0.525743008 0.000759032
0.341176510 0.522706985 0.000759032
0.344212890 0.528779030 0.000759032
0.358127683 0.524224997 0.000253037
0.377355725 0.522833705 0.001012006
0.399114251 0.524857998 0.001012006
0.423529565 0.524984479 0.000885522
0.450853944 0.522201061 0.003668902
0.477672279 0.523466229 0.002150721
0.507526636 0.526249290 0.000759050
0.540923178 0.529285073 0.001012085
0.574320316 0.532321453 0.004048478
0.614674509 0.528146982 0.006325218
0.647817969 0.524098754 0.008096059
0.674130142 0.522201002 0.009108026
0.704491019 0.522201002 0.015180046
0.741429746 0.528019965 0.023782428
0.784819782 0.536242783 0.032131776
0.829601347 0.546616018 0.045035139
0.872485578 0.558507085 0.065907970
0.911954820 0.564579070 0.084123999
0.948893011 0.570904613 0.111954615
0.978367627 0.581404269 0.141429678
0.996837080 0.594054163 0.169513151
0.999873459 0.600126922 0.199873894
0.994433999 0.617836952 0.243263707
0.994433701 0.631498933 0.283997118
0.997216642 0.644781590 0.323845178
1.000000000 0.660468042 0.366603076
0.344718397 0.577229738 0.000000000
0.351550102 0.574699342 0.000253031
0.360278457 0.577735484 0.001138643
0.372422904 0.581910312 0.000000000
0.388741553 0.580771923 0.000000000
0.401391327 0.579633117 0.000000000
0.414547712 0.580645144 0.005059999
0.433016807 0.578368127 0.005566004
0.455028296 0.580265820 0.006325100
0.479317069 0.582290113 0.008349358
0.509297669 0.584946215 0.002909872
0.530550301 0.581910372 0.012017991
0.556736410 0.582290113 0.015053719
0.588741481 0.583428442 0.017710079
0.624667645 0.583934546 0.028336789
0.660467982 0.582163334 0.026565570
0.694623530 0.582542717 0.030360367
0.720809281 0.583934069 0.034787945
0.749019384 0.583934069 0.043010741
0.782163501 0.586717486 0.051866092
0.814800739 0.592789471 0.064769462
0.854901612 0.600000083 0.082732722
0.897153378 0.608475626 0.109424390
0.933965802 0.617204428 0.132954106
0.962049603 0.625553131 0.160278082
0.985325754 0.630740047 0.189247370
0.998355329 0.638836086 0.215560168
0.996837080 0.644908249 0.239089608
0.999873459 0.658950210 0.274762660
0.997722983 0.671727002 0.319923937
0.998861372 0.684630096 0.364958853
1.000000000 0.701707780 0.413156450
0.400885195 0.624667704 0.020872721
0.408855259 0.627324522 0.022770463
0.411132455 0.628589213 0.024667719
0.420999616 0.630360484 0.020872882
0.436179996 0.631625712 0.020873014
0.451359987 0.627071500 0.028463198
0.464642525 0.630360484 0.025932722
0.481467187 0.630360484 0.032005139
0.504743636 0.630360484 0.033270106
0.531309426 0.632258177 0.036306202
0.553826451 0.633396626 0.036306452
0.581783235 0.634281993 0.036685713
0.604553998 0.632384717 0.047691360
0.634914756 0.632131755 0.052751232
0.668058157 0.630487502 0.063251287
0.695003033 0.631878674 0.070967644
0.726881623 0.631878674 0.070967644
0.754838586 0.636306167 0.076027609
0.783428252 0.636306167 0.082605697
0.816318870 0.633396864 0.091714077
0.847818196 0.638330460 0.097027451
0.873118103 0.644402444 0.110183582
0.907273531 0.650347948 0.134091988
0.941935599 0.655913889 0.158380792
0.971157551 0.666919947 0.191018447
