Assets/Resources/EldamarStudio/100 Horror LUTs Pack/LUTs/cube/Srendel LUT.cube
LUT_3D_SIZE 8
DOMAIN_MIN 0.000000 0.000000 0.000000
DOMAIN_MAX 0.903226 0.903226 0.903226
0.054901998 0.043136999 0.023529001
0.088551991 0.047438450 0.039216001
0.165338203 0.050980002 0.039974902
0.272485971 0.050980002 0.030234357
0.443010747 0.044023003 0.039216001
0.682859182 0.001897740 0.035294000
0.915496528 0.000000000 0.047690995
0.992030203 0.007969820 0.090448961
0.070967548 0.081087545 0.034155454
0.102340452 0.080708094 0.030613905
0.165717646 0.093231991 0.035294000
0.263883352 0.101834089 0.030613905
0.439469010 0.117267549 0.043896195
0.672105968 0.089689910 0.035294000
0.904996812 0.019228645 0.043516546
0.997343183 0.091460839 0.097659782
0.096394904 0.155851096 0.042378098
0.125743449 0.164958656 0.030866545
0.181024998 0.162176102 0.039216004
0.279949546 0.179759637 0.040734001
0.442884445 0.205186382 0.043137193
0.688804448 0.216951191 0.023023449
0.917899966 0.220873192 0.039974712
0.996205032 0.266666651 0.115622774
0.137887284 0.260088265 0.041492999
0.170777991 0.270714641 0.047817905
0.227830380 0.262618721 0.052245453
0.309550911 0.266919285 0.044275641
0.478430986 0.308159441 0.035041168
0.712207675 0.337381274 0.025173904
0.922833502 0.366729915 0.041745566
0.998861372 0.405313253 0.142441228
0.223023385 0.424288362 0.025553819
0.255914092 0.434535176 0.020620005
0.331815451 0.425933272 0.017330905
0.432258099 0.430233985 0.021379005
0.564958751 0.433649540 0.017457006
0.772549212 0.475774735 0.017963191
0.948892951 0.514484346 0.087539650
0.997596204 0.548893154 0.212776572
0.400885195 0.624667704 0.020872721
0.436179996 0.631625712 0.020873014
0.504743636 0.630360484 0.033270106
0.604553998 0.632384717 0.047691360
0.726881623 0.631878674 0.070967644
0.847818196 0.638330460 0.097027451
0.971157551 0.666919947 0.191018447
0.998734832 0.695003271 0.305882394
0.615180254 0.792030573 0.230866820
0.637950540 0.792030573 0.236559287
0.673244774 0.795951545 0.241365910
0.748387218 0.793674827 0.269196451
0.815433443 0.795951545 0.283111840
0.902467012 0.795446038 0.313472271
0.974446595 0.802150249 0.338646829
1.000000000 0.807590246 0.432131529
0.812143803 0.916761637 0.519924343
0.826691747 0.925869823 0.527893364
0.846426487 0.925616622 0.542188406
0.869196653 0.923212945 0.544465184
0.904743850 0.928399801 0.564705372
0.945983529 0.928399801 0.580265403
0.983301699 0.932068050 0.613408983
0.998734832 0.931055963 0.630993247
0.059962451 0.054522451 0.049715545
0.088551991 0.047438450 0.045034546
0.146868646 0.063504092 0.060341999
0.223909080 0.072865002 0.072865188
0.360404730 0.077672198 0.081846736
0.604427159 0.023782471 0.094876811
0.871346831 0.000758999 0.110815831
0.997343183 0.008349271 0.151549548
0.065781087 0.076786995 0.041872546
0.096394993 0.081087545 0.039468545
0.139405102 0.092852540 0.067805447
0.218469188 0.105376445 0.074889451
0.365591377 0.117520183 0.085389189
0.605692446 0.100569293 0.091967441
0.864136815 0.024035357 0.109424092
0.992409766 0.091966979 0.146110356
0.104237996 0.136243090 0.070461988
0.124984443 0.144971207 0.065781087
0.156989545 0.142947555 0.072485641
0.245035082 0.158127993 0.078304991
0.395446092 0.192662999 0.090954997
0.633775890 0.208728835 0.091587804
0.892220140 0.214800745 0.104364246
0.998355329 0.268058062 0.171157256
0.144465625 0.239847824 0.084629998
0.172296181 0.236685619 0.083871000
0.216825083 0.243390277 0.081846640
0.278431356 0.249715373 0.087413348
0.445034623 0.286021739 0.083364829
0.669702649 0.322074711 0.088425189
0.903985202 0.355344445 0.114484534
0.999240994 0.403541923 0.189120680
0.225932822 0.401138812 0.081846550
0.254775703 0.411385000 0.082100347
0.312460810 0.406198442 0.079822898
0.409108460 0.416192025 0.086907193
0.535989523 0.416445345 0.086907193
0.743832827 0.451992214 0.093485542
0.937001586 0.503099084 0.146362931
0.997596204 0.548513770 0.246679321
0.386843741 0.607969880 0.097153828
0.420240313 0.607463419 0.100569271
0.484756112 0.607590318 0.105249882
0.588741422 0.611511588 0.115243629
0.703352094 0.615813017 0.125869632
0.822390735 0.620872736 0.146236807
0.956609607 0.651992142 0.222517177
1.000000000 0.691461384 0.342061579
0.616698325 0.779759824 0.254648894
0.627071381 0.781024575 0.261353672
0.662112594 0.776217341 0.261353463
0.735357583 0.778241634 0.275521666
0.808096051 0.781024575 0.293231905
0.889942825 0.781024575 0.312966347
0.972548842 0.792156577 0.355850369
0.997343302 0.806704521 0.440227717
0.815686047 0.914484382 0.527514100
0.817710578 0.922327340 0.531435668
0.830487072 0.912207603 0.519670963
0.865148664 0.911701739 0.533333480
0.897533357 0.917141080 0.557368755
0.946236432 0.922201097 0.584187150
0.981404483 0.926501930 0.603289127
0.998355269 0.930170298 0.643769860
0.072106004 0.056419995 0.113599092
0.108159088 0.058444448 0.108918190
0.159898996 0.067425899 0.107400000
0.242125198 0.080328740 0.116761185
0.372675359 0.083997712 0.141809002
0.588488400 0.025427183 0.157495096
0.850854039 0.001518192 0.187096998
0.997975767 0.069196634 0.251486719
0.095256448 0.094876900 0.096015453
0.116761088 0.098418549 0.097912997
0.160784006 0.100315996 0.103478909
0.233902633 0.111701451 0.113219552
0.367109269 0.125110641 0.139532000
0.584313929 0.104870357 0.167362541
0.847691357 0.044275839 0.187855899
0.999620438 0.146109968 0.246046811
0.123845898 0.137887195 0.106641099
0.147375092 0.158760473 0.115622647
0.199873090 0.171663195 0.132448003
0.256926119 0.174319640 0.131182641
0.399241358 0.194307193 0.146489277
0.622011125 0.208855361 0.165717751
0.868184507 0.219228089 0.200379193
0.997469962 0.293105632 0.265907735
0.159772292 0.253004283 0.132700637
0.188488439 0.256546557 0.139025658
0.235800102 0.254522294 0.141050100
0.300569266 0.258064717 0.140164196
0.445287645 0.288172066 0.150663838
0.670208573 0.319038630 0.169766083
0.895256341 0.357621640 0.214294568
0.998102248 0.422896773 0.285894603
0.238836274 0.403289288 0.157368898
0.278052092 0.408348888 0.169259995
0.327893496 0.410373360 0.158887088
0.419481337 0.411891341 0.164832458
0.533965468 0.415812552 0.162935004
0.739152551 0.456166923 0.199240729
0.927767396 0.506641209 0.248576656
1.000000000 0.564832032 0.339658260
0.427830607 0.609867036 0.214927346
0.454269171 0.610625923 0.219481543
0.514231503 0.613915443 0.216065988
0.602023661 0.612397373 0.229981184
0.717773855 0.613915205 0.234914735
0.830740154 0.620240390 0.250853539
0.958254099 0.656293690 0.323339731
0.995825231 0.706135154 0.420619696
0.656040728 0.777229548 0.347880661
0.672485948 0.779633224 0.357748061
0.709677577 0.781151414 0.364452839
0.758380473 0.781530917 0.372042835
0.824161828 0.785072565 0.381657243
0.897533298 0.784946263 0.400379539
0.971284091 0.792156816 0.429348469
0.996963859 0.813535690 0.507526875
0.830486953 0.917646885 0.573307753
0.843137562 0.921315491 0.584693313
0.858949959 0.912081003 0.598228812
0.882226765 0.918532550 0.600252807
0.909804106 0.920176983 0.608602047
0.949146152 0.920429945 0.624161720
0.984819949 0.927387655 0.645161331
0.993548214 0.932953715 0.672612429
0.097026989 0.056040641 0.198102623
0.132194996 0.061480448 0.193042353
0.182668924 0.068944000 0.181024730
0.246173635 0.079569645 0.173307925
0.377988547 0.084377259 0.205439627
0.590132594 0.023023374 0.241998717
0.851106882 0.001644712 0.288298905
0.996457815 0.141682178 0.350537628
0.116255634 0.112839893 0.171284184
0.138266549 0.109171636 0.167741731
0.182668924 0.110815637 0.163441092
0.239468470 0.111954279 0.165464640
0.364832222 0.128273442 0.197469920
0.577355981 0.103225552 0.238836288
0.831499159 0.058823731 0.282858729
0.998481989 0.200253114 0.350916982
0.138646200 0.167109638 0.171284184
0.163187727 0.165844381 0.169639379
0.211005732 0.171410292 0.171663731
0.267552257 0.177355736 0.178368181
0.400379539 0.196584195 0.214041725
0.610119879 0.207969546 0.255660921
0.854269505 0.237697452 0.299557269
0.999620497 0.342188507 0.379000604
0.173813984 0.235040918 0.190132976
0.196458176 0.245287925 0.187729180
0.257052630 0.266413718 0.206578180
0.353447527 0.291081280 0.228336275
0.467046261 0.300569296 0.232131556
0.657432079 0.325110912 0.261986166
0.870841205 0.366350472 0.318153262
0.994686604 0.447944194 0.393042505
0.258317471 0.397343814 0.239342630
0.290449023 0.407336980 0.247312069
0.358886659 0.411638379 0.252625167
0.438709676 0.411259025 0.257432073
0.550284505 0.417583823 0.256546348
0.734345496 0.457179159 0.292473167
0.915496647 0.509930134 0.359139562
0.998102367 0.586211324 0.441872209
0.450727075 0.591398001 0.306641251
0.480581939 0.591777444 0.317014813
0.530170619 0.596078098 0.320556641
0.618469417 0.596078157 0.328399658
0.716887951 0.607590497 0.337381005
0.823276401 0.609487712 0.356989026
0.941555917 0.657811582 0.417963356
0.997975707 0.712207198 0.512333870
0.676280856 0.764579535 0.435926467
0.691334367 0.764579296 0.443516552
0.716508508 0.762175739 0.432637483
0.769765794 0.763567567 0.447185546
0.827704191 0.769639194 0.458190948
0.894244075 0.775458455 0.475268662
0.958886921 0.782036901 0.495382458
0.997343481 0.814294934 0.571283698
0.839089453 0.907147408 0.627324581
0.848070621 0.904870152 0.622390866
0.859835804 0.902846038 0.629095674
0.881593943 0.908918619 0.638077080
0.905882120 0.913472295 0.648197532
0.947501659 0.916634917 0.662618518
0.984440386 0.922960222 0.683618248
0.998861372 0.929411590 0.706135154
0.151170000 0.067552000 0.353953183
0.191650733 0.072991811 0.347374827
0.259962261 0.073750906 0.331182480
0.343453646 0.077798814 0.318785399
0.428210378 0.077798806 0.303605378
0.620240390 0.013662203 0.340290844
0.870841563 0.001518192 0.402403474
0.994687021 0.174193397 0.463883728
0.154459193 0.127008185 0.307273835
0.184946179 0.130929992 0.315243632
0.256672740 0.129411906 0.312587082
0.330550253 0.129791349 0.301707894
0.419354826 0.123592354 0.292852372
0.607083976 0.097027369 0.333459467
0.854649127 0.065401472 0.385831684
0.996204793 0.226059109 0.449588805
0.172422275 0.202150196 0.288931102
0.207210541 0.209361002 0.311574847
0.257558465 0.202150196 0.299051225
0.340164602 0.202150196 0.293990910
0.433649391 0.205313101 0.295129567
0.646932304 0.210373551 0.344339371
0.869955719 0.247185364 0.404554278
1.000000000 0.369260043 0.475774914
0.216951281 0.290575475 0.297026813
0.247185647 0.296394855 0.304996848
0.311954737 0.301454991 0.308791906
0.404174715 0.313978255 0.321315616
0.501454651 0.316634804 0.323972255
0.695002913 0.341556013 0.370777667
0.884123862 0.396457851 0.432258099
0.998734832 0.490575433 0.505756080
0.285515577 0.404933572 0.316255361
0.326502383 0.418722540 0.332447857
0.395319372 0.425300270 0.347754270
0.531688690 0.460088611 0.384945840
0.665654421 0.480075955 0.408602357
0.779253662 0.488678366 0.425174356
0.912840247 0.534724712 0.468817443
0.998734832 0.609867334 0.541808605
0.507779837 0.600379527 0.419734269
0.532700777 0.601138711 0.424288452
0.597849250 0.603921473 0.436812252
0.680455506 0.615939260 0.450727433
0.750157893 0.618469000 0.452878088
0.836812258 0.628083646 0.473750472
0.944592297 0.672485828 0.526881397
0.998355269 0.729158759 0.604048133
0.722833395 0.755344450 0.533965886
0.743200660 0.763567328 0.547248662
0.760910571 0.764579296 0.543326855
0.797723174 0.765464544 0.547628045
0.842504621 0.774067283 0.558254182
0.904237747 0.773434520 0.566856265
0.954838574 0.787223339 0.585578442
0.998481989 0.823276281 0.651107073
0.860594451 0.904364407 0.680075824
0.861479938 0.906135380 0.688804328
0.873750508 0.908791721 0.690575421
0.890069604 0.911068797 0.696774125
0.914484382 0.916634798 0.709550858
0.948893011 0.916888058 0.722327709
0.982416034 0.919165134 0.734724820
0.996204853 0.929411590 0.747501194
0.203415468 0.078304999 0.543832958
0.260594457 0.074510001 0.538266718
0.346489459 0.066793002 0.525996208
0.456546098 0.038709719 0.511954188
0.584946096 0.004048004 0.499557197
0.712207437 0.005819256 0.495256215
0.893864393 0.000000000 0.521948040
0.998102248 0.208855018 0.570145547
0.211764529 0.138519898 0.496774435
0.254522711 0.142061830 0.501075149
0.336242735 0.137381345 0.502972841
0.443390369 0.125743449 0.486021370
0.562301934 0.104743645 0.479823172
0.692852557 0.077040106 0.474383175
0.871726394 0.077545561 0.506767869
0.996837080 0.253889769 0.566982865
0.233649567 0.244149178 0.487539530
0.277925104 0.244022474 0.483491182
0.354332566 0.237697557 0.487159908
0.459961623 0.229981169 0.477925539
0.577609241 0.229475200 0.480708063
0.710183144 0.218975455 0.477292418
0.890069485 0.259076595 0.524351776
0.996710896 0.387096435 0.586717248
0.287539393 0.351929277 0.473371208
0.331688970 0.351549894 0.471980006
0.401644737 0.346362740 0.473497987
0.490828723 0.355597913 0.471853167
0.603668749 0.348766446 0.475901276
0.724984229 0.350284636 0.476787090
0.893864512 0.405565917 0.533586502
0.997975707 0.513725698 0.601897418
0.387223363 0.468437731 0.487666011
0.428716183 0.473371357 0.493484914
0.494117647 0.478178471 0.492852449
0.589879751 0.488425344 0.502340257
0.704617500 0.500695944 0.515876353
0.806325078 0.508791625 0.532194674
0.920683086 0.564452946 0.579506516
0.998355210 0.640100956 0.638203323
0.537508190 0.602909505 0.528146446
0.557747960 0.603415668 0.525363684
0.622137845 0.611764789 0.531056106
0.701202095 0.625679791 0.549525559
0.804933906 0.652751446 0.586464405
0.885515392 0.671600103 0.610879421
0.949651778 0.700189769 0.641998708
0.999240935 0.747248411 0.693358600
0.730676770 0.762428820 0.611764729
0.742694139 0.762175798 0.604807019
0.774193287 0.763314188 0.618848920
0.819481313 0.767615438 0.639468551
0.863883972 0.778621435 0.653257251
0.902593434 0.781910300 0.663377464
0.954205990 0.793927789 0.668944001
1.000000000 0.832637548 0.723592699
0.871094406 0.899050891 0.752055347
0.873750806 0.899809957 0.751170158
0.885515571 0.899050891 0.758507133
0.898292065 0.905249774 0.760025203
0.919417977 0.909298062 0.762302339
0.942567825 0.916002572 0.767994702
0.980391920 0.918912053 0.785452187
0.994307280 0.931056261 0.798355341
0.288804561 0.108791701 0.730929852
0.333965540 0.108412251 0.728905976
0.434661478 0.097027287 0.723719060
0.553953230 0.074256912 0.718658864
0.693864644 0.048070833 0.710183263
0.832637429 0.048577018 0.708918273
0.945603549 0.089816660 0.695256531
0.997722745 0.247944221 0.696394265
0.302719802 0.171030819 0.708665431
0.345351100 0.177862272 0.717899799
0.431751907 0.170651376 0.707273841
0.553573549 0.165844366 0.704364061
0.688171804 0.149525821 0.697533369
0.824414968 0.152561545 0.689310372
0.936495841 0.177988634 0.683997095
0.997090399 0.291460842 0.695129633
0.353320658 0.295888662 0.694497287
0.401265115 0.300189823 0.705376327
0.478051722 0.298924446 0.698418617
0.588108659 0.293232083 0.695382655
0.712586820 0.295635462 0.692979276
0.829981029 0.300822198 0.690322638
0.940923452 0.326628536 0.679443300
0.996710896 0.411005497 0.700569153
0.457305849 0.430107623 0.681720197
0.487539560 0.431245953 0.685894728
0.550158262 0.430360436 0.681214571
0.637065113 0.431878537 0.676786900
0.744212210 0.432637632 0.680328846
0.840860188 0.439848304 0.679063916
0.931562543 0.452751577 0.674636543
0.999620438 0.530550241 0.706008852
0.569007039 0.545730650 0.681467235
0.602403402 0.554585457 0.683744490
0.649588823 0.557495236 0.680328608
0.718406141 0.566223443 0.682858586
0.784819722 0.563693762 0.678178251
0.864136577 0.571916521 0.687666297
0.940417528 0.586211264 0.687412500
0.997090399 0.652245402 0.725363314
0.684630036 0.668184519 0.696647763
0.702846348 0.676407278 0.704111457
0.733459890 0.678431273 0.697153568
0.781910360 0.685515404 0.699051201
0.846299410 0.694370866 0.704996824
0.893105686 0.704617321 0.716128826
0.951296508 0.718406022 0.724984050
0.997469962 0.767741561 0.766350091
0.754079521 0.771789968 0.707653522
0.763314247 0.772169590 0.713472545
0.788994551 0.770018756 0.710309505
0.827197909 0.771283865 0.718153000
0.866287053 0.785958409 0.727767348
0.922327518 0.802150488 0.753067315
0.960784018 0.824035585 0.777356267
0.991777480 0.848830044 0.802656710
0.867931664 0.906009018 0.797849476
0.871600091 0.900822043 0.809867382
0.880708575 0.901454508 0.810879052
0.899810135 0.910057008 0.812270701
0.927134752 0.913978696 0.824415267
0.952940822 0.919544518 0.838583112
0.974572957 0.920303524 0.847691059
0.997469962 0.927134633 0.851739168
0.422770441 0.218848765 0.894623578
0.463883281 0.219228297 0.891966760
0.539152682 0.230107486 0.892725825
0.643516660 0.241113201 0.893358767
0.766856134 0.268311411 0.877672434
0.879949570 0.309171230 0.873877406
0.976217389 0.370145202 0.877672434
1.000000000 0.438962370 0.867172599
0.453130960 0.277925313 0.882605910
0.486274660 0.280202568 0.877419353
0.556609511 0.289057136 0.882226348
0.664136529 0.296773911 0.876027822
0.774699509 0.320556670 0.872359455
0.880328894 0.356483132 0.871094465
0.970018804 0.406451523 0.864389658
1.000000000 0.461227387 0.860594749
0.551043570 0.405060053 0.873371363
0.579380035 0.409613788 0.878051817
0.634661615 0.413029552 0.873750746
0.717646897 0.425932974 0.871220946
0.807969809 0.443769753 0.867552161
0.897406578 0.467552304 0.865148664
0.972422421 0.503225744 0.865148664
0.999240935 0.545983553 0.863883495
0.671220839 0.543326855 0.863883793
0.690196157 0.547881126 0.860088527
0.722201109 0.551296651 0.861479640
0.772675574 0.556735873 0.857052207
0.843263805 0.562555194 0.854016185
0.907400548 0.578241587 0.860847354
0.969639242 0.599114478 0.857558370
1.000000000 0.622517228 0.855534434
0.755850554 0.656546474 0.864769101
0.771790028 0.661859453 0.863756955
0.794054508 0.666792870 0.859961748
0.826565325 0.667678535 0.855281353
0.870841146 0.679316580 0.853636801
0.921695173 0.686148047 0.855281353
0.973561227 0.694370568 0.853763580
0.997343183 0.710435927 0.855660915
0.806957603 0.754838526 0.865401685
0.823782384 0.753447235 0.866034150
0.836938679 0.761290491 0.864262998
0.863630474 0.764452636 0.858064413
0.897153735 0.770524561 0.862997890
0.929791033 0.777609110 0.861859441
0.972548783 0.786717236 0.866666913
0.996204972 0.794560254 0.865275204
0.838962674 0.839216053 0.863124311
0.853130937 0.840101361 0.872106194
0.859202862 0.841239572 0.866793096
0.882859111 0.842504859 0.872992039
0.906261802 0.844528735 0.867552102
0.938772976 0.854648829 0.872106194
0.966729999 0.860215008 0.872359455
0.997469962 0.868817568 0.885515451
0.874889433 0.911448658 0.886780620
0.877292752 0.918406248 0.887412786
0.883365035 0.919417739 0.889310420
0.899177909 0.915496767 0.885388970
0.921948135 0.916508615 0.890701890
0.942947745 0.924604654 0.893864512
0.970651567 0.927134693 0.910056889
0.992156982 0.944085777 0.929917574
