Assets/Resources/EldamarStudio/100 Horror LUTs Pack/LUTs/cube/Steelspeed LUT.cube
LUT_3D_SIZE 8
DOMAIN_MIN 0.000000 0.000000 0.000000
DOMAIN_MAX 0.903226 0.903226 0.903226
0.023529001 0.023529001 0.031373002
0.070082545 0.023908548 0.040354453
0.180139184 0.014168001 0.052498192
0.310562640 0.001138644 0.052118644
0.444781363 0.003035997 0.052498192
0.608728707 0.001897740 0.074382998
0.787729263 0.000000000 0.104870282
0.961416721 0.000000000 0.142694801
0.040354453 0.061859995 0.044275545
0.097912997 0.057558544 0.047059000
0.195066094 0.075648449 0.057305906
0.307400525 0.057178997 0.047059000
0.439342171 0.044655096 0.053130992
0.600632608 0.025806095 0.088172257
0.778747261 0.007590090 0.112713285
0.947880864 0.029728338 0.139911160
0.097153999 0.147248194 0.062744997
0.148513541 0.147627637 0.055661097
0.206831098 0.146489099 0.060341995
0.313345999 0.146489099 0.064642541
0.439342350 0.161290288 0.082226284
0.607716560 0.173307836 0.095888734
0.785452545 0.197217092 0.115875989
0.963946760 0.222264171 0.157241970
0.159140006 0.234914273 0.086906999
0.184060887 0.242884174 0.084629998
0.245920181 0.238456726 0.081467189
0.326248914 0.238836274 0.085768647
0.452371716 0.262618631 0.101074994
0.609614253 0.297027111 0.108158998
0.784313917 0.335357219 0.116128922
0.953193903 0.369386256 0.151676163
0.219355196 0.371157378 0.108032994
0.245287985 0.377356350 0.108538546
0.293611377 0.379759461 0.108159095
0.373940617 0.378115356 0.113345549
0.474636197 0.383554548 0.114358187
0.623656094 0.428210169 0.113724999
0.797343254 0.477545470 0.119165190
0.955850422 0.514864028 0.158127785
0.260594755 0.569513202 0.113724999
0.289943188 0.574952424 0.108285807
0.351676077 0.573434174 0.108665355
0.446932644 0.577356219 0.109550744
0.549778521 0.586337507 0.110183455
0.667678714 0.591018498 0.103731729
0.819860995 0.623781979 0.128020257
0.970398486 0.656419873 0.184819788
0.333586276 0.764579535 0.139152572
0.360910565 0.766856253 0.139911577
0.421252370 0.765970588 0.144465461
0.508412242 0.770777822 0.146489620
0.610752523 0.767615318 0.146489367
0.725110888 0.769133568 0.153700262
0.841998816 0.773054540 0.163314566
0.971030772 0.785831809 0.229981065
0.473750740 0.931309581 0.307906419
0.502340317 0.932447612 0.316128850
0.542314768 0.930676699 0.327008158
0.609867215 0.935104489 0.323212862
0.692472935 0.933586299 0.331435740
0.787855625 0.935104489 0.352941155
0.890575409 0.935104489 0.368373930
0.985957980 0.931182742 0.373307556
0.038836453 0.036052998 0.062239543
0.078304999 0.027830547 0.070461996
0.174319744 0.023908548 0.092852548
0.265907735 0.024667548 0.105376445
0.390006363 0.008222645 0.119038381
0.556609631 0.002277191 0.144086182
0.755850375 0.000000000 0.166982830
0.947248101 0.000000000 0.196078524
0.053257097 0.057178997 0.065781094
0.086148091 0.061480545 0.069702990
0.159772202 0.069702990 0.089690439
0.264769197 0.072865196 0.105756000
0.389120370 0.072485738 0.122580536
0.559519053 0.056040548 0.144845188
0.748260617 0.019987354 0.165717840
0.930044472 0.041998602 0.190259367
0.112839997 0.127261549 0.098671995
0.133206993 0.129664645 0.110183544
0.177355722 0.119797185 0.104996994
0.276913553 0.135863453 0.110815734
0.402909726 0.153067738 0.136748537
0.568500519 0.170651197 0.148640186
0.755850375 0.193295285 0.169259802
0.942314744 0.223656073 0.193674609
0.162428737 0.213662282 0.122453824
0.184819981 0.219987184 0.131562084
0.234155372 0.216066092 0.127640903
0.301834553 0.216825083 0.128399998
0.418089569 0.247691721 0.147754639
0.576976538 0.284883171 0.154712364
0.768627465 0.323972076 0.171537086
0.941429436 0.363567114 0.194560543
0.224288091 0.355850816 0.152435541
0.239089176 0.359645694 0.154079750
0.296900988 0.358127832 0.156483561
0.365338504 0.360910565 0.154459104
0.449842036 0.364705652 0.153574005
0.606451929 0.412017733 0.161037356
0.785199285 0.465022177 0.166097283
0.949398816 0.510309756 0.207969457
0.258823514 0.549146056 0.163440555
0.287413001 0.550916791 0.153573811
0.351296723 0.553826928 0.156736091
0.435041010 0.554585755 0.153573811
0.537254512 0.570272207 0.160025105
0.651486635 0.573813796 0.160910740
0.804680526 0.614421189 0.169512630
0.958886683 0.652371526 0.231372625
0.328020275 0.749145985 0.184692919
0.356736243 0.750917137 0.185199544
0.413788825 0.749019384 0.185072824
0.501201630 0.753700197 0.188108623
0.599114418 0.759266138 0.193422005
0.717014670 0.759392858 0.198861822
0.834155858 0.765211523 0.211764365
0.955470860 0.782542825 0.264389575
0.477798760 0.922454059 0.339911312
0.504870474 0.921441913 0.341809124
0.533332944 0.921821475 0.336116135
0.600759149 0.920556307 0.340037823
0.687412798 0.927640319 0.354332238
0.785199225 0.924351394 0.372928202
0.893484831 0.931562304 0.382289648
0.987349629 0.929285109 0.408602089
0.026691904 0.039974902 0.166856200
0.100695550 0.031372905 0.168880552
0.182669103 0.024288096 0.160658091
0.265528172 0.031373002 0.166856095
0.390892088 0.031373002 0.195066288
0.535230815 0.008096008 0.213030100
0.720303774 0.001518192 0.248324007
0.922580481 0.002783166 0.272106230
0.083871000 0.072485641 0.141429543
0.120682992 0.075648449 0.141429543
0.172042653 0.072865091 0.148513556
0.258949727 0.083871000 0.166856095
0.374066830 0.093358994 0.195572555
0.525996149 0.087413259 0.218216538
0.717140794 0.059582613 0.239215836
0.915243447 0.077292606 0.268437833
0.109677091 0.121442094 0.144086093
0.157621905 0.138773009 0.166982993
0.204553992 0.141050100 0.178747907
0.271473736 0.146109745 0.178241640
0.379759461 0.159772292 0.199746981
0.543580055 0.175458282 0.225553185
0.735104382 0.187096789 0.245034993
0.924477935 0.233017161 0.283491552
0.177482545 0.219734639 0.186843738
0.198988095 0.218216643 0.193168640
0.245667547 0.219355091 0.193927631
0.298039556 0.213789001 0.195952103
0.407210350 0.243137628 0.205945477
0.559392989 0.278684169 0.234282091
0.749398828 0.320050448 0.250347644
0.931182921 0.367994905 0.280581921
0.235926807 0.343833089 0.213788897
0.249968201 0.340164721 0.214294642
0.292093396 0.345351279 0.218596101
0.358760178 0.348892838 0.218596101
0.441745371 0.351549357 0.219355002
0.592030406 0.401897728 0.235800073
0.770651400 0.458697349 0.253004283
0.942567825 0.510815978 0.298165619
0.281341076 0.543706119 0.244528994
0.302972764 0.546110094 0.248324081
0.353573740 0.546868980 0.240860343
0.436179459 0.552055538 0.243643194
0.536495566 0.554206252 0.244022742
0.644908190 0.560531437 0.243643194
0.802403331 0.607590377 0.277292907
0.953952849 0.654395819 0.321062803
0.346110195 0.748007536 0.273371190
0.374699533 0.749652267 0.286147803
0.432258070 0.750284433 0.286527246
0.514484465 0.752688289 0.283365160
0.612523556 0.755850554 0.290322363
0.716761410 0.756609619 0.295003265
0.832637608 0.762934804 0.305250078
0.953952849 0.782542646 0.357621670
0.516634703 0.922580659 0.416571766
0.532447636 0.925996184 0.425426662
0.568880498 0.922580659 0.423149735
0.631878614 0.924351811 0.427071512
0.704617262 0.925742745 0.431878507
0.792536378 0.928146780 0.441239417
0.889563620 0.926248968 0.457684845
0.985072494 0.929790795 0.469070226
0.041113276 0.030234357 0.270841271
0.121694736 0.022644095 0.269702733
0.210246637 0.024667645 0.259203196
0.274130285 0.029727997 0.238836274
0.389120370 0.032637548 0.269450068
0.533586085 0.005945744 0.294370472
0.712713182 0.003922000 0.324604630
0.910689354 0.015180262 0.372548819
0.111195184 0.087286644 0.237950370
0.140038073 0.089690343 0.234788164
0.196078628 0.088045545 0.232890725
0.268943638 0.085768640 0.239595175
0.372169703 0.092852645 0.254775643
0.519038439 0.086654164 0.286906928
0.707400084 0.062998451 0.321441919
0.899556935 0.119671129 0.376723647
0.151549637 0.145983636 0.240354270
0.177735284 0.146363184 0.233270183
0.223655730 0.155092001 0.234534815
0.274383634 0.152688101 0.240481079
0.379759490 0.164832547 0.260721207
0.523339868 0.179759637 0.288804352
0.712839901 0.198735192 0.332827359
0.907779574 0.255407512 0.375711352
0.178873926 0.206324920 0.229854643
0.209108189 0.208601922 0.239215732
0.261226833 0.223909080 0.258444071
0.322959930 0.238329917 0.266919285
0.409487396 0.246553078 0.279949635
0.539532006 0.274256736 0.302593648
0.726122618 0.317520291 0.339911193
0.909803569 0.381530493 0.392789453
0.247438192 0.332321018 0.276913643
0.269449979 0.334092259 0.283870816
0.309803724 0.341303170 0.293358654
0.366856694 0.340417385 0.290575385
0.438835919 0.345857173 0.289690077
0.582542658 0.394054204 0.320682824
0.755724251 0.451992273 0.350410908
0.930044115 0.515369773 0.397722781
0.289816380 0.517520249 0.322454274
0.312839746 0.520683229 0.321695268
0.361796290 0.524604917 0.322580487
0.430613458 0.531689107 0.327640623
0.527387798 0.534471810 0.327261180
0.629095256 0.546995580 0.336622268
0.789120913 0.601518214 0.366729915
0.937254846 0.657179177 0.425933033
0.371410549 0.732194841 0.384187251
0.396205217 0.732068241 0.381277919
0.443390012 0.730803251 0.379127204
0.517520547 0.732827544 0.383554548
0.607210636 0.740290821 0.389753550
0.711448014 0.746362686 0.393927813
0.820746541 0.749019444 0.402656913
0.948260128 0.779000640 0.452751696
0.544845223 0.917014599 0.495256394
0.556483269 0.916255653 0.502593279
0.592030048 0.915622592 0.507906079
0.647817910 0.915369928 0.508032858
0.719038129 0.917773485 0.513725042
0.805313349 0.919544578 0.523212910
0.893991113 0.923971772 0.541682422
0.983048797 0.924604595 0.550537586
0.115875989 0.036812194 0.406704187
0.172422186 0.039216001 0.397722840
0.253131002 0.037571095 0.384566486
0.334471971 0.038077358 0.374825716
0.415180355 0.027450999 0.364199996
0.548766673 0.009993747 0.381783903
0.731182516 0.000000000 0.423655987
0.917773545 0.042631395 0.470588356
0.144086197 0.106135540 0.371663541
0.189753190 0.112966090 0.374573171
0.251106650 0.109424450 0.368247986
0.328273207 0.105502643 0.357748449
0.404174477 0.092093542 0.346615732
0.532447457 0.085136160 0.376723588
0.721189439 0.061859902 0.420999438
0.906261802 0.132447839 0.467805177
0.195192993 0.178621188 0.346869290
0.220366895 0.181024998 0.355344653
0.259203196 0.180265903 0.347754270
0.329791278 0.175078735 0.342694521
0.397849441 0.170778006 0.341556013
0.539152086 0.179632828 0.377609074
0.728146553 0.201771080 0.426818460
0.907779574 0.278683960 0.477545649
0.219734445 0.248576626 0.343453646
0.243263736 0.254142642 0.345856816
0.288677812 0.254016727 0.345856726
0.355597377 0.259962082 0.348893017
0.424794823 0.261100709 0.355597466
0.554965377 0.289563507 0.385958374
0.730171025 0.335989922 0.435040921
0.899430871 0.413788736 0.488677979
0.250727177 0.339152157 0.347628385
0.275901198 0.343453556 0.359266609
0.325869352 0.350031555 0.363441080
0.404174447 0.384060830 0.384693176
0.496647358 0.407084167 0.404300988
0.599494100 0.417583913 0.409234613
0.754332721 0.464895636 0.450348079
0.914357722 0.537254930 0.507527173
0.316002518 0.522454202 0.406831115
0.335610628 0.525616884 0.409108013
0.386211097 0.532321334 0.418848753
0.458191156 0.540164471 0.425679743
0.538519979 0.543579996 0.428083450
0.642251432 0.554965436 0.433396727
0.785958290 0.607210696 0.474762738
0.936242878 0.670714855 0.530803323
0.420366555 0.722074330 0.482606053
0.446299762 0.729158819 0.487412989
0.483111978 0.727640688 0.487033337
0.538646460 0.729917705 0.490069568
0.618595541 0.735483646 0.487792253
0.715116978 0.741682529 0.496900916
0.814800799 0.746362627 0.502719760
0.945224166 0.788741350 0.559013307
0.580012619 0.910183370 0.597469985
0.591398001 0.912713408 0.593421936
0.618342698 0.911827743 0.595319390
0.671094120 0.912586629 0.599620640
0.735989988 0.914231598 0.605945647
0.804933548 0.918152928 0.618469119
0.891207993 0.921694756 0.624288201
0.978114963 0.925995946 0.635294199
0.183807462 0.056799740 0.553953171
0.230740279 0.054395933 0.555724442
0.315875918 0.049841646 0.547754467
0.407843381 0.031119457 0.536622286
0.506514430 0.004427551 0.517520487
0.604680181 0.000000000 0.512839973
0.747122049 0.002024260 0.533080220
0.922580481 0.064642541 0.579127192
0.197849274 0.124605000 0.519291699
0.245667279 0.124605000 0.527008295
0.306768090 0.119417936 0.523719430
0.401518166 0.106135450 0.516255677
0.494244128 0.095635906 0.507273674
0.588109136 0.078431100 0.500189483
0.735104322 0.061985925 0.517899930
0.911068797 0.153067589 0.570904434
0.236052915 0.207463473 0.504743457
0.266666710 0.210373282 0.513725162
0.321568459 0.208728835 0.503858328
0.400379717 0.202403739 0.498165816
0.493611783 0.196078643 0.496394575
0.582795739 0.192283452 0.492726207
0.744971216 0.210373282 0.527261317
0.914990425 0.295635968 0.574825943
0.259962112 0.298671484 0.492599815
0.288172096 0.303857982 0.494117916
0.342441708 0.298418820 0.487919092
0.406957448 0.301580995 0.482605815
0.491966933 0.299051195 0.486021549
0.579885960 0.302719653 0.485641986
0.740164459 0.340544015 0.529032230
0.909171462 0.430360556 0.584693372
0.290069699 0.409614116 0.491587639
0.309677631 0.412776709 0.488677979
0.369259804 0.408349305 0.490828544
0.440101355 0.418216199 0.496394575
0.532701075 0.432005167 0.505376220
0.622643650 0.440986902 0.509677291
0.759898603 0.489816457 0.550158203
0.911701441 0.565844357 0.613915145
0.326881737 0.532068431 0.489310503
0.348640263 0.535610437 0.503352225
0.402530193 0.541935205 0.508538842
0.478810728 0.549398839 0.519165277
0.588235378 0.584440172 0.547248483
0.683364689 0.608728647 0.567488968
0.796837270 0.635800421 0.592536032
0.920050681 0.687792361 0.640480518
0.438836455 0.722707510 0.566856503
0.455661029 0.725237310 0.576470375
0.501960933 0.724225521 0.573054790
0.571789980 0.727893829 0.587476134
0.652751505 0.737001657 0.606072187
0.722454011 0.741555572 0.600885451
0.819607973 0.747754753 0.608855069
0.935610116 0.798481822 0.668058276
0.616065621 0.906894445 0.684756219
0.633016884 0.905629516 0.687159777
0.665781260 0.899177492 0.695761979
0.703984559 0.903099477 0.697912812
0.749398649 0.909044981 0.697027326
0.821252346 0.910309613 0.701201677
0.894117773 0.915876269 0.719291508
0.971157372 0.920176864 0.727261543
0.258444279 0.093105704 0.733206570
0.293358535 0.091081545 0.724983990
0.374320269 0.086780474 0.722327530
0.474889219 0.066793352 0.718153238
0.588867426 0.037065275 0.709297836
0.702086985 0.016318822 0.697659791
0.811258793 0.009107991 0.691334546
0.935736775 0.101581216 0.692599416
0.266413718 0.149399087 0.710563302
0.299936801 0.154206291 0.709550500
0.372169197 0.147122279 0.710815787
0.472738832 0.141176537 0.704617262
0.579886079 0.129791081 0.695382595
0.693864465 0.120936275 0.690322518
0.805313110 0.109930098 0.683111966
0.928400040 0.182416126 0.691714048
0.296647370 0.254395992 0.704237521
0.327261269 0.259329617 0.702087104
0.388361573 0.255914181 0.695256114
0.482353061 0.255787671 0.690954983
0.584187329 0.251106977 0.687539458
0.693864584 0.251739562 0.683111846
0.801770747 0.254648656 0.677166343
0.926628709 0.313599050 0.688677728
0.340417564 0.374067277 0.679569542
0.356862575 0.375838190 0.684882820
0.414927453 0.377482891 0.680455506
0.496773899 0.380265564 0.679569542
0.592789531 0.378874302 0.671220899
0.689689934 0.380139381 0.668564558
0.792789161 0.387729257 0.667299211
0.917646945 0.444908410 0.691081583
0.371790171 0.497153461 0.680581808
0.395066559 0.502846003 0.676533699
0.448450357 0.508791566 0.674889266
0.518279552 0.511195362 0.671473920
0.605439544 0.510942400 0.667931616
0.695003271 0.510183692 0.667678952
0.787855744 0.517141044 0.662238836
0.920936108 0.576723754 0.710689366
0.417077839 0.626565278 0.677419245
0.441745549 0.631372452 0.683491349
0.484630078 0.629601479 0.676281095
0.556989253 0.631119490 0.677925169
0.639468729 0.638456821 0.682353020
0.724731326 0.649968266 0.685642064
0.811258972 0.659076929 0.689942956
0.927514195 0.710436106 0.740037560
0.459329545 0.738393545 0.685135841
0.467172831 0.736369252 0.672738969
0.518279433 0.736116230 0.679696441
0.578621268 0.739405274 0.678937554
0.660088658 0.744085789 0.686780512
0.759266257 0.767741621 0.715117276
0.841366291 0.786464274 0.735483825
0.938140512 0.820240498 0.768880129
0.624288440 0.902846158 0.761037529
0.644655108 0.902466595 0.770904303
0.671599984 0.901581287 0.774446249
0.716634989 0.906261742 0.780518711
0.769892275 0.907526851 0.787349999
0.836938679 0.910815775 0.802023649
0.891208053 0.916508317 0.805692732
0.957621276 0.924351335 0.810120285
0.337634474 0.187349617 0.899936557
0.366856515 0.186464325 0.893358767
0.436179638 0.193927780 0.894749761
0.527008235 0.190132588 0.891207576
0.640227795 0.207590133 0.888298392
0.757748246 0.224035233 0.886274338
0.875142515 0.254016668 0.881593764
0.979506552 0.293864369 0.869829476
0.345351070 0.245414421 0.887918830
0.378621012 0.247311682 0.881214440
0.443896353 0.243390590 0.882605910
0.536369145 0.252372056 0.886147738
0.643010855 0.259329319 0.886147738
0.754711986 0.276407123 0.882226110
0.867931545 0.303605318 0.872233033
0.977608740 0.336748928 0.873750746
0.398355424 0.355850607 0.877798796
0.422390997 0.357621670 0.876407504
0.477672070 0.364958793 0.876407623
0.559772134 0.365591496 0.879443586
0.659709156 0.375078857 0.875015914
0.760151684 0.390512139 0.872106433
0.867425919 0.407716572 0.868564606
0.977608860 0.431119680 0.868943691
0.467551857 0.493990868 0.873624206
0.481214225 0.496900409 0.874130309
0.527766943 0.499936640 0.871094227
0.596331418 0.502972484 0.868690431
0.674130321 0.507147253 0.868437827
0.770524919 0.512460232 0.862492085
0.867678702 0.523845673 0.862997890
0.965211570 0.534597874 0.861859202
0.509424210 0.613535583 0.864642620
0.538772941 0.618089795 0.866287291
0.572928667 0.626439035 0.861733019
0.628462791 0.625680149 0.861733019
0.701454580 0.628716111 0.862238765
0.778494716 0.633016884 0.861859262
0.868817508 0.635293961 0.856546223
0.958886802 0.641366124 0.861733019
0.560404480 0.723339558 0.869449496
0.576723278 0.722707212 0.869196594
0.607210636 0.728273332 0.864769101
0.660974443 0.731688738 0.864263058
0.725110531 0.737381160 0.860467851
0.793801367 0.741808653 0.857431710
0.877039790 0.743073523 0.862238884
0.953320622 0.746869028 0.863883317
0.598355293 0.825173616 0.873244941
0.612650216 0.825679779 0.865021944
0.643643141 0.822643876 0.870588183
0.692473054 0.825426936 0.873118639
0.747501314 0.826059282 0.867046356
0.816951454 0.832131386 0.871346951
0.879316747 0.833143353 0.872485638
0.948133945 0.840101361 0.872612417
0.654269576 0.920809746 0.882985473
0.653510273 0.918532491 0.880708158
0.685768604 0.920050681 0.875268579
0.726755381 0.916887701 0.878937244
0.776849926 0.918026388 0.881973207
0.836559415 0.919417739 0.888298392
0.902466476 0.921062469 0.894117713
0.958380818 0.939025760 0.916887760
