Assets/Resources/EldamarStudio/100 Horror LUTs Pack/LUTs/cube/Steelspeed LUT.cube
LUT_3D_SIZE 5
DOMAIN_MIN 0.000000 0.000000 0.000000
DOMAIN_MAX 0.903226 0.903226 0.903226
0.023529001 0.023529001 0.031373002
0.154332399 0.020240003 0.053257290
0.374066800 0.003922000 0.051612586
0.657305241 0.003922000 0.080455258
0.961416721 0.000000000 0.142694801
0.091840707 0.132067993 0.051359698
0.186337993 0.125236705 0.051992707
0.381909966 0.134092405 0.068057992
0.650474370 0.147501692 0.105249584
0.959392726 0.185831383 0.148892939
0.184439987 0.295635819 0.091461003
0.256673098 0.298924804 0.096774414
0.389752954 0.299556971 0.094117999
0.664515853 0.371916533 0.113724999
0.956103742 0.444781780 0.153826386
0.270714998 0.619102120 0.110689133
0.347375244 0.628589272 0.100063413
0.511448205 0.632511258 0.112839699
0.713219404 0.642631352 0.110815868
0.967109621 0.688298523 0.192915916
0.473750740 0.931309581 0.307906419
0.526122570 0.932194889 0.322960168
0.648829758 0.935104609 0.330170572
0.814168215 0.935104489 0.354965419
0.985957980 0.931182742 0.373307556
0.036559004 0.043770004 0.144844696
0.155344680 0.025806291 0.134092405
0.320177078 0.031373002 0.161922693
0.577482283 0.000000000 0.207969561
0.929411590 0.000000000 0.254395992
0.101327993 0.103984989 0.123592414
0.172675401 0.121315695 0.151423112
0.316255510 0.132448122 0.168753982
0.589374006 0.147881240 0.208349109
0.931309044 0.192536369 0.260721087
0.199114695 0.268817395 0.184060693
0.252118707 0.273750693 0.190638691
0.366603523 0.277672529 0.189626992
0.624035418 0.353953242 0.214801118
0.941049755 0.441872060 0.266919643
0.278557986 0.594307542 0.223023579
0.348007381 0.597976267 0.220113695
0.499683797 0.607843101 0.225679979
0.698798537 0.618216276 0.227957115
0.954459012 0.685768485 0.306641251
0.506767452 0.921821654 0.388235152
0.543074191 0.921062469 0.395066142
0.659329772 0.924731195 0.408854872
0.816824794 0.925616622 0.424541295
0.987602711 0.927260756 0.446300089
0.084377408 0.030740418 0.336115986
0.199746698 0.033649713 0.314484417
0.334850967 0.041871995 0.292978972
0.583174944 0.002909872 0.348007798
0.908412158 0.029854354 0.412650228
0.158507288 0.151043415 0.291587830
0.214168116 0.147121996 0.285136372
0.328652650 0.143200412 0.283491671
0.578241646 0.155344695 0.344339103
0.903478801 0.238456592 0.429727793
0.223655984 0.264262974 0.281214803
0.272992104 0.275648087 0.302086979
0.410752773 0.313978791 0.332194835
0.606325269 0.353953212 0.363314539
0.910309792 0.460594624 0.444149196
0.320176691 0.569386363 0.380644947
0.374320120 0.573687732 0.377103090
0.498418808 0.579506397 0.384566814
0.681467652 0.598861396 0.396331251
0.936116338 0.693738341 0.481593788
0.561923027 0.909677148 0.541682601
0.590259492 0.906008899 0.542315066
0.682732642 0.912207246 0.552055597
0.825300336 0.916129172 0.570524573
0.983427942 0.925237238 0.592789412
0.205060124 0.062871993 0.596458256
0.308032840 0.053637002 0.598355293
0.476154387 0.014674299 0.575584829
0.660341382 0.001012128 0.555344284
0.924604535 0.075521387 0.605439782
0.235041127 0.196584687 0.566729546
0.316761702 0.192283407 0.559266269
0.470967829 0.180898130 0.554079413
0.644781828 0.168753833 0.540037930
0.920809746 0.266034007 0.606451690
0.292346388 0.367994964 0.539658725
0.353067845 0.379127085 0.539658248
0.487918824 0.382036805 0.532447815
0.649209440 0.385705531 0.533712983
0.909297943 0.510689437 0.621378779
0.352182120 0.587729335 0.534851432
0.405818969 0.600126386 0.544465542
0.548387110 0.608601987 0.566730142
0.728905320 0.658317387 0.617078066
0.925616503 0.722959936 0.673370957
0.617583632 0.907400310 0.704743743
0.661227167 0.900189579 0.720050514
0.735357106 0.906388462 0.724731207
0.839721799 0.911321759 0.725996137
0.969639599 0.920176923 0.748260617
0.337634474 0.187349617 0.899936557
0.416698217 0.191397756 0.894749761
0.585452020 0.200632423 0.893484712
0.788361788 0.230360389 0.883997321
0.979506552 0.293864369 0.869829476
0.388741195 0.328020155 0.880328774
0.450094610 0.333586484 0.881973505
0.602024078 0.341555834 0.879064023
0.788741052 0.365464747 0.873877585
0.975584984 0.407084107 0.872232854
0.498039007 0.565464556 0.868564427
0.540037930 0.569639266 0.869576335
0.656799555 0.572548985 0.869197011
0.799873590 0.581404328 0.867299139
0.965844154 0.596837401 0.860847592
0.566476762 0.749905109 0.867678583
0.607969403 0.749272466 0.867552221
0.695002854 0.759772360 0.864009976
0.817836881 0.765338063 0.862744927
0.952561319 0.773434758 0.868690372
0.654269576 0.920809746 0.882985473
0.682226598 0.917773664 0.876280665
0.749525607 0.916255176 0.879063725
0.852751613 0.919417739 0.888551414
0.958380818 0.939025760 0.916887760
