Assets/Resources/EldamarStudio/100 Horror LUTs Pack/LUTs/cube/Steelspeed LUT.cube
DOMAIN_MIN 0 0 0
DOMAIN_MAX 1 1 1
LUT_3D_SIZE 32
0.023529001 0.023529001 0.031373002
0.026565386 0.020493388 0.031373002
0.033902772 0.021758227 0.029222226
0.048071161 0.023529001 0.031246159
0.070082545 0.023908548 0.040354453
0.097406931 0.026944935 0.049462065
0.127260998 0.024920678 0.053510323
0.154332399 0.020240003 0.053257290
0.180139184 0.014168001 0.052498192
0.210500002 0.008095998 0.058570966
0.249588862 0.004933871 0.058823999
0.280961245 0.001897744 0.054775488
0.310562640 0.001138644 0.052118644
0.343706071 0.003922000 0.054648966
0.374066800 0.003922000 0.051612586
0.406830788 0.001518196 0.050980002
0.444781363 0.003035997 0.052498192
0.486021101 0.006578009 0.055534575
0.522453964 0.000506000 0.058570977
0.561670065 0.000000000 0.067172654
0.608728707 0.001897740 0.074382998
0.657305241 0.003922000 0.080455258
0.699683487 0.003795488 0.086654469
0.739152730 0.000759096 0.095762096
0.787729263 0.000000000 0.104870282
0.833775938 0.000000000 0.112586990
0.873751104 0.000000000 0.119165063
0.916255832 0.000000000 0.128273442
0.961416721 0.000000000 0.142694801
0.985705197 0.001771217 0.156103969
0.993042350 0.003922000 0.170018971
0.996078014 0.003922000 0.188235000
0.026565386 0.020493388 0.025300227
0.026565386 0.020493388 0.031373002
0.038203772 0.021758227 0.031373002
0.051613159 0.026059322 0.034282226
0.070461996 0.029601775 0.042631160
0.100442544 0.029981324 0.046426449
0.120177254 0.030487388 0.053004384
0.156736076 0.027957067 0.053257290
0.190765187 0.021758389 0.052498192
0.216571987 0.011132386 0.058570962
0.244022876 0.007969516 0.053004261
0.274889261 0.004933873 0.050727487
0.305629283 0.001897743 0.046805743
0.340923429 0.001138645 0.046299610
0.374066800 0.003922000 0.051612586
0.406830788 0.001518196 0.053383805
0.443263561 0.001518192 0.055534579
0.482985497 0.004807387 0.059203379
0.519418359 0.003542384 0.064642973
0.564199746 0.000253031 0.067678645
0.604174852 0.001897740 0.076280735
0.650221646 0.002909872 0.083491385
0.696900845 0.001012125 0.089816593
0.742188394 0.003795483 0.101834089
0.788488150 0.000759099 0.110942289
0.833775938 0.001391672 0.117267668
0.873751104 0.002530323 0.121695384
0.916255832 0.000000000 0.128273442
0.953446925 0.000000000 0.134724990
0.985451996 0.000000000 0.148766786
0.997343361 0.001771221 0.164832592
0.996078014 0.003922000 0.185199380
0.031751998 0.028209999 0.029980775
0.031751998 0.028209999 0.031752001
0.040353999 0.028209999 0.035674002
0.058064386 0.029980775 0.039468840
0.075395316 0.034661774 0.046679001
0.098671764 0.039974999 0.044402160
0.127513871 0.035674002 0.045667224
0.153953344 0.037318289 0.055028636
0.192915872 0.035294093 0.053763356
0.218595982 0.027324770 0.054269414
0.245793864 0.023908902 0.050854035
0.275142491 0.016824521 0.046805520
0.304870427 0.011258874 0.044908226
0.340291053 0.006198742 0.043390032
0.375585139 0.005439642 0.047564767
0.408981562 0.005819195 0.049082804
0.443896145 0.002783195 0.055155188
0.482100129 0.003922001 0.060088992
0.518532991 0.003922001 0.066161014
0.559013367 0.005439642 0.073750652
0.604554176 0.000506003 0.080581740
0.645541251 0.001771226 0.086654000
0.691967487 0.000126512 0.090701982
0.741555929 0.003162904 0.102845997
0.785072565 0.001644712 0.108412281
0.832257986 0.001391672 0.114737317
0.872738957 0.003922000 0.118279584
0.911954284 0.002530326 0.124351993
0.959898710 0.002150774 0.136875212
0.978620768 0.003921539 0.150031626
0.996204793 0.018469151 0.164705977
0.998228788 0.040480770 0.182163224
0.036559161 0.042884320 0.037823997
0.040353999 0.042884320 0.036559161
0.047691159 0.042884320 0.038709611
0.064895481 0.041619159 0.041745998
0.084629774 0.042378157 0.048956163
0.100189708 0.050600931 0.042884164
0.131056160 0.052118998 0.045667000
0.160530955 0.050980609 0.049715411
0.192409933 0.052498221 0.058823999
0.219734341 0.049462479 0.053763352
0.244528696 0.043896448 0.046805710
0.275142491 0.039342068 0.046299905
0.307779968 0.032510679 0.044402160
0.341302931 0.024414998 0.044149127
0.376723796 0.022390742 0.045161255
0.408222795 0.019228159 0.047059000
0.444402218 0.016445193 0.052878026
0.482099950 0.013409582 0.061986405
0.519797802 0.012777160 0.068691015
0.557748377 0.011764647 0.077545978
0.601012170 0.009108003 0.084123738
0.645541251 0.001012003 0.092219993
0.688045979 0.000000000 0.092978992
0.736242771 0.001897743 0.102845997
0.784819603 0.001644712 0.110689282
0.827450812 0.001391672 0.113725640
0.871979892 0.003922000 0.118279316
0.909170985 0.003922000 0.125869900
0.953826368 0.012777159 0.134851128
0.987729132 0.025933083 0.154332399
0.992030144 0.036938496 0.169892594
1.000000000 0.083238319 0.181657165
0.040354453 0.061859995 0.044275545
0.049462162 0.062239543 0.040480837
0.059708867 0.061480545 0.042504773
0.073624320 0.060594931 0.044781610
0.097912997 0.057558544 0.047059000
0.107020609 0.063630544 0.040987000
0.137001649 0.069702543 0.046805676
0.167362243 0.073750705 0.052751321
0.195066094 0.075648449 0.057305906
0.222390503 0.072612055 0.057305899
0.245034412 0.064895868 0.047564805
0.273624182 0.059835836 0.044402257
0.307400525 0.057178997 0.047059000
0.343326628 0.054395642 0.046805967
0.376597226 0.054395642 0.043769583
0.406704783 0.050347649 0.046679348
0.439342171 0.044655096 0.053130992
0.478304565 0.039215580 0.064263023
0.520809412 0.036179960 0.073371433
0.558507144 0.031498928 0.082479812
0.600632608 0.025806095 0.088172257
0.645161688 0.018848643 0.092219993
0.687539935 0.007210638 0.098291993
0.729790986 0.007210638 0.104364000
0.778747261 0.007590090 0.112713285
0.826565266 0.008222762 0.118659124
0.869702637 0.012271089 0.123213448
0.909170985 0.012271089 0.135357440
0.947880864 0.029728338 0.139911160
0.980265558 0.054016549 0.153826386
0.999620438 0.082858726 0.174826041
0.999620438 0.113219544 0.183934450
0.049462065 0.086147994 0.053383932
0.058570448 0.089184381 0.044275545
0.074130483 0.085262932 0.049082838
0.088298865 0.082732931 0.052118771
0.103984997 0.081847318 0.050094616
0.128272995 0.078810930 0.047059000
0.147501245 0.084882930 0.048576675
0.169639409 0.087665930 0.047691002
0.192409933 0.088171996 0.045161128
0.222390503 0.087792449 0.045161132
0.252624720 0.087665930 0.048071001
0.279443175 0.084124252 0.042504936
0.308918357 0.082226865 0.042505000
0.340290993 0.081720799 0.046805967
0.370651752 0.081720799 0.043769583
0.408728778 0.081720799 0.052751601
0.443137199 0.079190612 0.058823735
0.477545530 0.075648293 0.064009994
0.511701047 0.072611973 0.070335045
0.554205835 0.075142354 0.079443432
0.597596228 0.072865061 0.086654060
0.642125309 0.069322996 0.092219993
0.684503555 0.064895801 0.098291993
0.723971963 0.064895801 0.104364000
0.770777583 0.067172512 0.112713285
0.818469048 0.066919543 0.117647000
0.864010096 0.067425862 0.120177060
0.912207365 0.079063863 0.132321045
0.946362734 0.089689836 0.139152050
0.977229178 0.103352338 0.148260415
0.996584058 0.120303772 0.164199963
0.996584058 0.140543938 0.180898055
0.076280639 0.112966314 0.047311679
0.080329031 0.113472380 0.045793612
0.089436866 0.114357993 0.040986773
0.106514998 0.111574993 0.047311999
0.121189311 0.110815994 0.047691327
0.136875317 0.105629385 0.042504936
0.161163956 0.102592997 0.047059000
0.180771634 0.107020706 0.050094616
0.202783093 0.107906319 0.049715191
0.234914333 0.107906319 0.053257637
0.255155057 0.107906319 0.043516550
0.285515308 0.105882064 0.046552934
0.315622926 0.105123311 0.046552997
0.347375333 0.107020989 0.052624997
0.377735496 0.111574993 0.056419902
0.410500079 0.109171808 0.060594313
0.446679503 0.110563122 0.069449678
0.481973439 0.109550901 0.072865002
0.521062613 0.106514998 0.075142018
0.562808394 0.109044671 0.083997361
0.603415370 0.112081051 0.095002986
0.646679282 0.111321956 0.100315996
0.689183950 0.110057116 0.103098996
0.731056213 0.112460315 0.104364000
0.779633105 0.119291604 0.112713285
0.828462899 0.124224953 0.121821657
0.873624444 0.126122639 0.125743255
0.914105177 0.134218633 0.131814986
0.954459071 0.141302615 0.143706635
0.980771482 0.156989038 0.156862587
0.998608351 0.172422603 0.170524970
0.998608351 0.190638632 0.185451999
0.091840707 0.132067993 0.051359698
0.096521385 0.135357410 0.048070703
0.105502933 0.137001693 0.044275768
0.119670860 0.133206531 0.045034993
0.136748999 0.132447541 0.050347995
0.146363005 0.130170703 0.046805993
0.170271918 0.128273085 0.052498698
0.186337993 0.125236705 0.051992707
0.206072196 0.128273085 0.055028319
0.236812219 0.129158705 0.060215250
0.258950055 0.127513990 0.053763669
0.285262704 0.127134442 0.051739246
0.315622717 0.125236705 0.054775633
0.348766625 0.128020063 0.060594670
0.381909966 0.134092405 0.068057992
0.409740686 0.136242792 0.070840992
0.447691649 0.136243179 0.075395189
0.482100129 0.138646409 0.080708288
0.522580981 0.136622667 0.081720427
0.566730022 0.139152348 0.086780362
0.608981729 0.145477429 0.096141703
0.650474370 0.147501692 0.105249584
0.693611681 0.147881195 0.106008507
0.736116529 0.153953210 0.107526705
0.783807814 0.159898683 0.112713285
0.832637608 0.167615384 0.123212978
0.880455434 0.173687398 0.132574350
0.920303822 0.179759398 0.137887239
0.959392726 0.185831383 0.148892939
0.983301461 0.195698798 0.161290661
0.998355269 0.214800984 0.177735686
0.998355269 0.233776107 0.189879715
0.097153999 0.147248194 0.062744997
0.103985094 0.153320774 0.055913903
0.114358097 0.154965311 0.052878093
0.128020152 0.156736031 0.050348096
0.148513541 0.147627637 0.055661097
0.155724093 0.149145946 0.055661097
0.175711319 0.149652004 0.060215227
0.194686696 0.147248387 0.063377999
0.206831098 0.146489099 0.060341995
0.231119886 0.149525493 0.063377611
0.256166995 0.147501230 0.062112771
0.282985508 0.146489099 0.062365737
0.313345999 0.146489099 0.064642541
0.343453109 0.147248134 0.068184935
0.378367901 0.153826833 0.077292666
0.407463580 0.157495394 0.079190098
0.439342350 0.161290288 0.082226284
0.483744532 0.164326519 0.085262507
0.520809889 0.164453000 0.088298872
0.563314378 0.167994931 0.092093639
0.607716560 0.173307836 0.095888734
0.650474370 0.181657180 0.102972873
0.696142018 0.181910172 0.106134988
0.739911795 0.190385997 0.109803803
0.785452545 0.197217092 0.115875989
0.832637608 0.203289077 0.124730974
0.877672136 0.209867164 0.136369064
0.922960222 0.216192186 0.145477444
0.963946760 0.222264171 0.157241970
0.987475932 0.233396590 0.167109326
0.996078014 0.245920673 0.180012971
0.996078014 0.267173082 0.192157000
0.109298006 0.171536982 0.062745005
0.118406393 0.177608982 0.053636622
0.129538491 0.175079018 0.055408072
0.141682491 0.174446493 0.058444493
0.154585555 0.177988425 0.058697492
0.169765919 0.168880045 0.058697492
0.182036489 0.167868003 0.056167170
0.196457714 0.164579019 0.056926228
0.212903097 0.161669493 0.060342006
0.234155506 0.167741492 0.066413999
0.261353403 0.167868003 0.069449611
0.286527514 0.167741492 0.070208520
0.313345999 0.167741492 0.070335001
0.343453109 0.168500528 0.071220554
0.370778233 0.177608907 0.080328934
0.403289258 0.181783825 0.082226492
0.437824368 0.186337978 0.086780675
0.477672517 0.191650927 0.094370894
0.529285073 0.194686562 0.097406514
0.566350222 0.200379729 0.103225514
0.608855188 0.204427734 0.103478737
0.653257728 0.209740639 0.102972873
0.696142018 0.218342975 0.106134988
0.744718790 0.224415004 0.112207003
0.788488567 0.230613515 0.120429799
0.832637608 0.236685500 0.130802974
0.877672136 0.243263587 0.142441064
0.920176864 0.252371967 0.151549429
0.962808132 0.258696973 0.163313955
0.987475932 0.271853387 0.170145214
0.996078014 0.288045973 0.177103102
0.996078014 0.300569534 0.192157000
0.124351867 0.187096864 0.074382998
0.130550385 0.190258995 0.065275349
0.139658764 0.196331546 0.066919737
0.153573871 0.194560573 0.071726836
0.167868420 0.195319414 0.072612129
0.172928795 0.196331680 0.067552127
0.193169191 0.187223285 0.067552127
0.211385444 0.187729031 0.071473703
0.228336751 0.186969876 0.074003905
0.243137375 0.188740864 0.069323130
0.258570760 0.186084747 0.066666998
0.283870876 0.188108474 0.071726866
0.310436428 0.190132514 0.073497869
0.341049910 0.192662776 0.074256897
0.373687327 0.201771155 0.083365276
0.401011914 0.206071928 0.090069860
0.440986484 0.212144196 0.089563683
0.482985228 0.219607860 0.092473119
0.523213029 0.224920794 0.097786032
0.566476762 0.233523101 0.098039001
0.606957495 0.237824112 0.100062996
0.650474429 0.242883980 0.102087259
0.693232119 0.252118826 0.108918346
0.741808951 0.263756871 0.112207003
0.785831749 0.269829422 0.116002284
0.826945126 0.275901586 0.121062681
0.869955957 0.282479525 0.128652871
0.917267740 0.291587293 0.140164450
0.954458833 0.298038840 0.154585809
0.984060287 0.307653278 0.165211618
0.996963620 0.320936263 0.175837710
0.998987854 0.331055999 0.195066124
0.143580243 0.208348989 0.080455258
0.151675969 0.213409379 0.081467375
0.153826505 0.214547798 0.072991744
0.161670059 0.219355091 0.077798903
0.176850259 0.217836782 0.080834806
0.188108936 0.217584193 0.079696514
0.202277303 0.214547917 0.076660253
0.218595982 0.210373238 0.075015545
0.237950921 0.212270498 0.081087843
0.252625257 0.212270498 0.077039771
0.271727115 0.209360868 0.075774863
0.290954947 0.210373238 0.074762993
0.315243244 0.212270498 0.079696640
0.343833059 0.214674249 0.081088252
0.375458628 0.222011402 0.088425405
0.412144035 0.230360702 0.093105733
0.444022626 0.234914497 0.099177733
0.487412781 0.242884234 0.097027004
0.522453964 0.248956263 0.097533010
0.564452767 0.259835333 0.102086991
0.605060220 0.267046481 0.102086991
0.648450375 0.272232622 0.102086991
0.692093492 0.281467229 0.107779741
0.738773048 0.293611258 0.108918101
0.784819603 0.303225547 0.118026540
0.824541330 0.309297949 0.121062569
0.864389837 0.315876037 0.125110805
0.911448300 0.324984014 0.135736987
0.953446925 0.335483491 0.150537804
0.982795358 0.339784712 0.163946956
0.997216642 0.352055848 0.175078854
0.997975767 0.363440752 0.194054261
0.159140006 0.234914273 0.086906999
0.167109251 0.238709763 0.088424996
0.172042638 0.240480989 0.088298514
0.176849663 0.240607470 0.081973158
0.184060887 0.242884174 0.084629998
0.201517984 0.239848569 0.086907282
0.217204317 0.239089310 0.086021677
0.230739981 0.237697631 0.082985580
0.245920181 0.238456726 0.081467189
0.264895946 0.238836274 0.084503487
0.282606214 0.238203406 0.086906999
0.303858370 0.236938536 0.086906999
0.326248914 0.238836274 0.085768647
0.350284666 0.239089236 0.088804968
0.377988815 0.244275630 0.093991347
0.414421409 0.252751440 0.096521191
0.452371716 0.262618631 0.101074994
0.490069449 0.269323200 0.106514573
0.524984002 0.275901288 0.101960652
0.566729784 0.287539303 0.108159289
0.609614253 0.297027111 0.108158998
0.651107132 0.305123627 0.109171130
0.696394503 0.314484239 0.109171130
0.739911735 0.326628268 0.108158998
0.784313917 0.335357219 0.116128922
0.830233932 0.345350921 0.126375958
0.866666734 0.351422906 0.129411578
0.910309672 0.359898686 0.137254804
0.953193903 0.369386256 0.151676163
0.982795358 0.379632831 0.166223958
0.998229027 0.386211216 0.180139199
0.994939625 0.401391625 0.195572644
0.166224003 0.265275061 0.097533002
0.172295988 0.265781045 0.091967002
0.178115025 0.265528023 0.092599742
0.186970055 0.265528023 0.094370835
0.199746579 0.264642566 0.091713995
0.214926958 0.261606932 0.091713995
0.229095355 0.263883740 0.090449028
0.243390054 0.265781045 0.089563705
0.256799161 0.266034096 0.087792926
0.281087965 0.269070506 0.090828553
0.295256019 0.272359163 0.096268028
0.313725322 0.271347314 0.098292030
0.335863292 0.269703001 0.097912647
0.359393001 0.269196987 0.094117999
0.380645365 0.272232592 0.097153611
0.413662612 0.280075818 0.098039001
0.449842006 0.290449053 0.100568995
0.487792104 0.302213579 0.106767543
0.530296981 0.311322004 0.109803945
0.572801769 0.323466092 0.117647298
0.616951168 0.333459765 0.117773518
0.662239134 0.343833059 0.114484102
0.707906008 0.355977058 0.117393970
0.747754693 0.368121088 0.114484094
0.789247572 0.376217574 0.120050281
0.834029257 0.385073036 0.129158661
0.880582094 0.396205038 0.137507975
0.917014837 0.402277052 0.140543580
0.958507597 0.408349037 0.154458806
0.986843944 0.417710036 0.169639185
0.998481989 0.430739671 0.186717197
0.992409945 0.445920080 0.204934001
0.184439987 0.295635819 0.091461003
0.190511987 0.301707804 0.091461003
0.194433749 0.300063014 0.094497003
0.203162566 0.298924387 0.102466576
0.218089819 0.297785938 0.109929979
0.236179322 0.288931310 0.109929979
0.241239727 0.293485403 0.097280301
0.256673098 0.298924804 0.096774414
0.271473736 0.301454693 0.099430986
0.278051585 0.299430460 0.099936932
0.308159322 0.305375963 0.100063413
0.330676913 0.304743648 0.101328418
0.353194475 0.303984731 0.103605412
0.374573380 0.305628985 0.106261984
0.389752954 0.299556971 0.094117999
0.420619965 0.307400197 0.097153611
0.454649150 0.316508591 0.098039001
0.491207957 0.326881796 0.101833984
0.536369026 0.338646382 0.112839542
0.578873754 0.353320777 0.113092579
0.621378481 0.362175822 0.114990167
0.664515853 0.371916533 0.113724999
0.707906008 0.386337787 0.114357583
0.756482840 0.398481816 0.114357583
0.796331346 0.410625815 0.116002284
0.837824285 0.421505302 0.123086669
0.880582094 0.432637781 0.131688997
0.917014837 0.438709795 0.137507960
0.956103742 0.444781780 0.153826386
0.983807564 0.452624977 0.169639185
0.996710598 0.464136809 0.189247176
0.995445609 0.479317218 0.217077985
0.202656597 0.333206773 0.097406797
0.208728597 0.334471792 0.099809989
0.212649822 0.338393569 0.106261767
0.219481319 0.337128401 0.106261633
0.232005253 0.336748868 0.109677002
0.240100995 0.331688732 0.113724999
0.255281299 0.335230768 0.105882317
0.263250977 0.338013768 0.100569278
0.281467378 0.341049761 0.104364187
0.292726159 0.339658082 0.104364187
0.317140698 0.338140398 0.104364187
0.339405477 0.340164393 0.108412184
0.362935007 0.338646591 0.109171189
0.385452241 0.340417355 0.112207189
0.404933363 0.340796590 0.108665191
0.432131380 0.339531571 0.103731990
0.464010358 0.344085783 0.105249800
0.497153759 0.353700131 0.105882213
0.537381053 0.372928590 0.112713002
0.577735543 0.383048952 0.113724999
0.622137487 0.396331578 0.113724999
0.665148258 0.406451732 0.113724999
0.707779527 0.421379060 0.113851510
0.754079640 0.431245804 0.116128802
0.795825064 0.441113085 0.116128802
0.836685479 0.453130573 0.123212978
0.879190326 0.464769036 0.133839324
0.919418037 0.472738773 0.143706799
0.956103742 0.481214583 0.155597776
0.981404185 0.489057332 0.170271769
0.995445788 0.497280180 0.192789152
0.998481810 0.507906795 0.229221985
0.219355196 0.371157378 0.108032994
0.220872983 0.374193370 0.111068986
0.229348406 0.374825954 0.109297775
0.232384354 0.377862334 0.115875840
0.245287985 0.377356350 0.108538546
0.256293237 0.373181641 0.111195192
0.261859298 0.374699563 0.109171316
0.279949188 0.379000366 0.106641285
0.293611377 0.379759461 0.108159095
0.311828166 0.380518556 0.107400186
0.329791158 0.379127234 0.105881996
0.354585469 0.378115356 0.108412191
0.373940617 0.378115356 0.113345549
0.398102194 0.378115356 0.113978028
0.421884567 0.379886121 0.115243189
0.448829561 0.382036358 0.112839609
0.474636197 0.383554548 0.114358187
0.504996896 0.384186953 0.112460621
0.539658248 0.402276933 0.111954227
0.581910312 0.414168537 0.112207197
0.623656094 0.428210169 0.113724999
0.669196486 0.441366315 0.113724999
0.711954236 0.456167161 0.113724999
0.753320754 0.463883489 0.115369715
0.797343254 0.477545470 0.119165190
0.839594960 0.485262543 0.123339497
0.881214321 0.496141553 0.134851068
0.921695054 0.504237771 0.145983696
0.955850422 0.514864028 0.158127785
0.984440207 0.520936310 0.173308149
0.995193005 0.532700539 0.188994154
1.000000000 0.541303158 0.227703810
0.231372997 0.410120100 0.116382010
0.232131585 0.416192085 0.120683387
0.237317994 0.416698098 0.116382211
0.246932149 0.418595672 0.110436425
0.251106977 0.421252519 0.113472037
0.274383008 0.415686518 0.110942349
0.280961156 0.414674520 0.110436410
0.291207701 0.415053964 0.110815875
0.312333614 0.418089598 0.113598518
0.330550402 0.421126008 0.110562898
0.344844967 0.420620114 0.107526705
0.365844220 0.421252519 0.107906252
0.392156780 0.421885103 0.110942349
0.413915157 0.422138065 0.114231065
0.441239536 0.422517508 0.117646992
0.466666341 0.424288303 0.115243196
0.492852330 0.426691741 0.114863820
0.514737129 0.429728091 0.119671434
0.545098007 0.432763755 0.110563025
0.586844087 0.443516821 0.109171420
0.629854918 0.456926107 0.110436268
0.672106564 0.474130273 0.112460010
0.717520416 0.489057600 0.112586521
0.754965246 0.495635509 0.113092586
0.797596276 0.509550691 0.119544566
0.843769372 0.523465872 0.125743300
0.887286603 0.530044615 0.135863066
0.923592865 0.536243081 0.145224437
0.954711914 0.547628105 0.158254117
0.982795358 0.555091739 0.175205380
1.000000000 0.558760524 0.193295538
1.000000000 0.576976538 0.217583567
0.231373027 0.458697021 0.110310003
0.246552631 0.464769006 0.119418375
0.249462023 0.462239027 0.119418219
0.254269183 0.461733013 0.114610992
0.263251007 0.466793031 0.110436417
0.275395006 0.466793031 0.113472030
0.288551658 0.466287017 0.113472030
0.301328242 0.464642733 0.111827739
0.318532109 0.463630885 0.110815868
0.339658052 0.466666520 0.113598518
0.360783935 0.463883936 0.110562906
0.381277263 0.465148747 0.109550975
0.405312955 0.467931688 0.110942356
0.432131976 0.470714986 0.114231057
0.459456354 0.473750591 0.120303825
0.479569942 0.474130005 0.116508357
0.504617393 0.474382997 0.112207189
0.532953918 0.475268632 0.110563025
0.557242036 0.478305012 0.110563010
0.590386152 0.486907333 0.107020631
0.628589749 0.494370997 0.106135018
0.668311119 0.504491150 0.106387995
0.708412051 0.519418478 0.106514521
0.750916839 0.528526068 0.109550916
0.792915583 0.539658606 0.121442251
0.838456273 0.552308977 0.130297318
0.884250224 0.563441098 0.135863081
0.917647302 0.572549403 0.151043460
0.948639929 0.584060967 0.168374658
0.979000330 0.592662990 0.189626873
1.000000000 0.596711040 0.210752621
1.000000000 0.598229051 0.226692006
0.248071015 0.515623093 0.112586647
0.257685333 0.516129076 0.116129033
0.266413718 0.520050347 0.116634868
0.270208716 0.518405795 0.113598801
0.278178394 0.520682752 0.110183448
0.290322363 0.520682752 0.113219060
0.304996699 0.523213089 0.113724999
0.319038719 0.521821380 0.112080708
0.335736811 0.520303488 0.111321993
0.356989235 0.523339629 0.116381876
0.383807600 0.526122987 0.113598518
0.407084227 0.523086846 0.112586647
0.429095715 0.523466110 0.111448295
0.452625424 0.525110781 0.111195318
0.474889755 0.530676723 0.114737116
0.504617333 0.531309128 0.113599092
0.528905571 0.532827318 0.107906356
0.557368517 0.533459902 0.103605419
0.583807409 0.532194734 0.101454638
0.616445482 0.535231113 0.101454638
0.647944331 0.542441726 0.102213733
0.687792242 0.550537765 0.107147351
0.732573867 0.563820362 0.114357874
0.772422552 0.575584829 0.117394269
0.812650025 0.584693015 0.122707359
0.853257298 0.594940007 0.133586302
0.895635724 0.605186820 0.141935140
0.931308925 0.614295185 0.159392789
0.964706123 0.623402894 0.185199142
0.984566689 0.630107582 0.205566168
0.999114394 0.636938751 0.230613545
0.997216642 0.644528747 0.255281746
0.260594755 0.569513202 0.113724999
0.269702643 0.567615449 0.111068651
0.276660740 0.571663380 0.115496226
0.282732755 0.574699342 0.111194998
0.289943188 0.574952424 0.108285807
0.303604990 0.573434174 0.111321799
0.316382080 0.577861786 0.104237750
0.333206743 0.575964451 0.109171033
0.351676077 0.573434174 0.108665355
0.375205487 0.575331926 0.113599002
0.398481876 0.576470554 0.110942133
0.423782498 0.579253972 0.111827739
0.446932644 0.577356219 0.109550744
0.468944013 0.577862203 0.106767975
0.495129615 0.583934188 0.113092579
0.517899930 0.583301485 0.113219067
0.549778521 0.586337507 0.110183455
0.577862024 0.588488340 0.104491003
0.605186522 0.585452199 0.100189768
0.634282112 0.587982118 0.098039001
0.667678714 0.591018498 0.103731729
0.698038995 0.595066488 0.102719866
0.740923226 0.603541970 0.108791761
0.780391991 0.613915205 0.118912168
0.819860995 0.623781979 0.128020257
