Assets/Resources/EldamarStudio/100 Horror LUTs Pack/LUTs/cube/Stormcoin LUT.cube
LUT_3D_SIZE 5
DOMAIN_MIN 0.000000 0.000000 0.000000
DOMAIN_MAX 0.903226 0.903226 0.903226
0.039216001 0.043136999 0.058823999
0.167741701 0.053257290 0.072232708
0.351802796 0.047691423 0.059456423
0.593548357 0.083365127 0.062871993
0.902593434 0.111194983 0.086400822
0.069576293 0.160531700 0.061100710
0.168374702 0.166729987 0.066033997
0.347880989 0.177861989 0.069955997
0.598481834 0.212523833 0.077672593
0.903858542 0.250221521 0.064389870
0.146489829 0.327007949 0.066666998
0.217457533 0.328652680 0.069955580
0.357115805 0.331562400 0.062744997
0.598482251 0.387855649 0.036053304
0.906388462 0.449336052 0.005186845
0.232511118 0.596584260 0.000000000
0.306135565 0.598861337 0.003922000
0.472232819 0.607337117 0.002277288
0.670082092 0.618090272 0.000000000
0.930676758 0.667678833 0.002656833
0.430613428 0.903731763 0.053130552
0.486147612 0.915496767 0.073371053
0.615560055 0.911574781 0.085641734
0.786337793 0.917141080 0.117773324
0.970398486 0.914231598 0.165971160
0.051992703 0.068943709 0.143200412
0.167109683 0.064389706 0.133080706
0.312966108 0.097406581 0.139911413
0.536369622 0.119924121 0.161163703
0.871220767 0.123592824 0.178494409
0.111827984 0.148766696 0.124224991
0.180518389 0.162175983 0.137634695
0.306388110 0.182795689 0.143200412
0.545856953 0.205312982 0.161416993
0.878051877 0.244655237 0.174572989
0.173940405 0.298165828 0.142567992
0.226312384 0.308032811 0.139279008
0.342062205 0.314231694 0.140543997
0.576596975 0.368247658 0.146742553
0.895003021 0.439848095 0.164199814
0.245667130 0.583427846 0.114737704
0.314990669 0.584187210 0.116761275
0.462492228 0.587728977 0.111068994
0.646932244 0.599494100 0.103225566
0.923466027 0.663124859 0.148260683
0.461733282 0.904111326 0.224161848
0.505123317 0.900442660 0.217584014
0.626691997 0.902213931 0.232510686
0.792662740 0.906514764 0.253383845
0.964832544 0.916508496 0.281594098
0.150410995 0.081087999 0.283112407
0.228209987 0.088930994 0.270714819
0.347880960 0.109171413 0.251106977
0.558001280 0.123213284 0.280961514
0.867932022 0.138772801 0.334850967
0.180139109 0.194180995 0.248829693
0.233396396 0.192536697 0.240606993
0.338772774 0.194180995 0.233776093
0.548133790 0.215180412 0.273371398
0.865907729 0.259076387 0.329664558
0.208602414 0.315243810 0.228210390
0.258949965 0.321062386 0.243263826
0.399620354 0.355091393 0.269449800
0.579885960 0.381024688 0.279316813
0.873750746 0.456672758 0.348766357
0.281594127 0.563187838 0.283618122
0.341302991 0.569765866 0.288172275
0.473877519 0.573308110 0.291081786
0.646553099 0.588994384 0.300569236
0.911701560 0.667805254 0.371031046
0.517520368 0.884756327 0.417457461
0.551549554 0.887792528 0.420999497
0.659329593 0.890701711 0.433902323
0.801391542 0.896647751 0.448703319
0.973181546 0.907021046 0.474003553
0.255028248 0.127513990 0.532701135
0.339658707 0.131435990 0.536369264
0.483618110 0.133712709 0.516761661
0.659329236 0.120683126 0.510183275
0.890575409 0.156862661 0.529538095
0.262492269 0.244908705 0.508791983
0.331815541 0.246173695 0.506261826
0.478431076 0.238076985 0.500442863
0.641366005 0.235420406 0.483111978
0.893358767 0.276913226 0.532447636
0.287033826 0.410752803 0.483491272
0.354205936 0.410752386 0.487665981
0.483364850 0.411132544 0.477925539
0.645541251 0.411132544 0.476913273
0.890069366 0.474636525 0.541049838
0.342441112 0.596584260 0.482859224
0.402276844 0.595445991 0.481088132
0.530423820 0.605945528 0.489942849
0.721948266 0.649462283 0.533839285
0.911321759 0.700189769 0.585452259
0.562302470 0.882858574 0.612650335
0.600885510 0.889943063 0.616318643
0.693611503 0.887792349 0.637318015
0.818469048 0.891460776 0.642884195
0.959645391 0.902466595 0.668184400
0.340164781 0.239594772 0.868690431
0.410626411 0.243896320 0.858823419
0.557748377 0.255407780 0.858823180
0.757242024 0.272485584 0.855407894
0.944212615 0.317140728 0.845287561
0.372549057 0.348134041 0.863757312
0.429095805 0.358001173 0.857937813
0.578494489 0.361290157 0.854016423
0.761163831 0.376723558 0.845793784
0.946236610 0.405312985 0.845920265
0.486274183 0.558127820 0.846426547
0.520809770 0.555471063 0.842504442
0.631245971 0.560025454 0.843896389
0.779253483 0.565338433 0.839215398
0.942315042 0.580392241 0.843389928
0.550410926 0.732574046 0.848576427
0.584693134 0.731941819 0.845793843
0.684503436 0.743706465 0.845287561
0.800506175 0.748007774 0.843643308
0.945603669 0.752941251 0.846552372
0.628083467 0.902593374 0.859582603
0.656419873 0.902213812 0.867046118
0.727260768 0.905123413 0.861479998
0.839595199 0.909044802 0.865148604
0.958506942 0.928525984 0.888298392
