Assets/Resources/EldamarStudio/100 Horror LUTs Pack/LUTs/cube/Stormcoin LUT.cube
DOMAIN_MIN 0 0 0
DOMAIN_MAX 1 1 1
LUT_3D_SIZE 32
0.039216001 0.043136999 0.058823999
0.039216001 0.043136999 0.058823999
0.047817998 0.045287773 0.058823999
0.065022320 0.048323840 0.060088836
0.089310996 0.051359549 0.063124545
0.113598995 0.054395933 0.066160932
0.140417323 0.054901998 0.069196679
0.167741701 0.053257290 0.072232708
0.193548098 0.050221097 0.074510001
0.214800492 0.047185481 0.074509993
0.247691602 0.044149127 0.065781131
0.275015980 0.045161255 0.060721260
0.300442636 0.048197355 0.059962351
0.327514052 0.050727036 0.062492032
0.351802796 0.047691423 0.059456423
0.383301795 0.049462192 0.063630991
0.415180385 0.055534188 0.068184800
0.446806103 0.064642563 0.070588000
0.483238995 0.073750958 0.070588008
0.519671023 0.071726643 0.073371358
0.556103468 0.076280735 0.066920005
0.593548357 0.083365127 0.062871993
0.633270442 0.086401477 0.074636482
0.678810894 0.089437097 0.077672102
0.722074509 0.092473283 0.078431003
0.765970945 0.095509320 0.075648010
0.811512053 0.099050999 0.071599998
0.857052386 0.105122991 0.077671997
0.902593434 0.111194983 0.086400822
0.944592118 0.120809413 0.088425234
0.978747606 0.132953972 0.087160379
1.000000000 0.145098001 0.090195999
0.048323616 0.043136999 0.061859611
0.033144001 0.043136999 0.061859611
0.048197772 0.047437999 0.066160612
0.069323547 0.053889774 0.062871613
0.095003545 0.060467932 0.057431996
0.116635382 0.063504316 0.063124545
0.143453717 0.058950387 0.071220934
0.169133380 0.059582673 0.073624387
0.194307193 0.060088385 0.072992004
0.217836887 0.059329480 0.068437994
0.236179397 0.059202999 0.065528125
0.266919732 0.062365383 0.062744997
0.295509279 0.065274999 0.061859611
0.324984401 0.066160388 0.062998027
0.354838401 0.065907419 0.065528423
0.379127175 0.067678802 0.062492196
0.410626173 0.070714578 0.065148801
0.444402307 0.074889004 0.068817377
0.483238965 0.076786593 0.073624380
0.514105022 0.088678330 0.068058379
0.551929235 0.088804774 0.068438001
0.591524601 0.092473254 0.066919997
0.633270442 0.095762119 0.074636482
0.678810894 0.104617484 0.077672102
0.724351823 0.105376385 0.080708288
0.769006968 0.109044991 0.082859062
0.814041793 0.113219388 0.081720650
0.857052386 0.114231378 0.077671997
0.897279739 0.125616357 0.086400822
0.943832994 0.132447362 0.084882803
0.979127407 0.142061830 0.083744437
0.993928015 0.154206395 0.093232386
0.042378001 0.058190770 0.064895771
0.046552613 0.058190770 0.058443997
0.048576999 0.053889770 0.058444001
0.069829382 0.059961773 0.063251160
0.095762320 0.067425549 0.058191225
0.122327931 0.070461936 0.066033997
0.135736778 0.074510001 0.068184547
0.167994857 0.070082292 0.069070227
0.194307193 0.072106093 0.068817317
0.218595982 0.073497772 0.066919997
0.243516773 0.073497772 0.068058133
0.263757050 0.073497772 0.062998004
0.293738276 0.077039778 0.062744997
0.323846012 0.077292807 0.062492032
0.352308720 0.079190545 0.061733413
0.382162809 0.083744578 0.064263195
0.411005795 0.086780578 0.065780997
0.445034891 0.090448767 0.070082217
0.482985914 0.093484782 0.076154225
0.516255796 0.100315943 0.071094222
0.550411224 0.104870223 0.066919968
0.589627087 0.106894478 0.067678869
0.631119728 0.111069031 0.072359227
0.676660657 0.116128907 0.073371097
0.722201049 0.120556772 0.074256510
0.767742157 0.121948093 0.077292897
0.812776923 0.127767056 0.079317160
0.855281591 0.132700771 0.074889101
0.897279739 0.139025763 0.077798821
0.938519299 0.152940959 0.086907193
0.979253650 0.159266144 0.084503539
0.996457994 0.167615771 0.094117999
0.039089162 0.076913163 0.064136997
0.048703164 0.076913163 0.062618613
0.059961773 0.075142153 0.057431996
0.076660149 0.072865322 0.058697157
0.096774086 0.078178324 0.060215451
0.121821858 0.080329090 0.064010061
0.142062008 0.085895166 0.066793159
0.159645557 0.089563452 0.067299001
0.193801254 0.088045254 0.063504092
0.218595982 0.091081642 0.066540480
0.244528696 0.091208160 0.067046128
0.269070268 0.091208160 0.067805164
0.292599648 0.092346512 0.062871516
0.322327882 0.092726029 0.062744997
0.348640382 0.095762409 0.060721260
0.379633129 0.099937148 0.061227188
0.412776560 0.101960957 0.063250996
0.446806103 0.105629146 0.069955565
0.483238965 0.111701168 0.076660156
0.516888380 0.117773160 0.072864994
0.552182436 0.122580156 0.071220741
0.591651082 0.122580156 0.071221001
0.631625473 0.128273338 0.074003659
0.674889743 0.133586258 0.070588000
0.720430255 0.136622444 0.070588000
0.763440609 0.139658481 0.073244512
0.808981836 0.142694220 0.074762844
0.852245688 0.150284603 0.070967555
0.897280097 0.156736150 0.074509673
0.938519299 0.166856185 0.078558035
0.975711167 0.180265591 0.087666437
1.000000000 0.184060991 0.094117999
0.046679452 0.093611546 0.058823999
0.055028547 0.093232095 0.067552164
0.065022089 0.093232095 0.065527998
0.082352705 0.094497159 0.064010158
0.107779540 0.096774548 0.065148905
0.119924322 0.096774548 0.056040518
0.144339323 0.101834543 0.057432320
0.167995155 0.105882376 0.060088836
0.190386087 0.108538635 0.063124545
0.217710495 0.111575022 0.066160932
0.242124975 0.111701541 0.064136676
0.267172515 0.111701541 0.064389706
0.292599648 0.112839893 0.065528356
0.319924027 0.115875572 0.062998027
0.344339252 0.118911959 0.063124545
0.374699771 0.122327797 0.062744997
0.409234822 0.123466358 0.062744997
0.445288002 0.121568538 0.064263016
0.481720865 0.127640560 0.073371410
0.516129375 0.133712560 0.072485641
0.551802874 0.139405087 0.072485738
0.590512514 0.143832549 0.075395457
0.636179447 0.144085571 0.081593961
0.676407754 0.152941003 0.074003644
0.719291687 0.157495290 0.070967548
0.763187647 0.160910875 0.072611995
0.802909195 0.164326057 0.077419005
0.848450303 0.167362452 0.071347006
0.896268010 0.172675535 0.075141989
0.940670073 0.181530505 0.079822674
0.975711167 0.193168595 0.083491512
1.000000000 0.202277005 0.092599906
0.043643065 0.120935924 0.058823999
0.067931838 0.117900319 0.064895995
0.078431703 0.117520869 0.060721163
0.091840863 0.118785709 0.059709162
0.110815927 0.121062540 0.065148905
0.122959934 0.118026935 0.053004134
0.145224705 0.123086929 0.056546710
0.166729987 0.125869930 0.058823999
0.186970249 0.126375869 0.060088836
0.211638510 0.126755416 0.063124545
0.236052990 0.126881927 0.066160932
0.264389515 0.126881927 0.064136676
0.292599648 0.128020287 0.063251063
0.319924027 0.131055966 0.062998027
0.347248405 0.134092346 0.066034414
0.371663660 0.139531925 0.063757129
0.402024180 0.145098001 0.062744997
0.435926616 0.148386940 0.064009987
0.469576120 0.148892954 0.070335038
0.508792222 0.154964954 0.076660074
0.547248662 0.159139678 0.075521737
0.586211145 0.162681744 0.073497869
0.627071083 0.165337950 0.072485566
0.675648689 0.171410739 0.081593968
0.713598967 0.175711572 0.076280944
0.757115364 0.180138975 0.072612263
0.802656233 0.185704932 0.071600005
0.842378318 0.191650450 0.071347006
0.887918770 0.194686830 0.070588000
0.935736358 0.199999914 0.075141981
0.975711167 0.208854914 0.078937069
1.000000000 0.220492989 0.080455132
0.063377641 0.140670642 0.061353676
0.069955453 0.145224705 0.059835996
0.087792456 0.144339323 0.065908000
0.097659834 0.144339323 0.061227158
0.112080991 0.145351097 0.063757226
0.128525987 0.142314926 0.058064774
0.145730644 0.144339323 0.058570322
0.168374702 0.145477608 0.061353676
0.189753413 0.146109998 0.062871672
0.215812981 0.149652004 0.067678519
0.242631316 0.149652004 0.065654866
0.262871295 0.149652004 0.066666998
0.292346597 0.150790647 0.065275319
0.322201312 0.153826609 0.065275319
0.347248405 0.156862408 0.066034414
0.379379779 0.159898803 0.071473993
0.407084048 0.165844306 0.068817124
0.440101117 0.171916306 0.067172587
0.475395352 0.175711334 0.067552328
0.514357805 0.181277335 0.073624328
0.555724204 0.185452059 0.081594057
0.594813287 0.188488454 0.077040195
0.633016825 0.191524446 0.068058319
0.679190636 0.195192814 0.069955900
0.720936239 0.201264992 0.074509710
0.764579237 0.204553992 0.070588358
0.813282788 0.209487632 0.068058319
0.854775608 0.215559632 0.068058319
0.897027373 0.224035472 0.070588000
0.942567706 0.230613381 0.070588000
0.978873849 0.240100905 0.079569578
0.994939983 0.253889650 0.091081321
0.069576293 0.160531700 0.061100710
0.084124021 0.168247983 0.061353672
0.090828486 0.166729987 0.066413999
0.107273705 0.167995155 0.068690836
0.117899984 0.167615697 0.066033997
0.133585989 0.163314462 0.064263217
0.150157928 0.165338308 0.058064681
0.168374702 0.166729987 0.066033997
0.191903993 0.163693801 0.066793092
0.220113784 0.167109400 0.071979709
0.242504865 0.169006705 0.069323160
0.268690675 0.170651406 0.066666998
0.290322334 0.170651406 0.068944000
0.322201312 0.173434705 0.069955997
0.347880989 0.177861989 0.069955997
0.376090795 0.180897802 0.068184994
0.407969385 0.188488379 0.069702812
0.438962549 0.194180831 0.067931578
0.474383295 0.199240699 0.066919968
0.515243411 0.203668416 0.067299299
0.554965198 0.209487438 0.073624328
0.598481834 0.212523833 0.077672593
0.637064993 0.215813175 0.065148801
0.681088030 0.221884802 0.066666998
0.725363970 0.225553408 0.065654710
0.767615318 0.231625393 0.064516008
0.817204416 0.235420689 0.062239360
0.859709084 0.241492689 0.063377999
0.903858542 0.250221521 0.064389870
0.943200350 0.254396141 0.072232708
0.981656849 0.266160369 0.074889310
0.993801296 0.282099694 0.093105711
0.069576085 0.181784093 0.060341999
0.088551775 0.189373717 0.064895608
0.099936999 0.190006196 0.067678779
0.109550998 0.186211169 0.074762836
0.128526092 0.188488543 0.070588000
0.142188177 0.182796091 0.069070004
0.156103417 0.182795778 0.062745094
0.170651406 0.185705096 0.060721092
0.190385997 0.184946194 0.069829099
0.220746011 0.181910574 0.072865486
0.240986735 0.184693217 0.070841230
0.262998134 0.186970264 0.068564259
0.291081637 0.189627096 0.066666901
0.318406016 0.190133095 0.072485931
0.345730394 0.196205094 0.072992004
0.373054773 0.200632393 0.069703005
0.402656287 0.205945477 0.066666804
0.435547024 0.216825083 0.063630581
0.469323039 0.219987229 0.066413961
0.510309815 0.224541351 0.065401636
0.550917089 0.229475185 0.067299090
0.590892196 0.234535128 0.070841089
0.636559129 0.237824500 0.064895578
0.680328906 0.246932298 0.066666804
0.724351823 0.252245396 0.064389713
0.769892573 0.256673098 0.060721103
0.814927161 0.262745112 0.055155028
0.857431829 0.268817097 0.057685349
0.904111445 0.276786834 0.058823995
0.945097923 0.282859087 0.065148868
0.974825561 0.285136074 0.077166602
0.996078014 0.303352088 0.086274996
0.096900485 0.203036502 0.066413999
0.099936880 0.206072122 0.075521603
0.106009007 0.209361285 0.071473777
0.114611000 0.209487826 0.070714839
0.128526092 0.206704557 0.076660000
0.152814865 0.203668952 0.064516008
0.166476965 0.200506181 0.065528318
0.177103192 0.202656507 0.066287480
0.190386012 0.206198603 0.066793479
0.214674011 0.203162983 0.066793479
0.239215747 0.205945626 0.066919997
0.259202987 0.206957504 0.066793479
0.282352775 0.208222657 0.065528356
0.312334001 0.211385503 0.063377544
0.339658380 0.217457488 0.066413932
0.366982758 0.223529488 0.066919997
0.397343159 0.227957174 0.068184800
0.432510614 0.232005492 0.069702588
0.475015491 0.238077521 0.066666968
0.514358103 0.246805638 0.069449648
0.553953171 0.253763497 0.072232738
0.593421876 0.258823842 0.074383475
0.633523464 0.262112528 0.074003957
0.682100296 0.271220922 0.070967570
0.725870013 0.278052002 0.065907516
0.769892573 0.283997506 0.061353676
0.814927161 0.290069520 0.058191415
0.857431829 0.296141505 0.055155031
0.907906413 0.302213520 0.057685338
0.952182055 0.310183227 0.064136744
0.983554482 0.318026543 0.074256718
0.996078014 0.324604511 0.086274989
0.098039001 0.218469128 0.063757129
0.106894389 0.224415362 0.061227489
0.116382003 0.227450967 0.072485872
0.125237152 0.230487168 0.068690836
0.136116415 0.229981184 0.067552000
0.152814865 0.221884936 0.070588000
0.166982993 0.223909318 0.068563998
0.184060693 0.223276734 0.069576129
0.199747086 0.224541649 0.069576129
0.217583880 0.221505478 0.069576122
0.236052871 0.224288866 0.063757129
0.262365371 0.227324486 0.065781385
0.284376651 0.229348511 0.066666998
0.309171140 0.232637867 0.065654866
0.336495519 0.238709867 0.066034414
0.368627518 0.242378056 0.069070190
0.400000036 0.249462187 0.068058327
0.434028983 0.256546557 0.067678869
0.471979886 0.264895856 0.066919968
0.508918583 0.270967871 0.066666998
0.550158441 0.279949456 0.065781131
0.591651142 0.286021739 0.061733130
0.633270442 0.289183855 0.054269612
0.679063916 0.295508891 0.056799229
0.723086715 0.302339971 0.051486138
0.766983092 0.308412373 0.050980125
0.812523961 0.314990669 0.052498326
0.857431829 0.323465854 0.049462549
0.902593434 0.326881707 0.043770015
0.944844842 0.336242706 0.049588881
0.978747308 0.346489489 0.060467724
0.998987854 0.354585737 0.074636258
0.104111254 0.241745755 0.060721260
0.117267631 0.245793760 0.061733123
0.118405998 0.251739472 0.063377999
0.130549997 0.252245396 0.071726844
0.141555831 0.252625257 0.066792995
0.158380926 0.245161563 0.069575995
0.177103251 0.246173292 0.072612256
0.189247251 0.247564971 0.070967548
0.207084000 0.247564971 0.069829099
0.220999241 0.245793745 0.068564259
0.243137255 0.246552855 0.068816997
0.261353254 0.249589249 0.064769253
0.288677633 0.252624869 0.065528356
0.311701030 0.255661011 0.065148741
0.335483402 0.259962231 0.068690740
0.373687118 0.263630450 0.071094446
0.404048294 0.269702435 0.068058066
0.436432809 0.278810829 0.065275319
0.471473992 0.287919223 0.066666998
0.507906735 0.294244230 0.066666998
0.546236694 0.300316244 0.062872000
0.586591005 0.309298128 0.058697004
0.627324700 0.314484507 0.048956260
0.674762905 0.320556492 0.048197359
0.718026519 0.330676526 0.042378008
0.766097307 0.335357189 0.037697688
0.812523961 0.340797246 0.040860269
0.855028689 0.348387063 0.039342463
0.900569201 0.356230348 0.051866259
0.942567825 0.359266281 0.040481068
0.974825561 0.370651215 0.050221238
0.997975767 0.380897999 0.066540003
0.116634987 0.269070625 0.061100997
0.126122743 0.270967871 0.062998258
0.132953867 0.273877293 0.063757129
0.136242643 0.276154160 0.066793486
0.148766190 0.273877531 0.069449648
0.166223869 0.270082623 0.069449648
0.183554679 0.270461947 0.070841320
0.202150643 0.272991627 0.069449939
0.215812653 0.273750722 0.069449551
0.228715658 0.274130285 0.067931831
0.247944385 0.274130285 0.068437777
0.269323260 0.275015891 0.069702610
0.289816290 0.276913643 0.065528356
0.317393720 0.279696286 0.062492032
0.341302663 0.281847060 0.065907642
0.374825567 0.287159830 0.070714802
0.410878927 0.292093456 0.069955811
0.440101475 0.301201671 0.061480008
0.474004030 0.310309947 0.062998325
0.511322081 0.317773640 0.063251354
0.549652338 0.326122612 0.060594711
0.589120746 0.332194626 0.054522712
0.626186013 0.341176510 0.048070505
0.674762785 0.348260611 0.040986616
0.718785584 0.356609643 0.034535076
0.763440907 0.365717679 0.032764036
0.816571712 0.369766057 0.028716294
0.857305646 0.376470625 0.026818715
0.900948763 0.386337817 0.036306515
0.942947388 0.393042713 0.048830178
0.976217270 0.398734897 0.044275939
0.997216642 0.410878927 0.062744997
0.134345055 0.296647996 0.066666998
0.134345055 0.296647996 0.066160999
0.141302764 0.296395034 0.064516224
0.151676059 0.295382887 0.064010158
0.162681550 0.293358564 0.066413969
0.177861929 0.296394944 0.066413969
0.191524059 0.297153980 0.066919968
0.206704438 0.297786325 0.064136967
0.224667996 0.300822079 0.061100900
0.242884010 0.303858489 0.070208520
0.255787730 0.303985000 0.067931838
0.274004251 0.304491013 0.068437770
0.296395004 0.304238021 0.068816997
0.320683092 0.304238021 0.062744997
0.351043820 0.304238021 0.059709389
0.380645007 0.311195254 0.063377962
0.411005408 0.319038391 0.064642809
0.442631096 0.325490445 0.061733037
0.479063988 0.334598064 0.055661026
0.518785417 0.343959361 0.053890001
0.558001220 0.354459018 0.052245293
0.597723126 0.365085095 0.047438003
0.637571037 0.371536583 0.041492488
0.686147869 0.380897939 0.026818095
0.730170548 0.387476057 0.018216038
0.774066925 0.393801063 0.018089632
0.819861054 0.400379092 0.024920937
0.865401387 0.409487456 0.015812559
0.907526612 0.420746088 0.012523846
0.948766530 0.429095417 0.021884948
0.981530964 0.437191993 0.039721552
0.999746978 0.449336022 0.060973968
0.146489829 0.327007949 0.066666998
0.146489829 0.327007949 0.060594998
0.157242045 0.324857742 0.062239230
0.169892296 0.323719412 0.064010158
0.180139273 0.323845834 0.066287450
0.177861929 0.329791307 0.063377582
0.200632647 0.332827061 0.068437584
0.217457533 0.328652680 0.069955580
0.233270302 0.325110704 0.068690568
0.248955980 0.328146458 0.070208520
0.267172724 0.328272969 0.070588000
0.286148250 0.332320988 0.067931838
0.308538973 0.333712608 0.068437770
0.332827032 0.331562400 0.068816997
0.357115805 0.331562400 0.062744997
0.380265772 0.336369395 0.062112574
0.407969803 0.344591975 0.060341582
0.439595401 0.352435380 0.056799583
0.476027578 0.358886868 0.058697399
0.520809710 0.370777816 0.044276055
0.559392869 0.378494382 0.041746013
0.598482251 0.387855649 0.036053304
0.640607417 0.398861676 0.023276508
0.689184248 0.414041311 0.020240113
0.733206928 0.418848664 0.010120302
0.777103007 0.425300479 0.004427756
0.823149681 0.433776170 0.004427603
0.871473432 0.442883819 0.003668571
0.906388462 0.449336052 0.005186845
0.948766470 0.454901993 0.015812950
0.983301580 0.462112576 0.030486997
0.996710598 0.476660401 0.039721601
0.158633992 0.357368588 0.057052396
0.158633992 0.359772384 0.067805186
0.169386759 0.359772384 0.053131185
0.178241596 0.358254611 0.056926169
0.186211541 0.358634055 0.061860003
0.195319653 0.362681776 0.060847871
0.200632647 0.363820255 0.060594812
0.223276705 0.363567293 0.061733104
0.241493091 0.357495517 0.060974009
0.259962112 0.357242107 0.060974009
0.280455530 0.362175584 0.063377813
0.298671782 0.360151857 0.063377813
0.320683271 0.363946766 0.060721360
0.344465613 0.363693774 0.060974009
0.364452809 0.363693774 0.059203006
0.391144782 0.366097599 0.057938002
0.413915366 0.369133592 0.054902006
0.444402516 0.375585198 0.049462426
0.482605845 0.383428007 0.048956353
0.522580266 0.397469819 0.040101640
0.566223621 0.407716542 0.028716266
0.603668451 0.415306717 0.024162080
0.643643200 0.425933242 0.012144208
0.692220032 0.436558872 0.006831106
0.736242712 0.447185069 0.006072009
0.780139148 0.451865792 0.001518196
0.825173914 0.459962040 0.001011999
0.869955659 0.469070137 0.004806995
0.910056651 0.480328649 0.000253028
0.946995735 0.486400962 0.001518196
0.982416153 0.492726028 0.015939184
0.996078014 0.506388605 0.028083201
0.169260189 0.389247179 0.046426199
0.172296196 0.392283589 0.055534206
0.172422782 0.396205187 0.059202809
0.190133169 0.391145200 0.048576806
0.193042636 0.391651213 0.055787615
0.205945730 0.398102432 0.055787615
0.219608188 0.394054174 0.052751616
0.232384697 0.395445883 0.052625101
0.252878189 0.393169194 0.051106904
0.273371667 0.390891880 0.051866002
0.293105841 0.392030180 0.048703492
0.313852161 0.396584243 0.051233813
0.332068175 0.394686997 0.051233813
0.355850816 0.397343189 0.048830006
0.377861947 0.398608357 0.048830006
0.400252759 0.399493992 0.045794010
0.427577585 0.401012182 0.045794010
0.453131169 0.401644766 0.039089438
0.489942998 0.408981621 0.034282032
0.529411793 0.422137767 0.028715966
0.569259644 0.435040951 0.021126075
0.611764431 0.444149345 0.013029812
0.649715185 0.453384161 0.004807003
0.698292017 0.463883489 0.001517999
0.740796566 0.471473485 0.000000000
0.781909943 0.480581850 0.001391672
0.826692104 0.487286448 0.001518192
0.869196832 0.496394813 0.005566188
0.910562932 0.505123377 0.002530012
0.945477188 0.518279552 0.000000000
0.978747845 0.524351537 0.002656599
0.994560182 0.535231173 0.018975198
0.179000974 0.423908710 0.037318431
0.184440404 0.426312506 0.037191644
0.184440553 0.431499124 0.042378031
0.186591148 0.432511121 0.046552449
0.207843542 0.421126097 0.046552449
0.217963189 0.431752145 0.046552449
0.234661624 0.428715795 0.042757437
0.250980556 0.424920827 0.038709447
0.268564165 0.427830517 0.038203552
0.286780953 0.427830517 0.041239936
0.306261957 0.425553232 0.035167567
0.327134818 0.427324116 0.032258127
0.347881138 0.432384104 0.034155872
0.366350174 0.432637125 0.034408905
0.392915547 0.435673535 0.034788448
0.416697919 0.435673535 0.031246446
0.440353990 0.435673535 0.026312876
0.467046559 0.435673535 0.026312875
0.497406632 0.438709944 0.017204469
0.534851491 0.447564960 0.014927235
0.574320316 0.459709138 0.011258589
0.614800870 0.472106099 0.006451578
0.657179058 0.481087983 0.000632576
0.704237819 0.492220134 0.000632576
0.746615887 0.500442564 0.000000000
0.787981927 0.508538783 0.000759096
0.827451050 0.518153131 0.003289424
0.869829237 0.527387977 0.003289424
0.911068976 0.533839524 0.001265167
0.949019492 0.543959677 0.000000000
0.975205183 0.556483507 0.002024028
0.993421972 0.562555552 0.011132428
0.191145018 0.463377953 0.028210010
0.194180638 0.463377953 0.016066022
0.199620605 0.467931986 0.018089984
0.204680994 0.471473992 0.022896819
0.213915586 0.469703019 0.025300011
0.235167950 0.463630974 0.025300011
0.252877951 0.466666669 0.025300011
0.266160727 0.465401709 0.021505015
0.277546078 0.464389920 0.016698115
0.292852998 0.467299014 0.013915505
0.316888005 0.467299014 0.016951144
0.340670526 0.467045993 0.012903025
0.363567650 0.469828963 0.009867055
0.384566993 0.475142002 0.010120088
0.405819356 0.478178412 0.013156472
0.432384759 0.476407170 0.013536027
0.457684934 0.475142002 0.008475842
0.482226193 0.475142002 0.002024066
0.506515086 0.475142032 0.002024062
0.539658427 0.475395054 0.004048383
0.577356279 0.483997524 0.004680966
0.617837250 0.497153878 0.004174967
0.660215497 0.511448085 0.003668968
0.699683905 0.517520905 0.003668965
0.742188513 0.526375711 0.001391679
0.787223220 0.536622405 0.000000000
0.833523095 0.548514009 0.000253032
0.872991443 0.560658038 0.000253032
0.910056651 0.567236006 0.000253032
0.950537324 0.575079203 0.000000000
0.984060585 0.583808005 0.001770998
0.999494016 0.589880049 0.008096060
0.203289017 0.511195719 0.010752987
0.206325337 0.508412361 0.006957637
0.215812713 0.510563135 0.005566413
0.224415183 0.512207568 0.007210831
0.232764363 0.511068940 0.006830987
0.246805951 0.512207747 0.006830987
0.265528023 0.511195719 0.006830987
0.280455410 0.512334108 0.006830987
0.294497371 0.512713730 0.004553991
0.315749526 0.517773628 0.003542122
0.342441350 0.515116751 0.003542121
0.362681866 0.515116751 0.004553991
0.385452390 0.516255379 0.002276996
0.408602089 0.519924045 0.002530028
0.432384759 0.517899811 0.005566411
0.458444148 0.520936191 0.008602187
0.482732564 0.521694899 0.007463838
0.507020831 0.523592353 0.002150781
0.535610735 0.525743127 0.000000000
0.568248153 0.528526425 0.000000000
0.599747181 0.526628733 0.003036383
0.636559486 0.534345388 0.003922000
0.677293003 0.547501206 0.003795488
0.719418287 0.556230187 0.001138644
0.758886635 0.566856384 0.001138643
0.799493968 0.576470435 0.000000000
0.841872454 0.586717486 0.000000000
0.879064143 0.596584737 0.000000000
0.915875673 0.603415728 0.000000000
0.952308357 0.611258924 0.000000000
0.983933985 0.619481683 0.008855180
0.997216642 0.625553727 0.030107729
0.217330739 0.554079711 0.002024260
0.216571644 0.554838777 0.000885613
0.227956995 0.558001220 0.000253034
0.238836154 0.559772432 0.002024260
0.249462545 0.557748199 0.000000000
0.266160756 0.559266388 0.000000000
0.273877472 0.554079711 0.001897740
0.297027171 0.557368696 0.001897740
0.311954737 0.558633804 0.001138644
0.333965749 0.563567460 0.000000000
0.357368618 0.562808335 0.000000000
0.380518496 0.561796188 0.000000000
0.402150631 0.561796188 0.000000000
0.427703798 0.563820481 0.000253032
0.455281556 0.562428772 0.003289416
0.480075777 0.564199507 0.002530195
0.508918405 0.565717697 0.004048004
0.533206880 0.567741454 0.002024260
0.563567758 0.569512665 0.000253032
0.591018379 0.574446857 0.000000000
0.622517407 0.575585425 0.000000000
0.652878225 0.573561192 0.002024260
0.689690232 0.582036614 0.002024260
0.730423808 0.591144621 0.000759096
0.770651281 0.602530181 0.001897740
