Assets/Resources/EldamarStudio/100 Horror LUTs Pack/LUTs/cube/Stormcoin LUT.cube
LUT_3D_SIZE 8
DOMAIN_MIN 0.000000 0.000000 0.000000
DOMAIN_MAX 0.903226 0.903226 0.903226
0.039216001 0.043136999 0.058823999
0.089310996 0.051359549 0.063124545
0.193548098 0.050221097 0.074510001
0.300442636 0.048197355 0.059962351
0.415180385 0.055534188 0.068184800
0.556103468 0.076280735 0.066920005
0.722074509 0.092473283 0.078431003
0.902593434 0.111194983 0.086400822
0.046679452 0.093611546 0.058823999
0.107779540 0.096774548 0.065148905
0.190386087 0.108538635 0.063124545
0.292599648 0.112839893 0.065528356
0.409234822 0.123466358 0.062744997
0.551802874 0.139405087 0.072485738
0.719291687 0.157495290 0.070967548
0.896268010 0.172675535 0.075141989
0.069576085 0.181784093 0.060341999
0.128526092 0.188488543 0.070588000
0.190385997 0.184946194 0.069829099
0.291081637 0.189627096 0.066666901
0.402656287 0.205945477 0.066666804
0.550917089 0.229475185 0.067299090
0.724351823 0.252245396 0.064389713
0.904111445 0.276786834 0.058823995
0.116634987 0.269070625 0.061100997
0.148766190 0.273877531 0.069449648
0.215812653 0.273750722 0.069449551
0.289816290 0.276913643 0.065528356
0.410878927 0.292093456 0.069955811
0.549652338 0.326122612 0.060594711
0.718785584 0.356609643 0.034535076
0.900948763 0.386337817 0.036306515
0.169260189 0.389247179 0.046426199
0.193042636 0.391651213 0.055787615
0.252878189 0.393169194 0.051106904
0.332068175 0.394686997 0.051233813
0.427577585 0.401012182 0.045794010
0.569259644 0.435040951 0.021126075
0.740796566 0.471473485 0.000000000
0.910562932 0.505123377 0.002530012
0.217330739 0.554079711 0.002024260
0.249462545 0.557748199 0.000000000
0.311954737 0.558633804 0.001138644
0.402150631 0.561796188 0.000000000
0.508918405 0.565717697 0.004048004
0.622517407 0.575585425 0.000000000
0.770651281 0.602530181 0.001897740
0.923845649 0.636053503 0.001897740
0.290449262 0.735483825 0.004933716
0.319418311 0.738140106 0.000379548
0.379633158 0.740037858 0.000759096
0.478304535 0.737760544 0.000000000
0.574067295 0.743200302 0.000000000
0.690828443 0.744592011 0.000379548
0.808981538 0.749525547 0.000000000
0.938773036 0.765085280 0.001265167
0.430613428 0.903731763 0.053130552
0.461100131 0.908412457 0.076659881
0.500316143 0.911701560 0.075142078
0.571916461 0.910309613 0.081973158
0.659582436 0.914231598 0.091967151
0.758507371 0.916887760 0.109171242
0.863757074 0.915496767 0.143453434
0.970398486 0.914231598 0.165971160
0.051359549 0.062744997 0.092093542
0.093232088 0.051739097 0.088551991
0.177482650 0.067425899 0.097912990
0.256926090 0.081467286 0.106261641
0.368880391 0.096394800 0.112080991
0.515749753 0.106261544 0.119164996
0.692979276 0.106261544 0.126755446
0.888424993 0.115496531 0.131561995
0.067805447 0.092472993 0.077166550
0.104617544 0.100695543 0.092093542
0.163314551 0.106135443 0.099556997
0.249842092 0.120683089 0.106261641
0.361796170 0.133586347 0.112966195
0.511322141 0.150790542 0.119164996
0.686274052 0.154332802 0.119418025
0.873118579 0.170398250 0.123719171
0.108918086 0.159392655 0.098797999
0.132447988 0.169639558 0.099177539
0.177862093 0.166476652 0.103478998
0.258823723 0.181784004 0.101074994
0.373561174 0.200885639 0.110056631
0.521442294 0.224414632 0.114863545
0.701075256 0.247944355 0.111574635
0.888424993 0.271600187 0.115875982
0.137507647 0.251360089 0.111321896
0.159013093 0.257305652 0.107779637
0.208728641 0.258064747 0.101074994
0.278052002 0.261985838 0.107400090
0.383681267 0.283870846 0.101834089
0.527134776 0.313219249 0.103858352
0.707779765 0.348513454 0.104490995
0.888298154 0.380898118 0.098039195
0.174193546 0.373940706 0.102720000
0.199873194 0.379127204 0.093738355
0.253763378 0.375838280 0.096520998
0.329791278 0.384566486 0.097659640
0.414294362 0.387223035 0.091081806
0.550790846 0.414927363 0.078937553
0.729032576 0.463504374 0.067425661
0.904237866 0.503099024 0.071726747
0.216065988 0.541049540 0.042378366
0.247944340 0.539405286 0.044275820
0.307653189 0.544465363 0.043137174
0.393042296 0.549652398 0.037444629
0.494497001 0.552435040 0.026438821
0.608349264 0.553826690 0.019608077
0.757242501 0.591524184 0.003415545
0.920935750 0.633270085 0.032131620
0.287665814 0.724731266 0.000000000
0.320177317 0.723213077 0.000000000
0.378874362 0.724225402 0.000758999
0.466160625 0.728526175 0.000758999
0.567615390 0.730170906 0.000000000
0.681973219 0.734092057 0.000000000
0.803162396 0.739784837 0.000758999
0.930676579 0.760404766 0.036812160
0.427830279 0.904743850 0.114990354
0.456673175 0.905882418 0.127261311
0.499809980 0.898292065 0.117520466
0.569765806 0.900442541 0.129917651
0.657305360 0.903099418 0.149652079
0.755597651 0.907906413 0.166476637
0.860341489 0.908665299 0.188614652
0.964579642 0.909424305 0.216318473
0.063377999 0.065907903 0.161417007
0.120303541 0.059203450 0.152055919
0.195952103 0.068184994 0.151296914
0.267173082 0.088172443 0.155597538
0.376091093 0.107400186 0.163061291
0.499177724 0.123466253 0.173560739
0.673371255 0.119291715 0.187855899
0.869955599 0.127640888 0.196963832
0.108665451 0.114104643 0.137887195
0.130550534 0.119544454 0.145477459
0.181024998 0.119924091 0.141050100
0.257431626 0.129285097 0.147754550
0.362302542 0.148893088 0.161543101
0.490701824 0.164705813 0.166982904
0.667425811 0.161543295 0.178494558
0.865148485 0.177356198 0.198229089
0.127767086 0.169260010 0.137128100
0.160784110 0.177482545 0.138014004
0.210878998 0.185705096 0.151296914
0.267172962 0.193548188 0.152435362
0.364200175 0.213156283 0.164579093
0.503605425 0.224794075 0.172296092
0.677166343 0.242884368 0.176217571
0.876027703 0.272486091 0.192789197
0.161416993 0.260974079 0.144971088
0.182163432 0.261733085 0.151676446
0.229221642 0.266414076 0.155977085
0.284377098 0.260088295 0.152814895
0.382163197 0.283997446 0.156356543
0.519418180 0.307780057 0.170777991
0.694876909 0.341809034 0.175584808
0.881973326 0.378494442 0.188361928
0.195952088 0.372928202 0.155977204
0.225806177 0.372802258 0.158760563
0.265528172 0.375205457 0.156736091
0.329411715 0.373561174 0.155976996
0.408096075 0.379886210 0.155218095
0.544592023 0.414168268 0.155597642
0.719671130 0.457305461 0.159139916
0.897153735 0.501581013 0.184693158
0.240606993 0.538393080 0.152941197
0.268184751 0.535989761 0.151296809
0.320303470 0.541935325 0.145604268
0.399873614 0.544592023 0.146995455
0.496141911 0.546868980 0.142314747
0.602150559 0.552435160 0.142694101
0.755344748 0.588487983 0.149019629
0.918911994 0.632764339 0.187729061
0.311448544 0.722707510 0.144591987
0.340797007 0.729285240 0.147754580
0.396837533 0.725996196 0.141555801
0.476533890 0.728399515 0.143453628
0.574699461 0.729158700 0.145351082
0.683238089 0.729538262 0.150411025
0.795825422 0.740164578 0.146869078
0.932953596 0.758254290 0.201644346
0.467805475 0.903605223 0.253257573
0.494244039 0.900316238 0.263251126
0.531688750 0.899683714 0.258823425
0.598608375 0.904996812 0.266792774
0.678178251 0.904870391 0.275015831
0.768627346 0.906008780 0.281720400
0.864895642 0.908285856 0.298545122
0.966097534 0.917267501 0.306641668
0.117773637 0.063377991 0.238836274
0.153826535 0.070461899 0.228209913
0.229095727 0.085389093 0.225932628
0.288172275 0.097533353 0.211891636
0.379127264 0.112460442 0.212271094
0.506894171 0.124731094 0.234155461
0.678431213 0.121569000 0.258443981
0.864895642 0.137001991 0.283111632
0.139658630 0.127640903 0.217457637
0.167994633 0.131941542 0.215053633
0.216065988 0.137507543 0.205565825
0.277545631 0.135104433 0.203542277
0.366856635 0.148892999 0.205945373
0.497153670 0.159772292 0.226565748
0.668564439 0.167362556 0.256040275
0.853889763 0.184313729 0.281087905
0.157115549 0.198988006 0.205186278
0.181657195 0.189753622 0.196458086
0.227071270 0.204933554 0.208096445
0.283111751 0.199367553 0.196204633
0.364832371 0.213030100 0.211511895
0.499557376 0.230739832 0.231752172
0.671979785 0.247564897 0.254648983
0.861733019 0.282606184 0.283997566
0.178241640 0.254522294 0.200632304
0.199746996 0.259582639 0.202150181
0.249082983 0.267425627 0.203288734
0.317900270 0.289310634 0.215306997
0.392663002 0.294876635 0.220113993
0.513093054 0.313219249 0.230993077
0.684123814 0.343200594 0.259709269
0.869702578 0.387349933 0.284377098
0.223403081 0.360531002 0.212903440
0.232005030 0.367615640 0.215686530
0.285895169 0.372675389 0.216571644
0.346869290 0.379000485 0.217710286
0.422390819 0.384440392 0.220872998
0.548893213 0.410752803 0.232257724
0.707906187 0.454522699 0.256166995
0.886780202 0.506134987 0.291587830
0.259329468 0.521695077 0.230993271
0.284250259 0.525996447 0.234155282
0.333586395 0.526755452 0.237950459
0.404048353 0.531562328 0.236938536
0.495762348 0.534598410 0.238077179
0.594180822 0.544465184 0.244655535
0.744971275 0.582163095 0.263630569
0.907779813 0.633902669 0.307906598
0.343326837 0.710942268 0.269829273
0.362175465 0.713345766 0.266413927
0.411006004 0.709424436 0.268690914
0.487919152 0.710942268 0.264263272
0.574826002 0.715243101 0.268690646
0.682479024 0.722454071 0.272991538
0.796078146 0.729917824 0.281087905
0.926628590 0.756230354 0.326881558
0.501454592 0.892472744 0.359645426
0.517014384 0.894117713 0.362049371
0.551675975 0.892725885 0.365591407
0.611638248 0.893231988 0.371030867
0.687413096 0.897153556 0.378873855
0.773687422 0.898418367 0.388614506
0.866793096 0.906009018 0.403288871
0.973054945 0.903984785 0.423908859
0.182542995 0.091714188 0.348766178
0.215433091 0.093231998 0.338013738
0.279696196 0.103478998 0.332954079
0.353194267 0.109803997 0.323466182
0.431499183 0.116761379 0.312587172
0.529285252 0.124604993 0.317014366
0.692979276 0.120809905 0.351549566
0.879316747 0.143959656 0.386211187
0.188614994 0.152814895 0.322707176
0.219481185 0.157242373 0.317394197
0.277419180 0.155597642 0.313725621
0.346742541 0.158760548 0.307526827
0.419481635 0.159013197 0.296900809
0.514990568 0.163820192 0.303478837
0.689816713 0.166983008 0.345350891
0.869323611 0.188614890 0.382289797
0.202150196 0.225679994 0.293485284
0.233649805 0.226818532 0.307653546
0.275015891 0.224794388 0.296774089
0.341176450 0.225679994 0.292093366
0.411132276 0.226439089 0.290575206
0.512839973 0.232384548 0.299810171
0.688171625 0.246806011 0.346868902
0.877798796 0.287919283 0.389120966
0.220999271 0.299178094 0.298418999
0.240986630 0.303605437 0.294876635
0.285895079 0.305502951 0.292472839
0.351676285 0.305882424 0.290195823
0.419607550 0.301075429 0.288930982
0.530297220 0.322580487 0.305502713
0.698418558 0.349146187 0.345098078
0.868437827 0.401897609 0.391903818
0.235926807 0.387729377 0.284250200
0.260973990 0.385452360 0.288677752
0.307021081 0.386970282 0.287413090
0.383807391 0.401771277 0.305755734
0.490322590 0.432384580 0.330423564
0.583428144 0.437697381 0.333839118
0.722201288 0.467425555 0.354712486
0.885388970 0.522706985 0.406831026
0.286274731 0.526628733 0.321821392
0.303225815 0.528020024 0.324477941
0.356736034 0.532068074 0.326502174
0.430360824 0.543453336 0.332447737
0.519291580 0.549399078 0.340670377
0.618342876 0.555597901 0.350284636
0.756103992 0.595192611 0.378368139
0.904996753 0.644402266 0.428463131
0.372675568 0.705502748 0.373687446
0.395698816 0.706009030 0.376470268
0.450221568 0.708791733 0.387602657
0.515243530 0.711195588 0.387476176
0.599873543 0.715876222 0.389753461
0.691081941 0.720176816 0.393548369
0.793295324 0.722074330 0.400505930
0.927767217 0.761669874 0.448070914
0.549272776 0.890701950 0.484882981
0.560278356 0.888678074 0.487033457
0.585578620 0.888677776 0.488425136
0.639595211 0.891461134 0.490448803
0.706514597 0.891840577 0.494623840
0.787223339 0.898924470 0.506135225
0.870715022 0.900063097 0.511701465
0.962808430 0.908791780 0.525489986
0.244908243 0.119417734 0.485135943
0.280455470 0.119797282 0.491081715
0.341429472 0.125363991 0.485262454
0.426439017 0.125363991 0.475015461
0.516129196 0.125489995 0.466540456
0.604680181 0.119671263 0.461606473
0.718279541 0.121569000 0.451866001
0.890069306 0.151802793 0.503731728
0.245793983 0.173181280 0.456166923
0.278431565 0.176217273 0.470208645
0.332700461 0.173940375 0.469576269
0.414041549 0.172675744 0.461733371
0.500695705 0.171537191 0.451866120
0.596584618 0.168880343 0.441745907
0.707273781 0.165717840 0.449209243
0.883744180 0.198608249 0.493358910
0.255408078 0.255534828 0.462492377
0.285136163 0.253131002 0.464389741
0.333586186 0.259076476 0.450347990
0.408222705 0.251739532 0.442504823
0.497153550 0.251865655 0.436306000
0.591524184 0.246299833 0.435547113
0.710942328 0.254648924 0.445920080
0.885262430 0.298418909 0.496268332
0.260720998 0.343200624 0.430360168
0.293358743 0.344465435 0.444022715
0.337760925 0.341303170 0.433396548
0.411764383 0.341303170 0.426818281
0.491461188 0.344085813 0.425173998
0.587350011 0.342568040 0.424794465
0.709803939 0.355724066 0.442377985
0.880834639 0.412397265 0.500063360
0.278684258 0.442378372 0.439595044
0.307653278 0.443896264 0.427830637
0.354332656 0.441492677 0.434029102
0.431372464 0.448323727 0.431246370
0.519924223 0.450221360 0.431878656
0.609993458 0.453257352 0.436685443
0.738772750 0.481467187 0.465654582
0.893358529 0.536875308 0.516002417
0.317140996 0.545983195 0.434282452
0.336242735 0.547880888 0.428842664
0.386337727 0.556230187 0.438583195
0.463124722 0.560151696 0.445414364
0.560277879 0.575078964 0.457938433
0.677419424 0.606957495 0.489310443
0.779380441 0.623782039 0.505249918
0.908791661 0.664769471 0.546995401
0.388867736 0.702466547 0.478431284
0.413282841 0.708159268 0.481341034
0.463124752 0.708285809 0.492220283
0.531435549 0.709803879 0.494497359
0.625553429 0.719038367 0.504996836
0.712333739 0.727514267 0.512966275
0.802656710 0.735230803 0.524984181
0.925616443 0.773687541 0.577482760
0.555724382 0.883617699 0.580518782
0.571537018 0.887412667 0.589247406
0.606957316 0.884629846 0.593042433
0.658317387 0.885388970 0.602150381
0.721568584 0.887412667 0.611258268
0.795192719 0.891461015 0.613535523
0.873624265 0.902972639 0.624161839
0.960404456 0.903225660 0.639595330
0.293105692 0.158127993 0.675015569
0.326375842 0.161796451 0.667552114
0.389500171 0.162048995 0.668690562
0.478051990 0.158759981 0.660974264
0.579759657 0.160404697 0.656166673
0.687160015 0.156862736 0.655028045
0.794307292 0.159392565 0.638077259
0.901834309 0.166982621 0.629221916
0.295383006 0.206831098 0.654648542
0.327640980 0.210499555 0.663883746
0.387223274 0.207210556 0.652751267
0.475522101 0.205186382 0.647438526
0.571031094 0.205439821 0.645034611
0.679190457 0.208981365 0.641492844
0.790385842 0.203289270 0.637950778
0.899683833 0.215180174 0.623908997
0.311068803 0.292093396 0.646046698
0.334977835 0.298545301 0.646805644
0.396331280 0.295888454 0.651486337
0.475774646 0.297027111 0.641492903
0.572549105 0.295129359 0.638836384
0.678684115 0.298671842 0.632131279
0.786970377 0.298798203 0.627703965
0.898418546 0.308538705 0.630740106
0.325869918 0.403162539 0.628083527
0.358001202 0.403668642 0.635673761
0.410246462 0.401897699 0.628969014
0.485515535 0.398734897 0.625300527
0.580139399 0.405059993 0.628589571
0.680075705 0.405819118 0.623908758
0.782036901 0.408854902 0.619734287
0.899051428 0.424161762 0.631119430
0.363187671 0.512080967 0.625426650
0.391144723 0.513345718 0.627450883
0.443896174 0.515117168 0.624667764
0.514105082 0.516761661 0.620746255
0.593801379 0.515117347 0.615939319
0.685009718 0.517773628 0.617078006
0.783301771 0.518153191 0.617457509
0.901834309 0.547501147 0.640607059
0.412776738 0.624920547 0.632890582
0.433649361 0.623782039 0.633902788
0.472106278 0.628083467 0.628463030
0.542441547 0.627703905 0.626438856
0.625426948 0.633017123 0.626691878
0.710436463 0.638583302 0.630487263
0.797849298 0.636685550 0.632384539
0.915369809 0.673497617 0.666287184
0.452751517 0.729917586 0.633143544
0.465401798 0.731435835 0.627703846
0.508032858 0.729158878 0.626818538
0.570777893 0.732194543 0.629728198
0.646299601 0.733839512 0.632511139
0.739658237 0.747248292 0.652371883
0.838077307 0.775331855 0.680202603
0.930803180 0.798987925 0.707400501
0.575711429 0.885894835 0.703099191
0.586464345 0.883364856 0.706262052
0.613788426 0.884756327 0.706894398
0.668564141 0.886653841 0.713345766
0.734977961 0.889057338 0.721315503
0.806451738 0.890701950 0.731562376
0.876154363 0.900822163 0.746110320
0.949272513 0.906894386 0.756483257
0.340164781 0.239594772 0.868690431
0.366729677 0.241239488 0.860720634
0.430107564 0.244149342 0.862871647
0.513978422 0.247311965 0.863377452
0.613788962 0.256925792 0.855407894
0.724604487 0.270967603 0.855660558
0.838962853 0.291460752 0.852119029
0.944212615 0.317140728 0.845287561
0.351549536 0.286021292 0.862112582
0.370904326 0.281467319 0.853636742
0.429222196 0.286654174 0.854901671
0.516635001 0.288804561 0.851865768
0.616192222 0.298165470 0.854016185
0.724984229 0.315243125 0.848703265
0.841492772 0.325237036 0.845414162
0.947880924 0.350790292 0.845667601
0.381151140 0.373940617 0.853383958
0.405313194 0.377482593 0.858570576
0.454902023 0.383554876 0.860467732
0.537507832 0.381404191 0.850600958
0.631372511 0.389753163 0.850347579
0.736369312 0.399999976 0.846552432
0.840228021 0.412144333 0.842378020
0.944971502 0.428842425 0.845920265
0.438962221 0.491587460 0.840607285
0.461859226 0.489690095 0.844275653
0.497786224 0.495129585 0.842757523
0.568500936 0.496520877 0.845034599
0.651359618 0.501707792 0.845034599
0.746110201 0.506641150 0.840101242
0.841492474 0.515117049 0.838836193
0.942694426 0.523339570 0.838456392
0.497786134 0.606072128 0.835799932
0.512839735 0.609867334 0.844149292
0.552561522 0.613282859 0.841113210
0.606704652 0.612144291 0.840859950
0.678051829 0.612523735 0.837318420
0.761669695 0.617457330 0.840986609
0.853130937 0.617077649 0.834029317
0.940164387 0.627324164 0.835167527
0.539531827 0.707020640 0.846552432
0.552940845 0.711827695 0.846931994
0.586464107 0.712207258 0.846299589
0.644528508 0.716508329 0.843769789
0.710436225 0.721568763 0.845287800
0.779000819 0.721948326 0.842378259
0.860088587 0.724604726 0.840227664
0.943579853 0.726628602 0.843516409
0.575964272 0.809867501 0.845793426
0.595951796 0.803162038 0.855281115
0.620240331 0.807084024 0.853004217
0.669829071 0.809361339 0.849209249
0.732700944 0.813282788 0.853130698
0.799240708 0.815559983 0.848070681
0.869702935 0.821125805 0.850980580
0.947121859 0.823149621 0.850474358
0.628083467 0.902593374 0.859582603
0.630866587 0.908285797 0.867299438
0.663503945 0.901960790 0.858950317
0.703225374 0.903858542 0.863251209
0.754206359 0.906261802 0.860721231
0.820872605 0.907020688 0.864136636
0.882479548 0.915243149 0.874636412
0.958506942 0.928525984 0.888298392
