Assets/Resources/EldamarStudio/100 Horror LUTs Pack/LUTs/cube/Targach LUT.cube
DOMAIN_MIN 0 0 0
DOMAIN_MAX 1 1 1
LUT_3D_SIZE 32
0.066666998 0.054901998 0.027450999
0.060594998 0.057938386 0.027450999
0.058823999 0.058823999 0.023150001
0.062618837 0.058823999 0.020872839
0.073244549 0.059582997 0.023908548
0.094496936 0.065655001 0.026944935
0.120809317 0.066666998 0.032511000
0.149778396 0.063377999 0.035294000
0.177862093 0.058064900 0.034535099
0.199114501 0.055028509 0.031499483
0.226185873 0.051992130 0.025553260
0.255534500 0.044908267 0.027577514
0.285894990 0.038077358 0.032511353
0.316508085 0.034788001 0.034788001
0.349905223 0.028716005 0.028716005
0.378494769 0.025047196 0.025047196
0.408855170 0.026565386 0.020493003
0.442251533 0.032005418 0.015053584
0.475647986 0.035041034 0.012017964
0.500695705 0.038077358 0.008981643
0.536369503 0.043010995 0.004048004
0.576850295 0.049082998 0.002023998
0.613283038 0.055281501 0.007716520
0.649715841 0.064389899 0.004680903
0.688425303 0.068943709 0.008475997
0.732068241 0.073370993 0.010373328
0.779633105 0.079949066 0.008349064
0.822137833 0.089057438 0.011385448
0.864642620 0.103478804 0.014421155
0.905376077 0.113345981 0.022770416
0.945730150 0.122959971 0.035800368
0.988234997 0.141176000 0.050980002
0.063630611 0.060973998 0.030487388
0.057558611 0.054901998 0.018342614
0.064389609 0.055787612 0.020493388
0.074256770 0.055787612 0.024667999
0.087665930 0.056167159 0.031498838
0.103605315 0.059583001 0.023908550
0.124857709 0.058064677 0.032004934
0.151170090 0.059203319 0.035294000
0.179380089 0.058064904 0.035294000
0.205186501 0.055028517 0.034535095
0.232257873 0.057811871 0.031499486
0.259582251 0.055028517 0.031625517
0.287792236 0.050221357 0.032131616
0.316508085 0.047185034 0.029475033
0.349905223 0.043896392 0.031752393
0.378494769 0.035420589 0.020872785
0.407337368 0.037191577 0.015939195
0.438583374 0.044781994 0.012650387
0.469576031 0.050221421 0.012017967
0.508539081 0.053257745 0.011764999
0.537887335 0.054396387 0.008981647
0.573813856 0.059203256 0.006072000
0.610499561 0.067425504 0.007716520
0.652751446 0.076533906 0.004680903
0.696015477 0.085642286 0.006198708
0.737001956 0.091587767 0.007337295
0.779127061 0.097153708 0.005819387
0.819101453 0.101201437 0.011385448
0.864263058 0.107652985 0.022390973
0.901834130 0.123466007 0.028336369
0.943200111 0.134598374 0.038836204
0.994306982 0.144212395 0.054016385
0.064895771 0.056293227 0.022770453
0.065274999 0.058823772 0.023529228
0.061353769 0.061353773 0.022137772
0.076027766 0.060088612 0.025174161
0.091713995 0.059582546 0.032005224
0.105123155 0.062618934 0.022896841
0.129664540 0.060594678 0.026818320
0.154206336 0.062491998 0.034281995
0.180012867 0.065275222 0.035294000
0.204554275 0.063630514 0.035294000
0.234028876 0.064263098 0.034535099
0.263377517 0.065275222 0.031499486
0.290828407 0.062365644 0.032005128
0.318152785 0.059582546 0.026439000
0.347754449 0.058444194 0.019987643
0.378494769 0.057052746 0.019608172
0.402783185 0.054016352 0.015053579
0.433143735 0.060594574 0.012017820
0.468058050 0.065148778 0.007464002
0.504617333 0.070588358 0.009614226
0.540290952 0.071727000 0.005819230
0.572928250 0.073751003 0.004554128
0.609487474 0.081720278 0.006072246
0.649968565 0.090828680 0.011132128
0.688298285 0.095635511 0.004048482
0.736622393 0.101960897 0.005692774
0.780139148 0.107780062 0.005439934
0.822896957 0.114105090 0.013156219
0.863377452 0.117646754 0.018089974
0.907147348 0.132573932 0.028463198
0.944338977 0.146742612 0.038456745
0.993927777 0.151549771 0.054901998
0.070461839 0.059835162 0.020746322
0.070967771 0.062112771 0.023023162
0.074762926 0.066919841 0.025679775
0.074256994 0.071727000 0.028716162
0.092093542 0.068690613 0.030993454
0.105123155 0.069955774 0.023656065
0.128652319 0.072991833 0.022138000
0.157241955 0.072359160 0.029475158
0.184566930 0.076913163 0.034029163
0.206831336 0.076913163 0.034029163
0.233016998 0.076913163 0.034029163
0.262112349 0.078178324 0.033270262
0.291334480 0.077039681 0.029095713
0.318911910 0.074256994 0.026185839
0.347248405 0.074256994 0.018089851
0.378241420 0.072992161 0.014295000
0.406578332 0.075775124 0.008222807
0.430360675 0.078810744 0.011258578
0.468564183 0.081846975 0.004680971
0.503984749 0.086401165 0.006704647
0.539784908 0.089942999 0.004048004
0.573181272 0.090955131 0.001012128
0.609487474 0.097027138 0.004048480
0.648956716 0.107273906 0.010879099
0.688677967 0.110562861 0.007590136
0.728272796 0.114863664 0.006452000
0.778367937 0.118405990 0.005440000
0.823149920 0.126755282 0.010752700
0.867172897 0.131815478 0.018342832
0.907147348 0.144212320 0.024921199
0.948766589 0.161037147 0.037571583
0.990891814 0.164453000 0.056167159
0.080708094 0.081467099 0.030993454
0.078431390 0.078051940 0.027957065
0.083238766 0.079696327 0.026312452
0.090955384 0.081973158 0.027957065
0.093991086 0.083871000 0.030234454
0.109171472 0.080834612 0.027198065
0.131182551 0.087159865 0.023150001
0.157241940 0.091713995 0.023403158
0.186843649 0.091713995 0.030613905
0.214168042 0.091713995 0.030613905
0.236811876 0.092093542 0.030613905
0.262112349 0.093738250 0.030234454
0.289436728 0.094876900 0.027577715
0.316508085 0.092093542 0.022264035
0.346615821 0.092093542 0.022390550
0.379000336 0.090449259 0.020366808
0.410120010 0.091587991 0.012397363
0.438709974 0.097027510 0.001012028
0.472106457 0.100063130 0.004048422
0.505123377 0.103478901 0.006704647
0.540037930 0.105755799 0.004807003
0.575838149 0.109550677 0.001012128
0.609487474 0.112713538 0.003922000
0.648956716 0.124351539 0.006704647
0.690701962 0.127767086 0.003668552
0.733206272 0.130929530 0.004174662
0.776470184 0.137001544 0.012650451
0.818974912 0.143073544 0.006578457
0.865275204 0.149146214 0.014168427
0.909677565 0.160784498 0.024162102
0.948387146 0.175837979 0.036433037
0.987855554 0.181909993 0.057685453
0.098924868 0.105755866 0.027957065
0.101960480 0.099683873 0.024920680
0.103984766 0.102719933 0.019734066
0.111827984 0.104490705 0.019734066
0.121315472 0.102086999 0.024161680
0.124351859 0.096014999 0.021126067
0.142061934 0.098039255 0.025679998
0.161290333 0.102087222 0.023150001
0.183808029 0.103857994 0.021884967
0.211132437 0.103857994 0.024541130
0.241365924 0.106767863 0.024541130
0.268184751 0.107273929 0.022517391
0.295509517 0.107779995 0.017710425
0.322580874 0.107273929 0.010120034
0.346868873 0.107273929 0.013156418
0.376976579 0.109677121 0.013282937
0.409361094 0.111701250 0.009741003
0.441745609 0.115243569 0.004048350
0.475142062 0.118279904 0.007084033
0.505755842 0.124098867 0.007337064
0.538519740 0.123972192 0.007843000
0.573434293 0.125996053 0.005819129
0.609487474 0.133965924 0.003922000
0.648956716 0.140037939 0.003922000
0.690701962 0.144845217 0.004427936
0.733206272 0.150158182 0.006198925
0.776723266 0.158253938 0.013282934
0.825047672 0.164325923 0.021758068
0.862238765 0.170398593 0.015686074
0.907779455 0.176470906 0.019734047
0.950410843 0.185452297 0.029854329
0.984819949 0.194054008 0.048577067
0.122200996 0.124983996 0.024920678
0.125237256 0.123971999 0.019354615
0.132574409 0.122200996 0.020619776
0.137634635 0.126249149 0.019481160
0.146110103 0.125743091 0.023149550
0.149145946 0.121821314 0.020113936
0.154711992 0.115749314 0.017077679
0.171283692 0.118785702 0.019860679
0.189373776 0.123339541 0.018595677
0.213156193 0.128652319 0.023402514
0.248450309 0.121442184 0.020999324
0.272738576 0.122454315 0.016951328
0.300189972 0.124731317 0.013409358
0.328653008 0.127767280 0.007590032
0.352940977 0.130043998 0.006072417
0.382036597 0.130043998 0.009108192
0.413915187 0.132953510 0.010752871
0.446679115 0.135357320 0.008349424
0.478178322 0.136495978 0.007590037
0.511321723 0.144845337 0.012902999
0.543579698 0.150917321 0.009108003
0.576976359 0.151802510 0.006831130
0.612017810 0.157748014 0.003922000
0.651486397 0.163820639 0.003922000
0.695509553 0.169892639 0.008475997
0.739658237 0.174573302 0.013156307
0.782795489 0.181530580 0.018342678
0.825300753 0.185578316 0.017330538
0.868311524 0.194180667 0.020746335
0.906514764 0.200252980 0.025300287
0.951043487 0.208096206 0.035546910
0.989373982 0.218848959 0.052118998
0.151423112 0.143200412 0.026818417
0.146236390 0.146489412 0.014168004
0.156862751 0.146489412 0.017836774
0.160911143 0.145224243 0.017078001
0.165844709 0.147501543 0.018216167
0.170145467 0.146995470 0.015180230
0.179000407 0.144718409 0.012144391
0.180138692 0.138646409 0.015686000
0.198355287 0.140164599 0.015686000
0.221378922 0.145730212 0.019987002
0.247311741 0.142314866 0.018975163
0.276913255 0.140923694 0.013915297
0.300442636 0.142062053 0.011258936
0.330297381 0.147121996 0.008981708
0.357368678 0.148766279 0.004554423
0.383174896 0.151043415 0.003036194
0.415053874 0.155597597 0.004554003
0.448450238 0.158886820 0.008096285
0.479822963 0.159898698 0.008096033
0.508032680 0.164959058 0.006831010
0.546362698 0.172169700 0.010246715
0.581783354 0.178241700 0.006198711
0.616445482 0.181909919 0.003922000
0.652877927 0.186464503 0.003922000
0.695256114 0.192536697 0.010120285
0.740797222 0.200000003 0.013409289
0.786843836 0.206325114 0.020746067
0.829728246 0.210499659 0.018089715
0.868564606 0.215559527 0.016698124
0.910942376 0.224541396 0.029980961
0.952182055 0.229727790 0.041239593
0.995445967 0.239595279 0.054901998
0.177988991 0.165212095 0.026059909
0.171916425 0.169007003 0.013156225
0.176849872 0.170778006 0.010499680
0.185199156 0.171031028 0.016318904
0.183681548 0.167994648 0.010246905
0.190133095 0.170271948 0.006831067
0.199747100 0.170778006 0.005313323
0.205186576 0.165971011 0.006578385
0.205945283 0.161417007 0.014168002
0.233270451 0.158380613 0.014168002
0.251866013 0.158254102 0.015686000
0.273118258 0.160278365 0.013156002
0.299683720 0.163314462 0.008981644
0.327514112 0.166350141 0.012017967
0.358380824 0.166856200 0.007463906
0.385452181 0.168500915 0.002277292
0.412776560 0.174573287 0.003035996
0.445540965 0.181784093 0.001138592
0.478810906 0.184693232 0.006578093
0.507653177 0.187729359 0.004554090
0.541808665 0.193422094 0.003415739
0.581024289 0.199494094 0.005439999
0.620493412 0.205566093 0.005439999
0.655155003 0.209234908 0.005439999
0.693864465 0.214548007 0.008475802
0.737001777 0.222011507 0.013409100
0.783049107 0.231119260 0.015939031
0.831625819 0.237444982 0.019987352
0.871094584 0.240860254 0.018469166
0.910309970 0.246679202 0.031878252
0.954458773 0.254775673 0.047311597
1.000000000 0.257811278 0.056419998
0.184061006 0.198608488 0.004807513
0.196205005 0.195572108 0.007843126
0.203035980 0.195066020 0.003541999
0.206957504 0.196331188 0.003162514
0.207969576 0.198355436 0.007210514
0.217077941 0.195319042 0.001138518
0.223529488 0.195066020 0.002783324
0.228210211 0.188488021 0.003922002
0.233270451 0.179633006 0.005060387
0.245414466 0.179633006 0.008096000
0.264010012 0.179506496 0.013914995
0.280202240 0.181530759 0.015685998
0.299304277 0.184566855 0.014294645
0.324478507 0.187602535 0.012017965
0.357874870 0.190638915 0.015053570
0.388741583 0.191144988 0.008096328
0.417331159 0.195825696 0.008349285
0.445540965 0.203036502 0.013282591
0.475901037 0.203036502 0.004174975
0.514737606 0.205945626 0.009614489
0.551676393 0.212776750 0.011385485
0.586337924 0.220746487 0.011512000
0.617457032 0.226818487 0.011511999
0.656926274 0.232890502 0.011511999
0.693864405 0.238836020 0.006958006
0.733332813 0.246299684 0.004301487
0.776976287 0.255408049 0.006831420
0.825553775 0.264516413 0.022011016
0.868817627 0.268184662 0.023402518
0.909298122 0.272991478 0.040986355
0.951549649 0.279190212 0.062112480
1.000000000 0.285136491 0.062492006
0.207589984 0.208728880 0.001012129
0.213914990 0.220240340 0.001138614
0.221758544 0.217203960 0.002024001
0.230360746 0.216444865 0.000000000
0.237697750 0.217077538 0.002403549
0.244275793 0.214041799 0.003921871
0.248324171 0.216065422 0.005439547
0.254016727 0.213155866 0.006831129
0.259076864 0.205818966 0.007590225
0.266919881 0.203668743 0.010626385
0.267425865 0.197849751 0.007843001
0.285641879 0.199873477 0.011891257
0.306261629 0.201771006 0.011638228
0.332574159 0.203288868 0.008349130
0.360657513 0.208981410 0.003415580
0.389247507 0.212017804 0.008854997
0.420620173 0.214041665 0.006831129
0.451360136 0.219734281 0.011764567
0.481720746 0.224288881 0.016318958
0.509298146 0.229854867 0.009993996
0.546362996 0.234914735 0.011765000
0.583807588 0.240986735 0.010752873
0.620240331 0.245414004 0.008855130
0.659708858 0.257052749 0.008855130
0.696900666 0.258570731 0.011132418
0.738899112 0.263377726 0.009741000
0.784439981 0.271979928 0.010752998
0.828209877 0.285895288 0.018722404
0.871473730 0.292346865 0.023276027
0.913978398 0.295635521 0.035926163
0.955471158 0.302340090 0.058443718
1.000000000 0.312460870 0.068563998
0.231878504 0.234029248 0.000000000
0.239974752 0.238077238 0.000000000
0.239974543 0.241492733 0.006072253
0.246046990 0.240986660 0.004807091
0.256293535 0.241366208 0.003288997
0.264010251 0.238330185 0.001391679
0.271600574 0.238330185 0.002403681
0.276281238 0.241366208 0.005439712
0.283112139 0.236432552 0.005819260
0.290448993 0.232131451 0.007590488
0.290701985 0.226185977 0.006831390
0.296774268 0.222138241 0.005819260
0.313851893 0.222896859 0.008855358
0.337128282 0.222264290 0.008349000
0.360910684 0.226565495 0.009360998
0.390259385 0.236306056 0.006831252
0.419101983 0.237824246 0.006831259
0.451992452 0.240354076 0.006451676
0.483744949 0.245035186 0.012776716
0.513346076 0.253131002 0.014041996
0.548260927 0.257305741 0.011765000
0.583807647 0.262239099 0.010752873
0.621252477 0.265527755 0.007969513
0.660720944 0.275774777 0.009867257
0.699936807 0.286906987 0.010120288
0.743326843 0.289689988 0.010373328
0.791018188 0.295256048 0.011764742
0.832005084 0.304364413 0.020872733
0.870461881 0.313599259 0.030360665
0.911195397 0.317900032 0.036938258
0.951676190 0.322706848 0.056293201
0.991904020 0.333712995 0.072612256
0.255028635 0.265148640 0.000000000
0.262998372 0.265148640 0.001138644
0.266919851 0.265148640 0.003036132
0.267678648 0.265275180 0.008222841
0.272991627 0.267931998 0.005566002
0.279822916 0.265654713 0.001012001
0.287792683 0.265148640 0.001138644
0.297533631 0.265654713 0.001644708
0.305123627 0.267931998 0.003162905
0.314610809 0.262618303 0.002783357
0.314990282 0.255407631 0.005060354
0.321062535 0.251359880 0.005060354
0.330170631 0.248323992 0.005060354
0.345351011 0.245793670 0.008096032
0.364832401 0.248830050 0.013282640
0.392156929 0.255660981 0.015559807
0.421379000 0.262871653 0.012144355
0.451106697 0.264136642 0.005439945
0.483491927 0.267678976 0.006451682
0.514105022 0.275142282 0.009487713
0.553573549 0.281593740 0.012903354
0.592030585 0.285641998 0.014927352
0.625680029 0.289057136 0.012270516
0.664136589 0.298165530 0.013282903
0.703605175 0.306135297 0.014041998
0.747501612 0.316634625 0.012650326
0.797596157 0.323212713 0.010626062
0.837697625 0.327514082 0.020872634
0.875648618 0.334724814 0.033017009
0.914990723 0.343706697 0.047944389
0.950917184 0.348513275 0.058823232
0.986590981 0.357621640 0.076787002
0.277040005 0.292220056 0.000000000
0.282606006 0.292473018 0.003289354
0.288678050 0.291967034 0.001771226
0.295256078 0.292726070 0.000253032
0.300569057 0.291967034 0.000000000
0.300569057 0.291967034 0.000000000
0.305123061 0.292473018 0.002783290
0.315243453 0.292220056 0.003668968
0.326376021 0.292220056 0.003162904
0.338520020 0.292220056 0.000126519
0.339785069 0.283997208 0.005312999
0.345604271 0.278684288 0.007843000
0.354459405 0.275648385 0.007843000
0.363820046 0.272359043 0.008602032
0.379000425 0.275395423 0.011638416
0.402782828 0.278431267 0.016318962
0.429854274 0.281720221 0.018595807
0.457431674 0.285389036 0.014547560
0.484756887 0.291461051 0.005439938
0.515370071 0.297786057 0.007210647
0.555850446 0.303605020 0.011891028
0.600632310 0.310183108 0.016951032
0.637191534 0.316381574 0.022896513
0.673750818 0.325489908 0.020113871
0.712460220 0.330297291 0.019354967
0.755597293 0.336116374 0.018469360
0.803415179 0.344971091 0.017204063
0.845919847 0.354079455 0.020240448
0.885768414 0.360784054 0.031245975
0.926755309 0.369892418 0.048450191
0.965085506 0.381404400 0.068184584
0.992409945 0.390512019 0.083365001
0.307399958 0.316508800 0.000000000
0.307399958 0.319544405 0.006072000
0.312966526 0.315496415 0.002909578
0.321568787 0.317014545 0.001265161
0.330929816 0.321948290 0.002909868
0.330929816 0.313219398 0.000000000
0.330929816 0.318279386 0.005059999
0.343706518 0.318153113 0.003921581
0.357748389 0.316508800 0.000632584
0.359772384 0.316508800 0.000126517
0.369007260 0.313598931 0.000000001
0.374193817 0.307273805 0.005313003
0.380898386 0.302972764 0.007843000
0.388108790 0.299683392 0.008602032
0.400252789 0.293611377 0.017710410
0.415433198 0.296647787 0.015939191
0.437697798 0.301201820 0.019354582
0.463883817 0.306641370 0.020999003
0.493864536 0.312713414 0.014547538
0.529538274 0.321568757 0.013788572
0.562808096 0.326249063 0.016318735
0.601391375 0.332953632 0.016951419
0.640227914 0.343706697 0.013788909
0.679696321 0.352814317 0.016824527
0.718532264 0.359645396 0.016318584
0.759392321 0.366476625 0.017710257
0.803668201 0.375078797 0.020999415
0.848956287 0.381403834 0.032384437
0.888804197 0.390512228 0.043389961
0.928273141 0.397216797 0.059076384
0.965717971 0.406324953 0.077925384
0.995445609 0.417836398 0.095508993
0.335357398 0.348007798 0.000000000
0.342567593 0.341429383 0.008475805
0.340417355 0.346615762 0.003795031
0.346995622 0.342820942 0.000000000
0.356862515 0.346236795 0.001518196
0.358886778 0.343200654 0.000506065
0.366097599 0.341935575 0.000253004
0.366097599 0.348007590 0.004680713
0.379759789 0.348007798 0.001644708
0.386337787 0.348007798 0.000000001
0.397469848 0.347501725 0.002403804
0.402530253 0.344465345 0.000379548
0.405945778 0.338772774 0.003036004
0.409740806 0.334471643 0.003036004
0.419734597 0.330550402 0.005692615
0.431878597 0.322074592 0.012397200
0.445540786 0.323592782 0.012397196
0.468184739 0.327893764 0.018216219
0.500316083 0.333965778 0.020998994
0.529031932 0.340417355 0.018089805
0.565464675 0.349525750 0.019987062
0.601391375 0.355597734 0.020999322
0.641240001 0.366224259 0.016698476
0.687539697 0.375331879 0.019734094
0.727008045 0.384440064 0.018216288
0.766476750 0.393421561 0.018089805
0.806957603 0.403035790 0.021126064
0.846805453 0.409107774 0.031372793
0.891840577 0.410625815 0.045919977
0.931308925 0.426818162 0.065148383
0.967235744 0.433396399 0.088172175
0.996078014 0.437950611 0.112460598
0.362682194 0.379886389 0.001518192
0.368753791 0.373813987 0.004554198
0.373813748 0.372422367 0.006831419
0.374573320 0.374699205 0.000253031
0.382669002 0.372422546 0.000758999
0.385705113 0.373561174 0.003035997
0.390765518 0.373561174 0.000000000
0.402530372 0.373814195 0.001644708
0.403289288 0.379886180 0.003162904
0.413156182 0.381404191 0.000126517
0.420746386 0.379886389 0.001391678
0.432890654 0.377862126 0.003415936
0.437065363 0.374825716 0.001518192
0.437824368 0.369133174 0.001265160
0.443137586 0.364832431 0.000000000
0.453130960 0.360025585 0.001770998
0.465275377 0.353953183 0.013914995
0.477419376 0.352688193 0.015686387
0.504617214 0.355218172 0.021252226
0.535483599 0.362808377 0.019228162
0.570018888 0.370777726 0.019987453
0.608475685 0.379886121 0.023023067
0.648324132 0.388994485 0.020872813
0.691334665 0.398102492 0.019734100
0.733080447 0.405692488 0.018216297
0.773940504 0.416192174 0.019354992
0.815054119 0.427830249 0.022138063
0.855534315 0.434914380 0.033270441
0.892346263 0.438709378 0.050727509
0.934345305 0.443516344 0.071220376
0.970271766 0.462112397 0.096394569
0.997596204 0.462239385 0.126122802
0.390638977 0.409614533 0.003289424
0.394939721 0.407843143 0.002150603
0.398228705 0.406957537 0.001518198
0.405565858 0.405692548 0.002656839
0.411258966 0.403415143 0.000000000
0.414294600 0.406451464 0.005566008
0.417330861 0.406957537 0.002783001
0.425680250 0.406957537 0.001012132
0.440354615 0.407843113 0.003795480
0.443390220 0.413915128 0.000759092
0.445793986 0.411891401 0.000632576
0.455028802 0.409487844 0.002656670
0.467425972 0.406451464 0.003289426
0.474004030 0.403668106 0.003289425
0.475522101 0.398355126 0.000632584
0.481467307 0.393421918 0.000000000
0.492725909 0.389753342 0.005313017
0.502973080 0.385452121 0.021631595
0.515117168 0.379380107 0.018595975
0.543579996 0.386590898 0.018089633
0.578874230 0.394433796 0.019481309
0.618722677 0.404174268 0.021252448
0.661100924 0.413409114 0.024035065
0.698038995 0.423023432 0.018468989
0.736748815 0.430487126 0.015939277
0.776976705 0.438709527 0.017077977
0.818975627 0.449335605 0.024668049
0.867172837 0.458190978 0.039848421
0.901074946 0.465907544 0.058444213
0.936748564 0.471979529 0.081467502
0.972675562 0.477925211 0.103478596
1.000000000 0.490069985 0.130803019
0.420999050 0.436939001 0.000253032
0.430107415 0.439974606 0.006325027
0.430107772 0.440354019 0.003035998
0.434155941 0.439089179 0.000253032
0.444655478 0.436812401 0.000000000
0.447691113 0.439848036 0.000000000
0.450727344 0.440354019 0.000506000
0.457052737 0.440354019 0.000000000
0.468185097 0.441113114 0.001012127
0.482859433 0.444276005 0.003795481
0.482985944 0.444528997 0.003668965
0.487286985 0.444276035 0.005692703
0.495256364 0.442884326 0.005313033
0.504364133 0.440100968 0.000253042
0.516508937 0.440100968 0.000253036
0.520430207 0.432384789 0.000000001
0.530044198 0.425300598 0.000000000
0.542441607 0.418848634 0.003415568
0.545477986 0.409740984 0.012523974
0.563188016 0.414801002 0.020619649
0.590259433 0.419228256 0.026818480
0.624415159 0.425806254 0.029601842
0.664136529 0.437697947 0.027071457
0.703604937 0.449841976 0.024035068
0.742820859 0.459456265 0.025300294
0.782289624 0.468311250 0.029222002
0.822011232 0.476660073 0.036812086
0.861480296 0.479696453 0.051992454
0.899050891 0.491207987 0.064516008
0.936748564 0.499303997 0.084503442
0.972675562 0.504490674 0.105249971
1.000000000 0.508286059 0.118659042
0.459709108 0.478178740 0.000000000
0.460468143 0.478431702 0.000505997
0.471726745 0.479317099 0.002276996
0.474383533 0.478051931 0.000000000
0.481594205 0.475395381 0.000000000
0.489436835 0.476027817 0.000000000
0.489942759 0.476533741 0.000000000
0.494370401 0.478178442 0.000000000
0.502340138 0.479317099 0.000000000
0.513472497 0.480329245 0.001012127
0.525237024 0.483238399 0.001138643
0.531309307 0.485262662 0.001138643
0.538140416 0.486021727 0.005692638
0.545350730 0.484630078 0.007843362
0.552434862 0.482099742 0.002783358
0.559772611 0.479696542 0.000379553
0.569259882 0.472865760 0.000000000
0.581909955 0.466160864 0.001264993
0.584946394 0.457052737 0.008222623
0.596331418 0.453510404 0.017331004
0.608855128 0.451992393 0.026439089
0.637065291 0.456419885 0.031373002
0.678178370 0.470335364 0.030107845
0.714990675 0.482479393 0.027071452
0.754458964 0.492346674 0.030866353
0.793927968 0.501455009 0.041366328
0.832890689 0.509550989 0.054522656
0.870081961 0.512586832 0.069702446
0.906894267 0.526249230 0.090195805
0.943326712 0.533206940 0.104490548
0.976470590 0.538267076 0.127514198
1.000000000 0.543200731 0.151043743
0.502972722 0.520683467 0.003794996
0.497280478 0.520683467 0.001897740
0.505882442 0.520683467 0.000000000
0.507906437 0.520683467 0.000000000
0.509677708 0.518659174 0.000000000
0.523339510 0.518659174 0.000000000
0.524857461 0.520556450 0.000000000
0.531435430 0.518912137 0.001644708
0.540290534 0.521442354 0.001138644
0.551675975 0.522580743 0.000000000
0.561796248 0.521695316 0.000000000
0.570018768 0.524730980 0.000000000
0.577988446 0.527767360 0.001138644
0.584566474 0.528526485 0.007716971
0.593927503 0.527134776 0.003289266
0.598102331 0.524098516 0.005313192
0.605692923 0.521062911 0.000758999
0.619481206 0.515370309 0.000000001
0.626312435 0.507526755 0.003542013
0.635800242 0.502087116 0.010499625
0.646046400 0.497153431 0.019608000
0.656166971 0.491081446 0.027704263
0.689437211 0.499683738 0.029854763
0.724098802 0.508285761 0.033902831
0.766603291 0.520050287 0.041492730
