Assets/Resources/EldamarStudio/100 Horror LUTs Pack/LUTs/cube/Targach LUT.cube
LUT_3D_SIZE 5
DOMAIN_MIN 0.000000 0.000000 0.000000
DOMAIN_MAX 0.903226 0.903226 0.903226
0.066666998 0.054901998 0.027450999
0.149778396 0.063377999 0.035294000
0.349905223 0.028716005 0.028716005
0.576850295 0.049082998 0.002023998
0.864642620 0.103478804 0.014421155
0.151423112 0.143200412 0.026818417
0.180138692 0.138646409 0.015686000
0.357368678 0.148766279 0.004554423
0.581783354 0.178241700 0.006198711
0.868564606 0.215559527 0.016698124
0.307399958 0.316508800 0.000000000
0.343706518 0.318153113 0.003921581
0.400252789 0.293611377 0.017710410
0.601391375 0.332953632 0.016951419
0.888804197 0.390512228 0.043389961
0.544465363 0.563188255 0.005819002
0.566856325 0.566476822 0.001644708
0.634155333 0.573055267 0.000632584
0.694623232 0.539658248 0.020619869
0.919544756 0.585704923 0.109298080
0.805818558 0.856799603 0.144971177
0.834788024 0.855787456 0.164832234
0.895888627 0.859962165 0.186084777
0.965844631 0.857052267 0.234029084
0.992409945 0.814927399 0.322580516
0.086907007 0.072865292 0.089942701
0.152055696 0.062744997 0.091587409
0.324731112 0.077165999 0.093864702
0.532068551 0.135356992 0.123339273
0.836938560 0.160910979 0.160910815
0.107906409 0.143200412 0.073244996
0.173940420 0.150410980 0.090954982
0.319164962 0.173307985 0.104616992
0.538013995 0.202403694 0.132448122
0.844149292 0.239721671 0.160278246
0.273371398 0.302466691 0.105249576
0.311954379 0.301834106 0.107273988
0.364579111 0.292978942 0.117773399
0.574952364 0.333586216 0.140670568
0.873497844 0.400632501 0.177356228
0.515749574 0.550790250 0.126628697
0.544971228 0.549525261 0.119418114
0.611258566 0.563567519 0.120177105
0.675016284 0.531815290 0.158380404
0.915243506 0.586970150 0.226565212
0.792030454 0.857305586 0.269829094
0.814927340 0.850474477 0.270081967
0.877545834 0.854775190 0.282099694
0.952434957 0.859582484 0.321062386
0.988234878 0.813156426 0.388361961
0.123592407 0.059456423 0.267552376
0.193548411 0.067046277 0.254396379
0.328272969 0.089563578 0.244654953
0.546489537 0.119671412 0.238836408
0.836559057 0.142567992 0.303604960
0.181150988 0.170651406 0.238709390
0.215433285 0.177861989 0.230866402
0.322707117 0.189626992 0.227957100
0.532447815 0.214168280 0.248197272
0.833016753 0.249209389 0.312333673
0.211258382 0.311954409 0.207969815
0.263883650 0.317141384 0.227324516
0.389120400 0.339405358 0.264895409
0.559898794 0.368247807 0.293358505
0.850853980 0.429095596 0.359898627
0.431625456 0.546868861 0.290069699
0.480328977 0.544844806 0.304111242
0.568374693 0.550790668 0.313725531
0.650727272 0.543327093 0.332068533
0.891967237 0.604933619 0.414800644
0.741682589 0.846173644 0.453510165
0.755850494 0.847817898 0.454396039
0.827830791 0.849462152 0.469197005
0.923971891 0.859962165 0.495762318
0.978874207 0.827324212 0.540670395
0.197217122 0.085389130 0.535863280
0.263503850 0.100695580 0.528905332
0.381657094 0.131435573 0.516255260
0.567109287 0.139278993 0.498545259
0.853636742 0.154712111 0.518153250
0.243137419 0.211890981 0.505376518
0.287412703 0.220366836 0.507020712
0.392789125 0.231878266 0.498924971
0.566476822 0.234787822 0.490069687
0.853889704 0.262998074 0.525743008
0.271600276 0.351170391 0.495255828
0.314357847 0.355471522 0.490322530
0.433270127 0.386590660 0.488804638
0.582542360 0.390765518 0.490322530
0.863377571 0.445793927 0.543959379
0.282353014 0.573055267 0.470082104
0.334472120 0.576217711 0.479949564
0.478051811 0.586084664 0.503731787
0.668058157 0.623023391 0.572169363
0.873371363 0.667425931 0.625047505
0.610879123 0.861985743 0.592789471
0.648450255 0.860973835 0.618089616
0.753067851 0.860594332 0.675774693
0.868690491 0.864895582 0.689816773
0.937254488 0.852751434 0.715496600
0.276027828 0.174193621 0.868564606
0.329664826 0.182036623 0.872106433
0.457811624 0.206198364 0.870588183
0.618722260 0.238583088 0.862997890
0.872485638 0.247438446 0.855407596
0.314990669 0.287918925 0.866287351
0.359772205 0.292852521 0.861353636
0.477419615 0.310815811 0.865654707
0.630234182 0.330170721 0.854648709
0.870841026 0.338393331 0.853004515
0.405818760 0.477039993 0.857558191
0.442631066 0.486780614 0.850600898
0.535737157 0.491334349 0.855534554
0.662239075 0.505756199 0.849335849
0.873750627 0.512334168 0.842504561
0.401264757 0.671094060 0.848070741
0.467299163 0.671094060 0.851865828
0.588488281 0.672738910 0.852624893
0.723718882 0.699557066 0.850853562
0.880328536 0.709044755 0.854269445
0.503984749 0.891966760 0.814927399
0.536622405 0.895003080 0.827450573
0.635167360 0.883491158 0.837191582
0.773307920 0.885768473 0.850980580
0.915496767 0.898418784 0.881467640
