Assets/Resources/EldamarStudio/100 Horror LUTs Pack/LUTs/cube/Targach LUT.cube
LUT_3D_SIZE 8
DOMAIN_MIN 0.000000 0.000000 0.000000
DOMAIN_MAX 0.903226 0.903226 0.903226
0.066666998 0.054901998 0.027450999
0.073244549 0.059582997 0.023908548
0.177862093 0.058064900 0.034535099
0.285894990 0.038077358 0.032511353
0.408855170 0.026565386 0.020493003
0.536369503 0.043010995 0.004048004
0.688425303 0.068943709 0.008475997
0.864642620 0.103478804 0.014421155
0.080708094 0.081467099 0.030993454
0.093991086 0.083871000 0.030234454
0.186843649 0.091713995 0.030613905
0.289436728 0.094876900 0.027577715
0.410120010 0.091587991 0.012397363
0.540037930 0.105755799 0.004807003
0.690701962 0.127767086 0.003668552
0.865275204 0.149146214 0.014168427
0.177988991 0.165212095 0.026059909
0.183681548 0.167994648 0.010246905
0.205945283 0.161417007 0.014168002
0.299683720 0.163314462 0.008981644
0.412776560 0.174573287 0.003035996
0.541808665 0.193422094 0.003415739
0.693864465 0.214548007 0.008475802
0.871094584 0.240860254 0.018469166
0.255028635 0.265148640 0.000000000
0.272991627 0.267931998 0.005566002
0.305123627 0.267931998 0.003162905
0.330170631 0.248323992 0.005060354
0.421379000 0.262871653 0.012144355
0.553573549 0.281593740 0.012903354
0.703605175 0.306135297 0.014041998
0.875648618 0.334724814 0.033017009
0.362682194 0.379886389 0.001518192
0.382669002 0.372422546 0.000758999
0.403289288 0.379886180 0.003162904
0.437065363 0.374825716 0.001518192
0.465275377 0.353953183 0.013914995
0.570018888 0.370777726 0.019987453
0.733080447 0.405692488 0.018216297
0.892346263 0.438709378 0.050727509
0.502972722 0.520683467 0.003794996
0.509677708 0.518659174 0.000000000
0.540290534 0.521442354 0.001138644
0.577988446 0.527767360 0.001138644
0.605692923 0.521062911 0.000758999
0.646046400 0.497153431 0.019608000
0.766603291 0.520050287 0.041492730
0.912207365 0.555850565 0.098924533
0.669449866 0.696268260 0.000000000
0.673750818 0.692725778 0.000379548
0.704743624 0.693738341 0.001644712
0.734851241 0.701960862 0.000000000
0.775964499 0.700822234 0.000000000
0.809108257 0.690575540 0.011891444
0.848197579 0.658696949 0.085515559
0.933839619 0.662744939 0.155597702
0.805818558 0.856799603 0.144971177
0.822770417 0.857052326 0.161922827
0.841871858 0.857305348 0.163061187
0.879443467 0.857811391 0.174193203
0.917646766 0.861859620 0.194686711
0.959013522 0.860088468 0.220872954
0.983175218 0.846299767 0.274636209
0.992409945 0.814927399 0.322580516
0.075648546 0.063124545 0.044275545
0.088172443 0.059582997 0.037571095
0.174699187 0.058444452 0.046173092
0.272232711 0.072106004 0.056799639
0.378747731 0.082605831 0.058697190
0.516128957 0.095508993 0.069955729
0.662998140 0.113219254 0.071979806
0.853890002 0.128020436 0.097786076
0.067805447 0.073624089 0.039974999
0.107779540 0.085009545 0.037950546
0.171157554 0.098292440 0.043010999
0.266666710 0.108918086 0.055660903
0.387097180 0.120683089 0.064262994
0.519038737 0.132321090 0.079949096
0.673750997 0.148387119 0.078304999
0.852371991 0.166476846 0.090702087
0.142568097 0.158633649 0.048576999
0.170778006 0.164199635 0.050221097
0.194686651 0.153573990 0.052498098
0.283618093 0.164073557 0.051613092
0.391903818 0.180139184 0.064516537
0.521188974 0.196963638 0.070461906
0.679316998 0.224035278 0.074003831
0.864895642 0.245034784 0.100695677
0.238077089 0.252624720 0.044655193
0.261226922 0.253763199 0.052118644
0.292599648 0.254522294 0.039468642
0.312460363 0.240480989 0.062239449
0.409234792 0.256926000 0.073244549
0.535610378 0.278431535 0.077545904
0.691334546 0.307779998 0.077419281
0.856672883 0.334977567 0.097786181
0.354459018 0.369386524 0.050348006
0.361416727 0.370145649 0.042884260
0.392789751 0.366477102 0.037950642
0.421379060 0.369259745 0.056040447
0.456799150 0.349778533 0.077545896
0.563314199 0.369892627 0.080202542
0.722454190 0.409108043 0.086907096
0.887033224 0.443010837 0.113851726
0.489690095 0.508159280 0.020746548
0.497786403 0.510309637 0.016951356
0.526122510 0.514484465 0.020872649
0.563314140 0.518785715 0.014421353
0.597849309 0.514863849 0.040733807
0.634155512 0.492852926 0.087918922
0.758254290 0.516381741 0.114357814
0.909171343 0.554079771 0.151676372
0.647691548 0.683744550 0.007210638
0.654395878 0.685262263 0.007590089
0.677925110 0.680835128 0.008349186
0.716888011 0.684503496 0.009867281
0.766982615 0.688804567 0.014041824
0.794307351 0.672486067 0.069829240
0.826438844 0.648070991 0.127767116
0.921062469 0.648956239 0.181151047
0.802023828 0.850853622 0.200379416
0.816572011 0.850853622 0.196204484
0.828589499 0.845414340 0.193295226
0.864895523 0.850094736 0.198608205
0.908665419 0.855028212 0.223529294
0.953826666 0.855534494 0.249082834
0.977862179 0.838456631 0.296900570
0.991650939 0.806831300 0.332195133
0.082353003 0.072105996 0.112713091
0.106135450 0.073371455 0.110815644
0.178621188 0.064262994 0.115117088
0.278557628 0.070967548 0.110056639
0.382289410 0.086274803 0.111322001
0.494876444 0.117393889 0.133207083
0.648450375 0.154332906 0.159772277
0.836685538 0.171030909 0.185705096
0.100695550 0.093991093 0.106894545
0.122580640 0.104237996 0.096647643
0.181024998 0.108159088 0.102593191
0.275015980 0.120303541 0.109677188
0.368374616 0.136369184 0.120682999
0.490701705 0.167235747 0.146868825
0.645161271 0.184187084 0.157242373
0.833396316 0.204806834 0.178241640
0.123086996 0.161416993 0.087666102
0.142188534 0.169260100 0.098671995
0.199747190 0.175458297 0.116002098
0.273750633 0.186084643 0.118658736
0.374446362 0.199746981 0.132321090
0.498039365 0.217078105 0.150411099
0.660720885 0.238836288 0.163441092
0.846932352 0.265780926 0.188108817
0.210626274 0.253004193 0.113978535
0.238583550 0.255028546 0.121821545
0.275775075 0.256166995 0.127261445
0.304364651 0.243643194 0.120935731
0.395066559 0.265148729 0.140543655
0.519544780 0.290069848 0.152308643
0.677672327 0.320809722 0.171410471
0.855661035 0.348640293 0.195319355
0.325869381 0.367489189 0.134725094
0.340290725 0.360278249 0.137128189
0.369639397 0.362682223 0.133965999
0.408096284 0.364579558 0.143706456
0.437065274 0.347754270 0.145604089
0.547754884 0.373054922 0.157369003
0.708665252 0.412650466 0.177609086
0.879949450 0.450853914 0.207843035
0.461100549 0.510563076 0.143073738
0.481973499 0.508538902 0.147122085
0.507020712 0.507020712 0.149019733
0.552055538 0.512460589 0.144465640
0.583681107 0.507779717 0.160910830
0.624161839 0.491334736 0.173814103
0.749778390 0.521568477 0.199494183
0.907400429 0.562681794 0.237950712
0.628336489 0.681214273 0.169766098
0.641745746 0.684882760 0.163946673
0.665781200 0.688425243 0.169766098
0.708412111 0.688804626 0.174320176
0.754965365 0.693105757 0.182163283
0.789879858 0.679949462 0.198482037
0.827324569 0.652498484 0.230107293
0.924983978 0.664389431 0.273750752
0.789500237 0.857305348 0.295129567
0.797216892 0.852245271 0.298038960
0.822517574 0.851992309 0.298924595
0.860847294 0.856166780 0.306641400
0.899304092 0.859835684 0.323592514
0.943832994 0.863630652 0.341049761
0.969765782 0.841745794 0.371916503
0.986463904 0.816698372 0.405313134
0.108158998 0.065528356 0.209108278
0.137001991 0.059708904 0.212650537
0.195066184 0.068184994 0.206324920
0.274130285 0.075142287 0.192283645
0.392030627 0.088551998 0.193422079
0.502466798 0.110562906 0.193548292
0.655407846 0.128905639 0.220999628
0.830739558 0.145730183 0.251359999
0.134345442 0.116761185 0.186590731
0.162935004 0.110436186 0.186717629
0.192663088 0.122201093 0.195825279
0.271853179 0.123339646 0.190006554
0.382289559 0.138266534 0.187602729
0.494876444 0.153447181 0.192030624
0.649082601 0.172548801 0.225047648
0.821252346 0.197849527 0.264642566
0.155977100 0.177102998 0.191144988
0.176217288 0.176596746 0.185958534
0.216951102 0.193168744 0.184820086
0.285515636 0.188741192 0.181657284
0.381910026 0.207590193 0.188994616
0.495382726 0.229475185 0.212650537
0.650221288 0.260467917 0.247691631
0.827324212 0.295256078 0.287665993
0.177102983 0.254522294 0.165970996
0.197849557 0.258823723 0.166730002
0.254269540 0.270208985 0.184440628
0.322327614 0.279190630 0.204680637
0.399114549 0.285388827 0.211005628
0.507779777 0.309803635 0.232890531
0.656040549 0.339785278 0.254143268
0.835293829 0.366477072 0.291840255
0.277293175 0.367741823 0.177735373
0.299683630 0.366476983 0.198861375
0.345856816 0.366476983 0.223150089
0.392030627 0.372802198 0.221125633
0.422517538 0.358633369 0.225427091
0.536369503 0.387602478 0.249335825
0.699683845 0.422770470 0.274509817
0.863250971 0.466034263 0.310310096
0.432637721 0.499557465 0.246552989
0.440101296 0.499936908 0.250094712
0.469955653 0.504490852 0.246173531
0.521062732 0.505755544 0.246932626
0.569259703 0.512460589 0.255534738
0.605945528 0.492473334 0.268817127
0.738772988 0.533586085 0.298039258
0.897533298 0.570524752 0.344844937
0.588614881 0.677292824 0.289942950
0.597596407 0.677166462 0.286274374
0.622896969 0.674509943 0.280329019
0.672232926 0.677798927 0.290575624
0.725490093 0.683997214 0.292219937
0.768753886 0.677799046 0.303099096
0.805059791 0.650853515 0.324098587
0.907906532 0.668564081 0.367235929
0.756989360 0.853636742 0.411005586
0.767994761 0.849841595 0.405313045
0.787349403 0.848956585 0.403668255
0.825806618 0.853763580 0.411005706
0.876533687 0.853763580 0.417330682
0.923592508 0.860594749 0.435040861
0.953067780 0.845414162 0.465907693
0.986084759 0.827577472 0.495003074
0.151170000 0.054901998 0.335231185
0.175458387 0.059456188 0.330044031
0.227957085 0.075142190 0.326502174
0.287918717 0.097912796 0.310942382
0.386211187 0.106514804 0.304490983
0.513472557 0.119038284 0.305755615
0.665528238 0.129411995 0.317014277
0.850474417 0.145603985 0.357115865
0.173055202 0.126122907 0.309171170
0.193548083 0.128526092 0.312966645
0.238583356 0.137887180 0.306135356
0.292599559 0.151676357 0.298039436
0.381024748 0.149652004 0.300822198
0.509550810 0.161037356 0.302593440
0.665654540 0.173181370 0.314105183
0.837065279 0.187982380 0.351676017
0.212397188 0.205313087 0.300822198
0.228462726 0.211132541 0.294117749
0.262492210 0.212271094 0.293738097
0.297533303 0.217837006 0.289310604
0.384566486 0.216951191 0.286527276
0.502593458 0.233016908 0.301075518
0.659962118 0.253889889 0.320936084
0.837065101 0.282352924 0.370525002
0.207969546 0.280455202 0.288804382
0.238204002 0.280075759 0.292472839
0.283618063 0.279949546 0.293990850
0.334851623 0.296015203 0.291208267
0.409360826 0.300695986 0.291840494
0.523466110 0.318405807 0.308412373
0.669449627 0.344592094 0.343200624
0.831119418 0.380012721 0.392283201
0.226565391 0.373561174 0.272486180
0.256419927 0.373307824 0.278810978
0.300948888 0.379127294 0.287286192
0.374952555 0.395066649 0.309298187
0.461353362 0.410373330 0.337381184
0.552941203 0.420493186 0.350411117
0.689943135 0.448703378 0.377356291
0.856166780 0.485135794 0.425174177
0.332700819 0.514358163 0.278810978
0.351802498 0.511701703 0.294497281
0.410879105 0.516002357 0.321315736
0.487160176 0.521062732 0.353447080
0.556862652 0.525743246 0.360025376
0.603036404 0.513978720 0.372295916
0.735736787 0.551170230 0.409614205
0.881720304 0.595951855 0.458570540
0.526375473 0.681467235 0.382289380
0.542947471 0.677798986 0.399746835
0.576597154 0.682226360 0.409487545
0.626565337 0.682732761 0.406830907
0.695509136 0.689437151 0.415686429
0.750664115 0.685768723 0.418216467
0.788108528 0.662745118 0.436938763
0.902972639 0.688678145 0.485641778
0.725490212 0.850221395 0.521315634
0.730044186 0.851106703 0.525995970
0.751929343 0.850347817 0.522454023
0.787476361 0.855407596 0.530676961
0.842631161 0.855407596 0.537886977
0.899936795 0.863250911 0.553320706
0.941302717 0.855407655 0.571410298
0.968880296 0.831625640 0.589752913
0.188108996 0.080328740 0.487286747
0.218722284 0.084630191 0.484882891
0.272612095 0.098671898 0.483364701
0.332068264 0.111954279 0.469955802
0.399241179 0.136748537 0.461227000
0.528652489 0.133206993 0.454016447
0.676533818 0.132068262 0.466413468
0.854142725 0.153447092 0.474889308
0.211764529 0.147374898 0.470335275
0.232257918 0.147628024 0.466793180
0.271347553 0.157115743 0.464769453
0.334724635 0.163693890 0.457305312
0.400126338 0.173813984 0.449588925
0.523592710 0.171916723 0.442504913
0.665401697 0.175205544 0.453004450
0.842378259 0.189753413 0.468943447
0.245161071 0.234661832 0.452751279
0.261985809 0.234661639 0.442378283
0.296268195 0.232511088 0.451612651
0.349778861 0.239595190 0.446046442
0.412650347 0.247944549 0.443390131
0.526249468 0.245667458 0.437444508
0.672485769 0.254648805 0.457432002
0.851612926 0.282226324 0.482732624
0.256166995 0.296774268 0.443643361
0.276154459 0.304996729 0.442631215
0.324351490 0.318659097 0.437444478
0.374825895 0.324604750 0.438456476
0.427197903 0.329664528 0.434535027
0.524351418 0.330803007 0.433649272
0.676154256 0.343200505 0.447438478
0.844654977 0.379380256 0.487286419
0.246046990 0.412270904 0.438330472
0.270082265 0.411005497 0.441618979
0.324351460 0.410246372 0.445161462
0.396710724 0.416318923 0.451992214
0.465275168 0.432258189 0.455028176
0.566476941 0.438076943 0.467172474
0.709550619 0.465148658 0.482099563
0.857178926 0.507273555 0.535104334
0.276280761 0.526502252 0.426565468
0.298924536 0.525616705 0.428715825
0.346868813 0.528399467 0.419481456
0.416318744 0.538266718 0.446552694
0.517773390 0.559139490 0.483997375
0.624541163 0.573434174 0.520556509
0.739785016 0.594054282 0.545983195
0.871600389 0.635294199 0.588361681
0.358507365 0.689816535 0.407843292
0.388994157 0.694497466 0.423149854
0.446299762 0.690828443 0.447059095
0.540290713 0.691714287 0.492979348
0.638709962 0.702087283 0.546616137
0.724984288 0.698924720 0.552055478
0.768247545 0.684756100 0.568121433
0.889563441 0.717267573 0.608854830
0.642757773 0.857178867 0.586970448
0.661227107 0.856040299 0.603162169
0.689942956 0.853636861 0.619607568
0.743326604 0.854648709 0.644655228
0.789373815 0.858570516 0.654648960
0.863124549 0.862365544 0.659202993
0.914231598 0.862871468 0.673371077
0.945350885 0.845920444 0.688931048
0.224794567 0.112713285 0.687412500
0.253004581 0.117014736 0.692599714
0.307147175 0.123718992 0.681846619
0.380012572 0.138519987 0.679569781
0.461227447 0.156609997 0.677925289
0.550158024 0.169386432 0.672106087
0.702466547 0.158127993 0.654395819
0.857179046 0.150917262 0.651865959
0.239721805 0.170271829 0.672738969
0.270335287 0.169386297 0.683364809
0.315243572 0.176597103 0.674509943
0.379253805 0.189247340 0.671347201
0.461227179 0.195825189 0.663124502
0.553194165 0.209867090 0.658317506
0.699683666 0.196331263 0.643643498
0.844528973 0.197090536 0.646426201
0.273497701 0.260594457 0.665907621
0.290322542 0.262871832 0.666666985
0.334471881 0.265528202 0.666287541
0.397090197 0.271347344 0.663756907
0.470714778 0.281214178 0.658443928
0.553194165 0.284124255 0.651739180
0.707020581 0.274889380 0.652498484
0.857938111 0.287792712 0.644022882
0.305376351 0.355976909 0.648197591
0.325996310 0.356609643 0.649083018
0.366856635 0.363314271 0.649715424
0.416571558 0.367235988 0.643263519
0.489184022 0.370904714 0.647944093
0.568247855 0.374320179 0.640986502
0.703099310 0.367235988 0.636053145
0.851992369 0.385831743 0.642125189
0.293738276 0.429728180 0.653636932
0.317394197 0.435041130 0.659203053
0.367236167 0.442378342 0.655914009
0.445793897 0.470335007 0.651739061
0.519291639 0.472232580 0.644275546
0.586970210 0.479317009 0.648197472
0.721315444 0.473750561 0.646679401
0.856166840 0.509297848 0.652624786
0.270335287 0.595951557 0.653763592
0.302087545 0.596205056 0.662997842
0.360910654 0.593927741 0.659962118
0.444022655 0.591271460 0.661606550
0.547754884 0.585452437 0.662492275
0.633523166 0.608096063 0.671347082
0.746109784 0.614294708 0.671094537
0.875269055 0.651992261 0.692473114
0.305249989 0.711954296 0.611005604
0.333206803 0.711954296 0.615812957
0.383175373 0.709677577 0.620366573
0.468564272 0.705755532 0.628969312
0.558633506 0.709804118 0.635926664
0.674763203 0.727261007 0.675395250
0.768880308 0.746616304 0.705123544
0.877166152 0.757495582 0.736369252
0.521189034 0.865274847 0.623402715
0.533333302 0.863883436 0.629854381
0.563440621 0.866413534 0.642378211
0.629980862 0.869070351 0.668943584
0.714863837 0.870714843 0.723339796
0.810879171 0.867172599 0.758254409
0.882353306 0.872359455 0.774193466
0.926249206 0.860974193 0.787476063
0.276027828 0.174193621 0.868564606
0.295382679 0.177103102 0.873750746
0.346615911 0.185325533 0.873877466
0.420493245 0.194686964 0.864895642
0.506008923 0.216571838 0.867299438
0.593674541 0.232258052 0.866792917
0.697406709 0.258823335 0.866919875
0.872485638 0.247438446 0.855407596
0.285515517 0.218848437 0.878684103
0.308412075 0.225174338 0.868185043
0.354459018 0.230993167 0.867172420
0.427703798 0.237065345 0.862997890
0.506641448 0.248956174 0.860974014
0.592536449 0.263124794 0.850600719
0.697153568 0.281720370 0.849462271
0.865148783 0.274004072 0.843896031
0.322833717 0.311954319 0.863757193
0.343073905 0.310815871 0.857052326
0.384566754 0.317394018 0.859329581
0.449588984 0.325110614 0.859202802
0.521442056 0.333333164 0.859835446
0.611005545 0.346109986 0.855913699
0.706514657 0.360278070 0.852877617
0.866540015 0.358633876 0.846932352
0.371536911 0.422390699 0.855281353
0.393927813 0.422138095 0.850853562
0.424920559 0.423529267 0.857052207
0.476913273 0.429728061 0.848703563
0.541935265 0.432131559 0.846299767
0.617330790 0.440480828 0.845287800
0.706894040 0.450221092 0.842378020
0.865274906 0.446426183 0.836812079
0.387855768 0.504363954 0.847817957
0.415559620 0.513852000 0.851866007
0.468184710 0.536242843 0.849335849
0.524984121 0.547121763 0.844528735
0.581151187 0.548639834 0.844022751
0.653510153 0.555724204 0.846173227
0.728779018 0.562808335 0.838962436
0.867805243 0.561796069 0.839848101
0.401517838 0.631372333 0.850600600
0.430992872 0.631751895 0.862492144
0.480202377 0.629348397 0.856419981
0.546995640 0.632890344 0.854142904
0.631878376 0.664769173 0.852498174
0.698165715 0.672991753 0.848323822
0.765085280 0.680455208 0.846932352
0.880328596 0.682226241 0.845667481
0.404680580 0.785325825 0.845667303
0.431752026 0.782036960 0.851866007
0.469829142 0.779127240 0.849588692
0.548513591 0.774572670 0.852751374
0.625806391 0.770145297 0.847691298
0.716508269 0.762302339 0.843769729
0.792283416 0.773054898 0.853383720
0.889310598 0.775711119 0.847438276
0.503984749 0.891966760 0.814927399
0.518785119 0.889816284 0.836432397
0.551296413 0.892725706 0.827450812
0.606578052 0.892220080 0.833143353
0.672232747 0.884250641 0.835673451
0.749525487 0.884250641 0.846426606
0.835167348 0.882479191 0.869196653
0.915496767 0.898418784 0.881467640
