Assets/Resources/EldamarStudio/100 Horror LUTs Pack/LUTs/cube/Terra LUT.cube
LUT_3D_SIZE 8
DOMAIN_MIN 0.000000 0.000000 0.000000
DOMAIN_MAX 0.903226 0.903226 0.903226
0.137254998 0.058823999 0.066666998
0.145857006 0.067425996 0.075268999
0.166224003 0.079949193 0.087792993
0.186590999 0.100315996 0.108158998
0.221758381 0.124604993 0.126122802
0.266413987 0.152814999 0.146995738
0.330297261 0.183301702 0.181656986
0.433143765 0.239468634 0.236811802
0.149020001 0.088172443 0.090954997
0.152941003 0.099177547 0.094117999
0.170145079 0.107400090 0.106261544
0.194434002 0.116761282 0.118026547
0.223908544 0.134724900 0.130929992
0.265275270 0.164832532 0.156356737
0.333965838 0.203668296 0.190385997
0.438329935 0.254522651 0.230613515
0.161543101 0.137128085 0.114357993
0.159898996 0.141050100 0.124225453
0.178747892 0.141808987 0.130929992
0.198734641 0.157115638 0.140670449
0.231878281 0.174699366 0.159898803
0.278937399 0.203668386 0.180518627
0.347754478 0.237318277 0.206831098
0.458697021 0.291966975 0.257432073
0.165844351 0.193927646 0.153574005
0.172801733 0.198608547 0.150411099
0.190891638 0.200505987 0.164579183
0.211258650 0.214674294 0.174319640
0.250347733 0.236179635 0.190386087
0.298418999 0.258823633 0.208348989
0.365591258 0.292725980 0.235546976
0.487033457 0.349399298 0.290449172
0.197596192 0.274889380 0.198229000
0.201518193 0.280455381 0.211258546
0.209993795 0.281214178 0.209107995
0.239342451 0.294117540 0.219734639
0.281214178 0.311701179 0.236558989
0.331561923 0.335483730 0.256925970
0.412523538 0.379633188 0.288931072
0.528020203 0.437571377 0.343579948
0.229221731 0.383681476 0.274130464
0.237065256 0.389247477 0.271473527
0.251106828 0.395698845 0.276534081
0.281467646 0.407463729 0.286274731
0.330676913 0.423908710 0.302466720
0.389500231 0.448323727 0.327007741
0.469323009 0.483364999 0.363567322
0.583175421 0.544085562 0.430360526
0.303857982 0.544591844 0.375711560
0.317520559 0.539784789 0.380012542
0.336369246 0.550158083 0.388741553
0.372928649 0.560151875 0.401518285
0.420999527 0.572295606 0.414041549
0.484503537 0.591651022 0.439595312
0.550158083 0.612903595 0.471726567
0.646046817 0.656293392 0.535104215
0.497533411 0.719670713 0.565464616
0.499303997 0.727387547 0.553194225
0.514610589 0.731309593 0.563820422
0.546742558 0.737634361 0.574193239
0.583048642 0.750031590 0.588867724
0.637697458 0.759392679 0.613662422
0.697786331 0.777988136 0.646679163
0.758886397 0.798102438 0.664769411
0.140416995 0.067046449 0.082353003
0.145857006 0.071346998 0.087033994
0.166603550 0.090955094 0.099936545
0.187729344 0.114863642 0.116381735
0.212397188 0.131688803 0.136748537
0.258949906 0.161037445 0.162175804
0.323845536 0.195445836 0.187982291
0.430486917 0.241998971 0.238835961
0.149020001 0.092093542 0.103099450
0.156863004 0.103478998 0.103099450
0.169765636 0.108538538 0.112080991
0.188108891 0.123086996 0.127387643
0.219481081 0.144085988 0.143453196
0.266413987 0.170398548 0.164452791
0.329664290 0.203668296 0.198861569
0.433523208 0.255281627 0.242504537
0.155597538 0.136748657 0.121821545
0.161163554 0.144212186 0.131309450
0.174826086 0.145730197 0.136748642
0.193548188 0.155850992 0.145350635
0.231246084 0.180139184 0.164199650
0.272991627 0.201265186 0.183681354
0.344212532 0.242758080 0.218216538
0.454775542 0.293484956 0.265654802
0.168880656 0.193042547 0.162175998
0.181530550 0.193042621 0.164958552
0.191650644 0.201265082 0.171663180
0.213535652 0.216951281 0.182163343
0.244781733 0.233775914 0.194307193
0.291713804 0.258823663 0.214927539
0.367868543 0.295888454 0.250980556
0.485135615 0.354965270 0.299936980
0.194433898 0.278052181 0.201265186
0.199873388 0.277293175 0.211891353
0.209614351 0.282352716 0.215053633
0.237065434 0.294876546 0.225173831
0.274636626 0.307273716 0.243263736
0.330044121 0.335483730 0.264768988
0.412903070 0.377735704 0.298545212
0.530170679 0.439848363 0.360025376
0.222011745 0.382795632 0.278178543
0.230360284 0.387855917 0.277545720
0.250601172 0.393674642 0.279063940
0.283111721 0.405945748 0.289690107
0.327640831 0.419987082 0.311321825
0.383554459 0.440733671 0.331056267
0.467678845 0.477925301 0.369765818
0.583807468 0.541555703 0.433396637
0.311068833 0.545856953 0.382669270
0.324857980 0.545477509 0.386464268
0.340670288 0.554459035 0.393801123
0.375838190 0.563440800 0.409108460
0.428589523 0.575331807 0.426818192
0.487033308 0.595951974 0.451865792
0.559898853 0.621884823 0.481087834
0.653889716 0.665401459 0.541302621
0.481973410 0.716128826 0.569765687
0.496647686 0.725237131 0.556989253
0.515496075 0.726881802 0.565844059
0.544339001 0.735357404 0.578368187
0.585452437 0.748260319 0.594813228
0.637697399 0.758633792 0.613156140
0.690448999 0.775078714 0.638077438
0.764199376 0.798355281 0.682479382
0.135610089 0.075268902 0.104997002
0.146236554 0.079569645 0.112460546
0.169386089 0.090955094 0.127767086
0.189373642 0.114104547 0.139152542
0.221125796 0.139531896 0.156862810
0.264136970 0.166097194 0.181783989
0.328905374 0.200506285 0.217077896
0.431878597 0.248576805 0.259835571
0.145857006 0.103478998 0.118785545
0.150537908 0.103858449 0.113219544
0.166603550 0.118405998 0.135230541
0.191271096 0.132448003 0.151297003
0.218342543 0.155977100 0.166224003
0.262871534 0.181404442 0.189626992
0.329664290 0.218595803 0.223655641
0.435800314 0.264389843 0.266287267
0.167108998 0.140290990 0.142568097
0.168626994 0.148513541 0.154459104
0.179506987 0.157495186 0.163061097
0.203036100 0.172422096 0.172042638
0.233522996 0.186464190 0.185705081
0.279823005 0.210752994 0.208475992
0.336748958 0.251359999 0.236559182
0.454902053 0.299430907 0.289563626
0.180771545 0.205312997 0.187349901
0.184693456 0.209993899 0.189753100
0.198734641 0.212270990 0.190006435
0.218216538 0.223655626 0.200505987
0.249588832 0.241239980 0.219355091
0.298418999 0.263883471 0.239342436
0.373561084 0.302719623 0.271726787
0.487033129 0.355724096 0.319038540
0.197343186 0.282100171 0.231878281
0.201391295 0.285136104 0.234661639
0.216318995 0.291460991 0.242125288
0.241366103 0.301960826 0.247944638
0.278178185 0.314104974 0.260088205
0.334345281 0.341429383 0.283870816
0.417330563 0.381277621 0.316382110
0.527387798 0.443769842 0.375205398
0.233143732 0.396205097 0.295382977
0.236938730 0.397343725 0.301075429
0.258949816 0.405566275 0.305376470
0.290195733 0.409487635 0.313978374
0.331562012 0.423529357 0.328399837
0.387982190 0.448197216 0.350031435
0.474003822 0.485641807 0.390891731
0.586464345 0.548640072 0.454016566
0.312207282 0.544085741 0.400759369
0.329664350 0.544844806 0.408602268
0.345098257 0.555724442 0.409361064
0.378747553 0.564073086 0.421758354
0.423908651 0.576217413 0.439848274
0.485515416 0.592915833 0.463124633
0.554838836 0.616698265 0.493611634
0.655408144 0.663757205 0.551170111
0.487665862 0.724857569 0.570145309
0.498165578 0.729411781 0.571283579
0.509550750 0.730929852 0.579253674
0.547374785 0.735104382 0.590132594
0.590259373 0.748133838 0.604933619
0.634914339 0.760657787 0.625300646
0.696015298 0.777608633 0.651486158
0.759645462 0.797469795 0.681467414
0.138393357 0.085768647 0.137887284
0.146995649 0.090955094 0.144591644
0.164958745 0.099936545 0.146489188
0.182668999 0.114863642 0.156356633
0.217078000 0.138646275 0.177355722
0.261606365 0.165717646 0.201265082
0.326248914 0.202909291 0.238835990
0.439721584 0.255028814 0.294370651
0.154079556 0.111321896 0.144971281
0.155597553 0.109297544 0.149652004
0.170904189 0.120303541 0.156736091
0.191650644 0.132827550 0.163314641
0.219101638 0.154712364 0.186084643
0.261226892 0.182922453 0.210626274
0.333965838 0.218595892 0.251359999
0.439089417 0.266919374 0.294876635
0.163947001 0.148892999 0.171663180
0.170524642 0.147627637 0.174699277
0.181150988 0.164579093 0.187729448
0.203415647 0.170778096 0.192283526
0.233523190 0.191524550 0.208728731
0.278937399 0.216571748 0.230993167
0.349651903 0.257685184 0.269070446
0.459456354 0.306135356 0.317394108
0.177609354 0.202403635 0.205186278
0.181024998 0.209108278 0.199114636
0.199873284 0.222390994 0.218469277
0.224161997 0.236559272 0.231498629
0.254142821 0.250221640 0.242758095
0.303225905 0.275268734 0.265528291
0.378494889 0.312839657 0.303352326
0.493105412 0.369006574 0.358886629
0.198861361 0.288930982 0.259708822
0.206831098 0.289690197 0.261226922
0.218975440 0.302719623 0.265528262
0.245161280 0.310562730 0.270968080
0.282352835 0.324604809 0.287033617
0.341429383 0.348007739 0.313598722
0.419228107 0.387982100 0.346489459
0.534092128 0.450347781 0.410120189
0.238583341 0.397343636 0.324984372
0.238962993 0.401518255 0.324857354
0.261985958 0.410246551 0.331056267
0.291587651 0.418469101 0.343706459
0.338267088 0.433776170 0.356735885
0.394180715 0.453257382 0.380518466
0.480202198 0.493737906 0.417963386
0.585072815 0.552688181 0.473497748
0.315749645 0.550157785 0.428462923
0.325237036 0.555724263 0.427704006
0.343073934 0.558507204 0.435926646
0.384693205 0.566856503 0.449715197
0.432890385 0.581277966 0.464263171
0.495382667 0.599241078 0.487033188
0.564199865 0.623529196 0.516002476
0.665781200 0.670588315 0.575711370
0.484376729 0.722074211 0.591144741
0.489057422 0.726881742 0.584440291
0.511448264 0.732700586 0.595445573
0.544212580 0.738140404 0.602023721
0.583301544 0.745224297 0.618848801
0.636685669 0.758254349 0.632510960
0.696521163 0.773813784 0.659708858
0.770145476 0.800885320 0.696520984
0.149020001 0.099557191 0.184060797
0.154459193 0.097153999 0.185578987
0.169386089 0.110562898 0.191145092
0.191271201 0.125363812 0.197469994
0.220240176 0.148133993 0.215433195
0.262492001 0.173940271 0.237697527
0.331182480 0.210752696 0.275648266
0.439721584 0.260341823 0.332194805
0.149272546 0.121062540 0.187982097
0.156862825 0.123845801 0.194180563
0.174066991 0.130550444 0.196711108
0.194813550 0.146236554 0.206831202
0.226565391 0.157622010 0.223782644
0.266666561 0.188488349 0.243517175
0.339152575 0.222896740 0.283491284
0.445287824 0.270967662 0.333459795
0.169386089 0.158254087 0.211638093
0.171789899 0.164958641 0.209234998
0.184187084 0.168627203 0.217836991
0.205819458 0.178241640 0.223655745
0.233522996 0.194307208 0.239721879
0.283618182 0.220113993 0.269196749
0.350031585 0.257685006 0.305502892
0.464136690 0.305249959 0.356609792
0.179253444 0.214674294 0.239342451
0.184946090 0.223023549 0.238077283
0.197849631 0.227198094 0.251106828
0.222644091 0.239342630 0.266413987
0.253763378 0.256926000 0.277672529
0.309677422 0.282352656 0.303352416
0.384313524 0.318279564 0.336495668
0.496141434 0.368753850 0.391271323
0.200000003 0.292093188 0.281214178
0.211638004 0.300948977 0.296141982
0.223402888 0.310183167 0.303225964
0.260974199 0.330550224 0.324730814
0.298418969 0.350031555 0.340670377
0.350410908 0.366603196 0.356230378
0.428210169 0.401011974 0.387602478
0.538899183 0.457305133 0.438710004
0.234534919 0.407590032 0.360531121
0.245161176 0.413029820 0.368374735
0.260847270 0.418468982 0.373940647
0.299178004 0.433776379 0.387223125
0.342567921 0.446426481 0.397343546
0.403162479 0.470335007 0.420240700
0.487033367 0.501834452 0.455661148
0.595825315 0.557368755 0.514737487
0.318532437 0.557368755 0.456420064
0.324224800 0.559772551 0.470082104
0.348260552 0.567615569 0.471220642
0.383681089 0.573813856 0.485641897
0.433396757 0.590891540 0.499430716
0.495256424 0.606578052 0.519164979
0.570398748 0.629221737 0.548386753
0.668690562 0.674383342 0.597343504
0.482479185 0.726628780 0.610499620
0.481720567 0.732447922 0.602529824
0.502846599 0.731941700 0.612776637
0.536875129 0.741555810 0.622643948
0.579000711 0.750157773 0.636811972
0.635420561 0.761416733 0.651865542
0.699556828 0.779759645 0.680961370
0.768627346 0.804806769 0.715243578
0.152941003 0.111701258 0.242883980
0.155218199 0.113978542 0.245161280
0.174573258 0.123339735 0.250600994
0.194307283 0.139025733 0.251739621
0.229601383 0.158254191 0.267425716
0.272232741 0.180265993 0.285894990
0.337760806 0.212902993 0.320936263
0.448323697 0.262239069 0.381909937
0.157115549 0.140543818 0.250600994
0.158001453 0.139784738 0.246679470
0.176723540 0.144591838 0.252119184
0.197849452 0.151549637 0.255914092
0.232384726 0.172801927 0.272486180
0.275648266 0.194686741 0.291967183
0.339026272 0.224668279 0.323592514
0.457431972 0.276280940 0.395825446
0.171537161 0.175837830 0.268311352
0.180012733 0.178621188 0.266287118
0.188488349 0.180139095 0.268184841
0.212903365 0.190259293 0.278304845
0.243263721 0.208349183 0.290449083
0.284250379 0.229475081 0.312080801
0.355850726 0.263251066 0.347627997
0.470841259 0.312839836 0.405313164
0.173434630 0.229474887 0.290322483
0.186590806 0.231372625 0.294749826
0.199493840 0.236811921 0.301834553
0.224414736 0.249841988 0.310056955
0.262365371 0.262618721 0.321695387
0.310942382 0.287412971 0.345730722
0.390385807 0.324225157 0.381277442
0.510689318 0.377735704 0.445414424
0.196837202 0.311954647 0.334977448
0.208348989 0.313598812 0.340037823
0.220999286 0.320682824 0.348766804
0.257811368 0.331688762 0.363314182
0.296394736 0.349272341 0.382542729
0.356609702 0.368753970 0.400379926
0.434408754 0.406831145 0.437318027
0.549905002 0.458064377 0.490448892
0.238835976 0.416824698 0.407084465
0.247817919 0.419354886 0.411891460
0.263883471 0.428210169 0.416445464
0.301454872 0.444402218 0.430993021
0.361669451 0.465148449 0.453763545
0.422896981 0.491334736 0.481720477
0.501834273 0.518026471 0.507653296
0.600758910 0.561037421 0.551170409
0.322706789 0.565338492 0.506767690
0.333586276 0.558127642 0.511701524
0.352182239 0.569513023 0.517520487
0.391018212 0.585705400 0.535989702
0.443010747 0.603289008 0.548387229
0.507020712 0.619102001 0.563693583
0.584187329 0.642378271 0.590638816
0.686907053 0.686527550 0.638709545
0.484756500 0.727007866 0.640480459
0.486021131 0.733965755 0.641745567
0.505249739 0.737887442 0.644781590
0.534218669 0.741682410 0.652371764
0.577735662 0.751928985 0.667299271
0.633017063 0.764579296 0.678684592
0.701075137 0.782922149 0.705629289
0.776723444 0.815053582 0.741555750
0.150664300 0.133965999 0.342694283
0.156863004 0.135610282 0.338772833
0.176470801 0.144212380 0.341935575
0.209614351 0.157495290 0.353826553
0.248197272 0.176217556 0.363946736
0.301075250 0.196964025 0.372042984
0.368500561 0.227071285 0.398228824
0.451107055 0.268184811 0.440987110
0.161669716 0.148766294 0.341176718
0.160784006 0.150917456 0.340417564
0.180012733 0.162302107 0.342821181
0.211132243 0.176344275 0.355344474
0.252624840 0.190765247 0.367868453
0.307147413 0.216951087 0.386464268
0.373434097 0.241998985 0.409993827
0.466033846 0.286907107 0.454522550
0.159392908 0.191144899 0.356103361
0.167868093 0.193801343 0.355977476
0.187349990 0.200506091 0.366223842
0.219987258 0.212650552 0.367741823
0.263251275 0.227830574 0.380265355
0.318152726 0.249082804 0.396331310
0.385705560 0.277925372 0.424920559
0.478810877 0.320430011 0.466792852
0.167488649 0.255028635 0.381404191
0.171790108 0.253636867 0.385325909
0.197090343 0.261986017 0.388235360
0.232637271 0.270208985 0.398734927
0.279949546 0.288045377 0.415179998
0.336622447 0.308539063 0.431625903
0.415559530 0.335356891 0.455913931
0.519544363 0.381277651 0.507020831
0.186843902 0.338140249 0.427577347
0.196584463 0.338772893 0.428336442
0.220240176 0.345224380 0.436812282
0.254395843 0.352055848 0.441998839
0.302972972 0.362555265 0.452498257
0.371410549 0.388741046 0.473497719
0.457684815 0.417204261 0.506388366
0.562175870 0.464136750 0.549905062
0.232764184 0.448956311 0.488045514
0.242884070 0.447438002 0.492726207
0.263883471 0.458823442 0.499304324
0.304237723 0.462745160 0.506894171
0.359645724 0.479569703 0.523719132
0.425047278 0.494117498 0.538140535
0.510309756 0.524098694 0.568374276
0.618975461 0.570271969 0.609740734
0.320809543 0.579885840 0.566856265
0.337507993 0.575711429 0.565591097
0.358886540 0.583048701 0.569765508
0.397722930 0.596078217 0.585452557
0.452118754 0.613788724 0.607463539
0.524731040 0.639595568 0.631372571
0.607969761 0.668437481 0.656673074
0.694370329 0.702593386 0.682859063
0.485262126 0.732700586 0.692220032
0.491334409 0.738519847 0.679063916
0.505629420 0.738646448 0.690448880
0.538899601 0.745224357 0.695888579
0.583175123 0.759772301 0.709803760
0.639342070 0.777862012 0.724731088
0.704743862 0.793421745 0.743959069
0.789120376 0.821758151 0.780518711
0.113599181 0.156989142 0.513219416
0.131436035 0.158001453 0.509930551
0.175585002 0.164326072 0.516002536
0.227830276 0.181277633 0.519797206
0.295382589 0.203162819 0.530297399
0.367235780 0.229348555 0.539152384
0.451233536 0.262871653 0.560404718
0.539405584 0.308918625 0.583807409
0.115116887 0.180392101 0.505756021
0.137507722 0.175458670 0.505123258
0.174825996 0.187223092 0.517014503
0.228715897 0.199999824 0.520050585
0.296900839 0.220366806 0.536116421
0.373434067 0.250095010 0.549525321
0.457811445 0.283238560 0.569259882
0.550410807 0.329411745 0.594939709
0.117773294 0.220366821 0.513978481
0.132827118 0.222643629 0.523592412
0.178115010 0.234534815 0.520682693
0.236179724 0.244655341 0.533839226
0.304364264 0.260721266 0.537760854
0.378621072 0.287286550 0.557621717
0.464516193 0.322454065 0.578114986
0.560404420 0.360404819 0.599620402
0.110942408 0.286907017 0.537887335
0.134598359 0.288551539 0.540543914
0.178874001 0.295129567 0.547627866
0.242125288 0.307400644 0.557115614
0.316255450 0.326881617 0.564199805
0.393927902 0.350284725 0.578241587
0.487412810 0.383934289 0.603035986
0.582542658 0.423655748 0.623023391
0.145224735 0.378621161 0.572422206
0.159266114 0.380012810 0.573814154
0.190512300 0.378747374 0.573181629
0.249841809 0.385831654 0.581783235
0.330297381 0.401897520 0.590765357
0.418595821 0.429980934 0.609993517
0.509804070 0.457938254 0.628462851
0.606577992 0.496141613 0.648324013
0.231245726 0.503605366 0.620999277
0.244781673 0.499177516 0.619987130
0.268184721 0.504743755 0.620619714
0.311068833 0.506008744 0.624667823
0.367741674 0.510056913 0.627577543
0.445667177 0.528273344 0.647058547
0.546869040 0.553447127 0.663250983
0.644781590 0.588614523 0.684629858
0.366223842 0.631625533 0.681467295
0.371790081 0.635673821 0.675521791
0.390891641 0.635547101 0.683617949
0.424667746 0.642378151 0.691334426
0.477672398 0.650980353 0.698292494
0.541049957 0.663883507 0.712840021
0.618596017 0.679316998 0.725996196
0.725489914 0.715116799 0.753067672
0.502846360 0.754838586 0.748386562
0.508791566 0.758254468 0.738899410
0.522580445 0.763440609 0.753067672
0.557494998 0.763946772 0.756103754
0.589753270 0.775837600 0.764073610
0.651739478 0.787602603 0.780898213
0.724984050 0.811258852 0.805186391
0.808602214 0.843769789 0.844022393
