Assets/Resources/EldamarStudio/100 Horror LUTs Pack/LUTs/cube/Terra LUT.cube
LUT_3D_SIZE 5
DOMAIN_MIN 0.000000 0.000000 0.000000
DOMAIN_MAX 0.903226 0.903226 0.903226
0.137254998 0.058823999 0.066666998
0.160152003 0.078431003 0.083997712
0.198734999 0.115749411 0.113724999
0.278557986 0.159898862 0.152055874
0.433143765 0.239468634 0.236811802
0.158507288 0.124224991 0.109803997
0.171916425 0.130423710 0.122580700
0.212144285 0.154964998 0.141935408
0.290069699 0.196837410 0.184060708
0.451865703 0.283870995 0.248323649
0.185072407 0.234155819 0.171283990
0.198734999 0.241998374 0.188361406
0.245919973 0.260974407 0.204680413
0.330297232 0.301834285 0.238709822
0.509677291 0.391904026 0.316634804
0.240354121 0.416065991 0.293358862
0.258444250 0.431119680 0.293485135
0.322201133 0.450727642 0.317647099
0.422897130 0.483744383 0.351296276
0.598608434 0.571410477 0.453383952
0.497533411 0.719670713 0.565464616
0.510562539 0.731309593 0.565085411
0.562808394 0.742441177 0.581657052
0.650094748 0.763693690 0.620999575
0.758886397 0.798102438 0.664769411
0.140164301 0.069955997 0.101961002
0.166350290 0.085641995 0.116381988
0.202023998 0.124224991 0.138266698
0.272991717 0.176217705 0.186337993
0.430866450 0.248576805 0.254775673
0.161796287 0.130423710 0.130423710
0.169639722 0.141555697 0.144844696
0.211132422 0.162808418 0.161163703
0.284123719 0.204680413 0.200126573
0.448829770 0.286527812 0.276407510
0.185958296 0.233143687 0.195825294
0.195446000 0.240986690 0.203036115
0.242884293 0.263251096 0.222011685
0.331309378 0.307779670 0.261986256
0.504743934 0.396458060 0.338266939
0.245287985 0.421252251 0.306767821
0.262997836 0.435673833 0.319797575
0.323845834 0.450474530 0.336242855
0.422643811 0.485388786 0.372296244
0.596331537 0.572675645 0.463883638
0.482352495 0.725110650 0.559772313
0.504996896 0.728146672 0.568374455
0.563187838 0.740544021 0.590892017
0.652118683 0.763693690 0.627830446
0.759898484 0.795192778 0.678937256
0.144465417 0.087540001 0.158886582
0.165717706 0.099051289 0.168374285
0.198102415 0.127514407 0.181151405
0.281846821 0.177609116 0.231878698
0.436432362 0.257052392 0.307526767
0.163061306 0.143200412 0.181404278
0.173560694 0.147754416 0.182415992
0.213788986 0.170651406 0.206957698
0.291714430 0.216445252 0.253763258
0.454395741 0.295002818 0.330044091
0.180391997 0.250474393 0.243896410
0.199367419 0.253383666 0.249082565
0.255028814 0.288425356 0.283870786
0.343453228 0.323086381 0.316888273
0.516887724 0.405565798 0.395192772
0.245920256 0.438583136 0.360404819
0.272359282 0.443516821 0.370525122
0.330044538 0.461479962 0.390512407
0.431119263 0.494497240 0.422264546
0.606831372 0.585199356 0.512333810
0.472485721 0.724857569 0.604047954
0.508285701 0.731056273 0.599999547
0.556862950 0.742441177 0.616951168
0.650094748 0.765971005 0.647058606
0.776723802 0.802656114 0.705376446
0.151929140 0.115749255 0.259076238
0.171283841 0.127134711 0.266540527
0.214800701 0.152688131 0.274762988
0.288424999 0.188361987 0.306135267
0.449082732 0.265274942 0.396078110
0.164452717 0.166729838 0.277672142
0.181404278 0.172296122 0.284882724
0.222263992 0.194560274 0.298545271
0.302213997 0.231498823 0.330044121
0.468817294 0.303478986 0.412144065
0.186590716 0.272991508 0.336116403
0.208602250 0.281847388 0.338519692
0.257305712 0.300189406 0.361416519
0.348386973 0.334218651 0.393801242
0.528020144 0.412144214 0.474003494
0.256040096 0.455281258 0.443516999
0.282858729 0.457558364 0.450348139
0.344718248 0.488677830 0.474256843
0.458317369 0.532827377 0.519165099
0.623529196 0.592662990 0.582542777
0.487286299 0.727766871 0.653636873
0.501707733 0.734598339 0.653383672
0.555218339 0.748639882 0.669576287
0.649462581 0.768627644 0.692093730
0.780518413 0.812776566 0.749146044
0.113599181 0.156989142 0.513219416
0.163693711 0.163820282 0.515749395
0.259076804 0.188361987 0.519038141
0.387729108 0.237191513 0.547754467
0.539405584 0.308918625 0.583807409
0.121568330 0.207969651 0.514737427
0.164958879 0.217836812 0.517393708
0.262618691 0.240101233 0.533080459
0.397849381 0.283238560 0.555344284
0.555344582 0.347501636 0.593548417
0.111954391 0.329790950 0.548260629
0.167489320 0.330676675 0.556862414
0.279949635 0.350663781 0.568627238
0.427703917 0.392915934 0.592789471
0.592283010 0.458064586 0.639341950
0.263377547 0.533965886 0.637191772
0.285389245 0.536875367 0.634282172
0.361922622 0.538772941 0.641492903
0.488424957 0.561922669 0.666034043
0.661226928 0.617204070 0.698039055
0.502846360 0.754838586 0.748386562
0.520050287 0.755850315 0.749778509
0.570651531 0.767994583 0.758127987
0.670967877 0.793421805 0.785958230
0.808602214 0.843769789 0.844022393
