Assets/Resources/EldamarStudio/100 Horror LUTs Pack/LUTs/cube/Terra LUT.cube
DOMAIN_MIN 0 0 0
DOMAIN_MAX 1 1 1
LUT_3D_SIZE 32
0.137254998 0.058823999 0.066666998
0.137254998 0.058823999 0.066666998
0.141555995 0.063124999 0.070968002
0.145098001 0.066666998 0.074510001
0.145857006 0.067425996 0.075268999
0.151929006 0.073497996 0.081340998
0.155471325 0.077039681 0.082353003
0.160152003 0.078431003 0.083997712
0.166224003 0.079949193 0.087792993
0.172295988 0.086021975 0.093865000
0.172548994 0.092093997 0.097027130
0.178621247 0.096141741 0.102086991
0.186590999 0.100315996 0.108158998
0.192662999 0.106641032 0.113724999
0.198734999 0.115749411 0.113724999
0.209613994 0.120050803 0.118532605
0.221758381 0.124604993 0.126122802
0.232637987 0.130676985 0.133332998
0.238710016 0.136749014 0.133333012
0.253131360 0.145604357 0.141682357
0.266413987 0.152814999 0.146995738
0.278557986 0.159898862 0.152055874
0.290828496 0.168880016 0.161163509
0.306008905 0.174952805 0.170271903
0.330297261 0.183301702 0.181656986
0.353446960 0.195192650 0.192409664
0.373181194 0.209867001 0.203035995
0.400506318 0.222010985 0.221251979
0.433143765 0.239468634 0.236811802
0.470082104 0.257684946 0.253763407
0.509550810 0.275901198 0.269323379
0.549019992 0.294117987 0.278430998
0.134218603 0.067931615 0.072738998
0.143326998 0.064895995 0.072738998
0.141176224 0.067046225 0.070588224
0.144591928 0.072232611 0.074003614
0.148134395 0.075395167 0.077925161
0.148893386 0.073497996 0.081340998
0.157495067 0.079570003 0.087412998
0.161543339 0.086401090 0.090069711
0.165464908 0.089816682 0.092346996
0.169259593 0.089057587 0.093865007
0.175332338 0.095129609 0.099936999
0.181657121 0.099177867 0.105123378
0.189626619 0.104490742 0.108918384
0.195698678 0.112460062 0.111195385
0.201771393 0.118785799 0.116761386
0.205439597 0.123086572 0.119165190
0.217204198 0.127640605 0.123086803
0.230234176 0.133080199 0.128525987
0.238710016 0.136749014 0.133333012
0.250348002 0.148387015 0.144465715
0.265275329 0.157748356 0.153826654
0.279570132 0.164958999 0.159139752
0.293991357 0.172042891 0.164326385
0.312080920 0.181024805 0.176343903
0.327261269 0.191650987 0.185452282
0.350157976 0.202909365 0.195446059
0.373181194 0.215433061 0.204554334
0.400506318 0.225047380 0.215179980
0.430486917 0.239848197 0.236052796
0.467046171 0.255914181 0.248450205
0.508285940 0.274636358 0.261986196
0.552055657 0.297153592 0.275395393
0.135483772 0.077039778 0.078811005
0.144592166 0.074003614 0.076660231
0.149398997 0.075269006 0.074510001
0.145097777 0.077039778 0.076533936
0.147248775 0.080961324 0.082732551
0.149020001 0.081467710 0.083997712
0.152308688 0.083871000 0.087412998
0.161416709 0.088298708 0.091840707
0.166224003 0.095635995 0.094117999
0.170651287 0.096774295 0.094118007
0.178747728 0.100315996 0.099936999
0.182795733 0.104364254 0.103984736
0.190512002 0.108539000 0.112207510
0.196837038 0.116381772 0.116255775
0.204807058 0.122454055 0.118532769
0.212776974 0.123972185 0.122201025
0.217330769 0.128525987 0.126755223
0.229348570 0.135230571 0.130423576
0.238456979 0.141302973 0.134977788
0.250348002 0.148387015 0.144465715
0.264389724 0.158633739 0.150917262
0.278557986 0.166730002 0.159519136
0.292726189 0.173181489 0.165338501
0.310942233 0.186337903 0.179506779
0.331182510 0.195572764 0.189373508
0.350537539 0.204933763 0.197090566
0.374825925 0.216065839 0.205945998
0.400506318 0.228463218 0.216698304
0.432637691 0.242884025 0.223529011
0.470082074 0.261606365 0.248323813
0.510816157 0.280202419 0.264136732
0.555091798 0.304490775 0.283111989
0.141050160 0.083618164 0.084883004
0.145098224 0.083111778 0.081846938
0.148640230 0.083111778 0.081340767
0.152941003 0.087412998 0.080835164
0.148007542 0.087033547 0.088804998
0.151043937 0.088298932 0.088804998
0.154079676 0.091334678 0.091334678
0.159139544 0.095635541 0.095635541
0.168247938 0.098671928 0.098671928
0.174825981 0.104238003 0.099178001
0.180012703 0.106135286 0.102467000
0.187602907 0.109171093 0.107779898
0.191777170 0.113346122 0.109677158
0.198102206 0.119418159 0.120809838
0.207210585 0.125490159 0.122833841
0.216318637 0.126755163 0.125237346
0.221378818 0.131055981 0.127261147
0.229348391 0.137128145 0.133965567
0.239721820 0.145604149 0.138266817
0.251613170 0.151929170 0.146869197
0.263124555 0.161163732 0.152182430
0.278304964 0.169259995 0.157242030
0.291081488 0.175584972 0.166476861
0.310436159 0.189626753 0.180518910
0.330929458 0.200253129 0.189879864
0.352308303 0.209234983 0.200126186
0.377609134 0.217330992 0.206704900
0.403415889 0.233270273 0.218089983
0.434408605 0.247185439 0.226059318
0.473118156 0.264642328 0.240733430
0.511195421 0.285894752 0.265402019
0.551802695 0.309803993 0.288931161
0.149020001 0.088172443 0.090954997
0.145983607 0.090828605 0.088298835
0.145477548 0.091713995 0.089184225
0.147248536 0.093105547 0.092220157
0.152941003 0.099177547 0.094117999
0.155977398 0.096141934 0.094117999
0.159392685 0.098545223 0.097027227
0.164072990 0.102086991 0.100948542
0.170145079 0.107400090 0.106261544
0.179253474 0.110436477 0.109297931
0.180771545 0.111321993 0.110183448
0.186084703 0.113345832 0.113851994
0.194434002 0.116761282 0.118026547
0.200506002 0.122833997 0.118532546
0.209487870 0.128905997 0.124604538
0.218216181 0.130929992 0.128652811
0.223908544 0.134724900 0.130929992
0.226691559 0.143579602 0.132068500
0.241871983 0.149652407 0.141176134
0.255028725 0.156104013 0.150663912
0.265275270 0.164832532 0.156356737
0.276027679 0.174952537 0.160278410
0.291461021 0.181277528 0.169512525
0.312713444 0.193421558 0.181657270
0.333965838 0.203668296 0.190385997
0.354459107 0.213156223 0.197722986
0.377229571 0.223402977 0.209740520
0.407590330 0.241618991 0.218848899
0.438329935 0.254522651 0.230613515
0.475015342 0.269449949 0.247691154
0.514610648 0.288551599 0.269196630
0.541935086 0.309803993 0.287413448
0.149020001 0.103352055 0.097027004
0.145983607 0.103352055 0.097027004
0.147248775 0.103857994 0.096521065
0.148513943 0.102593154 0.098292157
0.149905398 0.102213934 0.100189999
0.152941003 0.108285934 0.094117999
0.158507064 0.112839997 0.099178001
0.164072990 0.113472223 0.101454936
0.169386089 0.113472089 0.103225835
0.173181474 0.116508484 0.106261551
0.182289869 0.122453988 0.112207063
0.185831681 0.125490248 0.115243316
0.192156702 0.127387866 0.118785642
0.200506002 0.128905997 0.121568933
0.206578001 0.134977981 0.127640933
0.213156044 0.141049996 0.133712932
0.221252188 0.144592196 0.139278993
0.229474932 0.149905279 0.143706590
0.241871998 0.158760026 0.147248909
0.259835720 0.167615429 0.159139886
0.271347255 0.172422737 0.166982919
0.281467259 0.177988932 0.170524999
0.294497401 0.184313923 0.172548920
0.315749824 0.196457952 0.184692949
0.337002188 0.208601937 0.199114338
0.355471224 0.220240325 0.205819011
0.374193221 0.232384861 0.209867001
0.404553950 0.247690976 0.221884504
0.437570840 0.260594666 0.233649716
0.472232342 0.272738963 0.249335885
0.510562837 0.288551599 0.270714551
0.548007846 0.309803993 0.296521068
0.154080003 0.113472320 0.105629317
0.153573930 0.113472320 0.105629317
0.154838547 0.115623094 0.107779548
0.156609684 0.116002642 0.108158998
0.156989232 0.114990771 0.109930225
0.160025388 0.118911996 0.110309996
0.163060993 0.119923994 0.109297998
0.167488709 0.124351703 0.113725707
0.171916410 0.124604538 0.115370221
0.174952820 0.127640486 0.118405834
0.186337873 0.131056324 0.119291313
0.189374000 0.133080319 0.121315315
0.194180965 0.136748999 0.122706994
0.203036323 0.140037999 0.125110671
0.209108323 0.146109998 0.135736674
0.219987318 0.149778813 0.137001678
0.227830514 0.155724317 0.142821059
0.236938730 0.159772426 0.147628322
0.247185007 0.165085047 0.148766980
0.257305384 0.174193367 0.157621697
0.273624420 0.181403995 0.171663418
0.285009325 0.189120799 0.179632992
0.297533154 0.199746996 0.183048502
0.318785578 0.207084000 0.192789331
0.337761253 0.216951281 0.200379327
0.358760655 0.230233967 0.212017670
0.378747642 0.244023070 0.216445312
0.409107894 0.259203166 0.224541306
0.447185397 0.271726668 0.241745323
0.480581760 0.285642177 0.255660862
0.518026471 0.302972883 0.273118198
0.559140027 0.327514321 0.295509309
0.158507288 0.124224991 0.109803997
0.161796287 0.122580700 0.116381988
0.157368943 0.126375765 0.116887927
0.159139723 0.128146991 0.117393859
0.160278171 0.128146991 0.117393866
0.165844232 0.129917771 0.120429926
0.170525089 0.130423695 0.124224991
0.171916425 0.130423710 0.122580700
0.174952611 0.134978086 0.126375988
0.177988783 0.139784932 0.130297214
0.186464280 0.142820865 0.128778994
0.193801284 0.143832996 0.130423695
0.194939926 0.144971639 0.131562054
0.203289285 0.150284663 0.132574052
0.212144285 0.154964998 0.141935408
0.219734281 0.160278097 0.147754416
0.234914660 0.164832667 0.149272218
0.243769988 0.170904696 0.155218273
0.251865745 0.174952462 0.157242283
0.262618363 0.183554351 0.162302360
0.273877442 0.190765411 0.171916455
0.290069699 0.196837410 0.184060708
0.303731680 0.209993705 0.190132707
0.323465884 0.219101697 0.197722912
0.342441559 0.227450982 0.204554006
0.364832610 0.239342347 0.213408977
0.388109148 0.254016697 0.223276407
0.418469399 0.268058419 0.231625691
0.451865703 0.283870995 0.248323649
0.489437133 0.294497162 0.263124168
0.526375771 0.313219547 0.281846553
0.569639683 0.340543985 0.302340269
0.161543101 0.137128085 0.114357993
0.166097090 0.134851381 0.121947996
0.163693771 0.136748984 0.125489995
0.159139901 0.141050100 0.127261147
0.159898996 0.141050100 0.124225453
0.168627247 0.141050100 0.126502067
0.175205633 0.141050100 0.130549997
0.177229896 0.140291005 0.131688714
0.178747892 0.141808987 0.130929992
0.181783512 0.150917381 0.137001991
0.187728986 0.154965118 0.136622220
0.193042099 0.156736091 0.137634352
0.198734641 0.157115638 0.140670449
0.202023998 0.160404995 0.143453091
0.213155985 0.163946673 0.148513734
0.221252084 0.168627203 0.154585898
0.231878281 0.174699366 0.159898803
0.248830050 0.182036966 0.164832145
0.255155116 0.188362017 0.171157196
0.266034007 0.195698857 0.175205439
0.278937399 0.203668386 0.180518627
0.292346984 0.209741086 0.188615084
0.310562968 0.215939566 0.194687083
0.328778982 0.227451012 0.200759098
0.347754478 0.237318277 0.206831098
0.370904624 0.249209642 0.214168072
0.398229063 0.263883978 0.227324083
0.428336769 0.276027977 0.239974782
0.458697021 0.291966975 0.257432073
0.494117439 0.309424162 0.274383128
0.530929804 0.321568638 0.287159652
0.576470971 0.348893076 0.314484090
0.164579496 0.152308494 0.132573992
0.164579496 0.152308494 0.126502007
0.164832488 0.152181998 0.125490010
0.165717840 0.153700173 0.129285172
0.169006601 0.156230509 0.136369452
0.175079376 0.156230509 0.133333072
0.181277961 0.156230509 0.133079991
0.182416275 0.154585779 0.131688714
0.181783512 0.153953016 0.130930007
0.187855512 0.160025015 0.137001991
0.193800986 0.166223526 0.143074006
0.197849259 0.170145273 0.146742746
0.202150494 0.171916500 0.149778843
0.208095998 0.172549009 0.152561486
0.214167982 0.178621009 0.152561486
0.222896799 0.182163313 0.157621518
0.233396485 0.186843976 0.163693517
0.245793656 0.194180980 0.170904130
0.257938445 0.206325024 0.183048964
0.267046154 0.209867373 0.189373985
0.280075729 0.216951236 0.193421751
0.295129657 0.224920794 0.197722778
0.310562968 0.231119975 0.203795478
0.328778982 0.240227610 0.209867492
0.349272251 0.249462292 0.215939477
0.374572814 0.261353642 0.222011477
0.404301077 0.276027977 0.230360493
0.431625426 0.288171977 0.248576462
0.461733133 0.300315976 0.266540170
0.499177814 0.321568161 0.286527663
0.539658666 0.345477194 0.304743946
0.576470971 0.364073485 0.317520499
0.167615131 0.161669880 0.142061874
0.167615131 0.161669880 0.141808867
0.167615131 0.161669880 0.140037864
0.168880299 0.164199874 0.138772711
0.172295868 0.169259995 0.140923217
0.178367987 0.174319997 0.145477802
0.176850438 0.171790317 0.142441422
0.180139273 0.173055157 0.143706590
0.182669088 0.173307866 0.144718766
0.190891862 0.175078869 0.148639992
0.194054008 0.178241745 0.151802883
0.200126514 0.184313744 0.153826877
0.205186874 0.188235223 0.155977368
0.211005837 0.190259039 0.159013033
0.214420989 0.193674862 0.161669880
0.225300595 0.197343677 0.161669880
0.236432865 0.198861867 0.169765860
0.247944444 0.203415856 0.177988455
0.257811964 0.215559885 0.183301955
0.272738665 0.222137868 0.192662656
0.283997476 0.229095727 0.198861599
0.299177885 0.237191737 0.202909604
0.316255510 0.243390501 0.207084119
0.331688851 0.252498835 0.213156134
0.354458839 0.263883740 0.221505418
0.379126996 0.276407510 0.230992973
0.407969862 0.291081846 0.242125124
0.437697411 0.303225845 0.260341734
0.465021759 0.318026692 0.270587891
0.502213478 0.333965689 0.288045526
0.545603871 0.356103450 0.309044957
0.588109016 0.376343995 0.329284996
0.166603267 0.176849991 0.147122264
0.174699247 0.174826249 0.149145991
0.172675505 0.176849991 0.149145991
0.170145184 0.178115159 0.146616012
0.172042832 0.182289705 0.144338816
0.181404263 0.183427989 0.152055860
0.183934048 0.185958311 0.154585674
0.182542726 0.184566990 0.153193995
0.185957998 0.187982246 0.156609729
0.193801224 0.190512255 0.160910517
0.199114636 0.193422124 0.163946867
0.202150255 0.196457997 0.162934735
0.209361389 0.200252995 0.164073378
0.216065958 0.202403292 0.167109296
0.219101578 0.205439672 0.170145676
0.231372327 0.214547798 0.174826249
0.243517101 0.219101980 0.176344052
0.255028665 0.220746577 0.185704976
0.264136732 0.228716269 0.190132707
0.276787192 0.235294268 0.194686919
0.290069520 0.241366252 0.201897264
0.302213997 0.249335989 0.206957877
0.318532497 0.255534500 0.210120261
0.337507904 0.264642894 0.216192260
0.357495248 0.280075967 0.230613276
0.384566575 0.290828645 0.239721656
0.413029999 0.304237962 0.251739323
0.443389982 0.316381991 0.268437892
0.475142300 0.333207071 0.278684676
0.507779419 0.350158185 0.293105453
0.548892796 0.369259834 0.313092947
0.592157006 0.390512258 0.337381005
0.165844351 0.193927646 0.153574005
0.174572989 0.193169028 0.156609610
0.177103132 0.194433853 0.155218005
0.178494960 0.196331158 0.156103656
0.172801733 0.198608547 0.150411099
0.181151226 0.195572346 0.156483293
0.187982321 0.197596312 0.161669672
0.189373642 0.198987991 0.163060993
0.190891638 0.200505987 0.164579183
0.196963638 0.206577986 0.170651287
0.201897740 0.209740862 0.173813865
0.208222747 0.212777033 0.172802016
0.211258650 0.214674294 0.174319640
0.220619991 0.215433255 0.177102998
0.226312220 0.220240414 0.179253757
0.236685440 0.227071643 0.188108981
0.250347733 0.236179635 0.190386087
0.261859924 0.241619214 0.194054276
0.270967692 0.244655609 0.200126290
0.283997715 0.251612991 0.203415349
0.298418999 0.258823633 0.208348989
0.312586993 0.265907764 0.214421257
0.325237006 0.272106260 0.217837110
0.345477521 0.280202538 0.224920988
0.365591258 0.292725980 0.235546976
0.389879644 0.309044629 0.251865655
0.420746535 0.319165051 0.261986077
0.451739252 0.331941634 0.277166426
0.487033457 0.349399298 0.290449172
0.522201180 0.367615581 0.307147563
0.558633506 0.387602836 0.326249212
0.597849667 0.409108281 0.350284278
0.169892028 0.209867075 0.165212005
0.172422424 0.212144434 0.168247670
0.173560992 0.215180263 0.166097030
0.176850155 0.216951028 0.163061172
0.184693485 0.217077583 0.165844515
0.181657091 0.214041978 0.162808120
0.188235283 0.216065705 0.167109028
0.192916036 0.217963025 0.170398027
0.193928033 0.218722060 0.170651183
0.200000033 0.224794060 0.176723957
0.203668833 0.227703899 0.179886118
0.210499734 0.230487257 0.179380253
0.217583671 0.232890993 0.180645376
0.221631989 0.233650029 0.189500034
0.233775988 0.242757648 0.189500034
0.243010804 0.247058809 0.200505838
0.253637016 0.251613021 0.207590163
0.265148580 0.257305622 0.205945954
0.274257004 0.260342002 0.212017968
0.289184332 0.268690735 0.215306684
0.306008995 0.277545780 0.220493048
0.324225068 0.286654085 0.226565257
0.342694044 0.295888960 0.232764497
0.361163825 0.302214026 0.241872162
0.379886061 0.310815752 0.249209061
0.402276695 0.322706699 0.259202659
0.430360198 0.337634087 0.274130076
0.463757336 0.352814466 0.289310426
0.501707733 0.370651692 0.306894004
0.539152324 0.388867974 0.327134341
0.575838208 0.408855230 0.351802588
0.612271011 0.433144033 0.373054981
0.185072407 0.234155819 0.171283990
0.182036787 0.228083819 0.174320385
0.184566632 0.230360627 0.181657061
0.186970159 0.232131407 0.181277409
0.190891996 0.232510954 0.178241536
0.190765470 0.235294342 0.181024879
0.192789093 0.237318084 0.183048502
0.198734999 0.241998374 0.188361406
0.202024415 0.244528472 0.189373493
0.203036413 0.243010819 0.182795957
0.212017536 0.243263826 0.185958117
0.217836559 0.243896410 0.188994259
0.224541277 0.246805996 0.191903993
0.230740368 0.251866013 0.198608413
0.245919973 0.260974407 0.204680413
0.250853777 0.265275031 0.207084224
0.259709001 0.269829005 0.215686217
0.271220565 0.275901109 0.220366567
0.280328989 0.281594366 0.221125573
0.297785997 0.287413388 0.224414930
0.313472301 0.294117808 0.231246144
0.330297232 0.301834285 0.238709822
0.348766804 0.311068565 0.244908497
0.373054832 0.323213369 0.254016876
0.396078557 0.334092379 0.265401840
0.420493454 0.346995443 0.276280791
0.448323965 0.361669809 0.289057404
0.478937715 0.374066800 0.301454425
0.509677291 0.391904026 0.316634804
0.543706119 0.410120338 0.327134371
0.579506397 0.430107594 0.345856756
0.618342996 0.454396397 0.379126966
0.193041995 0.253636986 0.184566796
0.190006375 0.252371967 0.190006375
0.189120993 0.250600964 0.195192978
0.193168804 0.254648805 0.200252801
0.196204990 0.256546319 0.195698798
0.192157000 0.255534738 0.188614935
0.199494287 0.258570462 0.191650674
0.200885609 0.259961784 0.194686711
0.206198901 0.262997806 0.199240908
0.211132184 0.261606485 0.196711287
0.217457116 0.266286969 0.201644719
0.224541500 0.268311232 0.202656597
0.230613604 0.268690795 0.205313146
0.237191990 0.272232771 0.210119992
0.250221372 0.279190391 0.216191992
0.262997806 0.285894990 0.219860807
0.269070178 0.287412792 0.222897187
0.280328780 0.292346358 0.228969023
0.291207969 0.300189912 0.230739802
0.303858012 0.306261986 0.238330156
0.323971748 0.314231724 0.243263796
0.341176242 0.322833776 0.250853986
0.359392971 0.333333075 0.257052481
0.379126996 0.343200594 0.266160876
0.403415531 0.355344802 0.275269270
0.430487305 0.367488742 0.287286758
0.459329784 0.382163137 0.299936861
0.489690065 0.398102582 0.313978583
0.517646909 0.410752624 0.331182599
0.551549315 0.430740118 0.349904954
0.588234961 0.453130990 0.365338147
0.629221976 0.480455786 0.397216767
0.197596192 0.274889380 0.198229000
0.196078375 0.273371190 0.202783197
0.195192993 0.276407182 0.205819190
0.196458161 0.275142342 0.210626036
0.201518193 0.280455381 0.211258546
0.197723195 0.280835122 0.204807177
0.201265126 0.279822856 0.203795061
0.208475798 0.281214178 0.206830710
0.209993795 0.281214178 0.209107995
0.218342498 0.281214178 0.211385295
0.226059183 0.285515398 0.215812981
0.232131317 0.291081429 0.220872998
0.239342451 0.294117540 0.219734639
0.246047035 0.294750005 0.222264379
0.256926179 0.299557209 0.228336379
0.267551988 0.305629194 0.230487004
0.281214178 0.311701179 0.236558989
0.290322572 0.312966168 0.238962799
0.301581204 0.321188956 0.241113037
0.315243423 0.327514380 0.249715343
0.331561923 0.335483730 0.256925970
0.351802438 0.345604241 0.264010131
0.370272160 0.357748359 0.270714700
0.391271174 0.368248075 0.279823065
0.412523538 0.379633188 0.288931072
0.436812282 0.390385836 0.300822437
0.466414064 0.402909458 0.313092977
0.495762169 0.420114070 0.327261209
0.528020203 0.437571377 0.343579948
0.559139550 0.450474352 0.363567144
0.596457779 0.473497778 0.389247149
0.638329983 0.503225982 0.418469191
0.201897576 0.298545539 0.211638138
0.201897576 0.297406733 0.214674383
0.200000003 0.298924536 0.215559989
0.201897591 0.303099096 0.216824993
0.206072420 0.300442934 0.219860584
0.207084402 0.306008965 0.222896919
0.208981663 0.305123210 0.223402977
0.213662133 0.303099126 0.224414840
0.219101563 0.304364115 0.226059139
0.225173563 0.304364115 0.226059139
0.233522862 0.306641400 0.228968859
0.240606993 0.311701536 0.232763976
0.247817636 0.316635072 0.237318039
0.257178992 0.319923699 0.235041454
0.266666830 0.323339552 0.241113558
0.275142372 0.327514142 0.244275972
0.286653757 0.332953542 0.246932358
0.301201552 0.338393122 0.254142553
0.310309976 0.344465137 0.254142553
0.325616777 0.351802677 0.261859328
0.343326986 0.359772384 0.269702554
0.361543238 0.369259804 0.276154131
0.379886478 0.381278038 0.285135984
0.403668582 0.392915964 0.293738335
0.425679862 0.405060142 0.304111272
0.450853854 0.417710185 0.316634804
0.475648612 0.427830607 0.331815064
0.502972960 0.443010956 0.344085544
0.537001967 0.463504314 0.359518945
0.571663678 0.481341064 0.378873706
0.606831133 0.496647716 0.401391149
0.646299541 0.523972154 0.437823981
0.211005986 0.319797993 0.229854956
0.211005986 0.325870007 0.232890576
0.204554215 0.324731201 0.233776033
0.202530026 0.326249003 0.235041201
0.209108055 0.330803007 0.238077402
0.221252054 0.330803007 0.241113007
0.222264051 0.331309021 0.241619036
0.225806430 0.329411685 0.241619036
0.231119841 0.328905970 0.241113096
0.234281972 0.334724963 0.238203958
0.240353987 0.334724993 0.241113082
0.246679023 0.339025974 0.242125034
0.253889650 0.343959630 0.244908035
0.263251007 0.347248912 0.250221103
0.275395006 0.353320897 0.256293893
0.282479674 0.354332954 0.264769167
0.291840941 0.356356800 0.268564016
0.304237992 0.359645605 0.269322991
0.316382021 0.362682015 0.269322991
0.333839029 0.374320000 0.274888992
0.353699803 0.384060770 0.283111781
0.373687297 0.393169105 0.290955007
0.392030507 0.402530462 0.297280014
0.413282931 0.411638111 0.303352028
0.434788287 0.423276603 0.316508323
0.462998301 0.438203931 0.332574338
0.496901065 0.455155075 0.350031883
0.524225354 0.470335424 0.365211517
0.554205894 0.490828782 0.382795632
0.586843610 0.512081146 0.404300898
0.622011542 0.532574475 0.427450597
0.661479950 0.554332972 0.449968070
0.220113650 0.352182388 0.253637016
0.222897008 0.355471015 0.256673336
0.222897008 0.357242018 0.257558733
0.220746532 0.357368559 0.256293565
0.224541724 0.360404730 0.255534559
0.227071717 0.355597734 0.253763765
0.234155715 0.360657722 0.259329736
0.236305997 0.361163735 0.259835720
0.241239652 0.361543387 0.261353731
0.246299520 0.367615372 0.264389843
0.249462351 0.370651752 0.261606514
0.257558614 0.370651752 0.264642626
0.265528083 0.375205725 0.265401721
0.274889052 0.379886329 0.268690705
0.287033707 0.383428007 0.279822856
0.299177706 0.387096822 0.276281029
0.310563207 0.390512377 0.286527544
0.324604958 0.394813329 0.292220145
0.338899761 0.397849768 0.290069401
0.353826404 0.409234762 0.301201373
0.372042865 0.417583734 0.305376112
0.390385866 0.425806522 0.313725382
0.407084346 0.434788376 0.323339343
0.430992901 0.441239834 0.329411358
0.456799269 0.454902023 0.340037942
0.481846631 0.468944043 0.356103688
0.512586832 0.485262662 0.373814076
0.539911747 0.500442445 0.388994247
0.569892287 0.515622854 0.404174536
0.603794694 0.534851432 0.425806314
0.639089227 0.555091918 0.453636557
0.676660359 0.576344371 0.484376758
0.229221731 0.383681476 0.274130464
0.224667653 0.392409801 0.269576401
0.231245995 0.393295199 0.272359252
0.233775988 0.388235211 0.272359252
0.237065256 0.389247477 0.271473527
0.237065256 0.392283469 0.274509907
0.240227997 0.392536461 0.271474004
0.246299997 0.393674761 0.274257004
0.251106828 0.395698845 0.276534081
0.258317471 0.402909458 0.283744723
0.263377577 0.406072319 0.284882843
0.272359252 0.405186743 0.282099992
0.281467646 0.407463729 0.286274731
0.290828466 0.413282752 0.288298756
0.302972823 0.416318774 0.297153711
0.317014724 0.419354528 0.302466720
0.330676913 0.423908710 0.302466720
0.345224708 0.429348320 0.314610988
0.359140009 0.432384729 0.315369755
0.372422397 0.439974755 0.320556492
0.389500231 0.448323727 0.327007741
0.407716721 0.454395711 0.332068145
0.423909009 0.462871462 0.343200237
0.444655478 0.474256724 0.351043463
0.469323009 0.483364999 0.363567322
