Assets/Resources/EldamarStudio/100 Horror LUTs Pack/LUTs/cube/Theyem LUT.cube
LUT_3D_SIZE 5
DOMAIN_MIN 0.000000 0.000000 0.000000
DOMAIN_MAX 0.903226 0.903226 0.903226
0.082353003 0.054901998 0.015686000
0.181783408 0.057179291 0.015686000
0.363566995 0.058191415 0.009108006
0.600379288 0.088298991 0.005945998
0.899936557 0.161036953 0.053763650
0.191523999 0.148766696 0.011765000
0.205945402 0.143200412 0.008855285
0.367488831 0.154965416 0.017330708
0.606325269 0.193927690 0.025806291
0.903225541 0.255787373 0.070840962
0.357115805 0.311321825 0.000000000
0.384566814 0.311321825 0.002277292
0.428336382 0.300189406 0.025553409
0.644528568 0.355850786 0.044528574
0.924730957 0.433016777 0.136242792
0.602530241 0.591651082 0.016825125
0.636432648 0.599114656 0.019734375
0.703352571 0.606704354 0.040733781
0.756356418 0.587729335 0.147501245
0.950157940 0.640986621 0.294876784
0.864515781 0.885388911 0.457432002
0.878304601 0.894623578 0.470208466
0.926375389 0.896521151 0.500442326
0.984566629 0.899809778 0.539911330
0.997469962 0.870967805 0.599620223
0.109170996 0.066666998 0.068690993
0.177861989 0.066033997 0.065401994
0.327640802 0.093864702 0.072612405
0.556230128 0.146489412 0.118532404
0.876786709 0.205186665 0.174066812
0.159518987 0.140290692 0.063124701
0.212523401 0.160531685 0.072612405
0.342061818 0.173307985 0.094243988
0.570651352 0.214168265 0.123972110
0.881340742 0.282985508 0.188867509
0.325996101 0.302466661 0.097786278
0.366603523 0.301834077 0.107653260
0.415306360 0.299556941 0.116508387
0.615812838 0.353573531 0.151802406
0.911954522 0.449462205 0.237950504
0.583554506 0.582163274 0.167109653
0.610246718 0.585198939 0.165085405
0.678937495 0.601517975 0.178241655
0.745224416 0.578620911 0.236053362
0.937634349 0.649841785 0.370018631
0.849082947 0.886400938 0.507147253
0.863124609 0.888677895 0.507906079
0.914484441 0.892346501 0.535989642
0.968627453 0.893232048 0.575205386
0.992915809 0.875268519 0.632890522
0.179126993 0.066034414 0.236053407
0.227830276 0.086274579 0.216824681
0.340037793 0.109171413 0.202782974
0.568753779 0.133080289 0.228083521
0.878431141 0.202277213 0.321315199
0.226565704 0.172928274 0.197216690
0.260847420 0.179126993 0.200126410
0.348513812 0.189626992 0.197217107
0.570018947 0.224288404 0.235167682
0.872106314 0.308538496 0.347122103
0.275268555 0.315243810 0.192282975
0.322074652 0.322074652 0.215559661
0.447944403 0.361669391 0.268184811
0.614800811 0.396710932 0.312460512
0.882858753 0.497279763 0.422138005
0.511068940 0.578873813 0.333712637
0.563187838 0.588361740 0.353953391
0.639974594 0.599114656 0.366729975
0.722960114 0.598861516 0.404427677
0.920683205 0.678557694 0.526375711
0.816192567 0.887286365 0.613030016
0.820999444 0.880202591 0.616951585
0.881467640 0.888678193 0.635926604
0.943832934 0.898798108 0.670335114
0.983934164 0.879570007 0.715749383
0.274636269 0.102972873 0.541809261
0.327261150 0.110815868 0.530170560
0.428716123 0.139910996 0.517267346
0.614168286 0.155977130 0.512334228
0.888930738 0.224288493 0.541303098
0.307273984 0.223655984 0.509298146
0.350158125 0.229221687 0.506767929
0.442378551 0.238076985 0.502213955
0.609613836 0.250221252 0.500569224
0.890069783 0.330550343 0.552814245
0.344212532 0.366603523 0.502213955
0.395193130 0.383048952 0.505756080
0.499304265 0.413409263 0.512333810
0.649462700 0.424541235 0.522201121
0.886021614 0.528905511 0.593927801
0.405186355 0.623023391 0.516255260
0.454522818 0.624288559 0.523719013
0.578368127 0.641239941 0.562555254
0.736622095 0.685768366 0.650474429
0.906261802 0.735104084 0.705502748
0.726881623 0.893231928 0.701834321
0.755344570 0.895129383 0.728652775
0.825553477 0.898165464 0.768500805
0.908539116 0.901074946 0.787222862
0.955850601 0.899430633 0.813282847
0.354458809 0.195192620 0.892093599
0.404300958 0.208222777 0.885135889
0.523845375 0.241619200 0.888804197
0.668437779 0.305123180 0.883744597
0.894496799 0.370777547 0.871220767
0.406325161 0.320683360 0.883238316
0.443516791 0.326628745 0.884250641
0.546489477 0.355723917 0.881973326
0.685388803 0.400000006 0.875774860
0.900442600 0.453004569 0.874130368
0.512966394 0.534598172 0.867172599
0.548893154 0.545350850 0.869576335
0.622643769 0.561416626 0.871220767
0.726628661 0.584946454 0.872485757
0.900442362 0.611764967 0.870588005
0.574066758 0.728652656 0.879569769
0.604300916 0.728146613 0.884629846
0.687412739 0.733586073 0.878684461
0.792282879 0.758380771 0.876407623
0.908665240 0.778620958 0.882605910
0.677798569 0.923212945 0.872359455
0.700442612 0.924604595 0.875395536
0.758001149 0.914104760 0.883491158
0.845793962 0.918026805 0.896647573
0.949525595 0.937634468 0.927134633
