Assets/Resources/EldamarStudio/100 Horror LUTs Pack/LUTs/cube/Theyem LUT.cube
LUT_3D_SIZE 8
DOMAIN_MIN 0.000000 0.000000 0.000000
DOMAIN_MAX 0.903226 0.903226 0.903226
0.082353003 0.054901998 0.015686000
0.112460546 0.055281546 0.012144452
0.205313101 0.054901998 0.016445095
0.309424281 0.052118644 0.015686000
0.422137976 0.065780997 0.005439805
0.561922729 0.082226478 0.012018008
0.725996554 0.112713285 0.014041708
0.899936557 0.161036953 0.053763650
0.117140643 0.095635995 0.011765000
0.139911547 0.087792993 0.011006001
0.209235102 0.095256448 0.011005905
0.305502981 0.099177644 0.007843097
0.417836815 0.112080991 0.011765000
0.555724025 0.127640992 0.008222548
0.720303774 0.157368809 0.020999093
0.897279739 0.198735252 0.054016612
0.200632200 0.169260010 0.010247001
0.219734550 0.168880552 0.008222547
0.229475096 0.161417007 0.015686000
0.315749198 0.162935004 0.013662450
0.430107296 0.180139184 0.012523903
0.568880200 0.207083836 0.019480996
0.731435776 0.236432478 0.025679994
0.910562754 0.279569983 0.077166073
0.292599648 0.256166995 0.000000000
0.312207520 0.256166995 0.000379548
0.334851623 0.254142731 0.004301354
0.361543655 0.242757991 0.018469356
0.451486826 0.258823723 0.036432642
0.590891838 0.291587740 0.030866642
0.744591832 0.330803216 0.051739629
0.908412576 0.378874272 0.107779786
0.416698188 0.372042984 0.001518192
0.428083539 0.388488173 0.003415642
0.454396158 0.376597166 0.000000000
0.482858837 0.383301824 0.004680805
0.512333989 0.368754178 0.042884186
0.620240271 0.392915666 0.063124284
0.778621256 0.440101475 0.094497189
0.927640617 0.486780524 0.167741820
0.562049210 0.544085920 0.005692737
0.580392480 0.545730650 0.006071994
0.606072485 0.554585814 0.000759096
0.646173358 0.559645414 0.006831090
0.676660478 0.558127642 0.053004626
0.712839961 0.542188168 0.113092974
0.815306544 0.563440740 0.170651525
0.951423049 0.608096182 0.262492239
0.718153000 0.727640808 0.152434826
0.730044544 0.733459949 0.160783827
0.759898841 0.733839512 0.167235643
0.793674827 0.743959248 0.190132469
0.829474747 0.742567718 0.210120022
0.859709263 0.734977782 0.252372295
0.889436960 0.714863539 0.288045555
0.964200020 0.721315265 0.379380167
0.864515781 0.885388911 0.457432002
0.873624384 0.893231928 0.467931658
0.890701771 0.895888746 0.473750621
0.915369987 0.895635426 0.489436984
0.946489394 0.897153616 0.506135345
0.979253769 0.900316060 0.526249170
0.992409945 0.889690042 0.568121254
0.997469962 0.870967805 0.599620223
0.098039001 0.067046449 0.029348547
0.119923994 0.062365547 0.028589547
0.195572540 0.065401547 0.036432549
0.276534081 0.087033898 0.037950546
0.381404191 0.101075187 0.050853901
0.530044258 0.115622543 0.068058088
0.701960981 0.133206800 0.081340991
0.883364916 0.176849976 0.109930538
0.112460539 0.092093542 0.017963095
0.139911562 0.093232088 0.029348547
0.190765545 0.104617447 0.036812097
0.274509639 0.116002090 0.042251900
0.388488352 0.130423531 0.059582803
0.526628733 0.149145842 0.064895988
0.693359017 0.172296092 0.079696283
0.877419114 0.207083926 0.114231080
0.191271201 0.151929095 0.030107545
0.207717001 0.154712558 0.036812000
0.222137630 0.153953448 0.047059000
0.294497192 0.166476741 0.050474547
0.404048175 0.184060901 0.056293286
0.546995699 0.210246831 0.064769082
0.713219345 0.241113275 0.092220277
0.895888507 0.286907196 0.129664451
0.282352626 0.244276091 0.037065446
0.290195823 0.240733624 0.049462099
0.320682824 0.247058734 0.042631451
0.344592273 0.236432374 0.052371994
0.433396757 0.259582728 0.066034541
0.566477001 0.289310634 0.078557730
0.727766871 0.332700580 0.097659789
0.894243956 0.374066949 0.150917262
0.408981472 0.366097629 0.053636547
0.414673924 0.370777816 0.046047091
0.441745490 0.367615551 0.050474450
0.476281017 0.375458807 0.062112641
0.497786015 0.359771907 0.082479537
0.607210696 0.390259117 0.105502985
0.769259572 0.435294211 0.138393387
0.919797599 0.487539530 0.202277139
0.548260272 0.533460021 0.066287279
0.559898496 0.537381053 0.070208989
0.584946573 0.540037751 0.072865538
0.626818120 0.548007548 0.088172182
0.665781498 0.546742320 0.103352532
0.701328039 0.532321453 0.147754461
0.806577802 0.558633983 0.197217003
0.942314804 0.610373020 0.290322483
0.709298015 0.720935822 0.194307387
0.714864075 0.720303535 0.189627096
0.737381220 0.716129005 0.189626902
0.769639134 0.726375937 0.202529937
0.816065788 0.728652954 0.228083387
0.846553028 0.722201049 0.261986107
0.878178596 0.701075256 0.308159411
0.949272513 0.714610815 0.387729347
0.848070979 0.885768473 0.466160685
0.861479700 0.886527479 0.470082223
0.876786888 0.880708337 0.457684845
0.900189638 0.883111954 0.475395054
0.937128365 0.891587436 0.501454949
0.966223598 0.892093718 0.531562090
0.983933926 0.882606030 0.566223681
0.993168533 0.866919518 0.610246420
0.116761193 0.066666998 0.087666094
0.146236554 0.063124545 0.085389003
0.199873090 0.072105996 0.079823092
0.286400646 0.083871096 0.082605645
0.391651005 0.108159095 0.091587894
0.517267704 0.132827356 0.112207636
0.680455387 0.166856185 0.161290094
0.872991681 0.215559900 0.195825323
0.147374988 0.106641091 0.074383192
0.166982993 0.108159088 0.079949103
0.195825189 0.111701444 0.078304999
0.288424999 0.127007991 0.087413356
0.386211365 0.141049996 0.099810541
0.516508460 0.176343992 0.130044192
0.685642004 0.198988095 0.158001080
0.863251150 0.239721790 0.203542084
0.171663180 0.165338203 0.076028004
0.195952013 0.171663195 0.085009553
0.242125079 0.181024998 0.091587894
0.300822288 0.185325742 0.092726350
0.397976011 0.203668386 0.122960091
0.540037811 0.225047648 0.139911473
0.696141779 0.257432193 0.165971011
0.880834877 0.308791906 0.216191903
0.260467708 0.251865625 0.089563638
0.292347014 0.254649103 0.108538643
0.321568638 0.256926090 0.111574635
0.347501636 0.253004193 0.115496539
0.437950552 0.270588487 0.127134636
0.559898555 0.300189614 0.151422843
0.721189201 0.342821181 0.183933914
0.889816344 0.394560456 0.241619453
0.390132993 0.368880272 0.131562188
0.399367243 0.372802079 0.131435990
0.430866390 0.373561174 0.135357097
0.462998301 0.376343817 0.142947555
0.491967261 0.366603196 0.150284186
0.601391613 0.393801302 0.171663642
0.760531545 0.446173251 0.216571659
0.907906294 0.502972782 0.282732606
0.536495447 0.539911091 0.169892192
0.552561820 0.541808844 0.179506838
0.581910491 0.546995759 0.180265740
0.623529375 0.545224190 0.188235447
0.657052517 0.550790906 0.200126365
0.694117427 0.536369443 0.223908931
0.805692911 0.573181510 0.281467557
0.934345245 0.626818240 0.368247718
0.691714048 0.725237250 0.283491552
0.706261933 0.726881504 0.298545450
0.732447624 0.728399754 0.295382649
0.767741740 0.733459830 0.306514919
0.811005533 0.735483825 0.318153143
0.837950885 0.731562316 0.338899106
0.870588422 0.713472486 0.379253834
0.948007584 0.730044305 0.455534488
0.843516767 0.888425052 0.529664457
0.856040478 0.890702248 0.536622107
0.868943512 0.888424993 0.536495388
0.899177551 0.891081691 0.555471301
0.931815088 0.894623697 0.564832330
0.963820338 0.898798048 0.584819734
0.983681083 0.889943063 0.614927232
0.991145015 0.879316866 0.641239405
0.158633634 0.059962351 0.177861929
0.179759637 0.065780997 0.167362377
0.221252635 0.084629998 0.167109638
0.288677633 0.094749995 0.148640275
0.401012272 0.106514804 0.160784438
0.516381919 0.129284993 0.175964385
0.689057231 0.146868929 0.217583984
0.869829059 0.204300776 0.270841092
0.173814192 0.122580640 0.140670270
0.202150285 0.120556183 0.146236286
0.219607726 0.126122996 0.145477369
0.288172185 0.130423650 0.140670374
0.392662823 0.147627831 0.159266636
0.517647266 0.162934810 0.180012554
0.683617830 0.187729344 0.220366836
0.859709024 0.242757782 0.273750752
0.202529639 0.176217377 0.156483173
0.225932732 0.174952641 0.146489739
0.260467738 0.192283541 0.157242268
0.308539182 0.192283541 0.153320372
0.408855259 0.212650537 0.168627441
0.535357237 0.234914377 0.202276915
0.692220211 0.279949546 0.253130913
0.862745225 0.341935247 0.322960138
0.233775914 0.248956278 0.141935632
0.255408078 0.253257751 0.152940825
0.297660112 0.272865653 0.168247998
0.372802258 0.292093277 0.196331263
0.439721614 0.293991029 0.196205273
0.549525499 0.323339283 0.228463188
0.705376565 0.358886927 0.269322902
0.866540015 0.416698098 0.336748898
0.344718158 0.373181641 0.182922333
0.363061547 0.383301824 0.186843365
0.410119921 0.386843562 0.219102085
0.456925839 0.383174926 0.219228119
0.492219985 0.382036537 0.234282017
0.598228693 0.413409382 0.260468155
0.751929283 0.463504106 0.314484477
0.895761967 0.528905809 0.381151170
0.501707733 0.534598410 0.269702464
0.513472497 0.535357535 0.271347284
0.546616137 0.539658248 0.280076265
0.586084723 0.546742141 0.282226264
0.643390238 0.555091679 0.292346537
0.678684115 0.544465184 0.320683271
0.790259361 0.582036912 0.371790111
0.924098670 0.644402564 0.463756889
0.664389908 0.716002464 0.379759610
0.674509525 0.720682979 0.387729257
0.697027147 0.718026519 0.383301467
0.735483527 0.724351525 0.391144902
0.782922149 0.729538262 0.404427379
0.823402762 0.729158700 0.427957088
0.852624953 0.713092923 0.455534190
0.934218824 0.739658356 0.525363743
0.828209937 0.882732391 0.580897987
0.829728246 0.882985353 0.585578442
0.842757642 0.885641873 0.587602735
0.872485757 0.889184117 0.595825076
0.911827564 0.892852724 0.615180254
0.946742654 0.892599642 0.629981101
0.969007075 0.891587615 0.659835279
0.989879608 0.881340742 0.686654210
0.210878998 0.079949193 0.312587202
0.228842199 0.081846833 0.295635641
0.270335168 0.097912900 0.288172185
0.318658829 0.113599084 0.275522172
0.413662195 0.120682999 0.277925372
0.536369503 0.134724796 0.277419418
0.706261635 0.151929289 0.313725263
0.881846786 0.209740579 0.374699503
0.232004985 0.132068545 0.268564194
0.245034561 0.140670344 0.275268853
0.280961514 0.147754550 0.272865623
0.326755196 0.153953359 0.265907735
0.409361035 0.155091897 0.267805189
0.533712924 0.170398533 0.280075997
0.698671758 0.190385804 0.313093185
0.868310988 0.241492704 0.375079095
0.256293267 0.202909291 0.262239188
0.280708104 0.212017551 0.273371398
0.300063074 0.214800999 0.267046183
0.347501636 0.215053737 0.266540021
0.422264278 0.219355002 0.262998283
0.547121763 0.238077193 0.287160188
0.711827695 0.274889201 0.334092349
0.871726692 0.338646114 0.406072259
0.268311620 0.283744305 0.270841181
0.297027200 0.284377068 0.277545840
0.333333522 0.288298190 0.279443175
0.389247298 0.305502981 0.287160188
0.456167012 0.314484626 0.289816588
0.573561132 0.337508082 0.321695060
0.719164908 0.378494740 0.369639397
0.867046416 0.445414275 0.442504704
0.314358205 0.384440184 0.270967990
0.328652561 0.387222916 0.269955367
0.373687476 0.395446062 0.288804382
0.443010837 0.423276812 0.322833627
0.534345210 0.449588954 0.367235988
0.621884644 0.458823562 0.383428156
0.743453562 0.497280180 0.420999378
0.887792468 0.559013188 0.500569284
0.422770530 0.552561879 0.315749705
0.447312057 0.550031900 0.324351728
0.494750023 0.555091560 0.361669898
0.571157157 0.570524871 0.404807150
0.635800183 0.573181689 0.415938914
0.673497498 0.571157396 0.434661895
0.789626777 0.610373259 0.488930762
0.910183489 0.669955850 0.561290145
0.618089616 0.724478364 0.474889278
0.635420501 0.726501942 0.491713971
0.666034341 0.727008045 0.499430567
0.701707602 0.727767110 0.505249977
0.758380830 0.737254620 0.518912435
0.803795278 0.741176546 0.533080399
0.838330269 0.728399754 0.558127463
0.925490022 0.762302458 0.622390926
0.802276969 0.887539387 0.649968207
0.801518142 0.884376824 0.661859453
0.817583621 0.888171852 0.660973907
0.848323882 0.893611550 0.673497736
0.890954912 0.895635426 0.685009599
0.927767038 0.900948763 0.701454699
0.957242131 0.899050891 0.722074628
0.977861941 0.888045788 0.741302729
0.258443981 0.095888734 0.479064196
0.277293175 0.102340452 0.480961442
0.327007800 0.110562898 0.471979797
0.377862096 0.126502350 0.461100191
0.447564930 0.146489277 0.452625215
0.567615509 0.146868736 0.453636944
0.716128826 0.155850708 0.468437701
0.889689565 0.219987452 0.496268451
0.272232533 0.153194353 0.446173370
0.287918925 0.159013093 0.456672937
0.328146458 0.160910740 0.451992542
0.378494620 0.169512838 0.442884177
0.440733463 0.183681354 0.438709557
0.557495236 0.185705096 0.437570989
0.708285749 0.194939986 0.454901993
0.874509871 0.250094622 0.487539232
0.303478807 0.238077089 0.446047187
0.325743079 0.234788284 0.442884386
0.353194207 0.238329828 0.443011075
0.401012093 0.243516997 0.439974904
0.458444029 0.256926179 0.438077450
0.566603065 0.258064836 0.437571079
0.718026459 0.280961365 0.472359180
0.886274338 0.349525720 0.511321723
0.325489819 0.298798382 0.445034802
0.346615821 0.312713504 0.438962549
0.385705024 0.329917729 0.439089298
0.428716004 0.335736632 0.437950820
0.486274570 0.347880900 0.444908530
0.581151128 0.352182269 0.448577017
0.730170906 0.381024539 0.478937089
0.877419293 0.454775244 0.536243081
0.335230738 0.434914917 0.452118844
0.358507365 0.437444627 0.460594535
0.403794855 0.435547113 0.462997943
0.468311280 0.444781661 0.470714718
0.542821229 0.466919720 0.490702361
0.636305928 0.480708361 0.499304444
0.762555063 0.520177126 0.531688869
0.883870959 0.583680987 0.589373469
0.381909728 0.571410418 0.461606443
0.409234703 0.572042763 0.471980095
0.453257740 0.574952185 0.473624289
0.514105022 0.586337626 0.490448833
0.605566144 0.611511707 0.542061925
0.693105459 0.638203442 0.594813466
0.790764987 0.659329474 0.611891031
0.902213812 0.703984678 0.668058157
0.513851821 0.734218657 0.491334736
0.535483718 0.736875534 0.502340257
0.574572861 0.735736907 0.529411614
0.639342129 0.741555750 0.579886019
0.723339736 0.750411391 0.628589690
0.786590517 0.755470991 0.634408295
0.819102049 0.748640001 0.652498484
0.918405890 0.785072982 0.710562706
0.742567718 0.890448809 0.698039293
0.755470932 0.896647692 0.710436463
0.778621078 0.891081631 0.719544470
0.816318512 0.892220020 0.741555989
0.850727439 0.897026956 0.753700137
0.902719498 0.898291826 0.765970767
0.943453550 0.905755699 0.782922089
0.963187754 0.894623578 0.799620509
0.304870278 0.120556280 0.704743862
0.323719025 0.124857731 0.697659850
0.368247896 0.137001798 0.700695515
0.432131618 0.154712364 0.695888519
0.513093054 0.171284273 0.684250474
0.589879990 0.199240834 0.682858825
0.741682589 0.202529982 0.668437541
0.885515451 0.238329932 0.678304732
0.321948439 0.176470548 0.686274052
0.334092230 0.181530848 0.685894966
0.376344085 0.185705274 0.682605505
0.437950581 0.197343290 0.677039623
0.511068821 0.212144285 0.672485828
0.594687223 0.233649537 0.669449747
0.732194841 0.237065271 0.664136589
0.880202472 0.268817306 0.667805552
0.345730573 0.270841092 0.683997631
0.364073455 0.274130195 0.688045561
0.404427469 0.278684080 0.679569542
0.458570629 0.286906958 0.673497856
0.528779268 0.300569177 0.668311000
0.603541851 0.317014456 0.668817043
0.746616304 0.321568668 0.671726763
0.888298571 0.364579141 0.679316521
0.390132993 0.375711560 0.670588195
0.403668523 0.381530613 0.666160822
0.440101177 0.385831535 0.664895415
0.487159967 0.394180924 0.660088420
0.548134267 0.405439258 0.664136410
0.623149991 0.417077750 0.664895594
0.745097935 0.424035549 0.668564200
0.878684640 0.466666877 0.679443359
0.402403474 0.467425555 0.678557634
0.425300270 0.474383265 0.677545965
0.467425525 0.483744323 0.673118293
0.533712924 0.511701524 0.672865152
0.594560385 0.522960365 0.671600461
0.649841785 0.534724534 0.678684354
0.759139776 0.544971585 0.680328608
0.883112013 0.593421638 0.708412170
0.429475009 0.643263936 0.692852736
0.447185487 0.641618967 0.696394682
0.490575790 0.642251611 0.700189888
0.556103587 0.639721751 0.700316191
0.639215767 0.643264055 0.704237759
0.711068988 0.667172432 0.718153000
0.794813037 0.680961251 0.722074568
0.897153616 0.721568882 0.754079521
0.503478825 0.755091846 0.670461535
0.505882561 0.753447533 0.674130082
0.542188585 0.754459262 0.675774634
0.599746943 0.752814531 0.686780214
0.668437719 0.757748246 0.704996586
0.750790238 0.778874040 0.740164518
0.828969240 0.801518321 0.770145297
0.906008661 0.822643936 0.804427266
0.680202246 0.900442779 0.720935583
0.685642183 0.898798227 0.730423808
0.703099012 0.898291945 0.742061913
0.744844615 0.901834190 0.760531247
0.803541958 0.904870391 0.802909255
0.863883495 0.912081003 0.833270133
0.911828101 0.912460506 0.847691059
0.951549351 0.907653451 0.862745047
0.354458809 0.195192620 0.892093599
0.372549117 0.198102504 0.891081512
0.418975174 0.212270781 0.884376585
0.481340617 0.226185784 0.888298452
0.562048972 0.258570403 0.885135531
0.647438407 0.294243753 0.885768592
0.742188036 0.337760746 0.883364856
0.894496799 0.370777547 0.871220767
0.366097510 0.244781330 0.886780620
0.387476265 0.246300146 0.886274576
0.426312804 0.255407989 0.882226348
0.489437163 0.272865236 0.881593764
0.564832330 0.291840643 0.884756088
0.649588764 0.323212862 0.873371303
0.736875117 0.362302125 0.866666734
0.891966760 0.386084855 0.869829416
0.416951507 0.345224470 0.875395358
0.431372404 0.349525452 0.879696131
0.465527892 0.357748091 0.884756327
0.520429909 0.369512796 0.879063725
0.590133011 0.388614625 0.876407623
0.673244774 0.412903130 0.878810585
0.752561450 0.447691321 0.873750746
0.900442660 0.469196588 0.873624444
0.474889189 0.471473694 0.872359395
0.491334498 0.476280808 0.873750746
0.521315575 0.480708659 0.874003649
0.564958692 0.487033576 0.868690431
0.622770131 0.500063062 0.865781188
0.687412977 0.516508341 0.865022063
0.763314068 0.536875188 0.865654469
0.896014929 0.553573668 0.862744868
0.514737606 0.571157336 0.873750746
0.540923417 0.577229440 0.869955897
0.579633057 0.597090662 0.871726632
0.621378720 0.609740496 0.870082378
0.666919708 0.616698086 0.864769399
0.726628542 0.628842354 0.870208681
0.784819603 0.643390417 0.865401626
0.895888746 0.654269814 0.870841563
0.565717697 0.692979395 0.880581677
0.576723337 0.697912633 0.876913309
0.607590139 0.695256412 0.880328774
0.651106894 0.700316191 0.879190445
0.713725090 0.723466277 0.879822850
0.770777702 0.733839512 0.875648499
0.818595827 0.748639822 0.877925217
0.908918619 0.754585683 0.881593764
0.582922161 0.828336537 0.875521839
0.605818689 0.827577353 0.883364737
0.628462911 0.827450931 0.882226467
0.674130380 0.824414909 0.883997262
0.728020310 0.821631670 0.883871078
0.791524351 0.818849027 0.883871078
0.846552789 0.835800231 0.890322506
0.916761637 0.841366529 0.888677835
0.677798569 0.923212945 0.872359455
0.685389042 0.927008033 0.882732570
0.702213705 0.922074616 0.878431380
0.739658415 0.920682907 0.885388911
0.783175111 0.915622950 0.882858634
0.828842580 0.918279588 0.893358767
0.884250462 0.925236940 0.909044743
0.949525595 0.937634468 0.927134633
