Assets/Resources/EldamarStudio/100 Horror LUTs Pack/LUTs/cube/Theyem LUT.cube
DOMAIN_MIN 0 0 0
DOMAIN_MAX 1 1 1
LUT_3D_SIZE 32
0.082353003 0.054901998 0.015686000
0.082353003 0.057938386 0.012650387
0.084503770 0.056673225 0.011765000
0.093864992 0.054901998 0.011765000
0.112460546 0.055281546 0.012144452
0.133712932 0.058317933 0.015180064
0.157494992 0.058823999 0.015686000
0.181783408 0.057179291 0.015686000
0.205313101 0.054901998 0.016445095
0.226565495 0.054902002 0.019481482
0.253636867 0.057811871 0.016698129
0.280961245 0.054775488 0.015686000
0.309424281 0.052118644 0.015686000
0.339278996 0.055155031 0.015180000
0.363566995 0.058191415 0.009108006
0.390259385 0.061227188 0.005439809
0.422137976 0.065780997 0.005439805
0.457937717 0.071220577 0.008475577
0.491334945 0.074256979 0.011511976
0.524731398 0.077292651 0.017331004
0.561922729 0.082226478 0.012018008
0.600379288 0.088298991 0.005945998
0.637191534 0.094497472 0.011765000
0.682732761 0.103605099 0.011765000
0.725996554 0.112713285 0.014041708
0.768501282 0.120429985 0.019860663
0.811512053 0.128020063 0.029474998
0.857052386 0.143200427 0.041618984
0.899936557 0.161036953 0.053763650
0.944212556 0.181024164 0.072991922
0.980898380 0.202276587 0.099051178
0.996078014 0.223528996 0.129411995
0.076281004 0.051865615 0.006578388
0.085389383 0.054901998 0.015686000
0.089690387 0.055787612 0.014800613
0.099936992 0.058697160 0.011005775
0.117773540 0.063251384 0.006831450
0.133712932 0.058317933 0.015180064
0.160025313 0.063883997 0.020746000
0.186464086 0.064895995 0.016824715
0.209867090 0.063251287 0.013409289
0.226565495 0.060973998 0.016445093
0.250727743 0.063883871 0.010752615
0.279949367 0.064895995 0.007590260
0.309424281 0.063124776 0.007716741
0.339278996 0.063757353 0.009867033
0.363566995 0.061227027 0.012144393
0.390259385 0.064263411 0.013282578
0.423656166 0.071853384 0.011511807
0.460341513 0.079696387 0.010246812
0.491334975 0.080328979 0.008475589
0.527514040 0.086148001 0.014294617
0.564958870 0.089437127 0.018469354
0.604427516 0.094370991 0.016066000
0.643010497 0.100695983 0.017836999
0.682732761 0.112713486 0.017836999
0.728273273 0.119544379 0.020113707
0.771536946 0.130676657 0.027324334
0.813535869 0.142188460 0.037571386
0.854016781 0.152308822 0.044655371
0.899557114 0.167489201 0.056799360
0.940670073 0.185325712 0.067172810
0.977482378 0.203541979 0.088678166
0.999114394 0.220493376 0.123339996
0.085262775 0.061732773 0.006072226
0.092220388 0.060468160 0.004427614
0.097027227 0.061353773 0.017836774
0.105629548 0.062618613 0.014041613
0.122074768 0.069576226 0.006451773
0.139025927 0.070588231 0.012017838
0.160025313 0.066034228 0.016445000
0.184060693 0.068817228 0.014294714
0.208855107 0.069576323 0.008222904
0.226818502 0.069323294 0.011258516
0.255028754 0.069955871 0.014168001
0.281341255 0.072991744 0.010120260
0.309297740 0.073118225 0.007084356
0.337381274 0.073624291 0.007843000
0.363566995 0.076281130 0.008981642
0.392409623 0.075901575 0.007716967
0.421252608 0.078937575 0.013788577
0.457558542 0.087918989 0.012650235
0.489437222 0.090955012 0.008096036
0.525363803 0.096521005 0.009108004
0.559898496 0.102592997 0.009487744
0.598861575 0.105882354 0.014041869
0.638836205 0.110815994 0.017836731
0.686400950 0.118911996 0.023908999
0.726123035 0.130803004 0.021884708
0.770272076 0.138266668 0.024920672
0.812776923 0.151422992 0.033776224
0.853890300 0.162175670 0.039848220
0.900822520 0.172296032 0.059835747
0.946362853 0.192789599 0.077292934
0.977735341 0.213535741 0.093232349
0.995698988 0.232510999 0.125870004
0.100442834 0.078178324 0.009108162
0.107779995 0.072612390 0.004300999
0.112966381 0.071727000 0.008222775
0.116002314 0.072992161 0.017078001
0.128146991 0.075648323 0.009487612
0.144591987 0.079949319 0.012523774
0.164073482 0.079696164 0.011764677
0.185325861 0.078178324 0.013282714
0.206578270 0.078178324 0.005692903
0.227830663 0.080708638 0.007716517
0.254016727 0.080835164 0.008602001
0.282353252 0.082858905 0.012397099
0.310815990 0.083617806 0.011638483
0.335610032 0.083997324 0.009108162
0.362934411 0.090069830 0.009108162
0.390132576 0.093864992 0.007969808
0.423023373 0.094117954 0.007210963
0.454016536 0.097153574 0.015053576
0.487413019 0.102593005 0.010878997
0.522327542 0.108665325 0.007843000
0.558127701 0.114737317 0.007210582
0.594560266 0.121821187 0.007210837
0.634155869 0.125490025 0.015686000
0.680075884 0.131562322 0.021378744
0.727640808 0.140923142 0.025173713
0.768501282 0.151675820 0.026185835
0.811512053 0.160784230 0.028210098
0.854775667 0.172169298 0.032004993
0.898798227 0.184187144 0.056546628
0.945604086 0.199620381 0.081594162
0.983174980 0.221252605 0.103731960
0.993421853 0.244402170 0.130676836
0.117140643 0.095635995 0.011765000
0.125489935 0.088045619 0.008728613
0.132068083 0.085009545 0.009614225
0.137254715 0.085515611 0.012144452
0.139911547 0.087792993 0.011006001
0.152055547 0.087792993 0.014041614
0.169260085 0.090702221 0.011005550
0.188362151 0.092979155 0.009108160
0.209235102 0.095256448 0.011005905
0.230487496 0.095256448 0.007969514
0.251739860 0.096015446 0.003162548
0.277040243 0.098039284 0.003668545
0.305502981 0.099177644 0.007843097
0.334851056 0.096900992 0.011132453
0.361795962 0.102972992 0.011385452
0.387855589 0.108665541 0.010626453
0.417836815 0.112080991 0.011765000
0.453637093 0.112713508 0.012017963
0.487033546 0.115749128 0.015053575
0.520429909 0.121189162 0.010499544
0.555724025 0.127640992 0.008222548
0.593801260 0.134345412 0.009487546
0.636305988 0.143326536 0.015559540
0.673244834 0.149399266 0.016065547
0.720303774 0.157368809 0.020999093
0.768501282 0.166476667 0.026312346
0.810373485 0.175964609 0.032764483
0.855913818 0.185072988 0.029728098
0.897279739 0.198735252 0.054016612
0.939911008 0.216065943 0.081847146
0.978241563 0.233396590 0.107526965
0.996457577 0.248576999 0.131815001
0.144465804 0.107779995 0.011765000
0.147501409 0.110815607 0.008728613
0.151549712 0.107526764 0.007843000
0.156356871 0.104996771 0.010879064
0.161163941 0.102972612 0.014041614
0.161163926 0.099936999 0.004934002
0.178367928 0.104996994 0.010499937
0.194939762 0.105629221 0.009614227
0.211891264 0.104364060 0.008349065
0.230487496 0.104364067 0.007969517
0.251739860 0.110183060 0.010752870
0.277040243 0.113219321 0.006198938
0.305502981 0.115116931 0.003289292
0.334851056 0.115116999 0.002024066
0.353067815 0.121188983 0.008096060
0.384819746 0.124857798 0.003542070
0.416698188 0.128399730 0.006072255
0.450600773 0.130929574 0.011765000
0.483997911 0.133965895 0.012017969
0.517394304 0.137001514 0.012270935
0.552688360 0.144338802 0.011258936
0.590133011 0.151928991 0.011258936
0.630234003 0.158506930 0.012523929
0.672738850 0.164578930 0.018595938
0.716508269 0.170651630 0.025933219
0.764452755 0.178621173 0.030360872
0.809993982 0.188235134 0.033397000
0.846805453 0.200253382 0.044908486
0.895002663 0.209361076 0.057811741
0.938519299 0.226565227 0.079064161
0.976217210 0.245540589 0.100442976
0.999493957 0.260720998 0.119671002
0.174319997 0.127514318 0.011765000
0.169765934 0.130549923 0.006198936
0.177103087 0.131435320 0.007463548
0.179633319 0.130043998 0.010372999
0.182795778 0.128272861 0.015686000
0.184946001 0.125237256 0.013029613
0.184946001 0.122200996 0.003922000
0.199873418 0.123339705 0.008349289
0.214927331 0.122580633 0.010120093
0.233143657 0.126122639 0.015433317
0.261859864 0.129411310 0.005692871
0.285135984 0.129411578 0.006705001
0.311954319 0.132574320 0.007337351
0.340164036 0.135610342 0.010373030
0.360657513 0.139405638 0.014168315
0.390892088 0.143073842 0.015433321
0.422770321 0.146110192 0.009614323
0.455787122 0.149778634 0.011765001
0.491081625 0.154712290 0.011765005
0.529538691 0.162808597 0.016825000
0.562934995 0.165844217 0.020619996
0.600759268 0.172675312 0.021884996
0.641872287 0.178873822 0.021758486
0.684377134 0.187349647 0.020619679
0.724604607 0.191144928 0.024414964
0.768247604 0.199747294 0.034408655
0.813535810 0.210499629 0.040480740
0.854016244 0.222643882 0.050600987
0.896014929 0.234661460 0.067931481
0.942820907 0.247311503 0.084883071
0.979000628 0.267931521 0.108918563
1.000000000 0.288045645 0.135357320
0.191523999 0.148766696 0.011765000
0.187096700 0.148513317 0.007337288
0.195066467 0.152687699 0.002783229
0.200379699 0.151422858 0.007084002
0.201138705 0.151422858 0.011638004
0.205439463 0.150916919 0.009108006
0.214168116 0.142947376 0.009740613
0.205945402 0.143200412 0.008855285
0.221125990 0.140923694 0.009613998
0.241112992 0.145224690 0.014294777
0.264389724 0.146742538 0.012903288
0.290701985 0.147374958 0.007210997
0.314990282 0.145477697 0.008349351
0.342061788 0.150537699 0.015686000
0.367488831 0.154965416 0.017330708
0.396710694 0.159645900 0.016319003
0.427071482 0.164199695 0.016319003
0.458570123 0.167994976 0.014294981
0.495002985 0.174067006 0.018342992
0.530929685 0.181277648 0.015686296
0.569892704 0.189879954 0.021758288
0.606325269 0.193927690 0.025806291
0.648703516 0.199999690 0.025679812
0.689690053 0.207589895 0.022643806
0.733206987 0.215433270 0.025806287
0.774067044 0.224035636 0.033016980
0.817583859 0.235926762 0.045667060
0.862365544 0.246932402 0.057052437
0.903225541 0.255787373 0.070840962
0.944212556 0.271346867 0.092346393
0.981783986 0.288298279 0.114990555
1.000000000 0.311827987 0.148387000
0.200632200 0.169260010 0.010247001
0.201391473 0.167741805 0.009487709
0.208981782 0.168880105 0.005819094
0.220114097 0.171916157 0.004047996
0.219734550 0.168880552 0.008222547
0.224667996 0.171157256 0.001771098
0.235294312 0.164579198 0.004301096
0.239342391 0.159139723 0.010373093
0.229475096 0.161417007 0.015686000
0.253763080 0.161417007 0.009614001
0.269955754 0.160658091 0.013661999
0.292219996 0.162176102 0.015939161
0.315749198 0.162935004 0.013662450
0.340291023 0.163188040 0.016445097
0.370145828 0.168754101 0.016445097
0.401265085 0.174826086 0.013282811
0.430107296 0.180139184 0.012523903
0.459329218 0.186843604 0.013156480
0.495762080 0.193042114 0.024920994
0.530929446 0.199873209 0.020619638
0.568880200 0.207083836 0.019480996
0.605566144 0.215180099 0.023529001
0.648197412 0.221252084 0.023908505
0.688930988 0.227324098 0.023402900
0.731435776 0.236432478 0.025679994
0.776344299 0.246805638 0.034534980
0.819861114 0.261480123 0.047691125
0.868437827 0.270841539 0.063124530
0.910562754 0.279569983 0.077166073
0.950031579 0.291967005 0.093358278
0.981783986 0.309550673 0.121821657
1.000000000 0.330803096 0.155218095
0.218848974 0.187476009 0.004174998
0.230992973 0.190512404 0.010246996
0.238203496 0.188994214 0.011638479
0.245920181 0.187602490 0.012650317
0.253130943 0.187096551 0.014294543
0.250094533 0.184060946 0.005186941
0.252498329 0.183807984 0.003795485
0.257685006 0.181657270 0.007337480
0.262871504 0.179633006 0.012650385
0.268943489 0.179633006 0.015685998
0.278684348 0.176723883 0.015432999
0.298292011 0.179886490 0.019733993
0.321441650 0.184566855 0.022011163
0.343326628 0.187476054 0.019481484
0.370651752 0.190512434 0.019481486
0.402909786 0.196078494 0.014674496
0.433143675 0.200632691 0.013282811
0.462365597 0.205060393 0.016192093
0.498798460 0.214168027 0.019228494
0.538013875 0.223149851 0.022643654
0.579126954 0.230233982 0.023276007
0.616445124 0.236432493 0.023529004
0.645161033 0.242504492 0.023908509
0.690702260 0.248576507 0.033016901
0.731435716 0.259203076 0.034788001
0.773940504 0.269829273 0.040606983
0.819861114 0.279696107 0.053763136
0.868437827 0.291840881 0.071979888
0.914357722 0.306514591 0.090069450
0.956103563 0.321315169 0.104490452
0.987603009 0.336622059 0.125110298
1.000000000 0.352055490 0.164326489
0.242883980 0.202782869 0.001012129
0.249209732 0.202909395 0.004175001
0.254901946 0.212396994 0.003795227
0.260214865 0.210626036 0.003036130
0.266539991 0.206451744 0.005186549
0.266033947 0.211005807 0.011258936
0.273118198 0.207969546 0.004681000
0.280202568 0.207589984 0.005566289
0.286021739 0.205059871 0.010373128
0.287792742 0.200758874 0.015559514
0.293864727 0.194939882 0.012776872
0.307021111 0.193928003 0.016824868
0.327514380 0.198229000 0.020619871
0.350031734 0.203288868 0.019860968
0.385325342 0.208981410 0.022517130
0.410246730 0.214420989 0.027324740
0.440607399 0.222011194 0.020240488
0.471220821 0.228462994 0.017583568
0.507653117 0.235293925 0.025173973
0.546869278 0.244402230 0.030993003
0.582542598 0.249715611 0.030360615
0.619987249 0.255787611 0.029348742
0.653510332 0.263883382 0.029348742
0.693484843 0.272738755 0.030107781
0.736748636 0.281087995 0.039215572
0.779632926 0.291208178 0.048070647
0.824668109 0.300821990 0.061226934
0.868437827 0.312966764 0.072232887
0.911701560 0.327766985 0.095761947
0.948133767 0.341176271 0.112713173
0.979759455 0.356103718 0.133080035
1.000000000 0.373307854 0.170524999
0.267172515 0.228083506 0.000000000
0.275269032 0.228083506 0.007084384
0.277166724 0.230613247 0.001771226
0.281467497 0.236432403 0.000000000
0.287539512 0.230360687 0.000000000
0.290828496 0.234787971 0.004174682
0.298418820 0.235293910 0.004680745
0.302593499 0.230613247 0.003542452
0.309045166 0.229095340 0.005819261
0.310309976 0.224288493 0.009361265
0.320176989 0.222264513 0.012776872
0.326249510 0.216192499 0.015812997
0.341429621 0.215053856 0.020746354
0.360657811 0.218469247 0.022390772
0.386464238 0.224541247 0.028968830
0.417330861 0.232637495 0.030360350
0.446173459 0.237191305 0.033396740
0.477672547 0.245287567 0.025806246
0.512713313 0.252751261 0.030739963
0.549905121 0.261606604 0.028969008
0.587476492 0.270714998 0.031246003
0.619987249 0.276028126 0.028336616
0.654648721 0.285262227 0.027830506
0.696014941 0.296267867 0.035420999
0.739784837 0.303352535 0.044275954
0.783680856 0.313852221 0.051992241
0.827197909 0.324604571 0.065275058
0.865148842 0.338267148 0.077419437
0.907653570 0.351043642 0.097786203
0.946615875 0.360910475 0.122074179
0.975711167 0.373434544 0.139784575
1.000000000 0.390512258 0.170524731
0.292599648 0.256166995 0.000000000
0.297153741 0.255028635 0.005692745
0.303225994 0.257178873 0.005313226
0.305755973 0.258823127 0.000000000
0.312207520 0.256166995 0.000379548
0.319038630 0.258443713 0.001138644
0.324225307 0.258949637 0.001138644
0.331815630 0.257937640 0.000506064
0.334851623 0.254142731 0.004301354
0.339025795 0.251866132 0.005060357
0.346236259 0.251739651 0.008602356
0.355471164 0.248829991 0.014674352
0.361543655 0.242757991 0.018469356
0.376470298 0.239721671 0.021758001
0.392915815 0.243137285 0.029980766
0.420746595 0.250474453 0.035294000
0.451486826 0.258823723 0.036432642
0.484883189 0.263124347 0.036432642
0.518279672 0.272232592 0.036432639
0.551043749 0.282479346 0.032004993
0.590891838 0.291587740 0.030866642
0.628336728 0.300696135 0.031878509
0.659582257 0.310056776 0.029348154
0.702087104 0.323212922 0.038456809
0.744591832 0.330803216 0.051739629
0.791271269 0.340797246 0.063377626
0.834787846 0.352435201 0.071473636
0.868184984 0.366350412 0.087286428
0.908412576 0.378874272 0.107779786
0.948513508 0.389753252 0.131941557
0.976976216 0.399367243 0.157115430
1.000000000 0.414800644 0.178873926
0.320683062 0.280961066 0.000000000
0.316887707 0.278431445 0.000253032
0.323718846 0.278937250 0.000000000
0.330550075 0.281467050 0.000000000
0.336748540 0.280708015 0.000126516
0.345856935 0.280708015 0.003162903
0.347628057 0.280961066 0.003922000
0.352814734 0.280961066 0.002277292
0.362429053 0.281214088 0.001011999
0.374573052 0.284250498 0.007084001
0.375585049 0.284883082 0.007843000
0.381151259 0.283364803 0.011638029
0.388614982 0.278937042 0.016191998
0.394940019 0.272865057 0.016445030
0.407084018 0.269829452 0.022517025
0.432131559 0.273497999 0.030486831
0.462492347 0.281088173 0.036812194
0.493738532 0.290449440 0.039721999
0.527134955 0.299557060 0.039721996
0.555977404 0.310942054 0.036685675
0.593927741 0.321441799 0.037444707
0.636938334 0.330803156 0.040733870
0.676533937 0.340038002 0.044149015
0.719038785 0.355091900 0.047564935
0.759772301 0.363440990 0.059456274
0.802656293 0.373181671 0.073750973
0.849209189 0.387855977 0.086907066
0.882606328 0.396963596 0.105123036
0.921062708 0.408728659 0.125236824
0.959772110 0.420873016 0.150537178
0.990891576 0.434788048 0.177861750
1.000000000 0.453004062 0.205186963
0.357115805 0.311321825 0.000000000
0.344971806 0.314358205 0.003036387
0.360531211 0.309677243 0.001138642
0.369006783 0.311827540 0.000000000
0.366982818 0.316761255 0.000000000
0.373181313 0.308032393 0.000126519
0.377229720 0.310562730 0.003162906
0.384566814 0.311321825 0.002277292
0.395319492 0.310562730 0.000000001
0.404933810 0.308538467 0.001012010
0.411258817 0.314484715 0.007084005
0.414041519 0.317267537 0.009867257
0.417203963 0.314484149 0.015812775
0.419228017 0.306261361 0.022517025
0.428336382 0.300189406 0.025553409
0.440480381 0.299556971 0.029222220
0.465527952 0.305376172 0.035041422
0.497153670 0.315116972 0.040480990
0.533206999 0.326881409 0.045793988
0.572169423 0.333206385 0.040227991
0.607210457 0.344338864 0.040480673
0.644528568 0.355850786 0.044528574
0.679569542 0.367362380 0.050221011
0.722074389 0.379506409 0.062365800
0.766856432 0.387728989 0.072612397
0.808349013 0.395192623 0.088171951
0.849715233 0.406578034 0.105123103
0.888678372 0.421252370 0.123339787
0.924730957 0.433016777 0.136242792
0.958253920 0.445161402 0.162681535
0.986084580 0.459076792 0.193041980
1.000000000 0.477292806 0.220366567
0.386337787 0.341682583 0.000000000
0.386211574 0.344718367 0.000632583
0.382669568 0.347754747 0.001518196
0.397343606 0.347501397 0.000000000
0.396205038 0.353953063 0.000000000
0.396204770 0.348892659 0.000000000
0.409361124 0.349904895 0.000126518
0.415686488 0.344718575 0.001518196
0.425553590 0.343200594 0.000000000
0.433017284 0.345097899 0.000000002
0.441619605 0.348386705 0.003415808
0.445667326 0.348387241 0.005439809
0.449841589 0.346109957 0.008096358
0.452877611 0.337760597 0.015180039
0.459835172 0.335989624 0.026818415
0.471347392 0.332321405 0.032257996
0.480455399 0.332321405 0.038330384
0.505629361 0.338772982 0.045920562
0.543832958 0.349145770 0.053763792
0.575838208 0.355723768 0.048703182
0.617204309 0.365591258 0.054016665
0.654649079 0.378747910 0.057558596
0.689816594 0.392283559 0.061100587
0.732321382 0.404427588 0.073244795
0.772548854 0.414294869 0.080834985
0.813662291 0.423276365 0.095508970
0.852118850 0.434408665 0.114231050
0.891587496 0.449589014 0.134345070
0.923592746 0.459708750 0.152055770
0.963567078 0.475395173 0.178368136
0.988488138 0.490575761 0.211511552
0.997596204 0.508791745 0.240353778
0.416698188 0.372042984 0.001518192
0.419734567 0.379633158 0.003035997
0.420620173 0.378115147 0.000000000
0.421885014 0.383681238 0.003795161
0.428083539 0.388488173 0.003415642
0.429601431 0.384313464 0.000000000
0.434155524 0.384819508 0.000000000
0.446046889 0.385705173 0.000000000
0.454396158 0.376597166 0.000000000
0.460468203 0.381151199 0.000000001
0.470967859 0.382795513 0.001391678
0.477545917 0.386337459 0.002403808
0.482858837 0.383301824 0.004680805
0.489563406 0.375205547 0.008096032
0.496900558 0.372675568 0.018216407
0.506261587 0.370271981 0.030740192
0.512333989 0.368754178 0.042884186
0.520936131 0.367489189 0.050094996
0.554206252 0.372169405 0.056546774
0.585325956 0.381530374 0.059329666
0.620240271 0.392915666 0.063124284
0.663757145 0.404048294 0.072232932
0.701708019 0.418216676 0.073118500
0.741429806 0.431752384 0.083871193
0.778621256 0.440101475 0.094497189
0.818089604 0.450601161 0.107526824
0.855660915 0.462745190 0.126375437
0.896141410 0.476913422 0.147627816
0.927640617 0.486780524 0.167741820
0.960531116 0.499683559 0.192030340
0.993295372 0.517900169 0.226692170
0.997596204 0.536116183 0.257052392
0.450094700 0.404300690 0.003922000
0.452498525 0.415812880 0.005692622
0.455281526 0.415686518 0.003542001
0.456546545 0.413409382 0.001897593
0.459202707 0.422137648 0.010246980
0.467552066 0.417077690 0.002150642
0.470335126 0.416065693 0.001264990
0.475268841 0.416698098 0.000632576
0.483618140 0.417330682 0.000000000
0.489690125 0.417330682 0.000000000
0.500948548 0.417330682 0.000000000
0.509044707 0.420113713 0.000000000
0.516887784 0.423402756 0.001644582
0.526502192 0.420873076 0.007716584
0.536369503 0.415939540 0.011132416
0.543579876 0.411005884 0.022517646
0.550663710 0.408855110 0.039216004
0.550663710 0.406957537 0.057431985
0.568880558 0.400885522 0.057431996
0.594434142 0.408349156 0.065781347
0.628589571 0.420493305 0.073624402
0.666792750 0.435547113 0.080075718
0.711954415 0.444781989 0.083491571
0.748387218 0.459456474 0.093105905
0.783175290 0.469070554 0.104490995
0.818722188 0.477925509 0.122074634
0.857684672 0.490575612 0.143327057
0.899936438 0.502846122 0.164579421
0.932447612 0.512966335 0.187096775
0.963314116 0.524984121 0.211891130
0.990891576 0.539785087 0.239468753
1.000000000 0.558001161 0.269829571
0.483491957 0.443769962 0.003921997
0.483491957 0.452878356 0.000885612
0.490196228 0.453637242 0.000506002
0.496015191 0.450347841 0.000000002
0.498671949 0.449462116 0.001138579
0.498671949 0.455534905 0.004174964
0.504491031 0.455534965 0.006198639
0.511701703 0.457179248 0.005692706
0.520051003 0.459962100 0.002909869
0.526122987 0.462871969 0.000000000
0.535104156 0.462871969 0.000000000
0.542441547 0.462871969 0.000000000
0.550790966 0.463377953 0.001138643
0.562935054 0.463377953 0.004680964
0.578115404 0.466413558 0.010752961
0.580771983 0.459076822 0.018975191
0.587602913 0.453510791 0.033143450
0.596204996 0.449462414 0.051359985
0.596204996 0.440353990 0.069576032
0.608855069 0.437065363 0.077925384
0.637697577 0.440986991 0.083238758
0.675142169 0.451866031 0.085768960
0.714990020 0.469070077 0.086527988
0.751422822 0.481214851 0.098672010
0.787855625 0.493612021 0.110563040
0.824035347 0.505250037 0.129664689
0.860721171 0.517900109 0.155471116
0.897153854 0.533080459 0.176723465
0.931435704 0.545351028 0.203288823
0.961037099 0.557241976 0.230107188
0.985325575 0.569639266 0.257431865
1.000000000 0.582289994 0.285010040
0.525237024 0.494370371 0.001138643
0.528020382 0.497912794 0.000885612
0.532321393 0.500569403 0.002150774
0.538266957 0.499430776 0.001518196
0.541303217 0.498671651 0.000000000
0.543706357 0.502340615 0.000632579
0.548766375 0.503352761 0.001138643
0.554838777 0.503352761 0.002276996
0.564326644 0.505249977 0.001138643
0.576470375 0.508285880 0.000126516
0.588235557 0.508412361 0.000000000
0.595319450 0.508412361 0.000000000
0.601391733 0.510689378 0.000000000
0.609993756 0.513978362 0.001897675
0.620114207 0.514484286 0.010499993
0.628083766 0.510309756 0.023782797
0.633396983 0.504617572 0.039721899
0.644276083 0.501581550 0.059203334
0.652878106 0.496774167 0.077419378
0.661227465 0.493231744 0.087286726
0.677166402 0.488298416 0.098292351
0.703225851 0.492852658 0.108033136
0.731815159 0.507274091 0.117520869
0.765591145 0.519418180 0.132321745
0.802023888 0.531562388 0.151297003
0.844022691 0.542315066 0.166350394
0.885009527 0.553067744 0.186590508
0.916888237 0.565970838 0.205566168
0.945351183 0.578494370 0.232131526
0.974952459 0.590638816 0.266539842
0.993421733 0.606325090 0.303225517
0.997216642 0.626059353 0.341935754
0.562049210 0.544085920 0.005692737
0.568880081 0.545224607 0.001897740
0.574067235 0.548007488 0.000253034
0.577609241 0.546742618 0.007084259
0.580392480 0.545730650 0.006071994
0.584946275 0.545730650 0.000000000
0.588614464 0.551929474 0.003794996
0.597975850 0.553573787 0.000505999
0.606072485 0.554585814 0.000759096
0.620113730 0.557621717 0.001897740
0.628589451 0.555850446 0.001897740
0.636685729 0.559645414 0.005692737
0.646173358 0.559645414 0.006831090
0.654775500 0.563187480 0.008349024
0.663883924 0.559898496 0.017457401
0.670588434 0.562681437 0.033270046
0.676660478 0.558127642 0.053004626
0.685389280 0.553826869 0.073371552
0.696268499 0.548260510 0.090322755
0.705629349 0.545224547 0.107780084
0.712839961 0.542188168 0.113092974
0.731056273 0.536116183 0.126249120
0.751676261 0.542821229 0.141429484
0.781530619 0.553194463 0.156609878
0.815306544 0.563440740 0.170651525
