Assets/Resources/EldamarStudio/100 Horror LUTs Pack/LUTs/cube/Thrarion LUT.cube
LUT_3D_SIZE 8
DOMAIN_MIN 0.000000 0.000000 0.000000
DOMAIN_MAX 0.903226 0.903226 0.903226
0.070588000 0.070588000 0.070588000
0.088172443 0.070967548 0.074510001
0.139532089 0.074510001 0.079190098
0.213535637 0.090828992 0.108158998
0.279696375 0.124604993 0.126122802
0.358380735 0.154712260 0.156736001
0.455787271 0.191144705 0.189499989
0.596710742 0.236811802 0.228968799
0.085895449 0.096774548 0.083112001
0.104237996 0.100695543 0.083491549
0.157115638 0.119164996 0.099936545
0.214674294 0.129664540 0.114863642
0.285641730 0.152688101 0.140290990
0.360025465 0.183048740 0.162175804
0.458950281 0.215812832 0.198608741
0.587096870 0.257178813 0.231878370
0.116002098 0.186464190 0.124478087
0.146109641 0.190765545 0.126882002
0.192789197 0.198229000 0.134725094
0.241745740 0.201770648 0.152056009
0.306261986 0.215433195 0.169259995
0.382163078 0.240101442 0.191144988
0.479949445 0.268817365 0.217710271
0.614167988 0.311321914 0.263883561
0.163060993 0.266793638 0.175964639
0.177103087 0.281340986 0.180265889
0.214674085 0.277672559 0.183681533
0.274636626 0.289816290 0.201770633
0.334092617 0.302340269 0.213915184
0.412650257 0.317267269 0.230360284
0.510309815 0.339278907 0.255154997
0.644908249 0.383934289 0.291714013
0.214800999 0.367489189 0.232005194
0.226185739 0.373687387 0.233522996
0.256166995 0.377609104 0.236685902
0.305882633 0.383807391 0.249968186
0.377482563 0.401012182 0.261606157
0.458950162 0.421379179 0.282859176
0.562302470 0.447817564 0.306388259
0.689563572 0.486021340 0.345603973
0.274003983 0.501328468 0.291840732
0.281214267 0.505502880 0.291967452
0.318026483 0.510942698 0.303985089
0.378747731 0.518026590 0.321188986
0.447311997 0.531688452 0.336116374
0.524604499 0.550031722 0.350410730
0.622897029 0.571410716 0.385325581
0.738140345 0.610120475 0.428589612
0.357748270 0.651866257 0.385831833
0.383554548 0.653257310 0.402150542
0.407716542 0.661859453 0.402277172
0.464263290 0.669323206 0.416065902
0.524604678 0.678178430 0.430613548
0.603162289 0.687412798 0.455281734
0.682226539 0.693990946 0.481593996
0.771536648 0.720935762 0.523086667
0.547121704 0.804300785 0.569386601
0.568627417 0.820619762 0.582795739
0.583807588 0.817583561 0.580518663
0.618722200 0.822517395 0.590385973
0.661480010 0.828336477 0.599367559
0.723086774 0.835040987 0.632004738
0.783048928 0.840986788 0.652245462
0.837064743 0.850094616 0.672612429
0.070208549 0.074130453 0.083112001
0.087792993 0.066287450 0.083491549
0.141429543 0.079949096 0.101454541
0.202529639 0.102213643 0.119797282
0.265148520 0.133586541 0.144591734
0.351296753 0.165717557 0.174825996
0.445667565 0.200885534 0.207590282
0.582289577 0.234535113 0.241239682
0.082732551 0.093611546 0.090828985
0.104237996 0.104997002 0.096774541
0.150031641 0.117140636 0.116381638
0.209234908 0.137128189 0.135610104
0.271853179 0.157874539 0.153194353
0.355217844 0.183681354 0.185325533
0.444022864 0.215812832 0.207590282
0.573560894 0.255787820 0.243896514
0.117140643 0.172675550 0.135484099
0.141429543 0.182542995 0.146489188
0.177862078 0.189627096 0.147248179
0.232257739 0.196204752 0.165717736
0.296900988 0.217836916 0.187349990
0.371663660 0.234661728 0.204174742
0.474003822 0.265907824 0.236938834
0.609487474 0.307780087 0.270461828
0.155471444 0.257558376 0.186464190
0.176217288 0.263124257 0.191145092
0.212650448 0.270588547 0.197849557
0.262744814 0.279570073 0.207969546
0.324604720 0.294497281 0.220114097
0.400885403 0.311701268 0.238583341
0.500568986 0.336242855 0.264642447
0.629222035 0.377735525 0.299557507
0.201011747 0.368248194 0.233270451
0.222391188 0.366223842 0.241366193
0.249462545 0.374066859 0.247944638
0.302719623 0.379886270 0.258570403
0.370904624 0.391144812 0.276154518
0.449082911 0.410373271 0.288298279
0.553952992 0.440986574 0.311069191
0.682732284 0.485642076 0.349778533
0.260341525 0.492093742 0.301201731
0.277545720 0.494876444 0.305376291
0.308412373 0.497659862 0.308159530
0.363314152 0.507527053 0.319544375
0.435420573 0.523592770 0.334724724
0.512081265 0.539658308 0.353447020
0.616571784 0.566223621 0.380518377
0.733080387 0.606577992 0.436685652
0.351043820 0.638962865 0.395572573
0.369386554 0.644402564 0.393295109
0.394813389 0.641619086 0.397596538
0.446552813 0.649968445 0.412903011
0.510056853 0.665401876 0.427071512
0.591397762 0.676407337 0.445793808
0.672485828 0.692093730 0.469449848
0.765464962 0.710689366 0.517773449
0.537254572 0.800632656 0.561543405
0.533333182 0.808475614 0.563314140
0.552308738 0.802782655 0.563567102
0.596331477 0.807969689 0.577103078
0.646805823 0.815306783 0.587349832
0.712080777 0.824035525 0.614927232
0.769513071 0.833523214 0.642884195
0.837191582 0.842125416 0.681593537
0.060467906 0.071347095 0.123087004
0.087033994 0.072105996 0.127387539
0.147375107 0.080708094 0.144971088
0.209234998 0.111321904 0.163440645
0.275774986 0.147375092 0.182542995
0.354332715 0.172422469 0.209234998
0.445540845 0.206072196 0.237318084
0.590132594 0.240606993 0.281214654
0.076787099 0.102340452 0.129664555
0.117267549 0.110942543 0.153320566
0.152814895 0.129791453 0.159519449
0.213156104 0.143453196 0.174826086
0.285768658 0.169259995 0.198355094
0.358760357 0.195572555 0.217457533
0.455534518 0.223276287 0.247311831
0.581657052 0.257052660 0.271473646
0.112081096 0.184187099 0.183427989
0.148640364 0.193295464 0.180265993
0.191271186 0.199114203 0.195192993
0.240607083 0.208096370 0.200252637
0.303225994 0.221758187 0.217077896
0.379506737 0.246173203 0.240986824
0.480708361 0.269449800 0.264769316
0.617710590 0.310942054 0.299430907
0.166223913 0.280582070 0.227577537
0.186590910 0.282605648 0.230866641
0.226185739 0.282479644 0.238329992
0.273498118 0.287918717 0.240986645
0.333713084 0.300442815 0.253890008
0.408728361 0.316002429 0.268690944
0.509171188 0.344592214 0.292093664
0.641872406 0.381657183 0.331688732
0.212397203 0.369892389 0.262239188
0.224414825 0.381277651 0.279569745
0.261733085 0.378368199 0.280581981
0.311068982 0.384693176 0.286780268
0.376850188 0.397976190 0.298545092
0.457052708 0.414800823 0.312966645
0.559898674 0.444908261 0.337507904
0.682352722 0.490448773 0.379000455
0.273877621 0.506135225 0.334977716
0.285641909 0.505123317 0.334092528
0.316255659 0.511827707 0.344465733
0.370525271 0.516634822 0.354838461
0.441745549 0.529158711 0.367109627
0.522327423 0.547122002 0.382922381
0.624541104 0.569513083 0.416698396
0.741049647 0.608728468 0.462745160
0.361543179 0.648576856 0.422897279
0.377609015 0.656040549 0.429601550
0.408728451 0.658823490 0.437065274
0.458443910 0.666287184 0.442504674
0.520050466 0.672232509 0.451739341
0.596331000 0.682353258 0.477672547
0.679190397 0.692472994 0.503605366
0.773308039 0.719544649 0.544592142
0.534851253 0.812523544 0.587982416
0.558001220 0.814421237 0.588741064
0.571030676 0.815686405 0.597596467
0.612270594 0.818216145 0.604680121
0.658443809 0.825806558 0.616951525
0.718405843 0.826944888 0.635546863
0.776090741 0.840227664 0.661986053
0.841113567 0.848703623 0.692093611
0.059962351 0.077292651 0.176091284
0.084123738 0.073624097 0.176470742
0.145350650 0.089310899 0.192283630
0.198987991 0.110436283 0.198481634
0.275395542 0.145350739 0.230739832
0.348892748 0.171537101 0.250221640
0.447438180 0.203542277 0.283111662
0.592536390 0.234029159 0.321568429
0.084250547 0.112080894 0.193548292
0.116381638 0.111574635 0.198102280
0.151170090 0.124098539 0.199240819
0.205945283 0.146109641 0.215812728
0.273371190 0.164453089 0.234155387
0.349651843 0.191903904 0.258570284
0.452118933 0.222896740 0.284250468
0.586211145 0.252624899 0.317773432
0.121441998 0.178241640 0.228589371
0.146109655 0.188361645 0.229475170
0.183681548 0.194686741 0.234534815
0.233775720 0.204047844 0.239974722
0.302719742 0.220872998 0.258064657
0.374319971 0.244022727 0.274004072
0.478684217 0.271979928 0.309044719
0.622390568 0.301581085 0.349019736
0.162555635 0.263503909 0.263503909
0.180139080 0.264642239 0.261100709
0.208349183 0.274130285 0.270968080
0.263503909 0.281467646 0.276407272
0.321315616 0.298798651 0.287413090
0.403921366 0.314104885 0.310183376
0.503605187 0.340923607 0.334724933
0.643390357 0.377229273 0.369513065
0.211891443 0.365464747 0.309930444
0.227577642 0.371157289 0.307653159
0.255028635 0.373181731 0.315243542
0.305882633 0.381783843 0.324225187
0.368374616 0.392283380 0.333965838
0.453004718 0.412397027 0.350537628
0.558760107 0.441745758 0.380392015
0.685768425 0.485135794 0.420493245
0.253763378 0.491966993 0.369133741
0.276786834 0.497533202 0.374952346
0.314484447 0.502340138 0.375711530
0.366729915 0.512081265 0.384187102
0.438962817 0.527387738 0.401264906
0.520303667 0.540670156 0.418469012
0.621758223 0.566476762 0.448576748
0.734598398 0.609234571 0.491714269
0.344971567 0.645287573 0.450853854
0.363314092 0.648323834 0.454775542
0.392789483 0.645161450 0.456672996
0.446426213 0.655914187 0.463756919
0.511574805 0.664136410 0.482732624
0.588867605 0.677925229 0.502340019
0.676154196 0.690069258 0.528146923
0.766350091 0.715876043 0.570272088
0.529538393 0.805565953 0.596204758
0.540037930 0.801264822 0.598988175
0.559392452 0.805818975 0.603289068
0.592662990 0.813029408 0.612649918
0.642884135 0.817204118 0.628842235
0.710562646 0.824288368 0.650980234
0.772549093 0.836179554 0.673497856
0.843643606 0.846173644 0.696900606
0.068184800 0.079949193 0.251613200
0.091713995 0.083491646 0.246426642
0.141049892 0.096394897 0.261859804
0.205692634 0.121189453 0.266413808
0.271853387 0.150537804 0.280581981
0.352561474 0.177862182 0.305376172
0.454902083 0.206831291 0.342188179
0.602023780 0.237950832 0.388361633
0.093358994 0.113598995 0.257558644
0.111321896 0.125490203 0.262365639
0.158381015 0.135357440 0.268944025
0.212017745 0.150537819 0.276660264
0.276154518 0.172042832 0.290322632
0.359139830 0.200252935 0.308665365
0.459709167 0.223023251 0.343579829
0.591777623 0.253890187 0.381657004
0.126249090 0.186590910 0.280582160
0.140670449 0.194180742 0.285262197
0.184313804 0.195951909 0.293232203
0.237191543 0.208096460 0.300189883
0.300063074 0.227324098 0.310942292
0.379885972 0.246046990 0.339279205
0.482353091 0.272739023 0.366603374
0.625047326 0.299683630 0.411132276
0.163820192 0.270462126 0.318532437
0.180645362 0.275142193 0.325616658
0.213915095 0.277419209 0.328779548
0.270714730 0.286021203 0.335610628
0.328526020 0.295256197 0.342947453
0.406831115 0.320050627 0.366223812
0.513219774 0.341935337 0.391903818
0.648450315 0.367995262 0.424035639
0.202783182 0.369892389 0.350031555
0.225806087 0.373055011 0.371157557
0.254649192 0.372928381 0.367362261
0.306767613 0.384693354 0.376470536
0.379000366 0.396458000 0.390133202
0.456546456 0.413915128 0.407716811
0.564705491 0.437191576 0.429348171
0.692220151 0.477419347 0.470588148
0.262871534 0.501455009 0.428209722
0.273498088 0.499304086 0.426059455
0.306767851 0.505755961 0.430866361
0.359139621 0.513472557 0.440733820
0.434788197 0.527640700 0.451739728
0.521189034 0.543326735 0.471979916
0.629222035 0.570651770 0.500822008
0.738646448 0.608096182 0.538393199
0.339911282 0.645540893 0.499810070
0.358760387 0.650980353 0.502466738
0.388488293 0.654143214 0.509171426
0.437444627 0.660088658 0.516382277
0.508286059 0.672232747 0.527134597
0.594181001 0.678811014 0.546742439
0.675268531 0.690828502 0.566223860
0.771663427 0.719797432 0.606831193
0.514484406 0.810373187 0.633649588
0.532194555 0.808981538 0.635294080
0.551170230 0.812017679 0.636685371
0.593548417 0.815180242 0.649209380
0.645540893 0.819987476 0.657179177
0.708538830 0.830233991 0.673118174
0.774952352 0.840227664 0.700695813
0.838456810 0.849588931 0.720682919
0.080328740 0.084250741 0.318785697
0.102720000 0.092852734 0.326755226
0.150031745 0.109297730 0.333080113
0.210626289 0.125743255 0.339785069
0.285895169 0.150917262 0.358254224
0.360151470 0.182036728 0.373813719
0.459961802 0.210752696 0.407084256
0.605059683 0.235420823 0.460720897
0.098418549 0.119291529 0.326502085
0.112966098 0.130803093 0.325490475
0.160658091 0.137887180 0.334977627
0.217330739 0.153826728 0.343580097
0.286906928 0.171537191 0.359013110
0.364073485 0.201011926 0.375837982
0.458823264 0.224035382 0.408096075
0.598481834 0.249588534 0.458570629
0.120809905 0.192156732 0.358380556
0.141176730 0.198481917 0.362049013
0.181024998 0.197217092 0.362681806
0.238456637 0.209993899 0.369259715
0.309171289 0.228842288 0.380265623
0.391524464 0.244781822 0.410752714
0.487412900 0.272738814 0.429981112
0.628462732 0.300696075 0.477545619
0.154459089 0.269702733 0.381783485
0.170524746 0.277166277 0.393042296
0.206451640 0.277925372 0.391271561
0.263883442 0.287792534 0.397723377
0.327514023 0.302340269 0.410120189
0.408855110 0.314863980 0.427704006
0.516508698 0.333459556 0.455028206
0.655661106 0.365211695 0.502593338
0.191018268 0.371536911 0.427957177
0.211511791 0.375838190 0.443390131
0.250474423 0.379380047 0.437317908
0.298924744 0.382163197 0.447185278
0.372422427 0.395951927 0.460973918
0.456925929 0.408475906 0.473877192
0.567741811 0.436179489 0.501075447
0.694876790 0.466793269 0.534092188
0.246932000 0.501075447 0.485641986
0.268690795 0.499810189 0.496774018
0.300822198 0.509297669 0.500948489
0.356609643 0.513978601 0.511321962
0.428715914 0.528652489 0.517267525
0.514611185 0.544212520 0.534345269
0.628336251 0.568880022 0.557115912
0.745097756 0.597596526 0.591650844
0.327008247 0.643390596 0.555471003
0.351549923 0.644781828 0.568627298
0.377229661 0.648323655 0.569133401
0.429601669 0.658570588 0.572295725
0.503225684 0.666919708 0.587349474
0.584946454 0.677798986 0.597090006
0.678557992 0.695129693 0.622011006
0.774825811 0.720809698 0.649335921
0.513978601 0.797849476 0.680455506
0.522074521 0.804427505 0.673497498
0.542441487 0.803541720 0.680581808
0.581277370 0.811385334 0.685768485
0.629221976 0.822390735 0.693738222
0.698039293 0.823276520 0.706641316
0.770145357 0.838203549 0.726375818
0.843137324 0.849462330 0.753826618
0.066034004 0.100316286 0.431625277
0.101581261 0.105881996 0.436306298
0.159139916 0.115243189 0.441619277
0.230486915 0.130550355 0.455407530
0.310057104 0.153700292 0.469702631
0.398734719 0.176343992 0.482099563
0.493990958 0.208476007 0.511954248
0.609740615 0.237444967 0.541302800
0.084250741 0.132827252 0.436053276
0.110689096 0.138140097 0.436558843
0.160658091 0.146995544 0.446299553
0.228715897 0.160784215 0.454522550
0.309677452 0.175205454 0.467299372
0.395066619 0.196711004 0.485388994
0.490701973 0.221378550 0.506514549
0.605059981 0.251233250 0.535610557
0.094371006 0.191144899 0.460215151
0.122707449 0.203415543 0.470209032
0.177229524 0.202909291 0.473750770
0.253004193 0.214294836 0.481467277
0.325743109 0.228842288 0.490955174
0.417963266 0.248829827 0.507400334
0.515749574 0.274257004 0.529032350
0.627577186 0.301960915 0.559645653
0.105249710 0.276913375 0.493991256
0.134092376 0.275775015 0.499683470
0.187476397 0.282479346 0.498291939
0.264010012 0.287539274 0.504111290
0.345351189 0.305249810 0.523466110
0.437697560 0.319544464 0.533206642
0.543326855 0.341429293 0.553447306
0.658697009 0.368880183 0.585198879
0.154079631 0.383048683 0.534977555
0.169260263 0.387729079 0.541935563
0.213409111 0.386211187 0.540290594
0.279949278 0.388615012 0.550537646
0.369892180 0.393295288 0.557495296
0.471473753 0.409614176 0.568627417
0.577103257 0.433902562 0.587349594
0.699936688 0.462112546 0.618975163
0.222896710 0.517267466 0.590638518
0.240480736 0.518532276 0.593169212
0.282226294 0.522454202 0.598482013
0.340038091 0.525616646 0.603162467
0.423655897 0.531435966 0.613029957
0.514990747 0.540037930 0.625173986
0.629474998 0.564705610 0.641492605
0.743326664 0.593295097 0.666919947
0.324098557 0.646932542 0.649841785
0.336875081 0.648956299 0.640986860
0.374067098 0.654902101 0.644528568
0.432258278 0.658696949 0.654775560
0.498671472 0.666666627 0.665022373
0.581151485 0.681087971 0.669702530
0.677672505 0.695635259 0.684882998
0.780138969 0.715622783 0.711068630
0.510309577 0.800885141 0.737255096
0.517394185 0.803795040 0.735610485
0.535737038 0.805818796 0.734345198
0.574952245 0.809993327 0.743579865
0.627577186 0.816951334 0.748134136
0.687665880 0.827577174 0.758254528
0.759519160 0.835799932 0.770271838
0.843137383 0.851992428 0.797722816
0.011512037 0.107273988 0.609867394
0.080961727 0.106261544 0.614547431
0.169512838 0.117014430 0.619228423
0.257684767 0.129032165 0.626818597
0.355218351 0.148133993 0.638836205
0.453257263 0.169765845 0.645793498
0.558001220 0.202529833 0.664010286
0.676533699 0.240733802 0.684376717
0.010120373 0.135610089 0.607969582
0.081467576 0.134345248 0.610626400
0.166097194 0.142188251 0.614547491
0.257811636 0.155597642 0.624035180
0.350158006 0.173687547 0.632763863
0.453636885 0.192409649 0.647185564
0.563314378 0.220999092 0.664895475
0.678684294 0.254902095 0.681087613
0.010120373 0.201897368 0.632637560
0.066539943 0.199873209 0.637950718
0.163440943 0.204554006 0.632890701
0.260088265 0.215939462 0.642884254
0.362049133 0.226565301 0.655154705
0.464136541 0.246806085 0.664389551
0.576470256 0.273118347 0.683364689
0.690828443 0.305882245 0.699430823
0.001138644 0.277166277 0.648829341
0.015812967 0.279190540 0.659456015
0.137887567 0.282352835 0.658191025
0.257052302 0.288677633 0.664895415
0.365717977 0.305376172 0.670588017
0.473371446 0.321948171 0.678937316
0.583428085 0.343453437 0.693611622
0.701960564 0.373813927 0.708412528
0.001518192 0.391018182 0.686147928
0.012397364 0.391018093 0.680455625
0.099557266 0.384060740 0.687539637
0.239595249 0.386590809 0.693232238
0.366856545 0.395192832 0.696141422
0.488677979 0.417457193 0.710562766
0.609993696 0.440860182 0.721568763
0.729285002 0.474004000 0.731562316
0.148260564 0.543832719 0.724984467
0.180139124 0.542188227 0.731941760
0.226818472 0.536748648 0.725363672
0.308412552 0.536875129 0.730044305
0.398735017 0.530044258 0.731435657
0.522074461 0.542820752 0.740290642
0.644022763 0.568374217 0.750916898
0.759772241 0.597469509 0.765464723
0.334977835 0.685389102 0.764452755
0.353573650 0.684376657 0.758760512
0.379886121 0.681593895 0.759266317
0.431751758 0.685515404 0.766983092
0.496520996 0.685894907 0.768121302
0.579380155 0.690701962 0.775331616
0.677419305 0.696647704 0.782036841
0.791144609 0.720050454 0.798102319
0.510436416 0.821505606 0.801770747
0.526502311 0.820746541 0.806072176
0.544844925 0.817583561 0.812902808
0.580644906 0.821505606 0.818722188
0.629222035 0.824035585 0.816192567
0.690828383 0.825932860 0.824035645
0.763440907 0.837697804 0.836812079
0.847817540 0.852751434 0.860974252
