Assets/Resources/EldamarStudio/100 Horror LUTs Pack/LUTs/cube/Thrarion LUT.cube
LUT_3D_SIZE 5
DOMAIN_MIN 0.000000 0.000000 0.000000
DOMAIN_MAX 0.903226 0.903226 0.903226
0.070588000 0.070588000 0.070588000
0.128146991 0.074510001 0.080708295
0.240606993 0.108538993 0.113724999
0.379633129 0.163820133 0.162808001
0.596710742 0.236811802 0.228968799
0.111448288 0.171283990 0.115369707
0.174572989 0.176217705 0.122580700
0.266413689 0.192536697 0.148387000
0.405439436 0.229221687 0.189626992
0.607083738 0.296900809 0.257305712
0.181783825 0.309297562 0.197469994
0.223655984 0.324351400 0.215812400
0.323719412 0.343959808 0.228842825
0.465022385 0.373434812 0.266792983
0.667805195 0.434281796 0.315243810
0.293232143 0.534725130 0.306008995
0.325110435 0.545857072 0.316382110
0.423529536 0.560531378 0.341429234
0.567109227 0.592536271 0.378747255
0.749778450 0.639974773 0.453384072
0.547121704 0.804300785 0.569386601
0.573940396 0.817836881 0.581024468
0.634534717 0.824668050 0.594054461
0.737760782 0.836812079 0.636559069
0.837064743 0.850094616 0.672612429
0.060468286 0.072865292 0.114737704
0.126881406 0.076154292 0.127513990
0.238709822 0.122960404 0.158253983
0.378620982 0.181783587 0.209234998
0.589120686 0.238330275 0.270841241
0.107526705 0.159898683 0.162175983
0.167741686 0.171030700 0.169386402
0.262239397 0.196204990 0.192915991
0.391144991 0.233775690 0.225300699
0.609361291 0.296267807 0.285515696
0.184693277 0.314864099 0.236053407
0.229222104 0.318153113 0.244908124
0.318153083 0.342061818 0.260594696
0.451359808 0.370525092 0.288045675
0.669829071 0.437950492 0.351296395
0.289816409 0.528146684 0.341050148
0.319291830 0.534092367 0.346742839
0.418342531 0.553067565 0.366603702
0.555977225 0.579506338 0.400379390
0.742061734 0.633776069 0.471094042
0.534598589 0.809993684 0.577103138
0.557621598 0.809614301 0.580392122
0.623149693 0.815180063 0.598355711
0.729538321 0.827956915 0.636306286
0.839342296 0.842631519 0.683997512
0.062744997 0.074510001 0.210500002
0.127134711 0.085641995 0.219354689
0.232131407 0.131435573 0.243263826
0.380012661 0.183428124 0.291714370
0.595952034 0.235420823 0.357115805
0.120935991 0.167362407 0.245793566
0.160151586 0.170271710 0.246426418
0.257938117 0.198102415 0.268058389
0.393042266 0.236052990 0.305376381
0.614547729 0.286021262 0.364958793
0.179759577 0.310562551 0.307273954
0.227198109 0.317773819 0.318405956
0.317141384 0.340670407 0.332827389
0.461100638 0.368500978 0.362555116
0.674383163 0.423782647 0.421252638
0.269449830 0.526122689 0.406325281
0.314863741 0.535230696 0.418848693
0.412270725 0.551296890 0.433270276
0.559519112 0.576849818 0.464010119
0.745603800 0.636685789 0.528652668
0.522200704 0.800379634 0.612903178
0.536116540 0.804047883 0.606578112
0.616825044 0.812776387 0.632511020
0.724351466 0.826944947 0.666540027
0.843769729 0.848829746 0.712966621
0.079316877 0.089310862 0.350158125
0.135357410 0.106261864 0.353826821
0.247565120 0.138646409 0.372169405
0.391524106 0.193168864 0.406198233
0.608095884 0.235420823 0.479443222
0.109424286 0.177482277 0.371030688
0.163314164 0.184060693 0.382163137
0.270461679 0.205312982 0.395066410
0.414295107 0.240987122 0.431245685
0.624414921 0.289310515 0.495256245
0.171157420 0.323339671 0.427071393
0.217710406 0.325616390 0.438456953
0.320050687 0.341935545 0.460721105
0.470335245 0.371790081 0.483364969
0.680961192 0.413662106 0.544844985
0.257052243 0.540544093 0.523086369
0.301075280 0.544718266 0.530043960
0.405439824 0.555218220 0.548007667
0.561163962 0.584693253 0.576850295
0.755723834 0.626944900 0.619734108
0.516761780 0.800379813 0.699936807
0.543200314 0.806577921 0.699557245
0.603668392 0.816445470 0.707020640
0.714231789 0.829601467 0.719797492
0.840101480 0.849462569 0.760151744
0.011512037 0.107273988 0.609867394
0.149019420 0.111448288 0.617963493
0.298924387 0.137887418 0.629474580
0.481340766 0.178115129 0.653383732
0.676533699 0.240733802 0.684376717
0.011385217 0.181403860 0.629854321
0.142188534 0.186337993 0.633396387
0.312080801 0.202656418 0.644149303
0.491714090 0.237950727 0.665654302
0.689563572 0.291460931 0.698671758
0.001897590 0.327007949 0.672485769
0.067173019 0.327640384 0.674509704
0.315243810 0.343327254 0.682985425
0.515496612 0.372801781 0.709171653
0.718279421 0.424541205 0.724098325
0.193042442 0.577229321 0.733839571
0.252878129 0.575711608 0.733965456
0.374826252 0.574952245 0.741176605
0.560784280 0.581783354 0.744591951
0.772169471 0.628336489 0.771789789
0.510436416 0.821505606 0.801770747
0.538013577 0.815559566 0.810373127
0.603921175 0.820746183 0.818848670
0.710309803 0.830233932 0.826565564
0.847817540 0.852751434 0.860974252
