Assets/Resources/EldamarStudio/100 Horror LUTs Pack/LUTs/cube/Thrarion LUT.cube
DOMAIN_MIN 0 0 0
DOMAIN_MAX 1 1 1
LUT_3D_SIZE 32
0.070588000 0.070588000 0.070588000
0.070588000 0.070588000 0.070588000
0.072738774 0.068437770 0.070588000
0.078305162 0.067931838 0.071853161
0.088172443 0.070967548 0.074510001
0.103352055 0.074003935 0.074510001
0.116002642 0.074510001 0.079570003
0.128146991 0.074510001 0.080708295
0.139532089 0.074510001 0.079190098
0.148640499 0.074510008 0.082226492
0.175205871 0.080329001 0.091081873
0.196457997 0.084377259 0.100189731
0.213535637 0.090828992 0.108158998
0.228462994 0.102467000 0.113724999
0.240606993 0.108538993 0.113724999
0.259961784 0.117014796 0.118532605
0.279696375 0.124604993 0.126122802
0.297280401 0.131309405 0.133965582
0.312460065 0.140417039 0.137001976
0.335989714 0.146742716 0.148387015
0.358380735 0.154712260 0.156736001
0.379633129 0.163820133 0.162808001
0.401138484 0.172928497 0.169006497
0.428462923 0.182036906 0.178114906
0.455787271 0.191144705 0.189499989
0.485894620 0.200252667 0.197469682
0.519291162 0.209867001 0.202023998
0.552688301 0.222010985 0.214167982
0.596710742 0.236811802 0.228968799
0.644022286 0.253763407 0.247691154
0.692599118 0.271094590 0.268943578
0.741176009 0.286274999 0.290196002
0.073624387 0.070588000 0.064516000
0.079696387 0.067552388 0.070588000
0.075395383 0.071853392 0.072738774
0.078305162 0.070208997 0.076154388
0.088551991 0.068690836 0.080202453
0.106388442 0.077039547 0.077545613
0.119038381 0.072485611 0.072485611
0.131182596 0.078052022 0.079823025
0.144844815 0.083618388 0.085262671
0.160784498 0.083618388 0.088298485
0.172802001 0.089437380 0.097153872
0.193422109 0.095509380 0.102213733
0.211638376 0.100695997 0.107020639
0.228462994 0.108792037 0.110942356
0.240606993 0.117647380 0.113724999
0.257558614 0.121315569 0.120935798
0.278178573 0.129158795 0.129158795
0.298545539 0.137381569 0.137634382
0.318532854 0.146489814 0.143073976
0.342061818 0.158380792 0.151676357
0.364452720 0.163061246 0.157874659
0.384693235 0.168880254 0.161796138
0.403921872 0.176091373 0.166097373
0.425427318 0.188108906 0.178114906
0.457305670 0.197217286 0.187223285
0.487539351 0.207716748 0.198608369
0.519797087 0.218469456 0.208095998
0.555723906 0.228083760 0.220239982
0.586464286 0.237570912 0.227071658
0.631878316 0.253763407 0.241113111
0.682226121 0.271094590 0.261606395
0.735104024 0.286274999 0.287160397
0.074510001 0.072738774 0.064895771
0.080582000 0.076154388 0.070967771
0.080202229 0.073118232 0.074889004
0.079190552 0.079190552 0.076660231
0.088172443 0.077419773 0.079822779
0.104617223 0.081214614 0.076786838
0.119923994 0.081973545 0.077672005
0.133712694 0.080834836 0.078178421
0.146362782 0.089943230 0.088551901
0.161796212 0.092726231 0.094370522
0.180645004 0.098545223 0.098924875
0.194813251 0.104617223 0.103984736
0.211764857 0.109550871 0.105881996
0.228716031 0.114611000 0.108159222
0.242757767 0.121821634 0.113092579
0.261859596 0.130423963 0.118785575
0.280075967 0.134977758 0.127893567
0.300063372 0.142188579 0.137001798
0.319797993 0.148260981 0.144592017
0.343833029 0.160152018 0.153447360
0.364326477 0.170398742 0.160658002
0.383301646 0.175964415 0.163946643
0.400885433 0.183175221 0.167488724
0.428210139 0.191271231 0.181657001
0.454269499 0.198988289 0.187223285
0.486274540 0.210879296 0.197722986
0.517646849 0.223782346 0.210373074
0.554079592 0.234535441 0.224161759
0.589500427 0.241492912 0.230992883
0.639342308 0.257684946 0.244149610
0.688931108 0.275395572 0.262365490
0.739784777 0.290575981 0.288425237
0.078305162 0.080835164 0.071727000
0.076786838 0.084377162 0.074003838
0.083997391 0.086527392 0.076660231
0.086021326 0.084756166 0.079696164
0.093232542 0.090828836 0.080834709
0.108412378 0.092599832 0.081341103
0.122327477 0.092599832 0.082100004
0.136242688 0.096774444 0.085515261
0.151423082 0.099051155 0.091587834
0.164073184 0.104111165 0.100189522
0.181150869 0.107653156 0.100948870
0.198355258 0.113725156 0.106514737
0.214674294 0.119797163 0.109550640
0.229981124 0.122960024 0.109930187
0.245161250 0.128020152 0.114990316
0.265148640 0.135230795 0.123592600
0.283617973 0.145350993 0.129917964
0.301834136 0.151422992 0.137760743
0.320050955 0.155091822 0.145604149
0.342568189 0.165212020 0.153447360
0.363061309 0.172928736 0.161922842
0.383302093 0.182036862 0.167995110
0.399746805 0.191144496 0.171663299
0.428968966 0.198355168 0.185705066
0.457052439 0.205692574 0.194307446
0.483238131 0.212144464 0.198988155
0.514610946 0.226818159 0.210626110
0.551043689 0.238962725 0.224288270
0.588741601 0.249588996 0.232763991
0.636053205 0.259456158 0.248450398
0.698039412 0.279822975 0.267552584
0.745097995 0.295382828 0.291461170
0.085895449 0.096774548 0.083112001
0.076027766 0.097533546 0.080834709
0.082479320 0.098545320 0.079949096
0.095509157 0.101075098 0.080834709
0.104237996 0.100695543 0.083491549
0.119418383 0.106767543 0.092599936
0.132448003 0.108538546 0.095256448
0.144592002 0.112333700 0.096141838
0.157115638 0.119164996 0.099936545
0.172296047 0.119164996 0.106008545
0.184946001 0.120303549 0.104111321
0.199114263 0.123972096 0.108412281
0.214674294 0.129664540 0.114863642
0.232890993 0.135736540 0.118406028
0.248197109 0.138899416 0.121695414
0.267804772 0.143959537 0.131562442
0.285641730 0.152688101 0.140290990
0.302213579 0.163187549 0.145730585
0.320430398 0.169259563 0.148766980
0.341429830 0.178494349 0.155724466
0.360025465 0.183048740 0.162175804
0.380265713 0.188108966 0.170651257
0.404807448 0.197216570 0.176850468
0.432384908 0.206324905 0.188741460
0.458950281 0.215812832 0.198608741
0.486021519 0.223529533 0.206704989
0.512333691 0.230613545 0.214042038
0.548766434 0.242757544 0.223149627
0.587096870 0.257178813 0.231878370
0.631752074 0.268817186 0.248323828
0.682858646 0.280581981 0.271727055
0.740543902 0.298797995 0.292979449
0.082859069 0.118026935 0.089184001
0.088931069 0.124098934 0.092220388
0.094117709 0.120556928 0.092093870
0.105502933 0.121062867 0.092093870
0.116381995 0.124984317 0.092599936
0.122453995 0.121947929 0.092599936
0.137634382 0.128019929 0.101707675
0.150664002 0.129790932 0.102719776
0.162808195 0.131309003 0.102972932
0.175332442 0.131309003 0.109044932
0.190512076 0.140037864 0.112207063
0.205186248 0.143580183 0.114231318
0.219228283 0.147122234 0.117140934
0.232890993 0.150916934 0.118406028
0.251106977 0.156988934 0.127514407
0.268816918 0.160151809 0.135610178
0.284503371 0.166730121 0.142188251
0.299683869 0.175079286 0.145730585
0.323466033 0.178367943 0.148766980
0.344465464 0.190005943 0.162934646
0.360025078 0.192156732 0.165211812
0.377229333 0.194181129 0.168248072
0.401771069 0.203289345 0.176850468
0.432131886 0.212396964 0.185958102
0.455155253 0.223782569 0.195572346
0.482985616 0.232637912 0.204680726
0.515370071 0.239721924 0.214295074
0.551802814 0.251865923 0.229222402
0.585578740 0.264009923 0.235673860
0.621758401 0.274889201 0.245793909
0.661606610 0.286653996 0.262618661
0.704111099 0.304870009 0.283871084
0.100063317 0.149399325 0.105375998
0.101075314 0.150411323 0.105882064
0.107147321 0.152182326 0.104617447
0.117140993 0.149399325 0.105502836
0.128525987 0.152182326 0.107147224
0.134598002 0.151296705 0.109297998
0.150790647 0.150790647 0.109297998
0.164326310 0.153573647 0.115117028
0.177229404 0.155091643 0.116888218
0.191144973 0.158633634 0.124730997
0.201138780 0.159772187 0.120303445
0.216318890 0.164832577 0.125363320
0.232637629 0.169007316 0.131182641
0.247059003 0.173181638 0.135104284
0.256166965 0.174699634 0.135104090
0.279190570 0.178367838 0.144212484
0.296141446 0.182921991 0.150284514
0.310562819 0.190385833 0.154585734
0.331056356 0.195319697 0.161416650
0.355091393 0.201644659 0.167995289
0.378241479 0.208095893 0.177482635
0.394939631 0.210373119 0.179380313
0.416065484 0.219481498 0.186843991
0.439215511 0.228589743 0.193548426
0.465022236 0.239974633 0.202656612
0.493485272 0.250727654 0.214547977
0.528020382 0.258950323 0.226439312
0.562428832 0.271094322 0.239595443
0.601264775 0.280708611 0.246805996
0.639974296 0.292852581 0.259961933
0.685009360 0.306261897 0.276280582
0.735989928 0.326122642 0.297533005
0.111448288 0.171283990 0.115369707
0.114737704 0.174572989 0.113724999
0.122327700 0.176217705 0.118152760
0.127134547 0.173687711 0.115117148
0.138140097 0.173687711 0.117393866
0.146742418 0.176217705 0.120429926
0.158000931 0.176217705 0.125869706
0.174572989 0.176217705 0.122580700
0.186717197 0.176976606 0.126375988
0.201012209 0.182162985 0.134598225
0.213662162 0.184060693 0.135736704
0.223529533 0.182795539 0.136116415
0.238709927 0.185831919 0.139911413
0.256167024 0.191145033 0.147248715
0.266413689 0.192536697 0.148387000
0.281973571 0.194939896 0.153320506
0.306261986 0.199493691 0.160910696
0.321188688 0.205565691 0.165338561
0.337381244 0.211638242 0.174446464
0.357874751 0.217710704 0.177482709
0.382162780 0.225173950 0.183554992
0.405439436 0.229221687 0.189626992
0.424540997 0.237697482 0.195698991
0.447311610 0.246805891 0.201771006
0.474130273 0.253257692 0.210120291
0.503984630 0.265401691 0.220619977
0.539405406 0.275269002 0.235041276
0.571663380 0.287413001 0.247185275
0.607083738 0.296900809 0.257305712
0.653257012 0.306135654 0.263883650
0.696647465 0.320936292 0.281214297
0.753574014 0.342188716 0.300948709
0.116002098 0.186464190 0.124478087
0.123592675 0.191777095 0.119164802
0.130171001 0.195698872 0.123971865
0.143074036 0.195699006 0.128779158
0.146109641 0.190765545 0.126882002
0.157115772 0.196458101 0.130297154
0.166729763 0.195952103 0.136116326
0.179126784 0.196711004 0.137761101
0.192789197 0.198229000 0.134725094
0.204933986 0.201264620 0.140797094
0.219228223 0.202782959 0.146110013
0.231878340 0.203288838 0.149399161
0.241745740 0.201770648 0.152056009
0.257179111 0.205060065 0.152308971
0.272865415 0.208602518 0.157874897
0.288045794 0.210879400 0.163947091
0.306261986 0.215433195 0.169259995
0.330550134 0.221505180 0.175964564
0.343200237 0.227577209 0.185072958
0.361669809 0.232890621 0.188109085
0.382163078 0.240101442 0.191144988
0.405439228 0.248956099 0.197216988
0.426944584 0.255028069 0.203288987
0.451865792 0.263503879 0.209361002
0.479949445 0.268817365 0.217710271
0.511575043 0.276028067 0.226691976
0.547501147 0.288172096 0.238836125
0.578114867 0.300316066 0.250980169
0.614167988 0.311321914 0.263883561
0.655154526 0.320430279 0.274004072
0.706514776 0.334598660 0.284250677
0.752056003 0.355851084 0.299431086
0.125110492 0.210752979 0.151802480
0.137254491 0.213788599 0.139658496
0.138393298 0.216951266 0.140796974
0.146110177 0.217457324 0.144465491
0.164326414 0.215053558 0.145098016
0.167362019 0.218089953 0.151170000
0.175837830 0.213662505 0.152055502
0.188235179 0.212776780 0.150790736
0.201897576 0.216444999 0.149905503
0.211005986 0.222517014 0.155977488
0.223149985 0.219734371 0.159139633
0.237444744 0.220999241 0.160278022
0.250095129 0.222643495 0.161543176
0.260215491 0.223276064 0.164452985
0.278431475 0.229348838 0.167488590
0.294117808 0.230487496 0.173055127
0.310815990 0.233649969 0.177609295
0.330550134 0.239721969 0.182036579
0.354838967 0.245793983 0.191144973
0.375838339 0.249082625 0.200253353
0.395066470 0.254143000 0.205186754
0.414547622 0.261353821 0.209361002
0.436052978 0.270208478 0.215432987
0.463377416 0.276280463 0.221505001
0.490575284 0.282479554 0.229854286
0.519417822 0.291208446 0.237571001
0.550537527 0.303352475 0.244908139
0.583933890 0.315496475 0.257052898
0.627830446 0.330297291 0.271853119
0.669323087 0.341682673 0.285135925
0.712839723 0.356104046 0.299684048
0.764200032 0.383175492 0.320683479
0.137127995 0.220493123 0.150031880
0.137634009 0.232258350 0.155344874
0.147627771 0.233143747 0.147501871
0.155218154 0.236685857 0.155597866
0.170524999 0.238583192 0.163946867
0.171030924 0.236558944 0.154838875
0.181656867 0.234535322 0.163440540
0.191144705 0.235420868 0.164579004
0.203035995 0.238203645 0.164326221
0.214294627 0.237823859 0.168247998
0.229222000 0.240986750 0.174319997
0.239342242 0.241998598 0.175331876
0.252751648 0.245034501 0.175331876
0.265655011 0.246805742 0.176597029
0.278557986 0.247564837 0.179633319
0.299177796 0.256040812 0.185072735
0.318406194 0.259076685 0.191144988
0.338646412 0.263124585 0.195572451
0.360657990 0.266919881 0.200126857
0.379380018 0.272991866 0.209234521
0.400505871 0.276154459 0.214547858
0.420746148 0.280202746 0.217583731
0.442251474 0.285388857 0.221884489
0.469575912 0.291460842 0.230739877
0.496900260 0.302086860 0.239089161
0.524224997 0.310815781 0.248197541
0.554585934 0.320936054 0.256799728
0.592789292 0.330676854 0.268943906
0.623529494 0.348133832 0.281087995
0.667805076 0.360025167 0.292473048
0.710436165 0.371789962 0.304364592
0.755977154 0.393042117 0.321568996
0.151296258 0.241745755 0.161163986
0.155344248 0.249842018 0.167235985
0.155723751 0.255407989 0.164705992
0.162302166 0.256673157 0.162429154
0.173687547 0.260847688 0.174952716
0.178621247 0.257811308 0.171030983
0.186717004 0.256799310 0.172549188
0.197216690 0.253763705 0.173434511
0.207843095 0.258697242 0.174952403
0.221252263 0.259456009 0.180518478
0.234281868 0.260215104 0.180392265
0.251486510 0.263250977 0.188487992
0.262871891 0.266286910 0.188487992
0.278052211 0.269323289 0.188741028
0.291966975 0.271094501 0.191777408
0.305250049 0.274256766 0.197216988
0.324984223 0.281847000 0.201771185
0.345097959 0.284756243 0.206072256
0.364958733 0.286400974 0.207716972
0.383428276 0.292219996 0.216318637
0.401644260 0.294497013 0.219733983
0.423782259 0.297406852 0.223655999
0.446173221 0.300569236 0.227830499
0.471599907 0.306641281 0.235041171
0.500948548 0.317267239 0.246173292
0.529664576 0.326628238 0.253889978
0.559140086 0.336116076 0.262871712
0.597090662 0.348260403 0.275015712
0.632637382 0.361290485 0.283112258
0.670082092 0.375964463 0.295256227
0.712713182 0.387982219 0.309044957
0.752941012 0.406198263 0.327640712
0.163060993 0.266793638 0.175964639
0.167994633 0.271726996 0.180897996
0.170904279 0.275648534 0.181783646
0.173307806 0.278684169 0.177229509
0.177103087 0.281340986 0.180265889
0.186211273 0.279063702 0.183301702
0.194180965 0.278557628 0.186337665
0.205565691 0.279190361 0.186717346
0.214674085 0.277672559 0.183681533
0.229095504 0.283365011 0.192409799
0.241365999 0.285894990 0.191018522
0.257558495 0.286780357 0.193801373
0.274636626 0.289816290 0.201770633
0.289563984 0.292852670 0.201770633
0.303858191 0.295889050 0.203921407
0.321188956 0.298924834 0.210499629
0.334092617 0.302340269 0.213915184
0.352941185 0.307147264 0.216318995
0.371663302 0.307147264 0.216319010
0.392156720 0.312713265 0.224667937
0.412650257 0.317267269 0.230360284
0.432890266 0.319291264 0.232384279
0.457052469 0.322707146 0.238456979
0.480328649 0.329791278 0.244528994
0.510309815 0.339278907 0.255154997
0.540670335 0.349778265 0.263377666
0.571537197 0.355850279 0.269955695
0.607337475 0.369133055 0.281467259
0.644908249 0.383934289 0.291714013
0.686020970 0.397217244 0.303605586
0.725869417 0.411132246 0.319291592
0.762049258 0.429348290 0.343579620
0.169639051 0.288045973 0.185325995
0.172675386 0.291840672 0.189373687
0.175458729 0.294370770 0.190891773
0.180772021 0.297406882 0.193421900
0.186464503 0.299810022 0.189626545
0.195572123 0.299810022 0.192662939
0.202150643 0.300316006 0.196457714
0.212903321 0.301201701 0.197343037
0.226312086 0.304490954 0.198355153
0.235420495 0.307526559 0.204427928
0.247691035 0.313219070 0.204934001
0.263630509 0.315496027 0.206704780
0.280961603 0.316887707 0.211132050
0.296395004 0.319671065 0.216698050
0.308539003 0.322707444 0.216698050
0.329538047 0.325490266 0.223655835
0.348766387 0.329032183 0.228716031
0.362302542 0.331689030 0.228968993
0.383554995 0.331689030 0.228969008
0.407337070 0.336749047 0.237318352
0.431625515 0.343074054 0.244528994
0.455914021 0.349146038 0.250095010
0.480328500 0.355218053 0.256293505
0.501833975 0.364199936 0.262492031
0.531688809 0.373561293 0.272359073
0.563693941 0.382922322 0.281087697
0.594560146 0.391777068 0.284883082
0.627957284 0.397849053 0.293991417
0.665907741 0.413535655 0.307906181
0.707906067 0.429981172 0.325110435
0.750410795 0.446300000 0.344591975
0.783807993 0.464516044 0.368880033
0.181783825 0.309297562 0.197469994
0.184819445 0.321442336 0.212650374
0.185704991 0.320936054 0.203795046
0.193927899 0.321695149 0.207590163
0.207337409 0.323972255 0.219228268
0.207716897 0.321062386 0.204806939
0.214294821 0.326122373 0.215432987
0.223655984 0.324351400 0.215812400
0.234914407 0.323212981 0.212523401
0.241492495 0.328778893 0.213535532
0.256419867 0.331815243 0.216698438
0.270967662 0.335483551 0.217077985
0.287918985 0.339025676 0.221126050
0.305502653 0.343959808 0.228842825
0.323719412 0.343959808 0.228842825
0.338267207 0.344592392 0.233649820
0.359898806 0.349778622 0.240354404
0.379759520 0.356356561 0.244528830
0.395698994 0.359013408 0.247184977
0.416951388 0.359013408 0.255534321
0.440733880 0.365971148 0.262744963
0.465022385 0.373434812 0.266792983
0.489436865 0.379506797 0.268437505
0.516761303 0.385578781 0.277545899
0.542820692 0.396837384 0.281467706
0.572801828 0.408348948 0.290575802
0.603668511 0.419354469 0.299810410
0.637064874 0.428209811 0.306135416
0.667805195 0.434281796 0.315243810
0.701834142 0.448197156 0.332700998
0.739531815 0.465148568 0.352435380
0.777736008 0.485768378 0.371916413
0.201138794 0.340164393 0.216824785
0.194560423 0.342694551 0.212776572
0.204047799 0.348387033 0.221505180
0.207589775 0.347121775 0.215686157
0.218975186 0.348260552 0.227071449
0.218975186 0.345224649 0.219987065
0.224035800 0.349778593 0.220366806
0.233396798 0.352561593 0.227577522
0.245540798 0.350284517 0.226818591
0.254901797 0.354711801 0.230107591
0.264895648 0.355470836 0.228209853
0.280076027 0.356482983 0.233269989
0.295256168 0.359139413 0.234028980
0.311954021 0.363694012 0.238583192
0.328020006 0.365844786 0.238583192
0.348639995 0.370651782 0.243390173
0.365338594 0.372169584 0.250980377
0.387223363 0.379506350 0.257937968
0.405945778 0.386084765 0.262744844
0.426692188 0.388741583 0.266540140
0.449841797 0.392536581 0.273750782
0.473118335 0.400126785 0.279822797
0.496267974 0.406072259 0.282858789
0.525869668 0.409866989 0.289689898
0.553194046 0.420493543 0.294244289
0.581910074 0.432637542 0.301454961
0.613282919 0.444275647 0.314105064
0.648577034 0.453384012 0.325869769
0.681720436 0.457431763 0.332194805
0.719165146 0.474130154 0.350158364
0.753573596 0.492979169 0.367615759
0.788488209 0.514231563 0.379759789
0.214800999 0.367489189 0.232005194
0.208728597 0.369006991 0.232004777
0.213156193 0.369639426 0.232131362
0.220240191 0.372675359 0.231878221
0.226185739 0.373687387 0.233522996
0.229601383 0.374067098 0.231625244
0.237697631 0.374066979 0.233649507
0.244022980 0.378368199 0.233649522
0.256166995 0.377609104 0.236685902
0.268310964 0.379126698 0.241998985
0.280581832 0.380771399 0.243896320
0.290702224 0.383807391 0.243896201
0.305882633 0.383807391 0.249968186
0.321062416 0.386464208 0.250980228
0.336242795 0.389500618 0.252245396
0.356230170 0.396458000 0.260088384
0.377482563 0.401012182 0.261606157
0.395699143 0.403415382 0.268816978
0.416065991 0.409867167 0.273117989
0.435800195 0.414927363 0.277925551
0.458950162 0.421379179 0.282859176
0.483238161 0.427451193 0.288931191
0.505249500 0.433523178 0.295003176
0.534219027 0.437950462 0.301075190
0.562302470 0.447817564 0.306388259
0.588235140 0.457179338 0.310815990
0.620872974 0.468058378 0.324225068
0.660341859 0.476154625 0.341429412
0.689563572 0.486021340 0.345603973
0.725237131 0.493864357 0.359266371
0.764199972 0.519038558 0.380898386
0.794560194 0.541555941 0.388867795
0.223402977 0.390006542 0.243643552
0.219734162 0.394939721 0.249588758
0.224667758 0.395192713 0.255028337
0.230613559 0.395825297 0.253637016
0.231752113 0.399241120 0.245667145
0.240860492 0.405313134 0.245667145
0.251233578 0.403794795 0.247564897
0.260720968 0.404047817 0.249209434
0.268311143 0.406198621 0.247058660
0.280455142 0.403162211 0.250095069
0.295508832 0.405945390 0.256040573
0.307273805 0.409740537 0.257431984
0.318659186 0.414168119 0.260341555
0.333839536 0.414421082 0.265907556
0.349019825 0.417457402 0.268564403
0.369007170 0.424035341 0.278178573
0.389627159 0.430739731 0.283997387
0.409614533 0.433776140 0.282226145
0.427830607 0.433776140 0.282226145
0.446679175 0.438709557 0.287160128
0.467425466 0.446046710 0.292599976
0.491081566 0.453510553 0.298039377
0.515622556 0.459582537 0.304111421
0.543453693 0.465654552 0.310183585
0.570145667 0.476280540 0.317520559
0.597976089 0.486274332 0.324857533
0.624288142 0.493358970 0.331941545
0.669449687 0.499683976 0.352814406
0.697659552 0.513092816 0.358001143
0.727766931 0.525363326 0.367994964
0.763061166 0.537254691 0.386591107
0.793421984 0.564579129 0.401770711
0.241619021 0.417331010 0.264896005
0.235547036 0.429474980 0.258823991
0.238329992 0.430107772 0.262618959
0.243390203 0.428589970 0.263377994
0.246932551 0.429601997 0.257811964
0.256040931 0.435673952 0.257811964
0.262619019 0.434155643 0.257811964
0.270841271 0.434408695 0.261353999
0.280455232 0.436685979 0.265148968
0.292599946 0.436559469 0.265275478
0.307653099 0.439342082 0.271220982
0.320809543 0.440354019 0.271220744
0.333839655 0.441998661 0.272991687
0.349019974 0.444781959 0.281087995
0.364199579 0.447817564 0.281087995
0.384186864 0.450853854 0.288551837
0.403921455 0.455913991 0.294876784
0.421758592 0.461100608 0.297406584
0.436939001 0.464136988 0.300442964
0.457938373 0.466919631 0.303225607
0.477039963 0.472106010 0.306514800
0.496774137 0.477419198 0.309803903
0.518659055 0.480835021 0.313219070
0.549019873 0.486907035 0.319291890
0.574573100 0.497533023 0.329918027
0.603289068 0.508285701 0.341556013
0.636432946 0.517647088 0.353193998
0.672864854 0.529791057 0.365337998
0.704743683 0.541429698 0.378241688
0.734598398 0.553826928 0.391145140
0.766350627 0.566603541 0.408349574
0.799494088 0.582795978 0.429095954
0.254269719 0.464136750 0.277799010
0.259329736 0.462365359 0.277293026
0.259708941 0.468058139 0.277672797
0.262618393 0.467552394 0.280582368
0.264516026 0.467552394 0.278684825
0.271220595 0.468817383 0.281088024
0.282859296 0.469829381 0.283618331
0.291081667 0.470335454 0.283871353
0.300948590 0.474130750 0.287666380
0.313093334 0.478178740 0.291714370
0.328146517 0.481087863 0.291967392
0.345350891 0.480076015 0.298039377
0.357875019 0.481594086 0.298418730
0.369766355 0.486274689 0.302340388
0.384945929 0.489310324 0.307400376
0.409740776 0.489942759 0.312207371
0.428715855 0.494117379 0.317900211
0.445034593 0.499556959 0.320303738
0.460215032 0.502593398 0.321189374
0.480961412 0.505629718 0.324225008
0.504111469 0.514358044 0.334851116
0.525110841 0.521188974 0.341429502
0.546616256 0.524351418 0.344718546
0.574320197 0.530424058 0.353446841
0.606957674 0.541050076 0.364073604
0.636938334 0.550411105 0.374826044
0.668311059 0.558127820 0.384566486
0.693358302 0.567995071 0.392157078
0.724477947 0.580139101 0.406957239
0.758380711 0.594054580 0.420999169
0.791650951 0.606325328 0.439721555
0.825047374 0.617710710 0.464769006
0.274003983 0.501328468 0.291840732
0.264896005 0.503984809 0.299430728
0.282099962 0.505249500 0.307273746
0.281340718 0.505755901 0.296394974
0.281214267 0.505502880 0.291967452
0.288804471 0.507020712 0.301075071
0.298038870 0.505123436 0.296521306
0.306894660 0.508412480 0.301201969
0.318026483 0.510942698 0.303985089
0.332447946 0.514737725 0.311195731
0.345603853 0.514104843 0.313345999
0.362808228 0.518785238 0.317393988
0.378747731 0.518026590 0.321188986
0.389121026 0.523086727 0.321188986
0.404301018 0.526122808 0.323971987
0.421505392 0.528652489 0.330044001
0.447311997 0.531688452 0.336116374
0.464262873 0.537760437 0.339532137
0.480708480 0.542061687 0.340797007
0.501454890 0.545098066 0.345477372
0.524604499 0.550031722 0.350410730
0.548893213 0.559139848 0.363567114
0.571157694 0.562302232 0.368500978
0.596710861 0.568374515 0.375837833
0.622897029 0.571410716 0.385325581
