Assets/Resources/EldamarStudio/100 Horror LUTs Pack/LUTs/cube/Thutul LUT.cube
LUT_3D_SIZE 8
DOMAIN_MIN 0.000000 0.000000 0.000000
DOMAIN_MAX 0.903226 0.903226 0.903226
0.184313998 0.054901998 0.082353003
0.198355094 0.070967548 0.091334544
0.244529098 0.077672102 0.101201907
0.307653636 0.094749995 0.090195999
0.390133202 0.138519987 0.098671801
0.514990747 0.184060991 0.111701258
0.681214273 0.210120291 0.116002284
0.877798557 0.220998988 0.135989830
0.165085450 0.124225549 0.095762007
0.196078002 0.124604993 0.092599906
0.241492897 0.138266638 0.088678002
0.299051344 0.157115549 0.090955094
0.383175194 0.190765351 0.099936642
0.507020712 0.226818725 0.110056542
0.679569542 0.253636539 0.116508260
0.873118579 0.261100978 0.142188445
0.165591002 0.216192096 0.101201907
0.176850349 0.224541545 0.101961002
0.225933000 0.219354987 0.099556997
0.272739083 0.243643194 0.096394897
0.369766086 0.275775015 0.105123095
0.507020712 0.310942084 0.118026547
0.683491528 0.336243093 0.120809905
0.881973565 0.342820913 0.143073872
0.113599360 0.322327644 0.107020639
0.141429827 0.328652740 0.110942349
0.199367821 0.328905344 0.120430358
0.247185647 0.341935635 0.109803997
0.354712367 0.376723468 0.110183448
0.504490793 0.412397116 0.107527003
0.689183891 0.432763934 0.113219351
0.886148036 0.445414454 0.139025822
0.002403808 0.469196379 0.106768005
0.005186551 0.475901634 0.116002366
0.113978624 0.475522190 0.111321799
0.230360180 0.480075985 0.109550647
0.346110195 0.486401170 0.104364194
0.512207389 0.525236905 0.098925002
0.710183442 0.548513353 0.102719903
0.897153556 0.555218041 0.126755163
0.000000000 0.636432707 0.092346743
0.000379548 0.642378449 0.086148262
0.000759104 0.642504692 0.072612263
0.210626006 0.644275725 0.086021453
0.384566724 0.649715006 0.077546261
0.545857191 0.656040728 0.084503271
0.738140523 0.670334995 0.099936545
0.917646825 0.683617711 0.138772801
0.006198708 0.795319557 0.085895278
0.004174544 0.801138699 0.089816548
0.001518014 0.803668499 0.089690179
0.249209538 0.808349252 0.097533353
0.445161551 0.801518261 0.095382988
0.616571903 0.803542018 0.096014984
0.778874159 0.804427505 0.101581275
0.941808760 0.799620450 0.161669627
0.001265167 0.948260427 0.205818594
0.071220756 0.948387027 0.210879326
0.224414527 0.946742415 0.208348915
0.386211216 0.951169968 0.209487557
0.542188525 0.944591820 0.220113605
0.691587329 0.949525595 0.229348600
0.851106644 0.944592059 0.248703286
0.982162774 0.939025760 0.263504237
0.182416454 0.082353003 0.127767086
0.199620456 0.067425996 0.123845994
0.237571090 0.092473000 0.132827446
0.285641640 0.121062644 0.142694101
0.357242376 0.153953359 0.150031537
0.492978901 0.188488454 0.166097105
0.668690860 0.214421257 0.172296092
0.862492144 0.223528996 0.183428094
0.180391997 0.120683096 0.120683096
0.192916006 0.121062540 0.128146544
0.219481185 0.141429543 0.136369094
0.277546078 0.164579198 0.149272546
0.362049401 0.190006539 0.155597538
0.487919182 0.227198169 0.166097105
0.661859393 0.251106858 0.175079018
0.865275204 0.258823723 0.185831994
0.165464908 0.206831098 0.137128085
0.187476009 0.209614545 0.150158450
0.212524012 0.210753009 0.146236449
0.262112647 0.238583535 0.148513556
0.351676166 0.268311530 0.155218095
0.489690006 0.301075339 0.162175998
0.673244774 0.333459824 0.170398444
0.871979892 0.339278996 0.186717227
0.126249269 0.310057282 0.152055904
0.143832907 0.316382170 0.156862915
0.184693351 0.316002637 0.155597642
0.251613110 0.327007830 0.152435452
0.346995294 0.365718186 0.155977190
0.489690006 0.403794825 0.158507198
0.681467295 0.430486917 0.166603461
0.879696369 0.440733910 0.182289541
0.004301451 0.461353362 0.149525553
0.000379548 0.460468352 0.151929364
0.113978729 0.462492019 0.152941197
0.226439089 0.467172712 0.150411099
0.330423534 0.479696542 0.146742806
0.501328170 0.515749812 0.149019808
0.701075137 0.542947233 0.157621905
0.897786081 0.558001101 0.187982380
0.002403808 0.624035656 0.134471729
0.000379548 0.632384717 0.140670359
0.001897555 0.628463030 0.138772994
0.202909529 0.633143723 0.146363169
0.375964612 0.640733659 0.135610089
0.537507772 0.648197234 0.140417099
0.728399754 0.663251042 0.153953359
0.916255474 0.678431571 0.187349811
0.005692737 0.791271329 0.141556084
0.002024260 0.793042064 0.145730287
0.004933749 0.791018248 0.143580019
0.240227744 0.797090173 0.144592270
0.435420692 0.795445979 0.143579826
0.609108031 0.794433832 0.150663927
0.776976466 0.799873531 0.156609997
0.935357392 0.797343731 0.203036234
0.002530012 0.939532042 0.241619155
0.058950212 0.944592059 0.232384875
0.218595698 0.941556096 0.235167533
0.387096852 0.942947209 0.238583058
0.533839166 0.947248340 0.247564808
0.694876790 0.942441463 0.261479884
0.842251956 0.942947447 0.274383157
0.980012298 0.936749041 0.291334301
0.173308089 0.081593908 0.206072196
0.194054455 0.072865091 0.197470099
0.232890993 0.099556997 0.197596207
0.280202538 0.124984354 0.209234998
0.351802409 0.160657898 0.224920899
0.480455637 0.186211258 0.233902737
0.653763473 0.210878998 0.246679291
0.862112582 0.221885085 0.267552346
0.178114906 0.135989547 0.192409649
0.189373553 0.144212082 0.190512091
0.216824532 0.151676446 0.192789197
0.271221012 0.169260100 0.206072092
0.347501546 0.199114293 0.218975544
0.474130213 0.223782539 0.234282270
0.653763533 0.247311831 0.250853807
0.845920265 0.266919851 0.260594547
0.163946912 0.204554006 0.199114189
0.185578555 0.216319114 0.206958011
0.212523907 0.220999092 0.199873090
0.255154610 0.238583431 0.212776750
0.341555983 0.266413987 0.225679994
0.478431374 0.302466989 0.236559093
0.662998140 0.325996280 0.246805802
0.862238824 0.343326986 0.261100829
0.114358261 0.320050627 0.216824546
0.142947823 0.316887736 0.209614560
0.187096551 0.317267269 0.210373551
0.238583535 0.330170631 0.221505448
0.335990071 0.362302423 0.221758187
0.480581552 0.395951837 0.232257828
0.669323564 0.424541354 0.241239801
0.873624146 0.443390191 0.264516443
0.002277094 0.450348079 0.212271094
0.003162903 0.456673056 0.221632197
0.107020825 0.462112427 0.222517297
0.216571748 0.465654701 0.218975455
0.329664469 0.471600175 0.215559900
0.496268332 0.508286119 0.227957085
0.694370508 0.538266957 0.243770003
0.889816403 0.555850625 0.264389932
0.002024260 0.627830625 0.221631989
0.001897643 0.629095256 0.224920988
0.001138652 0.628083408 0.224667743
0.199241176 0.633270025 0.224161997
0.374699444 0.634914696 0.226565287
0.534598410 0.639468849 0.218596086
0.728399992 0.663630664 0.241998896
0.919923842 0.678810835 0.276786834
0.006325194 0.794307470 0.242125288
0.005819256 0.790892005 0.233396366
0.010626197 0.791271508 0.242757902
0.254142910 0.797469735 0.242757902
0.439595461 0.798355520 0.247311890
0.608854830 0.797596335 0.248956189
0.773561060 0.799114466 0.252245396
0.941935182 0.799241006 0.295509011
0.085009158 0.938899636 0.312333971
0.134471536 0.948387027 0.320683330
0.277166456 0.940796912 0.316128999
0.418216228 0.944591880 0.325237036
0.557621658 0.941555977 0.329285145
0.707020938 0.942567647 0.340164512
0.850474477 0.939911306 0.349778354
0.984187007 0.936369598 0.363820046
0.160784006 0.084629998 0.294876635
0.191397995 0.093611643 0.290575385
0.221505448 0.113219440 0.281593740
0.269576281 0.133965999 0.282479644
0.354965180 0.163440540 0.303225994
0.473497450 0.185072899 0.314104974
0.648197532 0.197849646 0.331309289
0.851865768 0.226059631 0.352434993
0.165085360 0.150031552 0.272991627
0.192662537 0.153447196 0.275268644
0.220366895 0.161796451 0.276533991
0.251865625 0.179886445 0.265021920
0.348260552 0.197343290 0.295383006
0.470841110 0.217836887 0.312080711
0.647311628 0.240986735 0.334851444
0.839721560 0.265781194 0.349145830
0.157874912 0.222391084 0.276154637
0.167108998 0.225173816 0.274130166
0.199873284 0.238583550 0.269829661
0.255154639 0.238456741 0.276913643
0.338267177 0.266666621 0.295762539
0.468943566 0.294623971 0.306514621
0.649209023 0.320430189 0.331309378
0.855787575 0.348639905 0.357115746
0.109045081 0.316128641 0.282479644
0.138014182 0.311575264 0.274130285
0.170271903 0.331688732 0.295383096
0.239342630 0.341429293 0.287033647
0.338772744 0.357874364 0.297660083
0.473497540 0.392789662 0.313092738
0.659455895 0.420999616 0.331815630
0.865528226 0.447564930 0.353573442
0.003162807 0.452751368 0.295509189
0.000759096 0.456166923 0.297660083
0.094496913 0.455028355 0.298798651
0.217077896 0.460847735 0.298924834
0.333838910 0.472991586 0.299937069
0.494244188 0.506388605 0.320935637
0.687666178 0.536116123 0.337254941
0.882100046 0.561290205 0.364452809
0.003794996 0.611258686 0.313852161
0.004807100 0.615812778 0.312586904
0.004807109 0.620619893 0.314104885
0.201897904 0.625047445 0.315369755
0.368374467 0.630107880 0.312586993
0.529664814 0.638330460 0.321821392
0.717646837 0.662745476 0.337507963
0.911448598 0.681594014 0.378241360
0.000000000 0.784313917 0.346995264
0.002277288 0.788108587 0.340543985
0.026565466 0.784693360 0.339911371
0.265148520 0.789247215 0.344844937
0.440607369 0.790006161 0.340417564
0.606198728 0.789247215 0.342567921
0.772675633 0.793168902 0.358886600
0.930929780 0.797216833 0.390132606
0.149398848 0.936369240 0.404048264
0.208728209 0.938646197 0.410246640
0.317394108 0.936116517 0.408096194
0.436812013 0.940164387 0.416572064
0.572295725 0.938646317 0.420746446
0.712966621 0.938899219 0.426312417
0.848829627 0.937254906 0.437064976
0.982289553 0.931815445 0.450474590
0.147501811 0.112839997 0.400379390
0.169765547 0.122201189 0.398481756
0.225806296 0.129285082 0.394054174
0.281973183 0.150917351 0.383554757
0.350917190 0.167741999 0.376850009
0.480328709 0.190132737 0.405313104
0.663124621 0.202277288 0.431625485
0.864769399 0.232890800 0.447312176
0.156356722 0.175585181 0.385452181
0.171410352 0.176344186 0.390512526
0.216951445 0.184946179 0.384060800
0.275901198 0.190006450 0.377229661
0.342567831 0.204553992 0.374066740
0.475648105 0.226944730 0.404554039
0.657179177 0.242251903 0.429727942
0.853257418 0.267805368 0.443770021
0.124984108 0.253889918 0.374573082
0.153067902 0.252371997 0.380518526
0.200632185 0.257811278 0.370525181
0.257431835 0.265654892 0.368248165
0.337508082 0.272612274 0.368121386
0.470841080 0.297280520 0.397090167
0.661479950 0.323466182 0.425300300
0.858696878 0.359392643 0.447817653
0.045414533 0.347501636 0.375331998
0.093105718 0.345856816 0.366603196
0.161669821 0.349778742 0.379759550
0.241239980 0.362681985 0.374699801
0.338266999 0.374825805 0.381151021
0.485009640 0.400253087 0.406957805
0.662618399 0.433523029 0.421505094
0.856672823 0.469323307 0.456546456
0.004807003 0.455028564 0.372928381
0.000000000 0.457052708 0.388235539
0.074003920 0.470082372 0.382289380
0.224288642 0.487539798 0.390006185
0.352182180 0.498165548 0.403415382
0.502213717 0.516634941 0.410120130
0.685009360 0.544465423 0.430107504
0.878937244 0.576217771 0.466034144
0.001518192 0.616824687 0.407337189
0.004807003 0.618722379 0.412017465
0.015939359 0.624667704 0.407337278
0.221125558 0.627830684 0.418722540
0.378367931 0.633523524 0.412523925
0.536369383 0.638330460 0.419734389
0.725743473 0.666287005 0.447691441
0.908412516 0.689816594 0.482732534
0.002403808 0.783301771 0.442378193
0.005692812 0.779127002 0.451107204
0.091334477 0.783428431 0.441492736
0.288678139 0.786211193 0.440986782
0.455154747 0.788867652 0.451106995
0.613155961 0.787349820 0.451865882
0.767235637 0.790385842 0.457305491
0.934345365 0.807336986 0.496900707
0.253889620 0.930803239 0.515496314
0.285515368 0.932447672 0.510689139
0.364199847 0.934471548 0.511068702
0.472232580 0.939784944 0.515875936
0.591903925 0.938772857 0.522201359
0.724731028 0.937760592 0.529664755
0.854142904 0.935230851 0.528146684
0.979506195 0.933586240 0.539405167
0.118153013 0.142947733 0.524731457
0.160404742 0.148386925 0.520303905
0.219101846 0.160151735 0.524731457
0.302340358 0.169639647 0.514863729
0.392283380 0.188108996 0.511827707
0.498924702 0.195951998 0.504996479
0.672991753 0.209993690 0.522959769
0.871979833 0.239974707 0.545983434
0.113219462 0.196078733 0.507779717
0.141303003 0.198608547 0.514863908
0.220493108 0.202024087 0.517267704
0.295762330 0.209867075 0.511827826
0.385199398 0.219734341 0.498798370
0.496521026 0.232763991 0.501201451
0.669955730 0.246047005 0.518026531
0.863756955 0.279569983 0.542567909
0.046426445 0.284250468 0.502719462
0.103478648 0.280708551 0.511068702
0.188868001 0.282352746 0.496647805
0.279569983 0.289690167 0.498798460
0.380139112 0.298039436 0.495382756
0.492599815 0.305503100 0.500948608
0.675142229 0.327387393 0.521315575
0.872738838 0.371790051 0.548513651
0.001138644 0.379759461 0.499810249
0.009614006 0.385705113 0.492346555
0.135483995 0.383681297 0.493611932
0.252372026 0.387982041 0.493991345
0.372928739 0.392662913 0.498039275
0.493232191 0.405313015 0.488930941
0.672232509 0.434535295 0.519165099
0.869449437 0.481340826 0.551423132
0.000758999 0.494750172 0.498418748
0.002024260 0.501581013 0.498039275
0.037697818 0.502340019 0.491840482
0.237570912 0.506641269 0.496900916
0.374952376 0.518785596 0.506008983
0.521568656 0.529791117 0.513725281
0.699683726 0.559139729 0.536875010
0.876280606 0.598355353 0.571410537
0.001897740 0.620746195 0.507020712
0.005060257 0.628842652 0.507273436
0.026818275 0.633143783 0.505123436
0.239342004 0.640227735 0.518026650
0.423276544 0.655661166 0.531815469
0.567362428 0.661859453 0.532447517
0.730423510 0.678431511 0.549399018
0.908918440 0.705376267 0.589626551
0.000758999 0.782163322 0.547375143
0.055407818 0.783681095 0.549905002
0.197975919 0.784946442 0.549398899
0.359645545 0.781530559 0.555218339
0.487792283 0.790385842 0.560025454
0.621252418 0.791651070 0.558886707
0.769133389 0.796457589 0.563061297
0.931436002 0.813662291 0.606577992
0.383681029 0.930423677 0.628083527
0.413661838 0.929285228 0.622390687
0.467172503 0.925996065 0.634029090
0.533839405 0.932321429 0.630613506
0.608475506 0.934345365 0.623402953
0.727893591 0.935104489 0.630993128
0.854269505 0.937001705 0.634914577
0.973054588 0.936622441 0.649335802
0.009867013 0.183301702 0.679569542
0.086021572 0.187855691 0.677545547
0.199367613 0.191903800 0.676660478
0.315622985 0.197343573 0.671600223
0.437571198 0.207590193 0.667931855
0.573434532 0.210752696 0.657558799
0.721062779 0.213029996 0.665528238
0.887539446 0.246932417 0.659076393
0.003289004 0.229095832 0.667931557
0.060721256 0.233902544 0.672991514
0.185452357 0.232764274 0.671726823
0.311068982 0.240733728 0.674003839
0.432131380 0.249588534 0.665275276
0.572043002 0.255787730 0.659076571
0.721568823 0.254143029 0.654648542
0.884123862 0.285895258 0.653257072
0.000000000 0.314737380 0.662618756
0.001644712 0.316002429 0.666413665
0.163061306 0.320430011 0.664136767
0.296521544 0.329285026 0.658191085
0.427324533 0.332827210 0.659329534
0.563567281 0.337887347 0.652877808
0.719165146 0.340670198 0.656925917
0.880961418 0.381277561 0.654649019
0.000000000 0.429980993 0.653130829
0.005945551 0.430360615 0.656799436
0.110436291 0.430866718 0.655913949
0.280328989 0.434535295 0.650980234
0.423023403 0.442757845 0.653130531
0.565085351 0.447185457 0.646805704
0.716635168 0.447944552 0.643643498
0.884756386 0.488171875 0.665907562
0.005439805 0.550537467 0.654395580
0.004933640 0.552941263 0.652371824
0.078178465 0.556103528 0.646679342
0.271473885 0.560531139 0.652624846
0.424794436 0.557621539 0.649209261
0.572042882 0.560025156 0.650094807
0.726375520 0.568627477 0.650853574
0.889816403 0.601518095 0.676154375
0.003794996 0.673624277 0.657179236
0.002277191 0.676407158 0.655534267
0.099051014 0.679317117 0.649968266
0.306641191 0.676786721 0.656546175
0.461100370 0.684630156 0.662365556
0.598608732 0.682732463 0.657305300
0.754838705 0.692852795 0.665275335
0.911954045 0.724098861 0.699304461
0.001644712 0.786464334 0.663883567
0.062871657 0.790512323 0.657431841
0.221758306 0.782542825 0.660341263
0.370904475 0.793168902 0.659329593
0.519671381 0.792030573 0.667299509
0.661227226 0.805059791 0.687286735
0.792283237 0.807083964 0.692346275
0.932194889 0.823150098 0.725237072
0.402403176 0.929285049 0.721062660
0.432004780 0.928905487 0.724224806
0.478431195 0.930423677 0.728779197
0.564958453 0.928778946 0.728146732
0.664389491 0.930044115 0.743326604
0.756356537 0.934092343 0.751423061
0.856040239 0.932827175 0.755091310
0.965211570 0.936749041 0.766729712
0.001265167 0.242124781 0.847691417
0.000000000 0.244402081 0.855534434
0.119671255 0.249335900 0.858317614
0.298165441 0.257558435 0.854395807
0.456293732 0.268310964 0.848829746
0.618089676 0.278051883 0.846426547
0.786843479 0.284629911 0.844781816
0.943200409 0.291966766 0.834534764
0.004554179 0.282352924 0.849082708
0.001265167 0.288551331 0.854395747
0.101075508 0.291208357 0.845793724
0.295382619 0.300821900 0.846173227
0.453636914 0.308285832 0.844149292
0.615939081 0.317267478 0.844022751
0.781277835 0.325743079 0.837318420
0.943579853 0.332321316 0.838203728
0.001897736 0.377229750 0.843010843
0.000000000 0.385958165 0.846679330
0.095003232 0.388235182 0.840607345
0.301707923 0.387729108 0.842631400
0.460721195 0.395319253 0.841366231
0.624288499 0.405059993 0.841113567
0.783681273 0.408222735 0.838962615
0.943832636 0.416318744 0.831878424
0.002783356 0.495256424 0.836938560
0.002276998 0.503352165 0.840607166
0.132827520 0.498671442 0.841366112
0.324225008 0.509804070 0.838583291
0.476660460 0.511068881 0.836812019
0.632257998 0.514231324 0.833902478
0.788108885 0.518658876 0.834155500
0.938013554 0.519038439 0.830360472
0.004807003 0.614041924 0.832131565
0.033017002 0.619354665 0.837191582
0.215053812 0.622137845 0.837318063
0.362428665 0.622517288 0.838456810
0.502213657 0.625933170 0.836558878
0.647944629 0.626818180 0.835420668
0.796457946 0.625173867 0.835926473
0.946362972 0.626438618 0.830486953
0.096900821 0.729158640 0.843643427
0.161669880 0.729917765 0.838582873
0.292472869 0.732700765 0.840607345
0.412523776 0.736116290 0.835420489
0.545983434 0.737760723 0.837191582
0.674509466 0.737001598 0.840986609
0.809867322 0.736242533 0.841998756
0.939784706 0.739405453 0.838962317
0.248703152 0.841239512 0.839595139
0.291460901 0.841492832 0.845034719
0.368500799 0.837697983 0.843643367
0.476913273 0.835800350 0.842884183
0.591144800 0.834787965 0.844275594
0.710689485 0.836685538 0.844402313
0.826565087 0.835420668 0.850347579
0.951929033 0.841872334 0.852245450
0.407716155 0.942947447 0.851612747
0.435420454 0.939784765 0.860088408
0.489816666 0.937887669 0.865148544
0.568627596 0.941555798 0.851106524
0.666666567 0.939025760 0.852751374
0.771157384 0.937760651 0.858949661
0.864895642 0.939025760 0.875774682
0.957241833 0.945477724 0.900063396
