Assets/Resources/EldamarStudio/100 Horror LUTs Pack/LUTs/cube/Thutul LUT.cube
DOMAIN_MIN 0 0 0
DOMAIN_MAX 1 1 1
LUT_3D_SIZE 32
0.184313998 0.054901998 0.082353003
0.184313998 0.060973998 0.082353003
0.184313998 0.067046002 0.084503770
0.188108832 0.070588000 0.087539837
0.198355094 0.070967548 0.091334544
0.216571867 0.074003935 0.100442939
0.219607994 0.074510001 0.101961002
0.227830693 0.076154292 0.101961002
0.244529098 0.077672102 0.101201907
0.265781492 0.074636489 0.098165520
0.275395125 0.083238870 0.098039001
0.290575504 0.088298738 0.093991004
0.307653636 0.094749995 0.090195999
0.323087007 0.106894061 0.090449028
0.341302961 0.119038828 0.093485415
0.364326596 0.126375988 0.094117999
0.390133202 0.138519987 0.098671801
0.418089956 0.154838577 0.105881996
0.448450029 0.163946986 0.105882004
0.481594086 0.173055366 0.108665355
0.514990747 0.184060991 0.111701258
0.552435100 0.195193127 0.113724999
0.597722471 0.204048485 0.113724999
0.637191713 0.207084104 0.113724999
0.681214273 0.210120291 0.116002284
0.728146255 0.211765006 0.120429985
0.777229190 0.212270945 0.126501992
0.828842282 0.215306535 0.132573992
0.877798557 0.220998988 0.135989830
0.924604535 0.225300208 0.140796974
0.966603577 0.225680009 0.148639977
1.000000000 0.219607994 0.160784006
0.175205603 0.064010382 0.085389383
0.181277603 0.064010389 0.085389383
0.187729374 0.067931615 0.087539613
0.192915991 0.073118001 0.091840610
0.200252950 0.077419095 0.096267998
0.210499883 0.083112314 0.097406551
0.218595996 0.088678390 0.109044611
0.227830693 0.092979386 0.102846332
0.241492897 0.095129780 0.095889002
0.253636718 0.089816876 0.095129907
0.271979988 0.095509388 0.092093520
0.287539363 0.104490735 0.089943260
0.304617256 0.110689282 0.087160386
0.320809633 0.118532769 0.087666385
0.347374976 0.125110820 0.093485415
0.363187790 0.137254998 0.096521191
0.385578990 0.149146184 0.095635809
0.412017971 0.163946971 0.098039374
0.442378044 0.173055366 0.102846391
0.481088102 0.182163045 0.102846391
0.516887963 0.189373612 0.107526988
0.553447008 0.198228747 0.112713389
0.594939828 0.207337126 0.117140889
0.640227318 0.216192484 0.125869766
0.684250474 0.219228089 0.123592488
0.728399694 0.222264290 0.123718992
0.773687482 0.223908991 0.125489995
0.822770298 0.224414930 0.126501992
0.871726632 0.230107382 0.137886971
0.923845291 0.230866626 0.143833056
0.968753815 0.230487391 0.151676372
1.000000000 0.228716388 0.163820401
0.163947001 0.081720769 0.090576001
0.178620994 0.083871000 0.086274996
0.184692994 0.077419773 0.084124230
0.196331382 0.082985386 0.087160163
0.204680547 0.089563325 0.091967225
0.210246935 0.093864866 0.093737997
0.218975216 0.099936999 0.097406775
0.229980916 0.104364291 0.102972776
0.243643314 0.109171323 0.094117999
0.252751291 0.107274003 0.094117992
0.268437743 0.112839997 0.089057900
0.284630239 0.116888255 0.086021513
0.300442755 0.124604546 0.085262865
0.315117031 0.130930036 0.086780995
0.338646412 0.138899773 0.092852995
0.364958793 0.149778768 0.098671965
0.387729377 0.158886775 0.100189775
0.413282961 0.171536982 0.098419003
0.440607041 0.182163209 0.101455010
0.479317099 0.193422198 0.106261998
0.516887963 0.200632542 0.110056996
0.553320289 0.206704542 0.114105001
0.592030227 0.214674279 0.118026502
0.639594913 0.223782673 0.127134904
0.685135841 0.228336468 0.129285485
0.730676591 0.231372446 0.126249105
0.775458455 0.234408706 0.127008066
0.825679839 0.236053005 0.131941766
0.878557563 0.234914765 0.136115968
0.925363541 0.240986750 0.142947212
0.970904350 0.239975005 0.151296824
1.000000000 0.239975005 0.164706007
0.159392998 0.102973156 0.095382839
0.173814163 0.103478774 0.089310840
0.184692994 0.102972932 0.086654224
0.190764993 0.097660162 0.086148165
0.204806939 0.106767774 0.088045999
0.208728954 0.111574933 0.088425219
0.219354674 0.114610992 0.095256321
0.230486855 0.117773443 0.092852838
0.244149059 0.123845249 0.091334842
0.253257334 0.128905654 0.090322837
0.268184692 0.131056324 0.085768677
0.284630239 0.135104254 0.086780742
0.299810350 0.139278993 0.086021647
0.312839866 0.145604029 0.089057967
0.334092230 0.154712409 0.094117835
0.358886778 0.164959148 0.097659834
0.383934230 0.175331995 0.101961002
0.414294988 0.181404144 0.101961002
0.439848214 0.192283332 0.101961009
0.475521952 0.204427719 0.106261842
0.514357984 0.214042157 0.112333834
0.552814305 0.220114157 0.116381839
0.590005994 0.226312622 0.116508350
0.636305809 0.235420734 0.123339742
0.683870673 0.238709703 0.124351673
0.730676591 0.243010834 0.128020316
0.776723266 0.245541155 0.127008066
0.827577412 0.247817859 0.136116445
0.879316747 0.246805996 0.141176328
0.931182384 0.246553138 0.144212380
0.971410394 0.253510535 0.150790527
0.998734832 0.254649013 0.165970847
0.165085450 0.124225549 0.095762007
0.174193844 0.121948160 0.091208003
0.182163224 0.122833773 0.089437000
0.190005988 0.124605000 0.090702161
0.196078002 0.124604993 0.092599906
0.202150777 0.133712605 0.086527899
0.216571674 0.135989547 0.095636003
0.228968859 0.135989547 0.097027294
0.241492897 0.138266638 0.088678002
0.250600517 0.153447047 0.082606003
0.264768869 0.152688429 0.080202229
0.282732517 0.152941287 0.084503256
0.299051344 0.157115549 0.090955094
0.314990044 0.163693547 0.093991481
0.336368948 0.172928408 0.097027130
0.359645575 0.182036802 0.098797999
0.383175194 0.190765351 0.099936642
0.406325132 0.199999705 0.102340452
0.436685950 0.206072509 0.102340460
0.469449818 0.217331007 0.105123192
0.507020712 0.226818725 0.110056542
0.547121823 0.235673994 0.114104547
0.589753032 0.241745993 0.113978036
0.632510781 0.250600636 0.116508357
0.679569542 0.253636539 0.116508260
0.727766812 0.256040335 0.118279204
0.777102709 0.261100978 0.127387524
0.825680196 0.261100978 0.136495903
0.873118579 0.261100978 0.142188445
0.923466086 0.261100978 0.146489665
0.969133139 0.262239367 0.152688354
0.996457577 0.271347016 0.167867988
0.168121055 0.145477936 0.077546000
0.177229449 0.148513541 0.083618000
0.179886058 0.148386940 0.083365001
0.183933988 0.148892999 0.084630162
0.190006003 0.148892999 0.086527899
0.196078002 0.148892999 0.080455132
0.214800447 0.155470937 0.089563772
0.225173712 0.157241940 0.093485296
0.233523056 0.158001035 0.088678002
0.250600517 0.162555426 0.082606003
0.259708852 0.171916798 0.085262865
0.279949486 0.170904666 0.087286606
0.297533333 0.172295928 0.090195999
0.308918059 0.178873926 0.090955094
0.333206803 0.191017926 0.093991481
0.354585707 0.200252801 0.101834126
0.379380196 0.207842991 0.104869999
0.406325132 0.215686068 0.105376065
0.436685950 0.227324888 0.105376072
0.467045993 0.236179590 0.108159423
0.505502522 0.241998732 0.113092929
0.546489358 0.249082983 0.117140934
0.586717367 0.259961993 0.117014423
0.632257819 0.266034007 0.113978028
0.679569542 0.272611946 0.121062346
0.726754963 0.276280612 0.125363603
0.774320066 0.279317021 0.130423874
0.828715861 0.279317021 0.139531508
0.869323492 0.279317021 0.140670061
0.917394102 0.279317021 0.143453270
0.964579225 0.278431416 0.149146035
0.999493957 0.277419001 0.161796004
0.168626994 0.171790317 0.082100317
0.172675386 0.174825937 0.085641995
0.177482769 0.177862093 0.089563772
0.181657150 0.176976472 0.087413318
0.188994005 0.175711319 0.086654447
0.195066005 0.175711319 0.087033451
0.203668326 0.178241640 0.088551641
0.221631706 0.179379925 0.092473291
0.230487004 0.181530505 0.091713995
0.245160997 0.189880133 0.092725992
0.257179171 0.191145197 0.087792546
0.272359312 0.194181323 0.092852674
0.294497311 0.197343633 0.095256001
0.309930325 0.206451669 0.096015029
0.329664469 0.216318950 0.103605412
0.353953272 0.221252158 0.106641188
0.379886389 0.230107516 0.109424196
0.407590300 0.237824216 0.107779741
0.434155643 0.248071283 0.105882004
0.469576329 0.259962291 0.108665355
0.511321783 0.267172635 0.113598995
0.554079413 0.270841449 0.119670995
0.593674660 0.278178632 0.122580513
0.636811912 0.284250617 0.119544737
0.680075586 0.290322632 0.125616342
0.729537964 0.296394646 0.131941676
0.777862072 0.300063312 0.134977937
0.828462839 0.300063312 0.140037537
0.885009408 0.300063312 0.143706322
0.928020060 0.301834077 0.149019524
0.969259560 0.301707596 0.152688324
0.997469664 0.298671633 0.158254325
0.168626994 0.194180995 0.092852995
0.171663389 0.198861316 0.089310609
0.174699768 0.200252756 0.098924764
0.176470995 0.203289151 0.098165989
0.184819713 0.200632408 0.091334999
0.193421721 0.198102415 0.088045768
0.205313042 0.200632304 0.092726320
0.216065705 0.200379699 0.095762290
0.228968993 0.200379312 0.094244093
0.239342019 0.211638257 0.099430703
0.251486301 0.213788986 0.097153708
0.264389992 0.217077985 0.092599705
0.282606006 0.219354987 0.096394710
0.303858310 0.230234027 0.097153679
0.326248974 0.239342406 0.106261700
0.349272579 0.246932611 0.108918190
0.376596987 0.251486391 0.108918197
0.407590270 0.261100680 0.108412415
0.434914768 0.271220952 0.109424032
0.468690753 0.279822975 0.111954354
0.507779717 0.291460961 0.115243703
0.555344641 0.296521127 0.118279576
0.596204698 0.299810499 0.122327514
0.638709545 0.307400674 0.122327901
0.684503317 0.310183704 0.123466417
0.729790986 0.316255718 0.128399715
0.782163143 0.320809633 0.131688997
0.834155560 0.319670975 0.135863259
0.882479429 0.321315706 0.147121832
0.933080077 0.324731171 0.148766488
0.974193156 0.324224800 0.157874882
0.997722745 0.319670975 0.160152003
0.165591002 0.216192096 0.101201907
0.167868301 0.220746085 0.094370618
0.172422677 0.222517088 0.098671682
0.174952805 0.222264260 0.107273996
0.176850349 0.224541545 0.101961002
0.189373910 0.218849003 0.091334999
0.202530235 0.220366865 0.093611896
0.214547902 0.220872805 0.096521385
0.225933000 0.219354987 0.099556997
0.232005015 0.228462592 0.102593385
0.246173099 0.231751963 0.101961002
0.259835422 0.236812085 0.099431008
0.272739083 0.243643194 0.096394897
0.291208059 0.249715194 0.096141927
0.317520291 0.258317500 0.103225663
0.344718575 0.267425895 0.105123095
0.369766086 0.275775015 0.105123095
0.401391208 0.283744574 0.104617469
0.434914947 0.296015114 0.113725133
0.469070286 0.302593112 0.116508357
0.507020712 0.310942084 0.118026547
0.546995342 0.320809335 0.119797774
0.592662990 0.323972195 0.117014416
0.636432827 0.332448006 0.120050810
0.683491528 0.336243093 0.120809905
0.732068241 0.337508082 0.122327901
0.781151175 0.343074024 0.123339899
0.838330269 0.340543658 0.129411891
0.881973565 0.342820913 0.143073872
0.929285169 0.346110076 0.153700098
0.969639182 0.349272490 0.154838502
1.000000000 0.340164095 0.163946912
0.153447002 0.249588475 0.098165520
0.153447002 0.249588475 0.098165527
0.160025284 0.249841481 0.097786002
0.166350365 0.248576641 0.099683680
0.170777574 0.245793954 0.101961009
0.185957968 0.242757559 0.101961009
0.195951819 0.244655341 0.103984676
0.203668505 0.246046990 0.103858232
0.210752606 0.246679395 0.102593385
0.219861001 0.249714985 0.105629005
0.240480855 0.253004372 0.102846399
0.259329498 0.258064508 0.101961009
0.275015801 0.265275121 0.102846362
0.288172454 0.274003953 0.105249546
0.309424043 0.280075997 0.102213942
0.340543896 0.288678318 0.102087483
0.367489189 0.297786295 0.103605285
0.392283589 0.308032602 0.107653089
0.428716451 0.323213011 0.116761491
0.465021998 0.329917520 0.117520481
0.505122960 0.335989505 0.115749262
0.546489358 0.342314780 0.113978028
0.586591005 0.348260999 0.113978028
0.635167837 0.354332983 0.117014423
0.683491528 0.360531509 0.117773518
0.732068241 0.363567501 0.120556504
0.781151175 0.364326447 0.126375511
0.832764268 0.367362082 0.132447496
0.874003768 0.370145321 0.138519511
0.924225032 0.371410489 0.148639932
0.972549021 0.370777905 0.157621875
1.000000000 0.367488533 0.160910517
0.152941003 0.268437743 0.100948870
0.150031880 0.271346867 0.106767870
0.152182102 0.269196630 0.102466874
0.159772292 0.268437743 0.106008865
0.166856423 0.267425865 0.112839997
0.176976800 0.266919792 0.107779995
0.182036549 0.271473765 0.105249673
0.198608547 0.271600157 0.105881996
0.211511776 0.271094084 0.105629221
0.216318622 0.274130255 0.108665384
0.239974871 0.274256736 0.111700997
0.253131241 0.281341136 0.108665384
0.269829512 0.288298756 0.106641352
0.287539959 0.295888871 0.105629027
0.303478569 0.307273865 0.102593422
0.327134579 0.315749675 0.104364187
0.362049311 0.324857682 0.107906125
0.394813240 0.333333045 0.112333573
0.431246102 0.341682762 0.116887964
0.467678875 0.356862426 0.114863642
0.506008625 0.361416608 0.114737131
0.547501266 0.366476744 0.113724999
0.589247108 0.372548997 0.113724999
0.637823939 0.378620982 0.113978036
0.688677967 0.382416278 0.117014416
0.737887263 0.387855858 0.121821657
0.786464095 0.390891880 0.128905803
0.835673392 0.391524315 0.132573992
0.881973565 0.389246911 0.133332998
0.927261174 0.393548399 0.144212186
0.971789956 0.395825744 0.154838741
0.997090161 0.394813597 0.157874882
0.136749014 0.292726249 0.103984736
0.139785126 0.295761853 0.108033001
0.141049966 0.298545003 0.111574732
0.147881076 0.296774238 0.106767893
0.157748461 0.296774238 0.113978453
0.166856423 0.296774238 0.112839743
0.172928423 0.299810499 0.111321673
0.189120859 0.299304068 0.113219410
0.208475918 0.298165441 0.111701407
0.211511537 0.302466989 0.109677479
0.226818234 0.302593499 0.108665131
0.243010998 0.306641519 0.111701258
0.262366027 0.314611226 0.112080999
0.287286997 0.320683241 0.111954249
0.300695837 0.329285234 0.110689417
0.325110584 0.341049790 0.106388442
0.352435380 0.350158155 0.109424055
0.389753252 0.359266073 0.113724999
0.426185757 0.366730183 0.115369707
0.464642763 0.377102911 0.112839900
0.504870474 0.386590719 0.111701258
0.544465363 0.390765488 0.110689126
0.586337507 0.396710992 0.109803513
0.636812091 0.400885254 0.111701258
0.687665522 0.408728540 0.116002284
0.737887383 0.410373241 0.119038671
0.785958350 0.414674342 0.126881942
0.833016872 0.416192502 0.132953539
0.882985473 0.417583674 0.139405251
0.928526103 0.416318506 0.144718453
0.971536934 0.420113981 0.155850649
0.998102248 0.420113981 0.158886746
0.113599360 0.322327644 0.107020639
0.116255715 0.325363517 0.110056736
0.128146872 0.324984044 0.110815875
0.130423680 0.329032272 0.113598511
0.141429827 0.328652740 0.110942349
0.149019435 0.327893645 0.113219060
0.163567007 0.330423951 0.114863642
0.172042832 0.334218860 0.115875773
0.199367821 0.328905344 0.120430358
0.205439538 0.333839625 0.112460516
0.217203990 0.335230976 0.111448415
0.232763872 0.337002009 0.109044604
0.247185647 0.341935635 0.109803997
0.282606363 0.348007619 0.115369998
0.298292339 0.354079604 0.115369998
0.325869769 0.364958614 0.113978356
0.354712367 0.376723468 0.110183448
0.386338115 0.385199279 0.112586647
0.422770351 0.393801600 0.112586640
0.460847467 0.402909577 0.110942349
0.504490793 0.412397116 0.107527003
0.545983672 0.417457521 0.108538873
0.585958123 0.423403025 0.106008507
0.637571394 0.427451015 0.109044902
0.689183891 0.432763934 0.113219351
0.740543604 0.437697649 0.117900029
0.789627194 0.438203722 0.120936424
0.836432695 0.441240072 0.128779188
0.886148036 0.445414454 0.139025822
0.931941748 0.447817624 0.150411204
0.969512641 0.448703229 0.161290586
0.998861372 0.448956281 0.165338293
0.090322904 0.355977058 0.110056967
0.087792583 0.358507395 0.113345675
0.103605449 0.355851054 0.111321740
0.118532941 0.354333043 0.111827865
0.120430455 0.360025525 0.113724999
0.123466067 0.356989145 0.113724999
0.145730332 0.358507365 0.116002291
0.161416724 0.364579380 0.118658997
0.169260070 0.370651126 0.116887972
0.196584478 0.367615521 0.116887972
0.211132005 0.370398223 0.120303839
0.229601279 0.371410102 0.117773518
0.249968290 0.372548670 0.113345683
0.268438041 0.375585049 0.110309996
0.292726010 0.381657034 0.110309996
0.326122552 0.392283082 0.112207189
0.360025346 0.403921425 0.111954167
0.391651094 0.415813029 0.110056967
0.428083956 0.421885043 0.110056967
0.465022027 0.430234373 0.109803997
0.508538485 0.440986991 0.106767975
0.554838359 0.450600952 0.103225902
0.594813466 0.453636587 0.106261507
0.646426737 0.459582835 0.109297872
0.697533250 0.463377744 0.111827739
0.749398887 0.465528041 0.115116671
0.800506175 0.466034114 0.118659064
0.852119267 0.469070464 0.121695444
0.900569558 0.474004000 0.132447928
0.944845140 0.478304833 0.146110177
0.978115022 0.481340587 0.160784528
0.996331036 0.484376997 0.175964937
0.044781789 0.392409801 0.113092579
0.047818176 0.389373392 0.119165353
0.060341619 0.391903728 0.111701280
0.076027945 0.391777396 0.112839743
0.084756747 0.393801391 0.122453861
0.105250090 0.399493873 0.113724999
0.118406348 0.396458119 0.113724999
0.139405727 0.399620801 0.122580290
0.154586017 0.404048145 0.125489891
0.169260114 0.401011854 0.107779592
0.202403486 0.403795242 0.116508462
0.225300506 0.404807240 0.118279584
0.247818068 0.405945599 0.118153058
0.268438041 0.408981413 0.119418383
0.289690405 0.412017792 0.116381995
0.318785399 0.420493603 0.113978192
0.353446960 0.428716213 0.110688999
0.388614684 0.438583344 0.107779570
0.425047576 0.455281407 0.113092571
0.467046320 0.458570749 0.110309929
0.508285820 0.466666639 0.111701258
0.554079652 0.476407111 0.110815704
0.600885510 0.483997315 0.109297894
0.652498722 0.487033725 0.112333514
0.699557245 0.490702122 0.110815868
0.750537276 0.495129406 0.113219410
0.803035796 0.499430478 0.119165063
0.849082887 0.502466857 0.127767429
0.892726183 0.500189602 0.136116132
0.941809118 0.502593219 0.147627994
0.981151402 0.505629182 0.159519374
0.999367416 0.508664966 0.169892162
0.016066018 0.431245774 0.111321807
0.016698601 0.430613190 0.112586975
0.019734440 0.427577347 0.114358202
0.029095419 0.432637751 0.113345794
0.035167616 0.435673833 0.124351449
0.050347757 0.435673594 0.115243062
0.088171929 0.436559081 0.108918004
0.113219716 0.436812460 0.110562712
0.138267204 0.438330501 0.119670913
0.156989217 0.432005107 0.111574516
0.184693068 0.437191635 0.112207063
0.214041442 0.440228045 0.115243196
0.237571031 0.440607607 0.115243196
0.259582460 0.442125410 0.116508424
0.287286580 0.443011016 0.113472588
0.315749794 0.448450565 0.110436201
0.347627997 0.457558572 0.111954004
0.385072678 0.465781122 0.109424002
0.426818788 0.480455577 0.108411998
0.464009911 0.489563376 0.106135353
0.512207389 0.496394753 0.104997002
0.559266388 0.504490614 0.105502680
0.609234810 0.512080789 0.102719709
0.658570707 0.517393887 0.105755910
0.705629230 0.518152952 0.108791515
0.753952920 0.521062493 0.111574858
0.806071997 0.525616527 0.119165063
0.851613104 0.528652430 0.128273442
0.896900594 0.526375771 0.127767146
0.944718540 0.533965766 0.149272382
0.983934402 0.538646579 0.164326593
0.997596204 0.540164411 0.173434600
0.002403808 0.469196379 0.106768005
0.002403808 0.472232372 0.111321799
0.004554421 0.468563944 0.109803997
0.005060034 0.468058348 0.106008835
0.005186551 0.475901634 0.116002366
0.013915199 0.475142241 0.113725260
0.028589278 0.473118365 0.108664997
0.076786548 0.473244876 0.109044507
0.113978624 0.475522190 0.111321799
0.144338831 0.468690872 0.113598518
0.171536684 0.471094370 0.107653007
0.201897442 0.478178233 0.110688999
0.230360180 0.480075985 0.109550647
0.253763080 0.479823023 0.109171197
0.285389006 0.478558183 0.107400425
0.314231604 0.481846988 0.107400194
0.346110195 0.486401170 0.104364194
0.380771518 0.496141344 0.109171197
0.424541593 0.508285940 0.104870185
0.467805386 0.516128838 0.101581164
0.512207389 0.525236905 0.098925002
0.564832449 0.533333182 0.100948997
0.616571963 0.539531648 0.099683672
0.662365794 0.546995342 0.102719709
0.710183442 0.548513353 0.102719903
0.755723774 0.548513353 0.108538501
0.807590067 0.551929176 0.118152939
0.856167257 0.555976927 0.128273442
0.897153556 0.555218041 0.126755163
0.946236372 0.555218160 0.140164375
0.986337841 0.566856623 0.167868599
0.996078014 0.567489207 0.179506987
0.000000000 0.506261706 0.101328425
0.000000002 0.512333691 0.109171204
0.002150773 0.510436118 0.110942192
0.002656839 0.507526696 0.106008835
0.000758999 0.510563076 0.098039001
0.004048350 0.513598800 0.106388368
0.001391678 0.511574864 0.106008686
0.018848885 0.510183513 0.106008597
0.075142235 0.510816097 0.111827590
0.123719022 0.510816097 0.111827582
0.156356469 0.511448503 0.102087006
0.190891758 0.514357865 0.100189582
0.222517580 0.521947682 0.102846079
0.254142612 0.522453666 0.100569434
0.289057612 0.520556509 0.101328425
0.317647219 0.521062315 0.102466777
0.348007768 0.524098277 0.103099205
0.382036686 0.526502132 0.099431023
0.421505183 0.538646102 0.099431016
0.469323426 0.545224130 0.097280234
0.517267823 0.552561283 0.096774153
0.565971255 0.560657561 0.096141994
0.620366991 0.566603065 0.101834491
0.663883805 0.574699461 0.103858106
0.710942507 0.578241527 0.104870282
0.760025144 0.579506516 0.105502896
0.805565774 0.580012560 0.114610650
0.859835744 0.585958123 0.126628891
0.900442481 0.586717129 0.129285142
0.945097506 0.586084545 0.140290797
0.984566569 0.588235140 0.162429020
0.996710598 0.591271520 0.183681428
0.000000000 0.545730948 0.098292030
0.000000012 0.551802933 0.101328418
0.002150778 0.551423192 0.104870185
0.002656837 0.549399018 0.103605025
0.000758999 0.550031602 0.098038994
0.006830999 0.553067982 0.098038994
0.002530036 0.551043630 0.098798022
0.001644708 0.549652040 0.096900694
0.024162296 0.550411105 0.096900940
0.087286949 0.553321004 0.102719948
0.135863721 0.556230128 0.099810086
0.182669431 0.552941024 0.096015252
0.222011626 0.553826690 0.093738317
0.251107007 0.561922967 0.091461033
0.296647340 0.567994952 0.097533017
0.326754838 0.566097200 0.095888838
0.357115626 0.566603184 0.094876960
0.391145110 0.569006979 0.093359001
0.427577972 0.569006979 0.087287001
0.475395709 0.575585008 0.087287001
0.522074759 0.581657052 0.092726216
0.567868412 0.587982059 0.098798141
0.614295006 0.593927562 0.101834476
0.662871838 0.596963942 0.098798096
0.710942507 0.602783024 0.105376288
0.762302279 0.608349025 0.109298006
0.814674199 0.613409042 0.111575037
0.860215306 0.616445422 0.120683417
0.906514764 0.617078006 0.135357127
0.953067303 0.615306795 0.149019197
0.990385592 0.616065621 0.164958641
0.999746978 0.624668002 0.180645049
0.000000000 0.593548775 0.098039001
0.011132005 0.591271341 0.101075388
0.002530009 0.593042374 0.095509224
0.001138643 0.595698893 0.096015148
0.000758999 0.599114537 0.094876803
0.006830999 0.592536330 0.092472993
0.005313323 0.598102391 0.089943312
0.001138649 0.595825493 0.084756643
0.005692649 0.596205115 0.081720628
0.039089046 0.601265192 0.087792635
0.121695012 0.598734915 0.090702474
0.166223779 0.601770997 0.091714084
0.214421198 0.600253105 0.091334641
0.255914062 0.603921711 0.089690000
0.296394378 0.607463419 0.085641988
0.337128401 0.608728409 0.089310795
0.370525092 0.610626161 0.088551991
0.406451881 0.613662481 0.087919414
0.445035011 0.611511767 0.083997652
0.487033784 0.614295065 0.089057647
0.533712745 0.620367110 0.081467658
0.579253376 0.626439095 0.085388988
0.625047505 0.632384598 0.093864627
0.676281154 0.635420263 0.098798096
0.724857867 0.638456643 0.109424278
0.773434579 0.641239703 0.113978334
0.824288428 0.644528747 0.114104711
0.872106314 0.649841845 0.123213083
0.914990544 0.650221407 0.137634456
0.958633661 0.651992619 0.154585302
0.992789328 0.651866078 0.173434198
1.000000000 0.655281723 0.194307372
0.000000000 0.636432707 0.092346743
0.004554007 0.637191772 0.087792657
0.007084001 0.634408474 0.093611963
0.000000000 0.635673642 0.084503576
0.000379548 0.642378449 0.086148262
0.004933743 0.637824237 0.090702064
0.005313323 0.635673463 0.083870843
0.002277292 0.645034432 0.079190522
0.000759104 0.642504692 0.072612263
0.013282796 0.644022703 0.076407269
0.084123753 0.643263638 0.083365127
0.163567230 0.642377973 0.086401477
0.210626006 0.644275725 0.086021453
0.262492090 0.644528747 0.084503263
0.305249870 0.647564828 0.081720270
0.346616149 0.648197234 0.079064071
0.384566724 0.649715006 0.077546261
0.420999348 0.655408144 0.078052253
0.459203005 0.656167209 0.078811035
0.505249739 0.653004348 0.078431271
0.545857191 0.656040728 0.084503271
0.594433725 0.660088718 0.075395390
0.642504692 0.664389729 0.082985513
0.688804746 0.669196546 0.090828747
0.738140523 0.670334995 0.099936545
