Assets/Resources/EldamarStudio/100 Horror LUTs Pack/LUTs/cube/Thutul LUT.cube
LUT_3D_SIZE 5
DOMAIN_MIN 0.000000 0.000000 0.000000
DOMAIN_MAX 0.903226 0.903226 0.903226
0.184313998 0.054901998 0.082353003
0.227830693 0.076154292 0.101961002
0.341302961 0.119038828 0.093485415
0.552435100 0.195193127 0.113724999
0.877798557 0.220998988 0.135989830
0.168626994 0.194180995 0.092852995
0.216065705 0.200379699 0.095762290
0.326248974 0.239342406 0.106261700
0.555344641 0.296521127 0.118279576
0.882479429 0.321315706 0.147121832
0.044781789 0.392409801 0.113092579
0.139405727 0.399620801 0.122580290
0.289690405 0.412017792 0.116381995
0.554079652 0.476407111 0.110815704
0.892726183 0.500189602 0.136116132
0.001012128 0.676913261 0.084250741
0.002277292 0.680455327 0.077166006
0.314105213 0.688045681 0.080455258
0.605566382 0.693485141 0.078431003
0.924225211 0.711448193 0.142820805
0.001265167 0.948260427 0.205818594
0.159392253 0.948513508 0.208095878
0.466160387 0.943453372 0.213662431
0.732321203 0.949525595 0.233649567
0.982162774 0.939025760 0.263504237
0.172548994 0.082353003 0.177229404
0.222264409 0.091208287 0.180138692
0.308918267 0.140923291 0.192915991
0.519671142 0.194812998 0.216698274
0.858570457 0.221884713 0.241239563
0.169260010 0.184060708 0.177861989
0.204933703 0.195192695 0.180138692
0.296521127 0.231498986 0.202403277
0.515875995 0.288045675 0.220366821
0.860214829 0.317773581 0.241366237
0.062492199 0.378368080 0.197723120
0.143706575 0.382922083 0.204680398
0.272991687 0.396964192 0.202023998
0.538140357 0.465021968 0.214800969
0.885009587 0.498291969 0.242378086
0.006578001 0.670082092 0.206704825
0.001644708 0.666793108 0.202150822
0.301454514 0.672991812 0.200758979
0.593801379 0.686021686 0.202403694
0.918911576 0.711448252 0.250980347
0.053636909 0.938393593 0.293611616
0.195698723 0.942567885 0.293864787
0.472612232 0.944212198 0.302087337
0.740923524 0.944845080 0.317140907
0.981910050 0.936369658 0.339531869
0.160784006 0.103351980 0.345224828
0.208095878 0.114104703 0.332447708
0.302719563 0.151675999 0.324984401
0.519038379 0.195192710 0.366223812
0.856293142 0.230233967 0.396331638
0.147628009 0.222644120 0.323339671
0.192788988 0.223655984 0.317140996
0.287033826 0.235673696 0.317140967
0.516508520 0.279190570 0.362934589
0.854269445 0.335863352 0.403542221
0.015939640 0.377356231 0.315117002
0.118532732 0.388741106 0.328526109
0.281847388 0.416571379 0.340670407
0.527640820 0.460088551 0.371537209
0.870588183 0.512713671 0.410120219
0.005819002 0.655281246 0.377355963
0.001264999 0.660467982 0.370524913
0.301075369 0.666034102 0.368500948
0.586843848 0.678810954 0.376976520
0.916634738 0.717014551 0.430740088
0.185578331 0.936369658 0.457179219
0.306514680 0.940670490 0.456546366
0.517140746 0.935737073 0.463124633
0.751676083 0.939658165 0.476913363
0.983554721 0.933080196 0.493358582
0.096900880 0.154079869 0.563188255
0.197090283 0.166730002 0.564706147
0.355471253 0.182795703 0.551043510
0.553573549 0.201012135 0.544465363
0.873244762 0.244022965 0.572296262
0.039595596 0.263504416 0.545477629
0.169892579 0.270714998 0.548007309
0.342062235 0.279949397 0.541302979
0.551802456 0.292599291 0.533333540
0.880075872 0.349272400 0.575837970
0.007463868 0.451612949 0.524857700
0.035167586 0.452877700 0.535230696
0.320177108 0.463377684 0.538266957
0.558760166 0.474130213 0.537001848
0.879443288 0.540543914 0.589626908
0.002909872 0.663251281 0.543453276
0.007336994 0.674889266 0.538266838
0.359013349 0.683997393 0.558760166
0.627071381 0.702340245 0.572928250
0.916255593 0.737001956 0.620999277
0.395572335 0.931688786 0.646299779
0.461606562 0.926248908 0.652751744
0.593548119 0.930550158 0.659076810
0.763314128 0.936116338 0.661353648
0.973054647 0.935104489 0.675142050
0.001265167 0.242124781 0.847691417
0.052372325 0.244781628 0.854522347
0.379379958 0.265654802 0.850347698
0.659329414 0.277545601 0.847691417
0.943200409 0.291966766 0.834534764
0.001644708 0.351929218 0.850853741
0.030487116 0.357874632 0.844402432
0.381404191 0.367362499 0.845793605
0.662745059 0.382795751 0.844402432
0.942567587 0.391271353 0.835673690
0.005312988 0.559266150 0.832004786
0.123465911 0.564579189 0.837318003
0.414927423 0.567109346 0.838583469
0.680455029 0.573054790 0.837950587
0.943832994 0.572296262 0.834661424
0.121695191 0.755977213 0.843896210
0.278304636 0.761290193 0.839342415
0.494244009 0.763566911 0.837950885
0.716002524 0.762555063 0.838962674
0.945856988 0.764199793 0.841239452
0.407716155 0.942947447 0.851612747
0.471600354 0.939658463 0.864895582
0.613156140 0.938393176 0.857558191
0.795698941 0.939278781 0.862744808
0.957241833 0.945477724 0.900063396
