Assets/Resources/EldamarStudio/100 Horror LUTs Pack/LUTs/cube/Tiragoni LUT.cube
DOMAIN_MIN 0 0 0
DOMAIN_MAX 1 1 1
LUT_3D_SIZE 32
0.027450999 0.054901998 0.133332998
0.024414614 0.051865615 0.130297378
0.029980775 0.053130776 0.129411995
0.040353999 0.057431996 0.129411995
0.052877549 0.063124545 0.130171001
0.068057932 0.066160932 0.136243001
0.080708638 0.071727000 0.139784679
0.091208287 0.077799000 0.141176000
0.101075001 0.083112098 0.142694190
0.113219008 0.086148478 0.148766965
0.128272861 0.089184128 0.146110132
0.141429514 0.096268252 0.147122264
0.154712349 0.105376355 0.153574005
0.169386029 0.113978028 0.164452970
0.178494409 0.117014416 0.161416590
0.192409799 0.127260983 0.167994797
0.209107995 0.137887195 0.175584987
0.225426570 0.146362990 0.180391997
0.234534979 0.152435020 0.180392012
0.249209374 0.161290362 0.191524014
0.268184751 0.170398742 0.196078002
0.288424999 0.180518985 0.199114129
0.306641012 0.192789495 0.208222508
0.324857831 0.207969904 0.217330903
0.347627997 0.220872998 0.226439282
0.370524645 0.235799968 0.235547304
0.392283142 0.254016131 0.244148999
0.416571885 0.272232890 0.250220984
0.446173608 0.293105781 0.266919643
0.478305131 0.316128910 0.286907166
0.510815978 0.343073785 0.308159590
0.541176021 0.376471013 0.329412013
0.027450999 0.054901998 0.121188998
0.030487388 0.057938386 0.130297378
0.040353999 0.059202999 0.133712992
0.055028319 0.063503996 0.134218827
0.069955774 0.068816997 0.132827163
0.077166319 0.069196545 0.136243001
0.082226701 0.077292934 0.142315000
0.092852995 0.082226709 0.142567679
0.104870483 0.086148284 0.142694190
0.119291782 0.089184098 0.148766965
0.134344906 0.095129609 0.151929125
0.145477250 0.100315988 0.155217990
0.156609610 0.107273608 0.159266263
0.169386029 0.114737064 0.164958969
0.178494409 0.126122802 0.167488575
0.192409799 0.129158571 0.169259802
0.209107995 0.137887195 0.175584987
0.226691559 0.147627980 0.181656986
0.240606979 0.158507019 0.186464012
0.255281359 0.170145720 0.192029998
0.270461738 0.177609384 0.197975740
0.289437145 0.185578868 0.202150524
0.309677362 0.195825115 0.211258873
0.327893436 0.211005509 0.220366523
0.346110195 0.223909184 0.229474902
0.370272011 0.238836363 0.238583282
0.395319372 0.256546468 0.248197392
0.419607490 0.272232890 0.259329379
0.443896234 0.293105781 0.268058211
0.477039933 0.312586933 0.285135925
0.509930551 0.337001562 0.306894153
0.538140357 0.370398223 0.332447618
0.042504773 0.061353773 0.121947996
0.043390386 0.068690613 0.133206621
0.050727770 0.069576226 0.138013989
0.060847387 0.071346998 0.139026001
0.074256770 0.075648099 0.136622325
0.085641995 0.079190545 0.143200710
0.093485318 0.084630094 0.144465774
0.096521281 0.090449065 0.147248775
0.106388323 0.093485318 0.146995544
0.118785724 0.096521303 0.153067961
0.136116132 0.102466770 0.156230122
0.149272516 0.108538769 0.157242000
0.159645766 0.114610769 0.161922649
0.171789765 0.120176770 0.164706007
0.182795405 0.124731049 0.165844351
0.196710795 0.136116192 0.175331801
0.211891189 0.140670374 0.178368181
0.228842333 0.149778754 0.182542771
0.244022757 0.161922798 0.185578778
0.257052362 0.171916723 0.189500019
0.272232741 0.182163253 0.195572004
0.289437145 0.188488215 0.199873492
0.310562968 0.196710497 0.207843482
0.328778982 0.211890906 0.216951102
0.349145800 0.229095563 0.228210062
0.370145530 0.241239980 0.238709763
0.396711051 0.257937998 0.249589071
0.422643751 0.274762660 0.263377756
0.446932405 0.295256019 0.272865057
0.474762678 0.320050389 0.287286639
0.509550810 0.344718158 0.308159322
0.539405227 0.379379779 0.335483760
0.061227158 0.074256994 0.129285157
0.059961997 0.078304939 0.135104001
0.065148614 0.083491325 0.142061606
0.072992161 0.083491325 0.145098001
0.076786771 0.083491325 0.140164539
0.090195931 0.087792866 0.147501931
0.101581156 0.095129833 0.151549995
0.108665608 0.099557452 0.150284842
0.113978319 0.102593064 0.151802838
0.123592652 0.105629325 0.157874838
0.136369169 0.109044835 0.158507288
0.151802510 0.116381995 0.160784006
0.165085629 0.122454002 0.164199650
0.177356154 0.128273025 0.167489037
0.189500153 0.129285157 0.168501168
0.202782795 0.137634307 0.176849991
0.214168027 0.146742374 0.180645019
0.229980975 0.154079974 0.184313819
0.245793983 0.166224018 0.185578838
0.260720998 0.175585359 0.189626634
0.274762750 0.184693247 0.194560319
0.289943159 0.193801120 0.200632319
0.310815960 0.200379148 0.206831470
0.331308991 0.214420900 0.215939090
0.350537419 0.230613410 0.224794567
0.371916294 0.246047139 0.238203824
0.396204978 0.258697093 0.248829916
0.422770262 0.276153982 0.260974288
0.449968487 0.299556822 0.273371309
0.479063928 0.320556313 0.289057404
0.507653177 0.349651724 0.310815960
0.539911151 0.385704994 0.338519841
0.075648546 0.091334544 0.137254998
0.072991706 0.089816839 0.136116147
0.076786548 0.091714449 0.138772547
0.082479320 0.095635995 0.143579721
0.088931441 0.096015446 0.145098001
0.098039061 0.096015446 0.148134395
0.109297544 0.103225768 0.153700456
0.118152864 0.108665250 0.155597836
0.125364006 0.111321993 0.154459000
0.137508005 0.114357613 0.160530999
0.144592002 0.115622543 0.158633888
0.156356812 0.120935798 0.160025299
0.170778096 0.128905550 0.164579198
0.185452491 0.134724587 0.173434541
0.197469994 0.137760967 0.176597416
0.209993541 0.145604253 0.182922184
0.219860539 0.153573990 0.185578555
0.228462696 0.159772530 0.182415992
0.246679515 0.171916559 0.188488021
0.264516026 0.181657359 0.194560111
0.280834734 0.190765351 0.200632483
0.295635581 0.199493676 0.206325442
0.311068922 0.208855048 0.212523952
0.335104018 0.221252099 0.221631646
0.355218023 0.235673279 0.229222015
0.374067098 0.249462336 0.237950847
0.395825535 0.262492448 0.252245069
0.420113534 0.277672082 0.255281448
0.448956072 0.302719355 0.268184811
0.481087685 0.325110406 0.286907166
0.512586653 0.346995562 0.309677511
0.536875427 0.380391985 0.340037555
0.084756933 0.100442939 0.137254998
0.084756933 0.109550551 0.149398997
0.090702094 0.105882056 0.150410935
0.096774094 0.105629221 0.152688101
0.101075448 0.108159445 0.154206380
0.110183060 0.111195058 0.145098001
0.119291313 0.116255701 0.150664061
0.127260923 0.119544871 0.155091777
0.134092152 0.120050937 0.157115847
0.143580019 0.120430395 0.160530999
0.155724004 0.129284993 0.163693875
0.166856498 0.132827193 0.167741999
0.178368270 0.138013929 0.172169566
0.188488096 0.143832967 0.176470935
0.197596475 0.146869346 0.182542935
0.212017789 0.154712126 0.180898190
0.225173935 0.163820252 0.182922184
0.237571061 0.171157584 0.185705349
0.255787879 0.174952954 0.194560021
0.271220595 0.187096953 0.200632721
0.286906719 0.196837738 0.206704870
0.301074982 0.204933867 0.211764872
0.314104557 0.211891443 0.215559557
0.335356981 0.227071851 0.224667966
0.357115269 0.241745561 0.236052930
0.375078738 0.255534321 0.243010744
0.392789215 0.268691003 0.249588937
0.417077899 0.286780477 0.261353433
0.441365868 0.307273746 0.269702822
0.471979648 0.329538077 0.286907166
0.504490852 0.352055550 0.308159590
0.533839047 0.380391985 0.330929935
0.109045319 0.122200996 0.152435005
0.106514990 0.121189252 0.151929319
0.110815987 0.128146648 0.159772322
0.118279316 0.124857478 0.160531327
0.122959994 0.125363544 0.161543459
0.129917383 0.128399700 0.156736076
0.133965641 0.131435320 0.157748327
0.143074021 0.137508094 0.162175611
0.151549637 0.140038222 0.165970862
0.162428796 0.141809002 0.170778155
0.161795989 0.140417770 0.168753862
0.173940510 0.147501633 0.175838247
0.188361987 0.152182326 0.181277677
0.201644361 0.158254325 0.184060678
0.210752726 0.163567409 0.185578674
0.222264305 0.166603804 0.186843678
0.235799983 0.175458446 0.186970189
0.247944146 0.183933988 0.190006420
0.262365967 0.188867658 0.195319057
0.280328989 0.200253338 0.204174399
0.293611318 0.210499570 0.212144420
0.308159143 0.218595937 0.217836857
0.322327316 0.224921301 0.221125498
0.345983535 0.237697914 0.230233908
0.364958614 0.252878278 0.237065002
0.384566635 0.268058300 0.247311667
0.403415620 0.282353312 0.253637075
0.431751877 0.300569296 0.263757318
0.458570242 0.321442127 0.280834824
0.486400694 0.344465256 0.297027171
0.519924164 0.370018810 0.320050567
0.553573668 0.400632650 0.344592005
0.126502290 0.138266698 0.165717706
0.125110611 0.140164375 0.162681669
0.128525987 0.140290990 0.167741984
0.135863155 0.142568156 0.168753996
0.141935244 0.141049862 0.167615443
0.146742418 0.146615937 0.164579064
0.150284320 0.149652094 0.171537027
0.156609684 0.149398699 0.174572989
0.164200082 0.155471280 0.175331697
0.173687711 0.159392506 0.177862242
0.179506540 0.159898862 0.180139124
0.183301508 0.161290705 0.178621247
0.195445985 0.167362705 0.184313998
0.211891025 0.173181668 0.187096715
0.220999405 0.177861989 0.189879715
0.230866700 0.181530803 0.189879715
0.246046707 0.186084986 0.194433913
0.257811278 0.195066273 0.198355690
0.268943965 0.202150434 0.202403456
0.286653996 0.210499704 0.207716346
0.302719712 0.222390950 0.215180025
0.316887707 0.232510686 0.223276541
0.332827002 0.240101293 0.227324396
0.354079813 0.252245724 0.237950608
0.375458688 0.266666979 0.246426404
0.393674672 0.281847000 0.251106739
0.412397355 0.297027349 0.260214984
0.439341962 0.314104974 0.270461708
0.468690485 0.336622477 0.289183974
0.499430358 0.358001351 0.307526886
0.527134597 0.384060383 0.327008307
0.559772313 0.416698277 0.351296723
0.139405191 0.149652004 0.173308089
0.138646096 0.155724198 0.171789691
0.141429096 0.157495201 0.175078765
0.148007154 0.158507258 0.180897996
0.156356543 0.155092105 0.175964534
0.159392938 0.162302256 0.173687249
0.162428871 0.167109415 0.177988544
0.168753713 0.166856378 0.185199380
0.177102998 0.166097105 0.188994095
0.180139408 0.172169104 0.182922095
0.191904098 0.176090866 0.186970085
0.200000077 0.178368166 0.188488156
0.208349079 0.182543099 0.186590895
0.219987080 0.188109100 0.186843932
0.228589416 0.190638781 0.192409992
0.238456890 0.195192814 0.195192993
0.251359999 0.199746996 0.199747190
0.268311143 0.205819160 0.208855569
0.277546078 0.214801073 0.215054095
0.294243991 0.221885011 0.218342736
0.309803843 0.230993077 0.222517177
0.325237185 0.242378190 0.228589252
0.343453169 0.254522175 0.234535471
0.361669838 0.266666800 0.244781911
0.381404191 0.281088263 0.254649192
0.402783066 0.297027379 0.261733323
0.421505183 0.312207162 0.266793072
0.442757517 0.327387512 0.279190093
0.472738594 0.349778622 0.300063014
0.503352106 0.373055249 0.319544405
0.534724593 0.397723138 0.336875588
0.555976987 0.428083181 0.352055997
0.163693979 0.167868003 0.176344499
0.160657585 0.173940778 0.179380104
0.159898505 0.175711975 0.180012494
0.162681490 0.178241968 0.182922006
0.168500558 0.182416499 0.188108549
0.171536952 0.176344484 0.191144943
0.174573332 0.181024984 0.183807656
0.180898264 0.182036787 0.182163224
0.189247012 0.181277499 0.185958475
0.195319042 0.187349498 0.192030489
0.207084283 0.193421483 0.191777483
0.215180486 0.195319012 0.194054231
0.223529488 0.197722822 0.195698515
0.235167488 0.203289509 0.195951551
0.241239503 0.203289509 0.198987931
0.252245605 0.210626170 0.204553992
0.265781283 0.217962995 0.211891189
0.280455142 0.224035159 0.220999569
0.292599946 0.230107963 0.230107963
0.307400137 0.239089161 0.233523130
0.320809454 0.248070747 0.236559227
0.334092647 0.257305622 0.240733966
0.349525958 0.266666949 0.246679485
0.367741972 0.278810978 0.249715090
0.385957986 0.293232262 0.257684767
0.407083839 0.309803963 0.265401512
0.430613577 0.327387542 0.272865087
0.451865911 0.342567891 0.288045436
0.483744264 0.363061279 0.311069131
0.513472140 0.386211365 0.331688881
0.541049540 0.413030028 0.349019587
0.568121016 0.446299970 0.364199996
0.164706007 0.180265740 0.191018134
0.170398474 0.189246908 0.185325623
0.171663642 0.188867912 0.190512002
0.177482739 0.188108996 0.190765157
0.186464190 0.191271544 0.191903874
0.189499944 0.197849870 0.197469950
0.192536324 0.194307551 0.197975993
0.195572719 0.197596714 0.193295151
0.201391742 0.198608637 0.193801224
0.207463756 0.202529863 0.197723001
0.219354749 0.205692738 0.197975993
0.227450997 0.213788480 0.200000256
0.233522996 0.216444865 0.203036100
0.242125064 0.218975186 0.204806879
0.253510743 0.224288866 0.205186427
0.261985958 0.226692066 0.210625976
0.275142312 0.234788060 0.219734386
0.289689839 0.242251724 0.228336871
0.301834106 0.248323947 0.230613977
0.316761494 0.257179379 0.236938998
0.331941575 0.266286999 0.241998866
0.344086140 0.275395125 0.246046871
0.355471492 0.284629971 0.250221133
0.370904863 0.296774000 0.256040841
0.395952135 0.311195254 0.265907735
0.414674401 0.326375633 0.278431505
0.434408873 0.343579918 0.290069729
0.458064437 0.363567293 0.302846283
0.484629810 0.378747672 0.315369844
0.510436177 0.403035998 0.335104525
0.535483539 0.427577585 0.353320837
0.562807977 0.452877998 0.370525002
0.182922244 0.200505972 0.204174519
0.184946239 0.205566123 0.198102519
0.186843768 0.212144017 0.194560260
0.191144988 0.206578076 0.196837097
0.199873537 0.205059990 0.194560289
0.199620575 0.212523669 0.198988006
0.208728567 0.215559930 0.204048008
0.211764529 0.215812966 0.205692708
0.215559930 0.218849152 0.204174519
0.221632257 0.221884772 0.205945745
0.231499001 0.224921122 0.210120246
0.243643492 0.229981244 0.210120261
0.249715507 0.236811846 0.210879356
0.255787522 0.238203302 0.212396994
0.264389813 0.244276077 0.215938985
0.278178692 0.249968708 0.222770259
0.287286341 0.253004313 0.228842244
0.299556971 0.259835571 0.236812308
0.308918029 0.264516234 0.235421002
0.323845357 0.271347344 0.240987003
0.337128460 0.280455709 0.245161235
0.353194237 0.290575504 0.251107007
0.365717947 0.300822228 0.255407989
0.382795632 0.312966257 0.263377547
0.401012272 0.327387512 0.276027977
0.425553650 0.341176212 0.286780655
0.443011045 0.357242107 0.301201999
0.465781242 0.380012661 0.316381991
0.490701824 0.397975802 0.330550224
0.519797325 0.418469369 0.346236199
0.543579817 0.445540816 0.367109537
0.570904255 0.469070256 0.388741493
0.201138645 0.223655641 0.210626364
0.204553992 0.225553378 0.207970008
0.205692634 0.229601637 0.206325218
0.207083985 0.231625468 0.204427466
0.212396994 0.223655641 0.201770633
0.210120291 0.228209645 0.204047933
0.218595996 0.231751963 0.208475649
0.228083566 0.234788060 0.214041710
0.231878281 0.238583535 0.217836991
0.237950951 0.241998807 0.218595996
0.246932417 0.248450503 0.218722358
0.253510535 0.251233637 0.220746353
0.265655011 0.257305622 0.224161997
0.272233009 0.260594279 0.221884638
0.280075967 0.266666830 0.227956638
0.292220145 0.272738963 0.236432448
0.305503070 0.278431445 0.242884278
0.314610720 0.281467229 0.248956278
0.321188658 0.284503609 0.247438610
0.334471643 0.290322632 0.251612991
0.347754449 0.300569385 0.256925881
0.360911131 0.308665633 0.259961784
0.379000604 0.320683122 0.266034484
0.397216618 0.333839297 0.275142401
0.416571558 0.348260552 0.287665904
0.435041279 0.362049252 0.300063282
0.456293702 0.375711352 0.311195701
0.477546066 0.399367511 0.330044270
0.503731608 0.418342590 0.345603794
0.529285014 0.441239655 0.362555236
0.559645832 0.465528250 0.383427888
0.587223291 0.492599636 0.410752982
0.206451997 0.245161071 0.209361061
0.215053678 0.245414034 0.212397397
0.219101802 0.247564808 0.214674264
0.222896904 0.248576924 0.216951028
0.225300029 0.245667070 0.216698050
0.225300029 0.245667070 0.216698050
0.232131317 0.247944355 0.219481349
0.241239697 0.251486391 0.223402992
0.249336034 0.254522175 0.229474992
0.255408049 0.260594964 0.235546991
0.264642864 0.271979988 0.227830157
0.268185019 0.276533991 0.225300029
0.272739023 0.278558046 0.228209674
0.284377009 0.285136044 0.236812055
0.296520978 0.291208029 0.242884055
0.308665037 0.296774030 0.250347793
0.320809394 0.302846014 0.256926209
0.332574457 0.308538586 0.260088980
0.341682076 0.311574966 0.266160995
0.353573740 0.317900062 0.270208687
0.365718007 0.328905761 0.275395066
0.378621131 0.341303051 0.280455142
0.393801481 0.347754508 0.283870995
0.411891043 0.362934917 0.293105870
0.432384312 0.377862304 0.304744005
0.452245295 0.391904026 0.315496653
0.471474022 0.405313104 0.326123059
0.492726386 0.426565468 0.347375423
0.520935953 0.445161015 0.363567144
0.547501385 0.468437612 0.380265385
0.573814154 0.495635986 0.401644588
0.604174972 0.519924045 0.428969026
0.236811966 0.269449800 0.227577820
0.239848360 0.272485435 0.230613440
0.237697810 0.274889171 0.227197990
0.241113409 0.277925551 0.228083402
0.249462277 0.278937668 0.231751949
0.246552393 0.276027828 0.228842825
0.246552393 0.276027828 0.233902827
0.253383666 0.281594098 0.234408692
0.260974079 0.286401123 0.235546991
0.264516413 0.284882963 0.241618991
0.276407391 0.290954977 0.241871998
0.283870995 0.298291981 0.244022399
0.290954977 0.301960617 0.247691035
0.302592993 0.306388378 0.251992434
0.308664978 0.318532407 0.255028814
0.320809603 0.319797397 0.253890038
0.332953811 0.324098378 0.259456187
0.345097959 0.330170363 0.265401989
0.356862456 0.335862994 0.266161025
0.368754148 0.347248673 0.277799040
0.380898386 0.354332805 0.286148131
0.393042386 0.363314539 0.292599678
0.405945480 0.372043282 0.296014965
0.421125919 0.387222886 0.308158994
0.441492677 0.400126547 0.321947813
0.461353362 0.414295048 0.333712608
0.481087625 0.429348797 0.343833029
0.507905960 0.447817802 0.359519422
0.526502192 0.466413349 0.378114969
0.549019575 0.488171756 0.393927574
0.574446559 0.515749574 0.415053546
0.607210577 0.547248423 0.447184980
0.255154788 0.293737978 0.243390173
0.258191198 0.296774179 0.246426418
0.259076804 0.297659576 0.240860030
0.256040782 0.301707804 0.238330156
0.262492239 0.305123419 0.242884248
0.263503879 0.302087069 0.243896112
0.267804772 0.306388587 0.248450786
0.271094203 0.304743886 0.251233786
0.277925521 0.310056984 0.249715596
0.280961484 0.311954290 0.252498597
0.290322781 0.315243602 0.257558614
0.296394527 0.319291323 0.255534351
0.302086979 0.326122433 0.258190781
0.311701059 0.331688792 0.260215014
0.322074622 0.337381601 0.265401602
0.332953572 0.344718575 0.268437982
0.342061996 0.347754568 0.269955784
0.354332536 0.354459167 0.277545989
0.371789813 0.362302393 0.281087995
0.383933902 0.371536702 0.287413001
0.397975922 0.379885972 0.297659755
0.410626233 0.387982249 0.307779968
0.422897071 0.398608774 0.315116763
0.438076913 0.411511689 0.322706789
0.453257263 0.426691860 0.337128073
0.474256635 0.441745758 0.350916773
0.494496912 0.457938045 0.362555087
0.519923985 0.474256754 0.379633218
0.534471631 0.494876564 0.390259564
0.561543107 0.516634941 0.419101477
0.585325599 0.541809142 0.444022596
0.612649977 0.572169602 0.477419406
0.273371190 0.318026394 0.250979990
0.274889380 0.324098766 0.261606574
0.277293175 0.323466182 0.262112409
0.277293175 0.323466182 0.256799191
0.276913643 0.328652740 0.258823544
0.277672261 0.327893645 0.259582460
0.283238173 0.329411834 0.260594428
0.290828407 0.335104674 0.266413808
0.295382977 0.332827389 0.266413808
0.297659695 0.337381393 0.266413808
0.304996848 0.342062056 0.269196808
0.314610898 0.345097929 0.273751140
0.318785191 0.350410819 0.271853387
0.325110227 0.359013200 0.272359401
0.335989803 0.362049609 0.278431356
0.345097959 0.367489189 0.283618003
0.358760148 0.375079364 0.285136163
0.365464747 0.380518824 0.291208178
0.383175164 0.387855977 0.297280222
0.396078199 0.398481846 0.306388199
0.410119921 0.407210380 0.315875739
0.425300330 0.414294511 0.322960109
0.437950969 0.425933182 0.333586156
0.451739281 0.438077211 0.342441201
0.469955444 0.454016656 0.353826672
0.486527145 0.466413707 0.367615372
0.507653058 0.484756261 0.380265445
0.530929625 0.501960576 0.397470087
0.549145997 0.522453964 0.413789004
0.569133341 0.540923417 0.429728061
0.598987818 0.566983163 0.463503748
0.620240211 0.594940186 0.495635808
0.292725980 0.343580127 0.257305115
0.293358564 0.352055937 0.272991747
0.295509189 0.353194356 0.277292818
0.296015412 0.353320509 0.279696167
0.297533512 0.352941066 0.280834615
0.295762211 0.355471462 0.278810889
0.299051136 0.355977535 0.276407242
0.304870278 0.358001530 0.277039558
0.313598961 0.362555534 0.282226145
0.313598961 0.362555534 0.282226145
0.319417983 0.369007140 0.282226145
0.328273147 0.373687446 0.286274493
0.339405149 0.378367782 0.290702403
0.345730186 0.387223125 0.291208476
0.354838550 0.390638947 0.297280550
0.361543149 0.396078527 0.301454961
0.371536732 0.403036147 0.305755973
0.385452121 0.410879552 0.307020962
0.394560546 0.413915187 0.313092977
0.405818999 0.424667716 0.324098587
0.418595731 0.434914291 0.335610151
0.434408724 0.444022685 0.346615672
0.449589044 0.453131050 0.350031525
0.462238997 0.464769155 0.362175554
0.479949266 0.480834961 0.374952525
0.500442505 0.496774435 0.387096941
0.519670665 0.506894171 0.400253087
0.541049600 0.527893543 0.415559977
0.562301934 0.549145937 0.436053336
0.585325360 0.567488730 0.457432061
0.609361172 0.585831702 0.477672100
0.630613565 0.616192579 0.504996538
0.304870039 0.373941004 0.287665963
0.307906419 0.380012989 0.293737948
0.310689241 0.382037014 0.287919015
0.309930056 0.385578811 0.283365190
0.306641161 0.392409533 0.286907405
0.318785936 0.389373928 0.296015024
0.319544971 0.389374018 0.296521008
0.320050955 0.389374018 0.296267986
0.323086888 0.389880002 0.297533095
0.331815004 0.389880002 0.300442964
0.337634027 0.398608863 0.300442964
0.343706548 0.405440003 0.304490954
0.352561980 0.411258966 0.309424371
0.363947004 0.417584002 0.312460124
0.373055369 0.423655987 0.318532884
0.379759967 0.429475039 0.317394227
0.388867944 0.435547024 0.319671065
0.400632560 0.441239625 0.325237036
0.409740984 0.444276035 0.331309021
0.418848664 0.452878356 0.340164393
0.428209782 0.462239206 0.349525750
0.440860271 0.471347153 0.359898984
0.458697468 0.480455518 0.371283978
0.473877072 0.489563912 0.383428007
0.488804311 0.503478706 0.397849262
0.507273674 0.520303428 0.411385000
0.528779089 0.537255049 0.424541175
0.553067863 0.552435458 0.442757934
0.574446678 0.573434770 0.463377774
0.597469807 0.592915952 0.488172114
0.621758223 0.612650216 0.513851941
0.645793974 0.637445033 0.538393021
0.330929369 0.420999736 0.309677392
0.331182420 0.421505719 0.310183376
0.329917789 0.421125948 0.309803605
0.331688553 0.421758562 0.308412164
0.330549926 0.427071512 0.313345999
0.330676913 0.428842306 0.310436457
0.335230708 0.430866718 0.314484686
0.338773102 0.434408724 0.318026721
0.342568398 0.436685741 0.321062624
0.349652231 0.436685741 0.324098498
0.355850726 0.437065244 0.327008367
0.365970701 0.442125648 0.331056356
0.375838012 0.448577106 0.337128371
0.387223035 0.456040412 0.341808766
0.391271412 0.459582746 0.345351189
0.397976011 0.465654761 0.351423353
0.408602208 0.471726745 0.355597943
0.421378970 0.477798730 0.361670107
0.430487365 0.482985377 0.363441110
0.442378372 0.494370371 0.375079095
0.453383714 0.501581550 0.384187490
0.464389622 0.511827946 0.392283738
0.479064345 0.524477899 0.400885731
0.496900827 0.533586323 0.413029760
0.512080967 0.542694688 0.425173730
0.527261376 0.556862772 0.439848006
0.545730770 0.573181748 0.453889817
0.567742229 0.588362157 0.469829261
0.592030346 0.606198668 0.490702182
0.613409162 0.627324581 0.511954546
0.635799944 0.646552682 0.539025962
0.658191025 0.667046010 0.569006741
0.344971478 0.460088730 0.330929726
0.356356472 0.458190978 0.334724724
0.352308512 0.461733401 0.340164453
0.351802588 0.461227030 0.339658052
0.354458749 0.463883698 0.345603734
0.352940917 0.465401530 0.339531720
0.356862903 0.468437791 0.339152306
0.359898508 0.471473753 0.342188686
0.367235959 0.476533830 0.348007709
0.375584990 0.477672458 0.352181971
0.379759729 0.479569733 0.355218321
0.387982458 0.481593966 0.360278457
0.395572454 0.485768735 0.365211815
0.404427439 0.493358463 0.370271742
0.410752416 0.494750172 0.373308122
0.416192472 0.502087474 0.380645454
0.428336442 0.508159459 0.388235301
0.441998720 0.514231443 0.396710992
0.449841976 0.520303488 0.399241000
0.459835768 0.531941473 0.400885761
0.471979707 0.544085920 0.413029730
0.483111858 0.549146295 0.421125978
0.494623959 0.560530961 0.427450985
0.512840033 0.569639385 0.439595491
0.528779268 0.578747749 0.455534458
