Assets/Resources/EldamarStudio/100 Horror LUTs Pack/LUTs/cube/Tiragoni LUT.cube
LUT_3D_SIZE 5
DOMAIN_MIN 0.000000 0.000000 0.000000
DOMAIN_MAX 0.903226 0.903226 0.903226
0.027450999 0.054901998 0.133332998
0.091208287 0.077799000 0.141176000
0.178494409 0.117014416 0.161416590
0.288424999 0.180518985 0.199114129
0.446173608 0.293105781 0.266919643
0.126502290 0.138266698 0.165717706
0.156609684 0.149398699 0.174572989
0.220999405 0.177861989 0.189879715
0.316887707 0.232510686 0.223276541
0.468690485 0.336622477 0.289183974
0.236811966 0.269449800 0.227577820
0.253383666 0.281594098 0.234408692
0.308664978 0.318532407 0.255028814
0.393042386 0.363314539 0.292599678
0.526502192 0.466413349 0.378114969
0.358128130 0.495509118 0.356230110
0.384187549 0.509930551 0.373560816
0.428715706 0.531815290 0.404680520
0.502340257 0.587603092 0.449462235
0.618089616 0.664263070 0.543579936
0.598102391 0.787476420 0.660720587
0.615053594 0.788488269 0.660215139
0.658190548 0.802403331 0.679696202
0.714357555 0.826312363 0.717520773
0.788867772 0.851486564 0.762808442
0.052624710 0.072232708 0.158507288
0.106261700 0.092852995 0.164072990
0.186717123 0.133080289 0.184693277
0.296900988 0.200758845 0.221631989
0.450094610 0.303858250 0.296647519
0.131435990 0.140923694 0.183048993
0.167741701 0.158254415 0.198102415
0.229854271 0.187349692 0.208855271
0.325363547 0.241366237 0.245540693
0.473624229 0.348007649 0.320556521
0.243896410 0.275648087 0.246805698
0.271347374 0.293991089 0.261227131
0.322707087 0.327387691 0.280202270
0.398608118 0.374446511 0.318153143
0.530803144 0.479823053 0.406324744
0.376343697 0.504997194 0.391524523
0.388867676 0.511574805 0.405565828
0.429348707 0.538393497 0.425932825
0.503605247 0.581530631 0.468690544
0.621631682 0.664895654 0.559013188
0.599746704 0.783554733 0.662239432
0.618975461 0.785199463 0.671220541
0.655281246 0.802782893 0.687918901
0.713092983 0.821379066 0.720556498
0.792789459 0.856419683 0.768500745
0.097406581 0.093485415 0.215053573
0.139278993 0.113092996 0.212144285
0.209234834 0.151675999 0.233396411
0.304743975 0.210625991 0.269449413
0.459835351 0.317267388 0.347375214
0.167362422 0.163440987 0.234028995
0.188614711 0.172928706 0.235041112
0.248450413 0.205312982 0.255281687
0.333586395 0.258697122 0.288424969
0.479443640 0.363693655 0.379759490
0.256926417 0.293611407 0.290322810
0.275901407 0.307653278 0.306008577
0.336115956 0.342694819 0.331562370
0.408728838 0.398355395 0.377988368
0.534977794 0.499809921 0.463757217
0.379885972 0.515749514 0.439468652
0.394686729 0.526122689 0.453889817
0.446932137 0.560152113 0.487539530
0.524857581 0.610499561 0.534345269
0.639721632 0.686780632 0.614547908
0.608475566 0.784819603 0.689563453
0.620619833 0.791650891 0.693358600
0.660720587 0.804300785 0.708918631
0.713978469 0.829222202 0.742314816
0.804680586 0.860594749 0.798102379
0.171663120 0.135356992 0.316888124
0.198102564 0.152688280 0.322074294
0.269449413 0.191271275 0.341050148
0.358128130 0.249209255 0.376723260
0.480455667 0.346109807 0.447564632
0.214421421 0.204680413 0.342314690
0.234408274 0.212523982 0.345603675
0.293232113 0.240986958 0.360404819
0.380265713 0.295003295 0.405186713
0.500062943 0.393168628 0.480581641
0.282732546 0.332574099 0.402909249
0.309930414 0.345983386 0.415053964
0.355724365 0.375078946 0.437571257
0.431625396 0.423529536 0.471600235
0.544465542 0.507906079 0.543579817
0.408981860 0.548387110 0.545477271
0.418849140 0.560152113 0.545477271
0.458443969 0.584693372 0.566097558
0.530803144 0.628842354 0.605313122
0.646932065 0.694623768 0.665528119
0.615053594 0.790132642 0.739152551
0.623529613 0.798608601 0.742314577
0.657811284 0.811258495 0.751170337
0.733712912 0.839974761 0.786464095
0.818342745 0.870714784 0.833523095
0.234029159 0.206704661 0.550790787
0.259582669 0.218848839 0.555723846
0.327640384 0.257811636 0.568500996
0.420872957 0.331435919 0.595951736
0.536369622 0.438456744 0.641113639
0.254901856 0.269829363 0.564579427
0.285135806 0.280328810 0.568247795
0.345604092 0.316634774 0.583554566
0.436558962 0.383428216 0.609361291
0.548513472 0.482605755 0.655787528
0.322454244 0.418722630 0.612397432
0.338772982 0.420619786 0.611258507
0.393042386 0.453384012 0.630613625
0.475142539 0.511954486 0.654775202
0.593295157 0.590132535 0.699936807
0.467932135 0.639468908 0.702466607
0.471347094 0.639215589 0.704490840
0.511195242 0.654142797 0.715243459
0.570398271 0.676280975 0.732574224
0.685262322 0.731561959 0.771536767
0.658064425 0.820240438 0.809613764
0.665781140 0.819101751 0.817836881
0.700063467 0.832511187 0.826691628
0.762808561 0.862871468 0.853383720
0.854269564 0.899809778 0.898671746
