Assets/Resources/EldamarStudio/100 Horror LUTs Pack/LUTs/cube/Tiragoni LUT.cube
LUT_3D_SIZE 8
DOMAIN_MIN 0.000000 0.000000 0.000000
DOMAIN_MAX 0.903226 0.903226 0.903226
0.027450999 0.054901998 0.133332998
0.052877549 0.063124545 0.130171001
0.101075001 0.083112098 0.142694190
0.154712349 0.105376355 0.153574005
0.209107995 0.137887195 0.175584987
0.268184751 0.170398742 0.196078002
0.347627997 0.220872998 0.226439282
0.446173608 0.293105781 0.266919643
0.075648546 0.091334544 0.137254998
0.088931441 0.096015446 0.145098001
0.125364006 0.111321993 0.154459000
0.170778096 0.128905550 0.164579198
0.219860539 0.153573990 0.185578555
0.280834734 0.190765351 0.200632483
0.355218023 0.235673279 0.229222015
0.448956072 0.302719355 0.268184811
0.139405191 0.149652004 0.173308089
0.156356543 0.155092105 0.175964534
0.177102998 0.166097105 0.188994095
0.208349079 0.182543099 0.186590895
0.251359999 0.199746996 0.199747190
0.309803843 0.230993077 0.222517177
0.381404191 0.281088263 0.254649192
0.472738594 0.349778622 0.300063014
0.201138645 0.223655641 0.210626364
0.212396994 0.223655641 0.201770633
0.231878281 0.238583535 0.217836991
0.265655011 0.257305622 0.224161997
0.305503070 0.278431445 0.242884278
0.347754449 0.300569385 0.256925881
0.416571558 0.348260552 0.287665904
0.503731608 0.418342590 0.345603794
0.273371190 0.318026394 0.250979990
0.276913643 0.328652740 0.258823544
0.295382977 0.332827389 0.266413808
0.318785191 0.350410819 0.271853387
0.358760148 0.375079364 0.285136163
0.410119921 0.407210380 0.315875739
0.469955444 0.454016656 0.353826672
0.549145997 0.522453964 0.413789004
0.344971478 0.460088730 0.330929726
0.354458749 0.463883698 0.345603734
0.367235959 0.476533830 0.348007709
0.395572454 0.485768735 0.365211815
0.428336442 0.508159459 0.388235301
0.471979707 0.544085920 0.413029730
0.528779268 0.578747749 0.455534458
0.603415668 0.636938691 0.518026531
0.438456565 0.621758223 0.466540545
0.452118814 0.623782098 0.464769095
0.462871581 0.628842592 0.483744562
0.487159997 0.645287573 0.500189543
0.513599157 0.652371764 0.518279254
0.562807977 0.674004018 0.546489298
0.607716560 0.701834559 0.576343954
0.674762607 0.740543783 0.626312494
0.598102391 0.787476420 0.660720587
0.610752702 0.792030454 0.652751327
0.621125817 0.789500475 0.661480367
0.642125428 0.797976017 0.672485590
0.671979725 0.801897585 0.684629798
0.702972472 0.823276520 0.709930241
0.749145865 0.836685359 0.733206809
0.788867772 0.851486564 0.762808442
0.039216001 0.066666998 0.144338995
0.061100997 0.064262994 0.141935095
0.109297641 0.091334544 0.158001453
0.152308539 0.117140643 0.169259995
0.209234804 0.144971386 0.183554813
0.269196749 0.184946001 0.208602011
0.345730722 0.225174025 0.234029248
0.447438478 0.291207969 0.276407361
0.085389003 0.092093542 0.150538012
0.097533539 0.103858545 0.161163554
0.129664540 0.113598987 0.166603550
0.173560649 0.132827461 0.174446553
0.222137734 0.157874554 0.191018552
0.284250289 0.195445746 0.212776557
0.350916982 0.236432374 0.235547259
0.447817922 0.306008667 0.282479316
0.137887195 0.151170105 0.182669088
0.147627652 0.165338188 0.180265993
0.174699187 0.170019090 0.191271096
0.207969636 0.183302000 0.195572540
0.252624810 0.204806924 0.208096445
0.310183257 0.236938715 0.232764095
0.377862096 0.284250498 0.262365580
0.472106308 0.350664258 0.306135356
0.205565825 0.225173727 0.207210541
0.217457548 0.228716165 0.219101548
0.233396277 0.239595175 0.216951191
0.263630629 0.255281270 0.224414647
0.305123508 0.278810978 0.248450294
0.347374916 0.307020873 0.264895886
0.414927155 0.352182269 0.297026843
0.503478706 0.425679803 0.352561712
0.269829631 0.327007920 0.257685095
0.280961633 0.332447737 0.269955546
0.297786087 0.336749107 0.270335078
0.320050538 0.352814734 0.283238620
0.361543536 0.371536911 0.294876575
0.403794825 0.406704813 0.321441829
0.469955444 0.454143196 0.365718096
0.548893273 0.522453964 0.430360615
0.343833178 0.452877820 0.333459765
0.352434993 0.459582478 0.340544254
0.361796260 0.468943655 0.349146187
0.392410189 0.481088012 0.366477072
0.420999736 0.505375981 0.385958254
0.469829470 0.533206463 0.414547741
0.525869787 0.572801828 0.455913812
0.606957555 0.636938691 0.519923985
0.437191844 0.616572022 0.477545828
0.454522550 0.620493114 0.476154089
0.461479932 0.627450883 0.484756112
0.488551468 0.642757773 0.502846301
0.517773569 0.656546175 0.522454083
0.561669827 0.678557992 0.552055478
0.612523973 0.706768036 0.587096870
0.682226181 0.744591594 0.633143842
0.597090304 0.781024456 0.649589002
0.610499620 0.786337435 0.653130889
0.615560055 0.789500475 0.657431901
0.635926366 0.794434071 0.672359467
0.662745059 0.802403212 0.691460907
0.698924661 0.818089843 0.705629230
0.740164161 0.832258046 0.736622453
0.786590993 0.856040537 0.767615080
0.057937995 0.075268902 0.163820192
0.079949096 0.082353003 0.163440645
0.119164996 0.103478998 0.170145184
0.168501094 0.123466358 0.186211452
0.220240191 0.155218095 0.198355287
0.276154727 0.191144899 0.221125990
0.352308482 0.240480989 0.252245396
0.451359808 0.304870129 0.302972883
0.101075098 0.106640995 0.166983008
0.119544446 0.108159088 0.173687547
0.141429543 0.123845898 0.182668999
0.181024909 0.146995559 0.191271096
0.229601279 0.175585091 0.210626364
0.291840643 0.207969531 0.231625542
0.361796349 0.254143029 0.264769286
0.453890085 0.322074831 0.307779998
0.151170179 0.159898996 0.192915902
0.173687547 0.170904085 0.201138556
0.192030102 0.180265903 0.214041904
0.223276272 0.193548188 0.217203990
0.266413987 0.217077911 0.228969008
0.324857771 0.251486182 0.256672859
0.388488084 0.293611348 0.280455291
0.484756559 0.362428755 0.339785069
0.226944640 0.237824440 0.232764095
0.228842199 0.245288000 0.238330096
0.253890097 0.256546646 0.244528994
0.283618003 0.280075729 0.262112647
0.320556283 0.297280639 0.270335257
0.361037254 0.319038630 0.288677812
0.428842634 0.365970820 0.327387661
0.506893992 0.433143675 0.375585437
0.284503371 0.338393271 0.281214178
0.291587889 0.341808826 0.289184004
0.311069191 0.357242346 0.300063282
0.334977627 0.372043103 0.309424281
0.373055100 0.391524285 0.329032272
0.413535446 0.421252370 0.350917310
0.475395471 0.467425555 0.389120638
0.556482971 0.534218729 0.451232970
0.358380735 0.475395352 0.376091003
0.367489100 0.480076164 0.378241330
0.377229631 0.486780643 0.385325372
0.402656466 0.498798341 0.394686997
0.435167640 0.521189034 0.417204350
0.477040082 0.545098066 0.438330472
0.533333242 0.586590528 0.481846899
0.608981788 0.645414472 0.542567611
0.447058648 0.628083467 0.499683350
0.463250816 0.629348755 0.507273734
0.474636555 0.638962865 0.512840271
0.497406363 0.647691429 0.526628673
0.521568418 0.664895654 0.538646579
0.562555254 0.684123874 0.564832270
0.612270713 0.709550858 0.598102391
0.681846857 0.747627974 0.644149184
0.603794873 0.786084771 0.670841455
0.611258924 0.789879739 0.666413724
0.622770548 0.789500475 0.680328548
0.644781947 0.799494088 0.686780393
0.674130619 0.810752571 0.704743683
0.703731775 0.819860995 0.722327530
0.751043558 0.836305857 0.746995509
0.794307411 0.857937932 0.776596606
0.085768647 0.084629998 0.192283630
0.103352092 0.093231998 0.190006644
0.135483995 0.112460546 0.200632289
0.179379985 0.131182641 0.209614351
0.227956995 0.159772187 0.222517192
0.279949725 0.193927735 0.242883980
0.359392554 0.245540634 0.280834943
0.456293583 0.312713802 0.332574636
0.118279278 0.121062540 0.196584284
0.132321194 0.119038187 0.189500287
0.156610101 0.137128189 0.206072092
0.190638736 0.150790557 0.217457548
0.234029278 0.173813999 0.229221642
0.292472899 0.209867194 0.252245367
0.363820523 0.261227012 0.287033707
0.458317488 0.328779221 0.340796888
0.168121561 0.167994753 0.221758276
0.179759547 0.170271724 0.231625557
0.198608443 0.183681548 0.237571090
0.227071375 0.201265201 0.239342436
0.268564194 0.222770542 0.248197168
0.321821362 0.252878100 0.274889380
0.394433647 0.307021081 0.317267388
0.485895097 0.375332206 0.367615312
0.224794284 0.239974648 0.253890008
0.231878176 0.249842092 0.258190721
0.254649073 0.259203196 0.265907735
0.279190630 0.273624629 0.274130285
0.317520827 0.295508832 0.292093456
0.367741734 0.328020394 0.317520529
0.434535295 0.377988577 0.354965210
0.518406153 0.455155075 0.419607460
0.286527634 0.338772744 0.304364622
0.295256197 0.349651814 0.312839717
0.316128731 0.361416817 0.325489819
0.343073994 0.378115177 0.342947483
0.384313822 0.407084167 0.367615640
0.426945180 0.439342171 0.391271472
0.484124005 0.482732564 0.429095477
0.560784400 0.547121763 0.486148238
0.357874393 0.473244816 0.394939810
0.366603374 0.476027548 0.400379628
0.381530493 0.491334736 0.410752594
0.409234613 0.510057032 0.429348618
0.446426392 0.536369443 0.457305372
0.484883070 0.559898555 0.481973618
0.542314887 0.599367321 0.520556688
0.614800751 0.655028164 0.575585246
0.451359898 0.630739868 0.527134597
0.464768916 0.633776248 0.527135015
0.478810996 0.645161271 0.537001848
0.504111528 0.655407548 0.552308857
0.535483658 0.670335412 0.568247557
0.574699461 0.693105459 0.595698833
0.625173926 0.719291627 0.625173867
0.690954983 0.755091727 0.671600401
0.608222365 0.783175170 0.680075943
0.613535583 0.784313560 0.676407099
0.622517467 0.794939578 0.687792420
0.643263817 0.801644206 0.698292136
0.670588076 0.808222651 0.710815609
0.703605354 0.819987357 0.727767110
0.746489167 0.836559176 0.754838645
0.798228920 0.856925786 0.790765405
0.124604993 0.103478804 0.235041186
0.135610193 0.108159184 0.237571195
0.162934989 0.124604799 0.239847988
0.204933539 0.147754550 0.252498180
0.256166995 0.177103192 0.264895976
0.304237902 0.210246533 0.286780268
0.368880272 0.252245575 0.312587202
0.463377416 0.324857652 0.371410489
0.154079556 0.133586541 0.241872355
0.162302107 0.148260817 0.235926986
0.184566543 0.152435347 0.246426642
0.220619828 0.171663284 0.257938117
0.262492180 0.191144988 0.274003565
0.314990282 0.227197990 0.289057285
0.375205576 0.269450009 0.320809722
0.465654284 0.335610330 0.376723379
0.192156807 0.186464190 0.264009982
0.195066184 0.197596103 0.256926090
0.219481081 0.204554185 0.267931998
0.248450294 0.217078015 0.277798802
0.291461170 0.236559197 0.290575147
0.339152366 0.268564194 0.313725621
0.400253087 0.314864099 0.345351279
0.489057720 0.382036448 0.404680550
0.240607187 0.254901826 0.297406554
0.248324096 0.263251185 0.299683720
0.268817186 0.272612184 0.304364532
0.294497281 0.289816290 0.314484447
0.325869471 0.308918417 0.332068175
0.375584930 0.342947453 0.356989354
0.438203812 0.383681267 0.388614893
0.521947801 0.452118993 0.450600713
0.288424999 0.357242376 0.353320360
0.311954379 0.365085393 0.362808168
0.319671065 0.371284097 0.361923069
0.348640174 0.394433796 0.381404281
0.383175164 0.414294362 0.403415382
0.430486739 0.446299464 0.422896951
0.484756470 0.487159848 0.464389533
0.561164021 0.555597842 0.517647386
0.361037463 0.486400962 0.437444925
0.372548908 0.489563376 0.439848095
0.387476444 0.499683648 0.450474381
0.412017465 0.520050347 0.466034144
0.449715465 0.548007488 0.494244188
0.495762289 0.583428502 0.524984181
0.551296532 0.617583811 0.558633745
0.628210008 0.665275037 0.608349144
0.458191097 0.637444496 0.555344641
0.468943536 0.641492844 0.556609690
0.480708361 0.649209440 0.565211713
0.501580954 0.663251221 0.580898523
0.541682482 0.684503496 0.603795409
0.588488281 0.706388295 0.630613267
0.637191832 0.732194602 0.661479771
0.704111218 0.766982794 0.703099132
0.602656364 0.788614810 0.692220151
0.607843220 0.793801248 0.694876552
0.625047445 0.797849476 0.702719927
0.649588883 0.805186331 0.716761231
0.679569781 0.816318810 0.734092355
0.715622783 0.829728067 0.750790477
0.756356895 0.844528913 0.772422433
0.805186570 0.863377452 0.798734605
0.160530984 0.127261251 0.291587710
0.172548935 0.135483801 0.296015173
0.198861465 0.148386732 0.305376470
0.234534815 0.171537101 0.311195731
0.284250468 0.197343275 0.324983984
0.334851712 0.230992988 0.350410730
0.395446181 0.281467736 0.380771905
0.473371267 0.339278728 0.431878716
0.178873733 0.154585540 0.302973181
0.184060812 0.162555560 0.294623524
0.212270886 0.174319923 0.306135476
0.246299729 0.191524550 0.317900091
0.283365190 0.214547992 0.331688851
0.340670466 0.249462739 0.350664288
0.402529985 0.291587532 0.387097001
0.479190409 0.352941334 0.434535354
0.213409334 0.213030085 0.323845446
0.225427076 0.214547902 0.318911910
0.242758080 0.223655716 0.333459526
0.275395662 0.237697825 0.343074113
0.313725412 0.262365490 0.350284606
0.364579618 0.291713804 0.383681446
0.420366764 0.334345073 0.412396908
0.497026801 0.395698726 0.463883817
0.256419808 0.280202359 0.358127624
0.268311620 0.284124076 0.367362291
0.279570103 0.288804471 0.365844309
0.311701387 0.305249989 0.376091123
0.344592005 0.330423564 0.395319462
0.395698905 0.362049013 0.419228107
0.448450625 0.405566156 0.448956013
0.529791176 0.469702631 0.512460470
0.311954379 0.382036656 0.416950911
0.320809633 0.382795483 0.423023313
0.334092557 0.394560277 0.427577347
0.360404879 0.411132365 0.437318116
0.391271651 0.428210169 0.453637093
0.435547173 0.456420183 0.477545649
0.491967261 0.497533202 0.513345718
0.565844178 0.555850685 0.557115853
0.379633456 0.504870474 0.498924702
0.383427918 0.507400215 0.503352463
0.400379390 0.519418120 0.505755544
0.420240611 0.533586085 0.518026650
0.453510463 0.559139490 0.541555703
0.497406483 0.583301425 0.559772432
0.556483328 0.618342638 0.596078455
0.624161541 0.661733329 0.634914637
0.470714748 0.648576856 0.601011813
0.469955653 0.645287812 0.604554117
0.484630167 0.652751088 0.606072366
0.509424746 0.667552352 0.618090034
0.541935503 0.688804507 0.638330221
0.594686985 0.713092983 0.664895535
0.648956537 0.743706346 0.698418498
0.724984527 0.780518651 0.738899171
0.613029540 0.790638864 0.732827485
0.613662183 0.793421626 0.725869775
0.621758461 0.796078324 0.736748815
0.642251968 0.805565953 0.737507761
0.675142348 0.818216205 0.749019086
0.721821606 0.831625819 0.775331676
0.765465021 0.850094676 0.795698643
0.817077816 0.869196832 0.826185644
0.201264992 0.163693696 0.400885284
0.209235013 0.163820297 0.397090256
0.235926792 0.180265695 0.404807270
0.274130285 0.197976276 0.414927542
0.314105213 0.227830559 0.427324384
0.371284187 0.263504028 0.449842006
0.429348558 0.312333971 0.479949266
0.498039246 0.373055100 0.517773688
0.204806834 0.187349707 0.396331102
0.227324292 0.192030296 0.404427290
0.242884189 0.201011837 0.408855259
0.278431416 0.222896636 0.419228286
0.324098557 0.245414525 0.433649361
0.377735555 0.284250498 0.455407619
0.438836128 0.329411536 0.485262275
0.503731966 0.390891999 0.525237083
0.239595175 0.241366372 0.421125650
0.254522353 0.242378339 0.426312715
0.273498118 0.253890097 0.432131559
0.300822288 0.270588428 0.441998839
0.346363008 0.293611556 0.456420243
0.393548518 0.327261269 0.480581760
0.450348079 0.374067277 0.509550810
0.516888201 0.424920738 0.543200195
0.281340986 0.313978285 0.459835619
0.288677931 0.319038630 0.460341543
0.304364622 0.324098587 0.464895546
0.335736901 0.342062294 0.474383563
0.374319971 0.367488921 0.495129913
0.419734240 0.400759280 0.516635180
0.475395560 0.443010569 0.546109915
0.543200612 0.496647805 0.584566891
0.332953870 0.424414903 0.508032620
0.339025915 0.425553739 0.518911898
0.353447080 0.432258278 0.519797623
0.372928441 0.441619396 0.524478495
0.407337159 0.460341662 0.538646579
0.455787271 0.490448892 0.556988955
0.512840271 0.530803204 0.584693253
0.575205564 0.576850057 0.618469417
0.397596747 0.543073714 0.575711250
0.405945271 0.549019456 0.582795620
0.416445553 0.556483209 0.590006292
0.439215750 0.568627238 0.597723126
0.474636257 0.586717486 0.609614015
0.507021129 0.603795469 0.620113790
0.568247736 0.632764459 0.651233315
0.635420978 0.675774813 0.687412858
0.495635271 0.669449866 0.666160822
0.496268302 0.665907800 0.656293511
0.504111290 0.675648570 0.665528238
0.528779149 0.690702260 0.677292824
0.562934637 0.706388593 0.691461086
0.611385465 0.728779018 0.712207258
0.662238836 0.753447592 0.740037858
0.724225521 0.785578549 0.759392738
0.621758342 0.794939876 0.763820291
0.628462911 0.800126195 0.767362297
0.636811852 0.803541720 0.771916628
0.655661047 0.812776804 0.780012608
0.684630036 0.821758628 0.788867891
0.724984407 0.839468718 0.801644444
0.777862012 0.858191073 0.830992579
0.830866277 0.882099569 0.860720873
0.234029159 0.206704661 0.550790787
0.243643269 0.208349273 0.551802337
0.266919822 0.223908976 0.556229949
0.301581174 0.241745636 0.563946724
0.351296812 0.277798951 0.581150949
0.408222556 0.320050448 0.591397762
0.471347541 0.375585258 0.615180194
0.536369622 0.438456744 0.641113639
0.243137524 0.234029248 0.552308798
0.249715358 0.234029248 0.555597603
0.272612363 0.242378235 0.563061118
0.312586874 0.266540110 0.569259763
0.359519392 0.298924327 0.582669139
0.416951120 0.342567503 0.602023780
0.475142241 0.393927813 0.623908877
0.542314827 0.464010000 0.646426499
0.261732996 0.284503818 0.563567460
0.268817365 0.291334391 0.568627119
0.297786057 0.299051166 0.575837731
0.327893615 0.320936352 0.581403792
0.374446273 0.346995890 0.599746943
0.426945090 0.387728989 0.613409221
0.487665921 0.438583016 0.632257938
0.555344582 0.495761871 0.662365615
0.298924625 0.363567084 0.584566593
0.300695896 0.366350174 0.597216725
0.321315497 0.378115267 0.603035986
0.359645784 0.397217095 0.611764550
0.399999708 0.427071512 0.624288201
0.450347960 0.458570540 0.637191594
0.509551108 0.502972901 0.658696711
0.579380095 0.557242393 0.685515404
0.354585856 0.476533830 0.628462613
0.361416847 0.479949445 0.630740285
0.368627548 0.479316890 0.637064874
0.391144782 0.488425165 0.638836324
0.437824160 0.513472378 0.650600612
0.487033427 0.544844925 0.670335352
0.546616018 0.583175123 0.692220211
0.611638367 0.624035180 0.711195111
0.438330561 0.609361112 0.683238328
0.449715286 0.608222544 0.687539458
0.457431793 0.612144291 0.691840768
0.477545649 0.620113671 0.699683666
0.498165637 0.621252179 0.699810147
0.536748767 0.639342189 0.715622485
0.595698535 0.670208573 0.732321084
0.667299330 0.709044695 0.754838645
0.547880650 0.718659043 0.753320634
0.547880650 0.720809519 0.755344927
0.553447306 0.722453892 0.750411153
0.578494549 0.734218895 0.762808383
0.608602107 0.746110082 0.771916270
0.646932244 0.764326274 0.787729561
0.684630036 0.777735531 0.798482060
0.748386860 0.807969749 0.819608092
0.658064425 0.820240438 0.809613764
0.656167150 0.817836821 0.814042032
0.670082450 0.821378767 0.820113599
0.689057231 0.825173974 0.822517395
0.716128588 0.837318122 0.827703953
0.752688348 0.855281651 0.848576665
0.798228979 0.874636114 0.871726632
0.854269564 0.899809778 0.898671746
