Assets/Resources/EldamarStudio/100 Horror LUTs Pack/LUTs/cube/Vecholan LUT.cube
DOMAIN_MIN 0 0 0
DOMAIN_MAX 1 1 1
LUT_3D_SIZE 32
0.066666998 0.039216001 0.015686000
0.060594998 0.039216001 0.015686000
0.063124999 0.039216001 0.011385000
0.071727000 0.039216001 0.010372999
0.085389003 0.039974999 0.016065547
0.109676994 0.046046998 0.019101935
0.136495963 0.044528678 0.017077677
0.167109698 0.038203716 0.015686000
0.198229000 0.029854808 0.014927097
0.222517028 0.023782030 0.011891482
0.258443743 0.017710000 0.008855130
0.292852253 0.009614265 0.011890996
0.325110286 0.002783356 0.013409002
0.355724037 0.000000000 0.007843000
0.389120370 0.000000000 0.007843000
0.427324384 0.000000000 0.003036004
0.468311369 0.000000000 0.000000000
0.509551108 0.000000000 0.000000001
0.545983970 0.000000000 0.000000003
0.579633415 0.000000000 0.002783357
0.614927471 0.003794996 0.002024260
0.655408263 0.010879126 0.000000000
0.703858435 0.020240497 0.000000000
0.749398887 0.035420910 0.000000000
0.792662501 0.046046704 0.000000000
0.835167289 0.057937652 0.001391672
0.877672136 0.073624127 0.004427935
0.920176864 0.091840878 0.007463545
0.957368612 0.112713799 0.013155987
0.983174980 0.135736927 0.026312396
0.996963620 0.160025194 0.049842171
1.000000000 0.184313998 0.086274996
0.060594998 0.039216001 0.015686000
0.066666998 0.039216001 0.009614000
0.060594998 0.039216001 0.013914999
0.071980156 0.040480837 0.012650161
0.092979386 0.042251613 0.013029838
0.106641382 0.043010611 0.016065547
0.141050026 0.044022612 0.019101936
0.169892699 0.041492712 0.018722387
0.198988095 0.035167906 0.016445294
0.225553408 0.026818419 0.008855099
0.255661130 0.026565386 0.014547611
0.291840374 0.024794385 0.011891260
0.325110286 0.019861002 0.012650387
0.355724037 0.014674387 0.010626355
0.389120370 0.009108387 0.007843000
0.422517389 0.009108387 0.003036004
0.459203362 0.010626191 0.000000000
0.498671919 0.012776577 0.000000000
0.539911211 0.015180392 0.000000001
0.584693313 0.020746388 0.000000001
0.620999455 0.025047382 0.004680609
0.659456253 0.031119386 0.004048002
0.703858435 0.038330019 0.000000000
0.749398887 0.050601296 0.000000000
0.797216535 0.063504376 0.000000000
0.839847922 0.074762754 0.000000000
0.879190445 0.087792382 0.000885613
0.914104879 0.100948490 0.001391545
0.959266484 0.124478243 0.009740820
0.984440148 0.146110162 0.028589532
0.996963620 0.167362362 0.052371964
1.000000000 0.187349617 0.080202229
0.063124999 0.045667227 0.011385000
0.069196999 0.043517001 0.013915000
0.073118225 0.045667227 0.009993774
0.074636549 0.043137226 0.013535774
0.097533546 0.044655096 0.012523999
0.118532769 0.051739547 0.017330838
0.140164644 0.049588773 0.007463549
0.174952701 0.047944065 0.012144224
0.202530190 0.044908326 0.013156226
0.228463262 0.038583290 0.008222519
0.260847718 0.040353999 0.013661999
0.291207969 0.038330257 0.013662260
0.325110286 0.035926774 0.009488002
0.355977058 0.030360773 0.007210969
0.391271144 0.028083779 0.004174585
0.426818401 0.031119771 0.003036004
0.458697379 0.031119771 0.000000000
0.495762527 0.033522964 0.000632576
0.539784849 0.036558975 0.002150774
0.576470315 0.042378552 0.002150774
0.620113671 0.046552800 0.000253034
0.660088599 0.052371770 0.003542000
0.703984976 0.058570273 0.000252992
0.751549661 0.068690807 0.004300999
0.792915523 0.080834992 0.002150774
0.837317944 0.092978977 0.000759102
0.876787066 0.105123125 0.000000000
0.913472414 0.117267534 0.000000000
0.955344677 0.135736629 0.003668820
0.986717403 0.160025388 0.028715890
0.998228788 0.182542741 0.058950014
1.000000000 0.203288764 0.087033547
0.071727000 0.057305161 0.009108162
0.079064161 0.053004384 0.015180161
0.084250554 0.054269545 0.012270613
0.089816161 0.056040321 0.011765000
0.101960927 0.050727319 0.011385452
0.124857925 0.059329864 0.014800838
0.152182326 0.062618837 0.008222841
0.174952701 0.060847610 0.005818997
0.206831098 0.057811227 0.010372999
0.231625825 0.054775484 0.010373002
0.264642686 0.056293290 0.013661999
0.294749975 0.055281419 0.012397099
0.326248914 0.054522514 0.009361485
0.357242227 0.049335998 0.003668968
0.393674970 0.049335998 0.000632584
0.426312596 0.052878156 0.001265161
0.464769393 0.057178997 0.000000000
0.496394962 0.058444150 0.000632576
0.540037870 0.062112518 0.003668967
0.576976597 0.067931876 0.002656839
0.614800453 0.072106414 0.002024260
0.658317327 0.075142287 0.000000000
0.703858435 0.081087798 0.000126512
0.751296639 0.090195902 0.005060163
0.794307232 0.100316152 0.004301131
0.836305916 0.111195303 0.005060327
0.874763012 0.123845384 0.001518000
0.912713408 0.136749044 0.000000000
0.954838634 0.152941287 0.010246831
0.983681023 0.172169387 0.025173891
0.997849464 0.197343573 0.058064193
0.997470021 0.222011149 0.090322837
0.085768551 0.072485544 0.011765000
0.094876938 0.067931548 0.016698452
0.101075545 0.068311319 0.012397227
0.107653379 0.070082545 0.009867161
0.116002090 0.068943992 0.010626453
0.128146872 0.068943992 0.007590066
0.157621861 0.074003994 0.005313323
0.185199246 0.076407544 0.007337287
0.207210645 0.075648449 0.014168002
0.234535053 0.072612062 0.014168002
0.266919434 0.072865091 0.014168002
0.297026813 0.071600258 0.010879005
0.326628357 0.070461899 0.006325098
0.359519452 0.073750548 0.004048452
0.395572692 0.074003547 0.001391583
0.425933212 0.076407351 0.002024256
0.460088789 0.079063900 0.002403808
0.502087533 0.082732156 0.000253029
0.538519621 0.088804938 0.003289418
0.577356100 0.094877005 0.001897642
0.616824687 0.099430807 0.000758999
0.657178760 0.102466680 0.000000000
0.702719927 0.105756052 0.000000000
0.748260438 0.114863746 0.002783356
0.791903496 0.123971827 0.002024260
0.835420370 0.133080199 0.002023990
0.880076051 0.142062068 0.006831001
0.913472414 0.157242432 0.000759007
0.954079628 0.172043264 0.016698249
0.982795537 0.188614935 0.036938496
0.995951653 0.207590118 0.057305194
0.992915988 0.234914541 0.081594005
0.113092929 0.087665930 0.011765000
0.122201316 0.093737930 0.008728613
0.124857925 0.095635705 0.005060066
0.127134770 0.097406931 0.007337161
0.131182477 0.096268386 0.016698454
0.134218872 0.087159991 0.001518066
0.161543638 0.092219993 0.003542323
0.190765634 0.093358710 0.002277292
0.215560034 0.090828836 0.002024001
0.237571448 0.087792449 0.002024001
0.264895797 0.090575799 0.002024001
0.297280163 0.093105607 0.002024001
0.329664558 0.093990996 0.001012001
0.362555087 0.095002934 0.001012065
0.389879465 0.101074927 0.007084059
0.425932705 0.103731729 0.002024004
0.460847437 0.105249926 0.000506065
0.499557197 0.107020855 0.000000001
0.541556001 0.113092937 0.000253039
0.577988684 0.119164996 0.006072068
0.616824687 0.125236988 0.006830999
0.655281246 0.129791066 0.004807001
0.693611562 0.133080438 0.000000000
0.739152789 0.142188847 0.000000000
0.784693241 0.151296511 0.002783353
0.828336239 0.160404593 0.002024263
0.871347189 0.169006929 0.001012001
0.913472414 0.175458416 0.000759007
0.949525595 0.187981963 0.005312988
0.978115201 0.202403247 0.024541447
0.994433880 0.217204213 0.048703510
0.998987973 0.231878936 0.075522006
0.150537312 0.120556638 0.004174679
0.154585704 0.124098316 0.003668614
0.159393087 0.123719089 0.002783001
0.163567469 0.124731317 0.001265161
0.169133186 0.123972319 0.009108455
0.172169581 0.117014699 0.002530066
0.180265963 0.112966314 0.000000000
0.204048306 0.115749314 0.001391678
0.227957189 0.115117088 0.001517998
0.250980824 0.115623154 0.005059998
0.275521874 0.118405864 0.002530322
0.304870516 0.119417995 0.002530322
0.338899612 0.119670965 0.001391678
0.373181671 0.118785635 0.000000000
0.400506049 0.124857634 0.001517995
0.432637423 0.128525823 0.002783001
0.465907693 0.133080378 0.000000000
0.500316262 0.135737062 0.000000001
0.539025664 0.139911339 0.000000005
0.583554745 0.145983323 0.003036327
0.623782456 0.153953061 0.007210579
0.664895535 0.158633634 0.007843000
0.704743743 0.160278305 0.004933519
0.750284374 0.166982904 0.002530322
0.795825481 0.176091284 0.004807030
0.838582933 0.186590627 0.003668687
0.879443228 0.196837381 0.000506064
0.919924140 0.204933628 0.002530322
0.954585612 0.216318607 0.017963305
0.978621185 0.228462592 0.036432460
0.993042350 0.245540500 0.064136557
0.997469664 0.264263332 0.094749995
0.178494409 0.147121996 0.003288997
0.183175087 0.150158033 0.001644708
0.192789465 0.148892775 0.000000000
0.193295524 0.148387164 0.000000000
0.202023789 0.148766696 0.003036291
0.211385339 0.145224690 0.003795062
0.209614307 0.138393372 0.000000000
0.218722686 0.137001693 0.000000000
0.236938700 0.137001693 0.000000000
0.259456277 0.139152482 0.004301003
0.285388976 0.138899535 0.004933871
0.310436517 0.141555697 0.002277292
0.340797007 0.143832698 0.003415936
0.375964671 0.142821029 0.001644708
0.406072408 0.147501692 0.001644708
0.436559081 0.152814597 0.000000000
0.472991854 0.155850589 0.001518192
0.504997134 0.161164120 0.002277122
0.541429460 0.164199755 0.003288996
0.581277370 0.171663418 0.001138649
0.626565456 0.177988440 0.002530260
0.669070244 0.186084688 0.004554003
0.711827993 0.187855676 0.004554003
0.758886635 0.196963698 0.003036194
0.801138103 0.202023983 0.002909711
0.843896210 0.212523684 0.004554003
0.882858813 0.223655701 0.000000000
0.921189308 0.231625423 0.001897740
0.960278511 0.243390381 0.016571965
0.983048499 0.255534381 0.045034848
0.994686902 0.268563986 0.075015649
0.997722745 0.290575713 0.109170996
0.200506091 0.167615101 0.007084097
0.206578091 0.171410590 0.004807387
0.216824770 0.167868331 0.001771226
0.225933015 0.169639364 0.000000000
0.223655730 0.171537101 0.000000000
0.239974976 0.170778006 0.005313002
0.236938775 0.163946778 0.004300999
0.236938700 0.158254102 0.000759096
0.247565091 0.157495201 0.000000000
0.265781105 0.157495201 0.000000001
0.290448874 0.155344978 0.002150774
0.314990401 0.157115936 0.001897744
0.342315197 0.160531104 0.000379548
0.372675210 0.166603103 0.003162904
0.405566156 0.170145422 0.003162904
0.437318176 0.174826086 0.001518196
0.470714569 0.180139184 0.000759096
0.509551108 0.183807984 0.003162904
0.545983970 0.186970145 0.006072029
0.584693074 0.196331546 0.003036091
0.626059175 0.203542188 0.000759096
0.669829130 0.208855093 0.000759096
0.712207377 0.214927092 0.000632584
0.758886814 0.225806102 0.000000000
0.802150249 0.232637376 0.000000000
0.842377841 0.239089176 0.000000000
0.882859051 0.250727266 0.002530062
0.920050859 0.257052273 0.003795092
0.961796641 0.268437773 0.017077902
0.984566867 0.281341136 0.043896340
0.996963620 0.293611676 0.081847131
1.000000000 0.308792084 0.118279189
0.233902499 0.194939494 0.004048482
0.239974499 0.201012284 0.004048484
0.246046484 0.194054440 0.001771227
0.251233160 0.192409828 0.000000001
0.254016519 0.201897889 0.000000000
0.257052928 0.195825115 0.000000003
0.255661190 0.190006018 0.005312999
0.257305503 0.183807492 0.005945711
0.265781105 0.178747609 0.003036390
0.280961484 0.175711975 0.000000000
0.299177468 0.175711975 0.000000000
0.319797248 0.179633498 0.000126516
0.345730424 0.184440345 0.000000000
0.378748000 0.187855497 0.000126516
0.409107953 0.193927497 0.000126516
0.441998929 0.197469831 0.000126517
0.475269169 0.202150494 0.000000001
0.509551108 0.208096012 0.000126516
0.545983970 0.214168027 0.000126518
0.590765357 0.225680202 0.003036355
0.634028971 0.233902976 0.003795483
0.675648093 0.238962844 0.003795484
0.715242982 0.242251486 0.003668970
0.754712224 0.248323500 0.000632580
0.799114287 0.256925792 0.000000000
0.843010306 0.265781164 0.000000000
0.885894716 0.275016069 0.002530062
0.931435823 0.284124434 0.017710432
0.973940611 0.295762479 0.032258295
0.991650999 0.309677690 0.058064621
0.994054437 0.323845953 0.094244175
1.000000000 0.336116493 0.136495963
0.255660862 0.213535741 0.001012129
0.258823752 0.216697901 0.003922000
0.262744963 0.224920899 0.003922000
0.269323021 0.219354570 0.001644709
0.277166426 0.218848675 0.000758999
0.290322781 0.220366865 0.005818998
0.288298547 0.216824412 0.003289322
0.288551569 0.216065586 0.006578160
0.291840732 0.212270737 0.005313130
0.296268344 0.202783346 0.000126516
0.311448723 0.196837872 0.000000000
0.331689000 0.200885877 0.000000000
0.352941394 0.205819219 0.000000000
0.379507005 0.208854899 0.000000000
0.415179968 0.212270737 0.000000000
0.447944403 0.220746547 0.002403804
0.484377176 0.227830544 0.001391678
0.520556569 0.234661460 0.000000000
0.554712117 0.238456756 0.000000000
0.593928277 0.244528756 0.000000000
0.635420561 0.256419986 0.002909870
0.676913261 0.263504148 0.002909872
0.718152881 0.266793251 0.001012129
0.754838705 0.275648624 0.000759096
0.796584547 0.281720579 0.000000000
0.842884183 0.290196061 0.000000000
0.888424993 0.299810112 0.001518063
0.931562304 0.311322302 0.011891438
0.969133615 0.323086858 0.043010768
0.993421972 0.331688851 0.070335120
0.997090399 0.342567950 0.101075187
0.997090161 0.354711980 0.131435990
0.282985508 0.239848495 0.000000000
0.286021382 0.244908378 0.001012131
0.293105751 0.242125273 0.001897744
0.298671663 0.247438505 0.004427744
0.307020962 0.242125213 0.003668545
0.315622926 0.245161176 0.004807259
0.319671184 0.245161176 0.005313323
0.319923788 0.242125213 0.003922000
0.323719174 0.242884398 0.005819260
0.326249510 0.234535247 0.002277255
0.330677122 0.230233967 0.000000000
0.343833268 0.224161983 0.000000000
0.365085602 0.227956980 0.000000000
0.386338025 0.230866298 0.000505999
0.413915247 0.239215910 0.004047996
0.456040114 0.243010789 0.004427544
0.487919092 0.250600994 0.002909743
0.525237143 0.257937849 0.000000000
0.560025334 0.260974228 0.000000000
0.596964121 0.270841271 0.000000000
0.636432707 0.276913255 0.001897740
0.674889266 0.286780238 0.004933870
0.715623021 0.290954977 0.003921516
0.759645820 0.298165619 0.002024256
0.800632536 0.307020992 0.000000000
0.843137264 0.317267627 0.000000000
0.888931036 0.327134490 0.003035997
0.929917574 0.336242884 0.016698178
0.967109323 0.346363246 0.040986769
0.991144896 0.358507216 0.072612360
1.000000000 0.365970850 0.104870215
0.998102248 0.376976490 0.131435737
0.311068982 0.270208985 0.000000000
0.312966228 0.274003983 0.000000000
0.321442068 0.273750991 0.000000000
0.330550134 0.270208985 0.001391646
0.338519990 0.270208985 0.006704646
0.340796709 0.272485703 0.004427936
0.343832970 0.271853268 0.002783356
0.348007560 0.272485703 0.002783356
0.354079366 0.270968080 0.003542452
0.361290604 0.268690795 0.003921999
0.364959270 0.264516056 0.002150774
0.370778263 0.259455919 0.000000000
0.379506618 0.254522294 0.000000000
0.400506049 0.254522294 0.000000000
0.420873016 0.263124824 0.004300996
0.459076405 0.270335466 0.010119998
0.499303997 0.276027620 0.007084001
0.530297160 0.282099634 0.001012007
0.566223979 0.285641998 0.000000000
0.600379705 0.297027320 0.000000000
0.642125368 0.306514651 0.000759096
0.683617771 0.313598782 0.002783356
0.720556498 0.320050269 0.005566002
0.766097486 0.328146279 0.003542259
0.808981538 0.334218562 0.001644712
0.850347936 0.343832940 0.004553996
0.892346680 0.358507276 0.008602121
0.931815028 0.365844280 0.028083265
0.967488587 0.373434454 0.056166906
0.989247143 0.384313613 0.083997346
0.998229027 0.397343218 0.114358164
0.997722983 0.406957626 0.144718274
0.336622089 0.300569057 0.000505999
0.336369038 0.300316006 0.000000000
0.344465554 0.301328093 0.000000000
0.355091870 0.300822020 0.001012129
0.363567084 0.300316006 0.003668968
0.363567084 0.300316006 0.003668968
0.366350383 0.299051374 0.001644710
0.371284038 0.298798323 0.000253032
0.378874153 0.301834136 0.000506064
0.394054532 0.304870546 0.003542452
0.403668880 0.299177974 0.003668968
0.411006063 0.293105990 0.001897744
0.416192472 0.288172424 0.000505999
0.419228077 0.284883082 0.000000000
0.437444806 0.284883082 0.000000000
0.470967770 0.291334838 0.008601991
0.508665323 0.300695837 0.012144003
0.544465542 0.309424102 0.006831041
0.577862024 0.315496117 0.000759031
0.609993756 0.326881737 0.000000000
0.650474429 0.337381363 0.000000000
0.698039174 0.346489161 0.000000000
0.743453026 0.355724037 0.000126512
0.783048749 0.367868125 0.000253032
0.822517276 0.373434365 0.000759032
0.861226976 0.379000664 0.006578043
0.900949061 0.388362050 0.021252124
0.940417409 0.400506049 0.045540877
0.974825740 0.407337040 0.080455601
0.993042231 0.416951001 0.112839974
0.998735011 0.429727614 0.143706173
0.992662966 0.444908023 0.174066991
0.376091212 0.330929816 0.006577994
0.373054802 0.327893406 0.000505994
0.377102792 0.336242944 0.000000000
0.384439975 0.338266879 0.000000000
0.391144484 0.333459377 0.000632584
0.396964222 0.327640384 0.000632584
0.402024239 0.337761045 0.003162906
0.409108073 0.338520110 0.003289416
0.416824579 0.338266879 0.002530320
0.424415290 0.341303289 0.000506068
0.436685830 0.335610062 0.000632584
0.446173638 0.329537928 0.000632584
0.453510791 0.324604601 0.002276998
0.458697170 0.321315795 0.006071994
0.461732805 0.315243810 0.000000000
0.482352763 0.315243810 0.000000000
0.513472199 0.323213369 0.002530012
0.547501326 0.334092379 0.001897582
0.580898404 0.342821211 0.003795413
0.628210187 0.351675868 0.000506060
0.663504124 0.363314450 0.000000000
0.704111338 0.373814106 0.000000000
0.749525785 0.383048415 0.000126512
0.792030632 0.395193189 0.003162904
0.831625700 0.402783215 0.007843412
0.866919756 0.408222824 0.016825063
0.901202142 0.415433466 0.033902824
0.943453848 0.424794793 0.063756861
0.980265379 0.431625783 0.098671585
0.993042231 0.441239744 0.128020361
0.995192945 0.453383774 0.157115772
0.998735011 0.466160387 0.192282975
0.410752803 0.368500769 0.005439809
0.410120189 0.367868185 0.004174804
0.415686339 0.369133353 0.004554030
0.419481397 0.375458777 0.002276996
0.424035400 0.372801840 0.000758999
0.434155643 0.372801572 0.004806995
0.445034772 0.365085423 0.000126518
0.446173489 0.373940766 0.001518196
0.452245295 0.373940587 0.001518196
0.459961951 0.375332266 0.000126516
0.467046559 0.374446660 0.000000000
0.473118305 0.370398134 0.004047996
0.480329007 0.364705563 0.003668642
0.486654013 0.360151768 0.005439809
0.493991166 0.354079783 0.003668810
0.501834393 0.350410968 0.000000000
0.523086786 0.350410968 0.000000000
0.554838717 0.359013110 0.000632576
0.593548715 0.369892746 0.003668967
0.631245971 0.379000425 0.003542447
0.672232687 0.388108522 0.000506064
0.709171236 0.399746984 0.000000000
0.753067672 0.410372794 0.000000000
0.793295801 0.422517568 0.000759100
0.833523273 0.432384491 0.010626187
0.872991621 0.439974636 0.028083494
0.906894386 0.447564870 0.050854109
0.943706870 0.456673235 0.081214562
0.968880773 0.465528578 0.112080589
0.994686782 0.473371357 0.144971341
0.996078372 0.485768378 0.174952537
0.997596204 0.499430597 0.212902784
0.445667386 0.403415382 0.003922000
0.445667386 0.409487367 0.005439805
0.449082762 0.408602148 0.003036228
0.458191127 0.412903368 0.004807003
0.459709167 0.412270814 0.000000000
0.469576180 0.410752445 0.003795002
0.477166384 0.406704694 0.002783001
0.488677889 0.405819356 0.000000000
0.487160265 0.409614265 0.000000000
0.494750082 0.408855170 0.000000000
0.505502701 0.410373360 0.000000000
0.511069298 0.411385089 0.001011999
0.515243590 0.408349007 0.004807003
0.520809591 0.402150482 0.002403808
0.526122808 0.393548161 0.002403808
0.536748946 0.391397566 0.003036388
0.545857370 0.388361573 0.000000000
0.569007099 0.388993979 0.000000000
0.607969820 0.398481935 0.002150776
0.640354395 0.406325221 0.002403808
0.679822445 0.418468922 0.002024260
0.717267394 0.427577317 0.002023998
0.759013236 0.439215362 0.003541982
0.797090769 0.451359779 0.009107991
0.835041463 0.458191097 0.022770174
0.874509811 0.465907395 0.040480494
0.912966251 0.475901246 0.070082247
0.946363091 0.487033635 0.099430859
0.973687768 0.496142000 0.125237137
0.985578775 0.502213955 0.157115355
0.999367416 0.513092816 0.189247161
0.997596204 0.528273225 0.228083193
0.481467545 0.436306119 0.004554415
0.483365119 0.447185099 0.006325198
0.484882921 0.449841857 0.003542000
0.489816248 0.449336112 0.000000000
0.498545110 0.454269558 0.000000000
0.504617155 0.445667177 0.000000001
0.508791864 0.442884415 0.000632576
0.514864147 0.444149524 0.000000000
0.525996029 0.448576987 0.000632576
0.529032409 0.445540607 0.000632576
0.541808844 0.447691411 0.001264990
0.552182078 0.450094819 0.000632577
0.560152113 0.451486170 0.000000001
0.565971076 0.448450565 0.000000000
0.566350520 0.437444448 0.000000000
0.574699521 0.433016688 0.002403803
0.585958302 0.430866301 0.003036384
0.594434083 0.427198112 0.000000002
0.624794245 0.430233747 0.000000002
0.651107073 0.435420692 0.000000002
0.686654150 0.445287794 0.000632584
0.728146374 0.459708691 0.004553989
0.767489016 0.468817055 0.011132000
0.803921819 0.480455130 0.024288148
0.839089572 0.486400813 0.041998431
0.876913607 0.492093503 0.065274879
0.915370047 0.498671591 0.089563563
0.948766410 0.513598979 0.116761409
0.979506612 0.522833765 0.140670344
0.994560361 0.529032290 0.169006675
0.996963620 0.534345150 0.202023730
1.000000000 0.549525559 0.238456562
0.514864028 0.478810996 0.007590032
0.523972392 0.484882981 0.004554423
0.525869966 0.489310741 0.002024195
0.528652966 0.490575999 0.000000000
0.534977973 0.490702450 0.000000000
0.541050017 0.487666070 0.000000003
0.547122002 0.489184320 0.002530323
0.551296771 0.491714299 0.002024260
0.556609929 0.494244039 0.000759095
0.565464497 0.494117498 0.003668965
0.571410775 0.493991017 0.006578090
0.582289994 0.494244039 0.005313259
0.595066667 0.494497001 0.002530328
0.608475983 0.493991077 0.000000003
0.611511588 0.490955472 0.000000000
0.616698027 0.482353151 0.002403802
0.626312435 0.475521982 0.003921997
0.636938989 0.469703019 0.003036391
0.643011034 0.463631004 0.000000010
0.665022373 0.466666609 0.000000010
0.696268499 0.471853048 0.001897767
0.734219134 0.481720150 0.008728877
0.773561001 0.496141523 0.023276057
0.809993804 0.505249918 0.041492857
0.841872573 0.512333989 0.056926265
0.876913607 0.520936012 0.078178622
0.915370047 0.532068074 0.104744010
0.948766410 0.541176438 0.129031986
0.979506612 0.548134029 0.158886656
0.995698988 0.554459035 0.190259129
0.999746978 0.561163604 0.222770184
1.000000000 0.570778012 0.253637016
0.556609750 0.529665112 0.007843000
0.565718174 0.535737097 0.007590034
0.568374753 0.537508130 0.002403648
0.569639623 0.537381589 0.000000000
0.574572980 0.536242962 0.000379548
0.583048761 0.538014174 0.002783357
0.586591125 0.540037751 0.002783357
0.595699072 0.541429400 0.002277292
0.603668809 0.542567730 0.000000000
0.612776935 0.542567730 0.001012127
0.621758103 0.542567730 0.001265125
0.633902669 0.544592023 0.006324992
0.644528747 0.545351148 0.005566293
0.653763413 0.545351148 0.002530325
0.656799674 0.544845223 0.000000001
0.669449866 0.539405763 0.000000000
0.679696441 0.532195091 0.001138643
0.689310730 0.526122987 0.001138645
0.691081762 0.520050406 0.000253042
0.705503166 0.513978362 0.008349362
0.724857748 0.515116751 0.027324345
0.755977273 0.521441996 0.043390281
0.793295324 0.534598589 0.060468070
0.824415147 0.543706298 0.078684196
0.860847890 0.552814662 0.101454943
0.895003319 0.559392750 0.118153393
0.931562126 0.567235768 0.138899803
0.962681770 0.571790159 0.160911068
0.985452116 0.580897868 0.195825011
0.997722983 0.588867605 0.226438731
1.000000000 0.599493921 0.262365520
1.000000000 0.614295065 0.302214086
0.601012170 0.577482700 0.004048004
0.606325090 0.585452437 0.004048004
0.607084453 0.589120746 0.003542000
0.613409281 0.586590767 0.002529999
0.617836475 0.583681047 0.003035997
0.619354665 0.586717427 0.001518195
0.629095852 0.587855875 0.003922000
0.638709784 0.590891480 0.003922000
0.649588883 0.591144443 0.001897740
0.657558978 0.591144443 0.001897739
0.664769351 0.591144443 0.000000000
0.672232687 0.595066428 0.002150740
0.683997452 0.598102570 0.004807100
0.690575421 0.598102450 0.002024260
0.698545098 0.593168736 0.000632584
0.713093221 0.590259492 0.001897740
0.723719478 0.585705280 0.000379548
0.734471858 0.580645323 0.000000006
0.738266706 0.575838029 0.000000023
0.746489823 0.567868233 0.021632092
0.757874727 0.561796188 0.040227715
0.774066985 0.560784042 0.066539988
0.803415716 0.568374515 0.085009702
0.837318063 0.577482581 0.106767729
0.874130547 0.584693015 0.125743300
