Assets/Resources/EldamarStudio/100 Horror LUTs Pack/LUTs/cube/Vecholan LUT.cube
LUT_3D_SIZE 8
DOMAIN_MIN 0.000000 0.000000 0.000000
DOMAIN_MAX 0.903226 0.903226 0.903226
0.066666998 0.039216001 0.015686000
0.085389003 0.039974999 0.016065547
0.198229000 0.029854808 0.014927097
0.325110286 0.002783356 0.013409002
0.468311369 0.000000000 0.000000000
0.614927471 0.003794996 0.002024260
0.792662501 0.046046704 0.000000000
0.957368612 0.112713799 0.013155987
0.085768551 0.072485544 0.011765000
0.116002090 0.068943992 0.010626453
0.207210645 0.075648449 0.014168002
0.326628357 0.070461899 0.006325098
0.460088789 0.079063900 0.002403808
0.616824687 0.099430807 0.000758999
0.791903496 0.123971827 0.002024260
0.954079628 0.172043264 0.016698249
0.200506091 0.167615101 0.007084097
0.223655730 0.171537101 0.000000000
0.247565091 0.157495201 0.000000000
0.342315197 0.160531104 0.000379548
0.470714569 0.180139184 0.000759096
0.626059175 0.203542188 0.000759096
0.802150249 0.232637376 0.000000000
0.961796641 0.268437773 0.017077902
0.311068982 0.270208985 0.000000000
0.338519990 0.270208985 0.006704646
0.354079366 0.270968080 0.003542452
0.379506618 0.254522294 0.000000000
0.499303997 0.276027620 0.007084001
0.642125368 0.306514651 0.000759096
0.808981538 0.334218562 0.001644712
0.967488587 0.373434454 0.056166906
0.445667386 0.403415382 0.003922000
0.459709167 0.412270814 0.000000000
0.487160265 0.409614265 0.000000000
0.515243590 0.408349007 0.004807003
0.545857370 0.388361573 0.000000000
0.679822445 0.418468922 0.002024260
0.835041463 0.458191097 0.022770174
0.973687768 0.496142000 0.125237137
0.601012170 0.577482700 0.004048004
0.617836475 0.583681047 0.003035997
0.649588883 0.591144443 0.001897740
0.683997452 0.598102570 0.004807100
0.723719478 0.585705280 0.000379548
0.757874727 0.561796188 0.040227715
0.874130547 0.584693015 0.125743300
0.985452056 0.613156319 0.219734386
0.757368565 0.758380830 0.063757099
0.766856253 0.764579535 0.072359100
0.791018486 0.765338421 0.074383087
0.826818526 0.765717924 0.102593094
0.868184865 0.767615318 0.139279008
0.889816701 0.751675844 0.194686830
0.922454298 0.722074509 0.246173128
0.986590743 0.730044484 0.337761074
0.883997619 0.902339816 0.407716155
0.895509183 0.904364049 0.412017643
0.909804046 0.906894386 0.424035251
0.938646555 0.909930408 0.432258010
0.965970993 0.911322117 0.456040412
0.992283165 0.911448598 0.483871102
0.997469962 0.892220080 0.525110364
0.998734832 0.871094584 0.557874560
0.079190098 0.050600551 0.021505548
0.088931441 0.046679452 0.014041998
0.191524550 0.035294000 0.026944641
0.294117719 0.052877743 0.028968997
0.422517508 0.058697190 0.035167899
0.589373708 0.072359540 0.045414094
0.764705956 0.092726439 0.053004377
0.945350885 0.140290797 0.086274818
0.081087545 0.065781087 0.016065547
0.113599084 0.073624089 0.025047097
0.184819996 0.088551991 0.028589547
0.291713923 0.096015446 0.032511353
0.424920708 0.104111083 0.033270352
0.589373708 0.119797274 0.043769803
0.762934804 0.143579826 0.049841799
0.938266873 0.182795823 0.081973366
0.178621083 0.154712558 0.024667645
0.206072107 0.148766294 0.015939543
0.221632197 0.143706650 0.023782546
0.319544286 0.161290109 0.026944643
0.447438091 0.181277737 0.036306445
0.603795350 0.206325024 0.039342348
0.781530559 0.234029382 0.054902021
0.951296151 0.273877352 0.098165639
0.293738276 0.248450622 0.015686193
0.307400614 0.256799281 0.025173906
0.335610628 0.257178813 0.011258643
0.360151470 0.247058734 0.031625543
0.477292925 0.269323170 0.040354352
0.625679731 0.300948620 0.044402279
0.790891886 0.340923607 0.061985921
0.952308476 0.371410429 0.116381980
0.429348201 0.395446092 0.003036094
0.447691560 0.402530372 0.003036094
0.475015730 0.398987889 0.008222645
0.501201451 0.399367452 0.016065549
0.531309009 0.382542819 0.047058925
0.668943465 0.412144125 0.064895995
0.829980850 0.456167012 0.095509112
0.968753994 0.493105501 0.172802150
0.584819615 0.571157217 0.004174544
0.598228753 0.572548985 0.004554092
0.630866766 0.573434412 0.005313092
0.665275216 0.582922161 0.006072091
0.702593267 0.573434412 0.035420269
0.741555750 0.556230068 0.106894270
0.861353755 0.579506695 0.167488798
0.986590564 0.616065800 0.263503969
0.737634122 0.748386860 0.122074626
0.752055407 0.752182305 0.123971924
0.769639432 0.747121632 0.118532456
0.806831181 0.751929164 0.145477176
0.849082887 0.755977273 0.164073542
0.873624444 0.738520026 0.214168385
0.909424543 0.710563004 0.258950114
0.982416034 0.723719060 0.344212294
0.871979535 0.900442600 0.415053487
0.881720424 0.899430513 0.420872778
0.896141768 0.898924351 0.422137797
0.924098372 0.894876480 0.426565379
0.957621634 0.903858006 0.450853646
0.990512192 0.901960611 0.486147463
0.997469962 0.886527479 0.528905869
0.998734832 0.865780950 0.566603243
0.091714002 0.047817901 0.082226098
0.121442094 0.049841553 0.085389003
0.202277109 0.037571095 0.079823092
0.304744095 0.047818001 0.082226291
0.430107296 0.062618896 0.090069897
0.574826419 0.096647643 0.124984257
0.747754693 0.141682282 0.146995381
0.933080316 0.189626902 0.182795644
0.114357993 0.090955094 0.078684546
0.147375092 0.095256448 0.074383095
0.200252652 0.089310996 0.073624194
0.300063193 0.108918183 0.079443544
0.421505362 0.127640903 0.107020743
0.566982687 0.158760458 0.128020346
0.750663996 0.178494379 0.149652019
0.929411650 0.219101667 0.192283168
0.148893088 0.157495201 0.064263001
0.187729552 0.171283647 0.074762642
0.240607098 0.170778006 0.086021185
0.326375723 0.181404456 0.095888637
0.437065274 0.200506091 0.116761193
0.589879453 0.224035174 0.130677089
0.763567448 0.256040484 0.159519091
0.940164566 0.300948918 0.205313012
0.279316634 0.267173082 0.095129646
0.296521544 0.267173082 0.099430896
0.332574517 0.262744933 0.099810444
0.359519184 0.256166995 0.099304184
0.473118365 0.275142550 0.122453928
0.608096242 0.311575085 0.139911279
0.788361907 0.350410908 0.172548831
0.947501481 0.393801272 0.219481245
0.407337189 0.390765190 0.114990182
0.426186115 0.401771069 0.117773548
0.456673265 0.397849441 0.119671285
0.493864834 0.401771188 0.125616640
0.524857521 0.381404370 0.139278889
0.657938302 0.419354945 0.161922991
0.820999384 0.463630468 0.203289285
0.963440716 0.513725281 0.265907735
0.574573040 0.573181391 0.148007289
0.586590648 0.578621209 0.151296631
0.613915384 0.577103376 0.151676089
0.657432020 0.581404090 0.159519091
0.693611681 0.579506576 0.176217735
0.735104203 0.558254480 0.202403471
0.856546283 0.592409968 0.263377666
0.981783450 0.630866587 0.350284547
0.727893651 0.754459500 0.244402647
0.739025831 0.758127928 0.262745291
0.767109275 0.759139776 0.263883561
0.805566072 0.757495463 0.276028037
0.847817779 0.763061166 0.292979240
0.872106552 0.746995568 0.315496504
0.907400429 0.719923973 0.348007560
0.984566510 0.736495614 0.427957147
0.863630652 0.902846098 0.488298655
0.867172539 0.909803867 0.497533023
0.887286544 0.904617250 0.496141434
0.921947896 0.905502915 0.511068642
0.948766828 0.909803927 0.531815171
0.984566569 0.907400429 0.548513710
0.994939983 0.892852604 0.585199058
0.998734832 0.874256909 0.606578350
0.129538640 0.038077358 0.184566274
0.160531297 0.033396550 0.190133080
0.214168534 0.049715549 0.166982830
0.299936980 0.054395646 0.161543638
0.434282035 0.065780997 0.171030641
0.578621328 0.084629998 0.188614890
0.751296461 0.098671995 0.218216270
0.927008092 0.185958147 0.271347433
0.154965281 0.101834185 0.156103641
0.180391923 0.103731640 0.160278365
0.219607726 0.107653446 0.152055725
0.306261986 0.106388278 0.152181923
0.424794823 0.123719186 0.167994648
0.570777655 0.142947540 0.191777274
0.746362627 0.162302345 0.223402917
0.913851857 0.239721790 0.284377009
0.187602639 0.169512838 0.160025537
0.211764723 0.168248087 0.156356364
0.258064717 0.182416096 0.160784543
0.326122731 0.186338082 0.155217916
0.442883909 0.211005732 0.185072631
0.583428502 0.229727924 0.207589909
0.752434790 0.283870935 0.259329826
0.923465967 0.339152366 0.320683032
0.227577642 0.257432282 0.136369631
0.259329289 0.260214925 0.153826654
0.315749288 0.281088084 0.173687279
0.368374646 0.287665933 0.190765277
0.469449580 0.300189644 0.210499376
0.600885093 0.328399599 0.233902365
0.763693929 0.362302244 0.275521904
0.928779364 0.418090075 0.335357249
0.365718096 0.393421829 0.196458176
0.396078646 0.402783006 0.204680741
0.433522940 0.404807180 0.217457369
0.485515386 0.400885344 0.221758619
0.521188915 0.395698816 0.232637823
0.650853753 0.433649570 0.266413718
0.804048181 0.479190171 0.309803963
0.952308476 0.533839285 0.379633069
0.531309128 0.564706087 0.265401632
0.548640013 0.568627298 0.263124615
0.585072637 0.568247736 0.274509549
0.629981101 0.578621328 0.276407003
0.679063678 0.576596975 0.289437175
0.715749621 0.563188136 0.308665454
0.837951005 0.605692804 0.367488742
0.966982722 0.650853515 0.453763187
0.700063169 0.743453503 0.361796200
0.706767917 0.748387218 0.368121564
0.726755261 0.747121930 0.366730094
0.774067223 0.746742487 0.378747493
0.817077696 0.755091548 0.388108820
0.851233184 0.746868908 0.413282901
0.885009646 0.724857628 0.433649480
0.969133615 0.743073821 0.505882442
0.843643010 0.900695801 0.561163485
0.850601017 0.900189698 0.564073324
0.866033971 0.899810195 0.565844178
0.897912443 0.896394610 0.572296023
0.932321370 0.905755699 0.588741004
0.965464473 0.910183549 0.605945349
0.989247203 0.896014988 0.636938393
0.996331334 0.879696786 0.662492216
0.183175176 0.036812194 0.321062386
0.209614351 0.043516546 0.315243632
0.262492180 0.062745191 0.306894183
0.328779429 0.080202542 0.296394765
0.441745371 0.082985193 0.283365190
0.590764999 0.087286741 0.299051195
0.764199615 0.103352092 0.325490266
0.936748803 0.186464325 0.377355963
0.214294538 0.111195281 0.295256287
0.226565093 0.126249194 0.292220175
0.271473616 0.127387643 0.293358654
0.330170751 0.137128100 0.279570192
0.433143586 0.138772994 0.281214178
0.584693134 0.145730287 0.293864638
0.754965544 0.167994633 0.325490177
0.924604714 0.225680098 0.379633188
0.237318084 0.206198901 0.273245066
0.266793549 0.214041904 0.279949546
0.304870099 0.210753098 0.274763077
0.345477253 0.215053737 0.280329078
0.448703378 0.214674294 0.276281089
0.595192552 0.236432374 0.304491103
0.767615378 0.272485822 0.344971567
0.926375687 0.336622059 0.410752743
0.262492180 0.290195912 0.281340718
0.281088084 0.294624001 0.286906749
0.343200266 0.293231905 0.286401302
0.396584719 0.314484626 0.296141833
0.490702003 0.319797635 0.295256019
0.615054131 0.348513484 0.328779101
0.772928536 0.388994277 0.380518734
0.912333965 0.465528339 0.460468084
0.312587202 0.404048175 0.274636179
0.336622357 0.406451374 0.272486150
0.378368169 0.421379089 0.288804382
0.476027638 0.444781572 0.339658380
0.551549375 0.451107174 0.362428367
0.654775679 0.469070375 0.383428156
0.795319378 0.512207270 0.429728389
0.930170417 0.563946664 0.506008804
0.466540039 0.579886019 0.337254465
0.486527443 0.581783652 0.353320926
0.539026082 0.583301485 0.385199100
0.602403522 0.591271460 0.405818909
0.663630664 0.599873662 0.418722361
0.711322129 0.588488162 0.434787929
0.834408581 0.632764161 0.494497389
0.952561617 0.682226300 0.564199567
0.657432199 0.745730519 0.494117469
0.664769053 0.750158072 0.497659624
0.695888460 0.751296520 0.500316381
0.737887621 0.756356776 0.502593458
0.791271269 0.757621527 0.510309577
0.834155858 0.756103456 0.526375651
0.863630593 0.738772631 0.542567551
0.955850542 0.768247902 0.612144411
0.810878932 0.904870391 0.650094748
0.825679779 0.902087033 0.655534208
0.837191761 0.901960611 0.653257608
0.867046297 0.904490948 0.663251221
0.912840009 0.904743612 0.667172611
0.951422989 0.913725436 0.685894847
0.977229416 0.904996514 0.705502987
0.988487959 0.888171971 0.725489795
0.240986735 0.046931997 0.504743457
0.265907735 0.058696993 0.498292267
0.315116823 0.073371358 0.492852449
0.385958374 0.094370738 0.481087923
0.461986154 0.114737645 0.474636018
0.606831491 0.101833999 0.463377208
0.773687541 0.111068994 0.489943475
0.941302896 0.197722763 0.500189602
0.254016727 0.134345353 0.467805266
0.284123927 0.137381345 0.472359449
0.321441829 0.140164092 0.473624200
0.386843383 0.150663927 0.466666698
0.462745368 0.165211797 0.452877760
0.598482013 0.153447285 0.456799448
0.768247604 0.168247983 0.468564242
0.936116517 0.233523324 0.494876474
0.297280341 0.231372729 0.465148717
0.313598901 0.236812010 0.456167072
0.350031525 0.231245920 0.455408186
0.408855170 0.240733728 0.454016417
0.476407111 0.253004193 0.455787182
0.608475506 0.250221342 0.450727254
0.776976585 0.278178573 0.488678098
0.942441523 0.352561623 0.523086786
0.313219458 0.305502623 0.463251173
0.338013917 0.316255361 0.459076643
0.387223035 0.335356981 0.458317578
0.439721614 0.343959630 0.452245176
0.504617095 0.352688015 0.454648972
0.625047207 0.350411266 0.457305521
0.773560941 0.393042177 0.486654192
0.918026626 0.464895546 0.546489358
0.325869471 0.452498376 0.459076643
0.351676285 0.457938164 0.481720448
0.410246760 0.454396099 0.481720001
0.480835170 0.461100459 0.481467217
0.566603303 0.482226551 0.501581252
0.670967758 0.498039186 0.510689378
0.801138759 0.539785028 0.546995461
0.920176744 0.604427397 0.610372961
0.397596747 0.594813466 0.461353451
0.422138184 0.596457720 0.460847467
0.467931807 0.603921294 0.474130332
0.540797114 0.615812838 0.494497359
0.637318134 0.637823999 0.557242453
0.718659222 0.648070693 0.584819734
0.819228113 0.673118234 0.619987428
0.937634468 0.715116918 0.682985306
0.553193808 0.758127749 0.523846030
0.577862084 0.761669815 0.530423582
0.618216276 0.758380711 0.559645534
0.683491707 0.762808383 0.603795111
0.751423478 0.769133389 0.634661496
0.817204475 0.771536589 0.644529223
0.848576784 0.763314009 0.653131008
0.949272752 0.795445979 0.712460399
0.769512892 0.904111505 0.715243459
0.785831630 0.905376315 0.721189141
0.802150428 0.903352439 0.737887144
0.836179614 0.905376196 0.746742487
0.869196415 0.910942554 0.753067791
0.921188831 0.910183787 0.764579237
0.961416841 0.909804285 0.778241515
0.978367984 0.894370735 0.789626718
0.285262287 0.085262284 0.720430255
0.307653546 0.083744571 0.719797254
0.366729915 0.098545283 0.713219285
0.439974666 0.114990279 0.713725150
0.526375473 0.140796900 0.700695515
0.624415040 0.162048995 0.692852497
0.796584547 0.151549563 0.684123516
0.941682577 0.220746607 0.684882820
0.308538735 0.152561575 0.700442791
0.326628566 0.158001274 0.707400262
0.372169375 0.163567290 0.699936748
0.446679294 0.176850185 0.696141541
0.525236905 0.189753443 0.691713989
0.629728138 0.207842916 0.685768545
0.789500237 0.198608369 0.678178251
0.930297136 0.250853598 0.674636245
0.339532107 0.262998074 0.700189829
0.349146277 0.269070357 0.699430704
0.399494201 0.273244917 0.689816356
0.467299223 0.278684407 0.694370627
0.542062044 0.291081458 0.686527550
0.634155869 0.306009084 0.684629977
0.797469735 0.301201373 0.690322816
0.936369300 0.361416727 0.681214392
0.376723289 0.379000574 0.679569840
0.403035820 0.385578841 0.683617890
0.443010896 0.389120549 0.679443359
0.495003283 0.392536223 0.679063857
0.563187480 0.404680371 0.682100117
0.650853813 0.415180296 0.677545905
0.794307292 0.417836577 0.676280558
0.927260995 0.475648224 0.684630215
0.391397744 0.482226372 0.685515642
0.419228375 0.486654043 0.691334546
0.469955444 0.492473364 0.688930988
0.545350969 0.521568418 0.687792063
0.607210696 0.529285133 0.688930750
0.675268531 0.539025843 0.689689815
0.803921402 0.552055657 0.691461265
0.922833681 0.610752761 0.709550858
0.415433317 0.660594702 0.704490840
0.441619188 0.658697188 0.704743743
0.489816695 0.662238955 0.705882192
0.563314319 0.658697486 0.708665252
0.652877927 0.666413426 0.717267573
0.727514207 0.681087732 0.730550289
0.831499279 0.700695753 0.732194781
0.925110698 0.738266826 0.765591204
0.515243292 0.769133568 0.659962118
0.527513862 0.766603231 0.666540504
0.566477239 0.770145237 0.671853423
0.622138023 0.776849926 0.686780214
0.687160313 0.783681273 0.705755770
0.773814201 0.799746811 0.750537515
0.841745555 0.804807246 0.774067283
0.933079898 0.824920714 0.809487224
0.692726135 0.908918619 0.728273153
0.701201320 0.913093030 0.746236503
0.725490093 0.910942674 0.755724251
0.771410644 0.914864063 0.780518651
0.827071369 0.914864004 0.819481432
0.886400998 0.919544458 0.850094855
0.929664612 0.920303524 0.841998637
0.961163998 0.914358199 0.855534315
0.340037972 0.163820609 0.907779574
0.355976909 0.167741612 0.898292184
0.411132157 0.180138886 0.893990993
0.478684455 0.198734790 0.901201725
0.566350162 0.228336439 0.894370556
0.661100447 0.264263242 0.890701950
0.777229309 0.307653487 0.889690042
0.950790763 0.327514410 0.885515451
0.349272370 0.216824591 0.890828431
0.373561144 0.226944864 0.889816344
0.416571647 0.231246233 0.892220259
0.485136002 0.249589056 0.889689565
0.564579427 0.266033977 0.888678074
0.660467863 0.298039138 0.884250522
0.770018816 0.333206773 0.876407444
0.945857227 0.347880840 0.878178596
0.402782857 0.333965749 0.895888746
0.418595612 0.337128401 0.891081452
0.456673056 0.344718695 0.891840816
0.519544721 0.356609821 0.889310241
0.591903865 0.374193490 0.884756386
0.682985306 0.398861527 0.880202591
0.784693360 0.427324563 0.883238316
0.947501481 0.447058767 0.876913369
0.461859465 0.469196379 0.877672434
0.481720358 0.471600205 0.878937364
0.512839913 0.473118186 0.877925634
0.561416745 0.482732058 0.877798557
0.630107760 0.494497329 0.873244762
0.704111338 0.509044707 0.875774741
0.790133059 0.525869429 0.869576454
0.936116576 0.537634015 0.867172658
0.504617035 0.562301934 0.879569948
0.528146625 0.574952483 0.884629905
0.573181748 0.597975850 0.880075872
0.623781979 0.612144291 0.875015616
0.672485769 0.620746315 0.872359395
0.737001479 0.627577484 0.878178358
0.806451678 0.641492963 0.869070113
0.934851468 0.650601149 0.867046416
0.551549494 0.704743505 0.884503424
0.567741752 0.706008792 0.883238256
0.601644337 0.705629468 0.880581796
0.656167030 0.708665311 0.885009527
0.718658864 0.731056273 0.879696548
0.776849747 0.744844615 0.881593764
0.836812139 0.753700018 0.881340623
0.938772678 0.763314307 0.884250641
0.574826002 0.842251956 0.880455613
0.592030525 0.844402552 0.881720603
0.619481087 0.842757761 0.883617699
0.674383283 0.836812139 0.884250641
0.729158700 0.834535182 0.884882748
0.800632477 0.829474568 0.884376884
0.859329224 0.840354145 0.888045788
0.945350945 0.847817600 0.888804793
0.689436734 0.923339784 0.855281770
0.694117725 0.927260816 0.857052326
0.710562766 0.924604654 0.864136457
0.751296580 0.924604595 0.869702995
0.792030334 0.924604595 0.873497784
0.851739347 0.927766979 0.890575588
0.897533000 0.931055903 0.913852036
0.954585612 0.937634468 0.931182802
