Assets/Resources/EldamarStudio/100 Horror LUTs Pack/LUTs/cube/Vecholan LUT.cube
LUT_3D_SIZE 5
DOMAIN_MIN 0.000000 0.000000 0.000000
DOMAIN_MAX 0.903226 0.903226 0.903226
0.066666998 0.039216001 0.015686000
0.167109698 0.038203716 0.015686000
0.389120370 0.000000000 0.007843000
0.655408263 0.010879126 0.000000000
0.957368612 0.112713799 0.013155987
0.178494409 0.147121996 0.003288997
0.218722686 0.137001693 0.000000000
0.406072408 0.147501692 0.001644708
0.669070244 0.186084688 0.004554003
0.960278511 0.243390381 0.016571965
0.376091212 0.330929816 0.006577994
0.409108073 0.338520110 0.003289416
0.461732805 0.315243810 0.000000000
0.704111338 0.373814106 0.000000000
0.980265379 0.431625783 0.098671585
0.644529104 0.624035239 0.000000000
0.677166581 0.635420561 0.002909872
0.736116409 0.641619086 0.001012128
0.801391363 0.606325209 0.089816369
0.984945953 0.645540774 0.248070747
0.883997619 0.902339816 0.407716155
0.900695682 0.908918619 0.421758056
0.944718361 0.912207365 0.445540309
0.994560122 0.905882478 0.495509267
0.998734832 0.871094584 0.557874560
0.087919287 0.051613003 0.064768992
0.170398697 0.035294000 0.056293406
0.354458988 0.055914123 0.070967704
0.614800870 0.114105128 0.112840123
0.937634408 0.175458640 0.162049502
0.131435990 0.132447705 0.044528984
0.207969397 0.144212678 0.064768992
0.366603523 0.168753996 0.084756695
0.625300229 0.205059960 0.110942692
0.943706572 0.273118526 0.170904219
0.340417534 0.317520678 0.078810699
0.384566784 0.320809662 0.083744407
0.437191516 0.306767792 0.099810109
0.681594014 0.371536821 0.133459836
0.961037517 0.449715495 0.215686068
0.615813017 0.620746613 0.129791081
0.651107073 0.623403311 0.127893806
0.723972261 0.631625772 0.144971639
0.783427835 0.601771176 0.204680935
0.983048618 0.655660927 0.343453318
0.866413772 0.902339816 0.461985946
0.880202472 0.900822461 0.467045963
0.932953835 0.904617310 0.488804489
0.990132689 0.902340114 0.540164411
0.998734832 0.867678642 0.594686985
0.158886582 0.032005426 0.243263826
0.222643688 0.047438279 0.235800117
0.366223782 0.066034414 0.218468964
0.628463268 0.093485415 0.244022816
0.929285169 0.174952358 0.321315199
0.213155985 0.166730002 0.207969829
0.256293416 0.172295704 0.209614113
0.375331968 0.179506272 0.212903112
0.625932813 0.217204407 0.252119094
0.928652585 0.308538944 0.353067338
0.270082384 0.328272969 0.198861808
0.330550104 0.337761104 0.216192096
0.461732805 0.362301975 0.271473378
0.660594702 0.408855230 0.315116942
0.936369479 0.500442326 0.424035579
0.556862533 0.615812957 0.348134041
0.589120448 0.620114028 0.350917280
0.681087673 0.624921143 0.359898776
0.759519160 0.613788724 0.400505662
0.962049067 0.688045681 0.519165039
0.833776176 0.899051189 0.603921175
0.842125356 0.895509005 0.604553759
0.899557114 0.900316179 0.616951048
0.967615604 0.909551203 0.653004587
0.994939983 0.880708396 0.690701783
0.251107007 0.054016128 0.558380365
0.316128701 0.069323421 0.554079294
0.445667535 0.107273579 0.537507951
0.653384209 0.108918123 0.524098516
0.940290630 0.206072062 0.542694390
0.298798412 0.210879117 0.524351418
0.343959570 0.215812832 0.522707224
0.456166863 0.229601398 0.516508400
0.654775620 0.234788239 0.514990628
0.939658582 0.332827479 0.559013188
0.334724575 0.381656915 0.519418240
0.397216678 0.388235509 0.521188974
0.515369833 0.424161941 0.525110364
0.686780214 0.436938792 0.533206701
0.927893817 0.545224309 0.611638069
0.419860989 0.647438288 0.517014384
0.476027817 0.648703218 0.522706866
0.606830955 0.667678833 0.565591395
0.758128107 0.691587389 0.645541251
0.937887490 0.743200064 0.717393816
0.748513281 0.906641304 0.717520595
0.780139208 0.903352261 0.740164280
0.843137085 0.910815954 0.778241754
0.926501751 0.912460566 0.784566760
0.971790075 0.901707590 0.811384857
0.340037972 0.163820609 0.907779574
0.393421531 0.175837904 0.893990755
0.523212790 0.209613934 0.899936557
0.688425004 0.273877442 0.886147738
0.950790763 0.327514410 0.885515451
0.388614625 0.305629194 0.893358767
0.431625396 0.314864159 0.894370615
0.549272656 0.335104346 0.886148036
0.695129812 0.383933902 0.884503305
0.946236610 0.425300121 0.883238316
0.499177337 0.533965588 0.883617997
0.543326914 0.548007488 0.877166390
0.624668181 0.560784042 0.880328715
0.744592071 0.583301723 0.879696608
0.938899636 0.604553759 0.879696131
0.559645891 0.743706405 0.884503305
0.594813406 0.741303086 0.885388851
0.688424885 0.744592071 0.886148036
0.797090232 0.769133210 0.881846726
0.934471786 0.785072923 0.887539446
0.689436734 0.923339784 0.855281770
0.713852108 0.922327697 0.863377452
0.769006729 0.927893341 0.872359395
0.866160929 0.928778946 0.895888746
0.954585612 0.937634468 0.931182802
