Assets/Resources/EldamarStudio/100 Horror LUTs Pack/LUTs/cube/Venom LUT.cube
DOMAIN_MIN 0 0 0
DOMAIN_MAX 1 1 1
LUT_3D_SIZE 32
0.000000000 0.000000000 0.000000000
0.000000000 0.000000000 0.000000000
0.000000000 0.000000000 0.000000000
0.000000000 0.000000000 0.000000000
0.000000000 0.000000000 0.000000000
0.000000000 0.000000000 0.000000000
0.000000000 0.000000000 0.000000000
0.001644708 0.000000000 0.000000000
0.003922000 0.000000000 0.000000000
0.003921998 0.000000000 0.000000000
0.001012129 0.000000000 0.000000000
0.008095992 0.000000000 0.000000000
0.022517284 0.000000000 0.000000000
0.040734001 0.000000000 0.000000000
0.058949977 0.000000000 0.000000000
0.072358996 0.000000000 0.000000000
0.092093185 0.000000000 0.003035997
0.117520139 0.000632577 0.007843000
0.135736942 0.003668972 0.007843000
0.151170373 0.006704647 0.007843000
0.170145735 0.009740740 0.011637996
0.193422124 0.014800869 0.018722126
0.220999464 0.023908505 0.027577512
0.254395902 0.033016905 0.030613905
0.283238262 0.042125285 0.038203701
0.313345611 0.052624978 0.050094649
0.347248137 0.065275058 0.065275058
0.383680880 0.080455437 0.080455437
0.420113593 0.098291963 0.098291963
0.456546336 0.116508394 0.120050378
0.490322590 0.135610580 0.144338965
0.517647028 0.156863004 0.168626994
0.003036387 0.003036387 0.000000000
0.000000000 0.000000000 0.000000000
0.000000000 0.000000000 0.000000000
0.000000000 0.000000000 0.000000000
0.000000000 0.000000000 0.000000000
0.000000000 0.000000000 0.000000000
0.000000000 0.002530322 0.000000000
0.001644708 0.003036387 0.001644708
0.003162904 0.002277291 0.002277291
0.000885614 0.000000000 0.000000000
0.003795482 0.000000000 0.000000000
0.013156120 0.000000000 0.000000000
0.028589282 0.000000000 0.000000000
0.046299998 0.000000000 0.000000000
0.058949977 0.000000000 0.000000000
0.074762799 0.000000000 0.002403804
0.092093572 0.000000000 0.003036387
0.113219373 0.000000002 0.004807388
0.126628578 0.000632593 0.004807393
0.155977339 0.012017619 0.010373391
0.170524985 0.015812740 0.010879387
0.191397846 0.018848870 0.014674386
0.220872983 0.024161497 0.021884983
0.251360297 0.039088905 0.033649515
0.287033379 0.048197284 0.043516606
0.318026304 0.058696978 0.056166653
0.350284517 0.070841126 0.070841126
0.386717260 0.083491817 0.083491817
0.420493156 0.098671511 0.098671511
0.454775125 0.118279159 0.116508394
0.489057392 0.139531806 0.138266966
0.520683408 0.162935004 0.162555009
0.008223000 0.001771226 0.000000000
0.003036387 0.000885613 0.000000000
0.000000000 0.004300999 0.000000000
0.000000000 0.001771000 0.000000000
0.000000000 0.000000000 0.000758999
0.000000000 0.000000000 0.004300999
0.002150774 0.000379548 0.004300999
0.000506066 0.001771226 0.001012003
0.002530322 0.002530322 0.001771226
0.002277292 0.002277290 0.000126516
0.005060096 0.002150774 0.000000000
0.014168219 0.000126518 0.000000000
0.029221639 0.001138644 0.000000000
0.046173256 0.001897742 0.000000000
0.060214985 0.000000000 0.000000000
0.076913565 0.000000000 0.004554030
0.092093572 0.001518192 0.006072226
0.112080775 0.003415767 0.005439812
0.128779024 0.006451784 0.003922007
0.149019733 0.013282782 0.009488005
0.175584987 0.021631770 0.015559996
0.193801120 0.025932997 0.018089999
0.222896725 0.030486759 0.024035512
0.251233816 0.043642905 0.030107779
0.283997744 0.054269284 0.044401992
0.320430070 0.064768977 0.056546334
0.352308750 0.077419065 0.071979828
0.385452092 0.091208115 0.089057893
0.421378762 0.106008902 0.097406901
0.458317548 0.122959718 0.119670913
0.490702122 0.145603791 0.141682565
0.521569014 0.171157777 0.167235777
0.009235000 0.001265161 0.001265161
0.004427839 0.000000000 0.000000000
0.001771226 0.001771000 0.000000000
0.001265161 0.006578162 0.000000000
0.000885613 0.000885613 0.000000000
0.000000000 0.000000000 0.004300999
0.001265161 0.002529999 0.006578161
0.003542453 0.001265161 0.005819164
0.001265161 0.001265161 0.000506065
0.003795486 0.003795484 0.000000000
0.006831129 0.003922000 0.000000000
0.017204154 0.003162905 0.001265161
0.031625155 0.001265161 0.001265161
0.047185063 0.003922000 0.001265161
0.063377559 0.001897745 0.001265161
0.078431435 0.001265161 0.006072157
0.097659960 0.002783031 0.006578161
0.112839721 0.006451831 0.007210578
0.132827163 0.012523847 0.005439813
0.151296571 0.018595843 0.010752844
0.172042981 0.025932996 0.016824834
0.197343126 0.033017125 0.021884967
0.224667504 0.039468665 0.027830504
0.251992702 0.050474327 0.033143904
0.283871263 0.060341284 0.044022862
0.316128969 0.070841298 0.057811175
0.353067845 0.083491258 0.069449902
0.385705143 0.098671436 0.087666266
0.420113593 0.113851808 0.101960987
0.457052380 0.133333266 0.119164988
0.496521384 0.152434915 0.146489635
0.525363863 0.179000989 0.173814163
0.003542452 0.003542452 0.003542452
0.001265161 0.000885613 0.000885613
0.000000000 0.000000000 0.000000000
0.001265161 0.000885613 0.000000000
0.003542452 0.003542452 0.000000000
0.000506065 0.000506065 0.000000000
0.000379548 0.004680548 0.002530322
0.001644708 0.006198711 0.003922000
0.004301452 0.003922000 0.003162904
0.004301453 0.003922000 0.000126516
0.007969676 0.003922000 0.000000000
0.018722247 0.003922000 0.001644708
0.034281991 0.004301451 0.003542452
0.052245032 0.004554483 0.003542452
0.070335269 0.004681000 0.003542452
0.084503539 0.005060451 0.008728996
0.100442633 0.006578352 0.009488002
0.120430015 0.009866992 0.004933964
0.135610446 0.015939007 0.007969587
0.154332563 0.022390552 0.013409004
0.174825743 0.030739734 0.019860543
0.197722673 0.039468672 0.024541128
0.225173533 0.048577018 0.027956983
0.252751708 0.057685353 0.037318356
0.283871263 0.067552246 0.048703536
0.316635042 0.077672333 0.060847528
0.347754180 0.090323023 0.074003607
0.387223303 0.105502620 0.083111987
0.420999318 0.120303348 0.101707794
0.456166774 0.140037835 0.124351472
0.493864566 0.163820595 0.148766249
0.533333004 0.185073003 0.176091447
0.000506065 0.000506065 0.000506065
0.003542452 0.000506065 0.000506065
0.001265161 0.000000000 0.000000000
0.001265161 0.000000000 0.000000000
0.003542452 0.000506065 0.000000000
0.000506065 0.000506065 0.000000000
0.002530322 0.002530322 0.002530322
0.003415935 0.004427936 0.003922000
0.004680904 0.003922000 0.003162904
0.007337069 0.003922000 0.000126516
0.016065933 0.003922000 0.000000000
0.026185926 0.003922000 0.000000000
0.038835995 0.005060354 0.000506065
0.052245032 0.007590096 0.000506065
0.067425400 0.010626481 0.000506065
0.085515663 0.013156191 0.007716865
0.101201735 0.015686255 0.011765000
0.117393628 0.018722352 0.010753000
0.132574052 0.022011010 0.011005972
0.156103790 0.030866360 0.014041582
0.179379925 0.041365929 0.021378737
0.203162253 0.050980255 0.026944935
0.228209928 0.057685405 0.027956983
0.258570760 0.066793032 0.040101003
0.286148280 0.080455348 0.051739637
0.318659306 0.091840595 0.063883916
0.353573948 0.102467060 0.077545993
0.387223303 0.117647402 0.098292373
0.418722600 0.130170837 0.110056907
0.453130811 0.146362871 0.129032165
0.491334230 0.167362258 0.150790527
0.533333004 0.191145003 0.173055053
0.000000000 0.000000000 0.000000000
0.000506065 0.000000000 0.000000000
0.003542452 0.002150774 0.002150774
0.002530322 0.002530322 0.002530322
0.003542452 0.002150774 0.002150774
0.000506065 0.000000000 0.000000000
0.002530322 0.002530322 0.000000000
0.007210997 0.005566289 0.001391678
0.008982001 0.006451678 0.001391678
0.010246845 0.006451678 0.000126516
0.021631869 0.008981999 0.000000000
0.032763992 0.008981999 0.002024256
0.044908285 0.010120353 0.003668676
0.057052642 0.013156030 0.005059999
0.069955721 0.016192416 0.005059999
0.082732312 0.024035800 0.007463804
0.100695670 0.028842639 0.013282806
0.118152551 0.032890737 0.015559670
0.137127995 0.035926364 0.019354682
0.158127397 0.044528678 0.024668291
0.182416141 0.051739313 0.029601641
0.206704572 0.061606444 0.037065320
0.231246278 0.069323502 0.040480822
0.261606514 0.078431733 0.050221644
0.291967243 0.089816630 0.060088344
0.322327614 0.103352301 0.071980007
0.357621819 0.114611059 0.084124319
0.393042415 0.129791424 0.099304430
0.421252280 0.147374973 0.120177291
0.456926227 0.163061395 0.135863274
0.495888561 0.183048606 0.159013182
0.538393021 0.207336992 0.185199320
0.000000000 0.003288997 0.001644708
0.003288997 0.003288997 0.003288997
0.002150774 0.002150774 0.000506066
0.002656839 0.005186839 0.003542453
0.002277292 0.005566289 0.003542452
0.000506065 0.003795062 0.000506065
0.005819319 0.005819319 0.004933705
0.003922000 0.007210997 0.000000000
0.013029998 0.009487709 0.001517999
0.018343000 0.009487711 0.003288997
0.026691994 0.014041867 0.003288997
0.037191700 0.018342994 0.005313253
0.050474346 0.019481638 0.007210997
0.063378029 0.022264414 0.009993708
0.076913685 0.023909122 0.012776705
0.087412991 0.030107796 0.013535801
0.102593377 0.037697993 0.015053997
0.121441968 0.044402566 0.019860689
0.142694414 0.049462453 0.027956702
0.160657361 0.054775354 0.024162009
0.182162747 0.065274991 0.035167996
0.210499540 0.073371246 0.042251870
0.237571269 0.083238684 0.049209308
0.267931730 0.093864895 0.059835900
0.295002848 0.101960979 0.067299411
0.328146577 0.116887964 0.079190359
0.361796170 0.129032061 0.092093930
0.397090584 0.141935438 0.105376273
0.427197754 0.159772366 0.122201085
0.458317548 0.179633096 0.144971639
0.500443161 0.197849661 0.162302285
0.544465423 0.220619693 0.188868001
0.000000001 0.011638094 0.006198900
0.005313097 0.010878998 0.006957612
0.006451677 0.006451680 0.003542002
0.005692835 0.008222837 0.001265161
0.001897547 0.010878999 0.003542453
0.000759098 0.010878999 0.000506066
0.006831227 0.013409320 0.005313228
0.012270903 0.014800999 0.007590393
0.009235094 0.014800999 0.001517999
0.027451102 0.014801002 0.007590001
0.035547093 0.020619998 0.007843000
0.042884253 0.025173996 0.009867257
0.054269638 0.031625643 0.012523903
0.069196992 0.034661971 0.012523903
0.083871305 0.035167903 0.017583899
0.095762275 0.039975092 0.020366903
0.107906282 0.046805993 0.021126000
0.126755461 0.052245576 0.021758579
0.148007885 0.061100971 0.033523090
0.165211737 0.066160835 0.029475082
0.185704812 0.074130088 0.031372637
0.209740251 0.085515253 0.044528965
0.245919988 0.097659983 0.053510088
0.276280820 0.109803997 0.064389706
0.302846104 0.118153088 0.072738998
0.332700402 0.128273055 0.082985654
0.367109239 0.145983160 0.097659998
0.399747312 0.155597538 0.112586632
0.431246012 0.173434645 0.128525808
0.464136571 0.193422154 0.151296467
0.501202047 0.213030070 0.171410501
0.549778879 0.231246099 0.186590910
0.000000005 0.026818492 0.015306512
0.003036390 0.023782104 0.009234514
0.006198709 0.014421013 0.003542004
0.010246512 0.012776529 0.001265166
0.014041545 0.023023009 0.003542454
0.004933943 0.023023007 0.000506070
0.006325169 0.025553331 0.000000005
0.014547518 0.026945008 0.002024231
0.024414714 0.026945010 0.004554393
0.030487496 0.026945010 0.007590002
0.042884488 0.032764006 0.007843002
0.050727479 0.034788009 0.009867259
0.060341641 0.038456652 0.012903357
0.075268999 0.046805978 0.015559516
0.087412991 0.049841590 0.015559519
0.102087311 0.055155136 0.020619517
0.115496472 0.062745295 0.024920713
0.129791066 0.070461586 0.027830582
0.151043519 0.073497988 0.030866984
0.172295883 0.082353368 0.042631488
0.197090209 0.091208220 0.048070744
0.224161610 0.100442618 0.053636651
0.251991987 0.109803997 0.062618479
0.282352805 0.121948011 0.068690494
0.310436279 0.131815299 0.077292815
0.341808796 0.142188475 0.089057662
0.376217633 0.155091569 0.103732005
0.400506377 0.170271933 0.115876004
0.433143765 0.190512300 0.133459464
0.468184829 0.211638168 0.160404578
0.507147551 0.231119588 0.186337873
0.552814543 0.246426493 0.195698529
0.008728870 0.036179870 0.009867001
0.005945517 0.033143483 0.006704872
0.004680903 0.038709641 0.011385096
0.004933871 0.035673577 0.009107999
0.008475871 0.037697420 0.007210677
0.017077934 0.035167739 0.009234935
0.020619996 0.035167739 0.008728870
0.025679866 0.039468866 0.012017867
0.033775870 0.041998867 0.014800902
0.039848097 0.041998871 0.013535513
0.045920130 0.044907998 0.010752871
0.054016642 0.050980512 0.014800867
0.062365867 0.052751739 0.016445355
0.075775035 0.056546837 0.016191998
0.090575859 0.064895444 0.021505000
0.105123051 0.067931674 0.028715799
0.121821508 0.076533996 0.032257870
0.138013855 0.086400859 0.033902578
0.156989008 0.091713972 0.036938976
0.181024730 0.097533002 0.042758007
0.206198603 0.106514856 0.054648992
0.232511118 0.116634868 0.062744997
0.257938206 0.127767012 0.071853369
0.285515696 0.139911741 0.080708742
0.313599169 0.149778455 0.089057446
0.343706489 0.161669657 0.102340326
0.378621131 0.175837934 0.119038805
0.412523866 0.191018313 0.133585989
0.442125618 0.203541845 0.145730644
0.477039754 0.222264409 0.166982666
0.510815740 0.245034829 0.192536324
0.544212162 0.270334989 0.207716748
0.013788740 0.047311991 0.013915252
0.010752870 0.048324116 0.008855384
0.011764510 0.049841765 0.014421222
0.011258896 0.053890154 0.017203998
0.012397443 0.051992506 0.011511545
0.019607738 0.053890180 0.011258936
0.028715994 0.053384244 0.013788740
0.034787994 0.053384244 0.012144452
0.041619092 0.057938147 0.016318908
0.048956256 0.059202991 0.015812518
0.057052508 0.062112637 0.018848609
0.063124508 0.065148249 0.017836737
0.071473986 0.070082374 0.021631740
0.083617985 0.071727023 0.020493027
0.097027138 0.080835074 0.028336246
0.114231691 0.087160051 0.028716059
0.130929500 0.090196051 0.037824064
0.149146125 0.099556983 0.039974570
0.167362541 0.105629005 0.043010972
0.187096715 0.113725252 0.050854258
0.215180457 0.123592243 0.058823507
0.240607381 0.132827118 0.069829121
0.264136970 0.143959239 0.078937501
0.293358654 0.156103551 0.088045903
0.320683002 0.172043204 0.103225954
0.348007709 0.183934152 0.110942237
0.379633248 0.198608503 0.126628861
0.413029581 0.212270692 0.143327042
0.446173608 0.224794224 0.155850649
0.476533920 0.240480646 0.175078928
0.513345838 0.258697212 0.201138169
0.545224547 0.284503251 0.223908991
0.016824644 0.064010277 0.020746354
0.014927385 0.065908022 0.016951352
0.018469512 0.067805506 0.019354871
0.021505157 0.070588149 0.023275999
0.024161996 0.067552537 0.017583545
0.026438707 0.071347639 0.014547935
0.033396319 0.072359636 0.015433321
0.040859994 0.074636638 0.018595707
0.048450187 0.076154634 0.017836995
0.057938132 0.079569802 0.021252159
0.068184868 0.080328859 0.026059287
0.075268991 0.083365023 0.026944643
0.084756635 0.085262284 0.029221639
0.096900634 0.088804610 0.029474672
0.109044619 0.097912759 0.036812048
0.124857590 0.105755985 0.038583159
0.141935632 0.111448444 0.039342444
0.160151631 0.114484213 0.047817633
0.178368300 0.120050296 0.051359978
0.198861644 0.130043998 0.062239353
0.222390816 0.142188266 0.066793256
0.250727624 0.151296407 0.076913252
0.272232980 0.160278276 0.086274631
0.300568998 0.172422290 0.096394904
0.328652561 0.187982216 0.110056981
0.357115328 0.203668639 0.127261266
0.384946495 0.219354987 0.134851217
0.415306628 0.232763976 0.152435228
0.446046829 0.247185245 0.168753967
0.481087923 0.262871385 0.187982202
0.514990151 0.281088173 0.211384863
0.554712355 0.299304277 0.240986645
0.020367032 0.088045962 0.024541065
0.020113999 0.088298991 0.024541065
0.026818741 0.088298991 0.026438806
0.033649836 0.089310870 0.027450869
0.035799999 0.091334544 0.024161549
0.035799999 0.088298932 0.021125935
0.041872062 0.088298991 0.020873031
0.047691029 0.091335028 0.023908997
0.054775160 0.097153991 0.029728031
0.066919945 0.103225999 0.035800036
0.078558028 0.101328164 0.038709871
0.087412998 0.102340288 0.038456775
0.096394636 0.104238033 0.038076997
0.111321993 0.104491003 0.043642998
0.123465985 0.113598600 0.046679381
0.138013795 0.122453861 0.050221223
0.153447226 0.130044058 0.053510189
0.169260025 0.135989577 0.057178989
0.187476069 0.139025971 0.063251019
0.211511716 0.150158048 0.076407336
0.235294029 0.163946733 0.081720300
0.259582222 0.175332159 0.083491251
0.283997476 0.178874493 0.095635980
0.308412045 0.191145003 0.107779995
0.334977835 0.205566272 0.119923986
0.363440931 0.219608009 0.134851322
0.393801153 0.232258022 0.152308971
0.424161851 0.250474006 0.167488560
0.451865792 0.268184662 0.187728852
0.485515147 0.286653996 0.211258382
0.525616169 0.305629194 0.234661579
0.568121016 0.323846012 0.255914003
0.029475411 0.109297559 0.036685828
0.026439022 0.112333946 0.036685828
0.034787990 0.112586975 0.036685828
0.043769572 0.112586975 0.038583249
0.047690991 0.112460397 0.039215401
0.041871995 0.106514916 0.033269923
0.057052635 0.111068979 0.035294309
0.064516112 0.114231683 0.037697691
0.068943404 0.117900297 0.041366085
0.076027550 0.121441975 0.044908412
0.082353309 0.127513975 0.045161411
0.095762141 0.129664645 0.049841985
0.106767625 0.131562382 0.050600760
0.117393993 0.131815359 0.049714994
0.129537985 0.134850964 0.049714994
0.144085795 0.141556010 0.057558376
0.160784379 0.148260817 0.063883409
0.178368390 0.154965237 0.069322981
0.196584448 0.163313955 0.075394988
0.223149791 0.171916336 0.075900994
0.244149461 0.183554396 0.088551320
0.265654832 0.194307238 0.097912535
0.290069461 0.200126857 0.107779965
0.317393899 0.215306491 0.119923979
0.344085664 0.229854256 0.132067978
0.371410191 0.245034635 0.146995321
0.399873137 0.259076387 0.164199993
0.430233836 0.271726370 0.176596940
0.457937777 0.284630030 0.194434047
0.487033367 0.303352565 0.220366746
0.521947980 0.325743377 0.246805578
0.562048972 0.351170391 0.268058002
0.045793988 0.135357395 0.053636983
0.042757601 0.138393179 0.048829991
0.046173535 0.139278784 0.046679217
0.052751601 0.139278784 0.046426188
0.057305608 0.138519794 0.047943994
0.063377596 0.132447794 0.045919992
0.065527827 0.134092599 0.042631317
0.077166602 0.140164599 0.050600991
0.082479507 0.143200785 0.055913888
0.090195805 0.144592106 0.058950279
0.101074919 0.148133799 0.059076793
0.109171428 0.152182057 0.061100535
0.123592429 0.154079795 0.064515993
0.135230824 0.154585794 0.063503794
0.145224586 0.159772173 0.067804791
0.157368585 0.165211588 0.072612397
0.171030790 0.171283975 0.077166595
0.188108742 0.177355975 0.079570033
0.208096027 0.184692845 0.080328822
0.232258186 0.193801150 0.092852600
0.257684767 0.204806775 0.100442588
0.276913434 0.215938911 0.114104792
0.298292279 0.223655969 0.124604486
0.321062744 0.236558884 0.134471789
0.350663811 0.251739085 0.146615788
0.378114969 0.265528113 0.161543116
0.405945599 0.280202597 0.179253861
0.436305881 0.296141565 0.193295583
0.466413558 0.308285624 0.210752621
0.493737936 0.325743139 0.236053348
0.526122570 0.347881168 0.261100590
0.565590978 0.373687774 0.277798802
0.056420192 0.164199993 0.067299187
0.059455801 0.167236000 0.062744990
0.059835352 0.165085375 0.061859600
0.069702961 0.166350216 0.060088381
0.069829442 0.166982725 0.060088381
0.074003801 0.164326370 0.060088381
0.081593871 0.164326504 0.060594313
0.087792419 0.165971175 0.061227180
0.094623901 0.170525178 0.069576092
0.103731520 0.170525178 0.071094289
0.117267191 0.173434302 0.074257180
0.127387434 0.177988648 0.076280922
0.138772830 0.179886371 0.080455184
0.153194189 0.180139333 0.080961213
0.161037400 0.184946179 0.083238378
0.174067184 0.192536354 0.087792411
0.187729374 0.197090164 0.092346996
0.201138362 0.203162327 0.094244406
0.221505180 0.209234580 0.094750032
0.242504910 0.216571733 0.103858560
0.268311352 0.226059169 0.118658982
0.292599350 0.238203436 0.129791111
0.311827987 0.247944355 0.141555682
0.331689090 0.260088384 0.153447092
0.358254373 0.274509668 0.164832175
0.385831356 0.288298368 0.178367838
0.413029850 0.300442994 0.195445985
0.442377955 0.316634953 0.209614232
0.474256784 0.331056178 0.232005328
0.504364133 0.346995562 0.252751529
0.536116183 0.367362380 0.282226741
0.576217175 0.390385985 0.297533393
0.061353989 0.195192695 0.076407574
0.072359167 0.197596520 0.075268753
0.073750563 0.195446119 0.075268760
0.079443149 0.191903964 0.078304984
0.092725985 0.194560125 0.078304984
0.084376618 0.197343484 0.078304976
0.090448871 0.199114546 0.080834821
0.098924682 0.198482126 0.083238274
0.108033046 0.199114546 0.086654037
0.117140666 0.199114546 0.083617657
0.132068008 0.202023819 0.089310706
0.143200234 0.206451476 0.092726290
0.153953210 0.210246965 0.096268140
0.168880567 0.211006001 0.102087110
0.175711542 0.214800701 0.099810384
0.188361779 0.221378922 0.100948744
0.204174742 0.228083491 0.105249740
0.218722552 0.231119111 0.108285971
0.236938596 0.237191916 0.117393598
0.255155116 0.242631555 0.124351688
0.277799129 0.250600964 0.135483801
0.303478956 0.260088205 0.148007259
0.327893466 0.272106469 0.157368600
0.347628236 0.283744574 0.172548890
0.372043252 0.296900839 0.186084539
0.397343546 0.311954528 0.198987782
0.422643721 0.324098557 0.214674130
0.450094581 0.336242527 0.227071121
0.481467456 0.351043373 0.249335855
0.513092875 0.367362380 0.273118556
0.544465184 0.385578960 0.294876993
0.586970031 0.403794974 0.322201431
0.073498040 0.228589952 0.085515998
0.091714017 0.228589952 0.091587991
0.091966994 0.228842974 0.090449199
0.093990989 0.227071807 0.091714039
0.104870021 0.224920973 0.096521035
0.104870029 0.224920973 0.096521027
0.111701310 0.230234012 0.099051356
0.119164988 0.230866730 0.100442968
0.126249120 0.229601875 0.102213994
0.135357499 0.232511014 0.107906476
0.150284827 0.235420883 0.113598950
0.161416695 0.238456696 0.115623027
0.171663314 0.240607053 0.117014632
0.184060991 0.241366088 0.120303929
0.196204990 0.250474453 0.123339526
0.207842991 0.254269779 0.123466015
0.223276407 0.259329975 0.128273189
0.239974990 0.264516354 0.135610417
0.252119035 0.267551988 0.138646036
0.270335019 0.270841390 0.147754371
0.290448815 0.277925730 0.158507019
0.312207192 0.287033796 0.168880254
0.333965480 0.296394527 0.175585419
0.361289918 0.305502921 0.190765068
0.385578603 0.314864278 0.205945298
0.408728659 0.328652978 0.219481319
0.431752145 0.345350981 0.232890949
0.462112874 0.357494980 0.251106948
0.489563733 0.372295797 0.263503939
0.519164920 0.387476176 0.282226205
0.549525201 0.403795004 0.303478628
0.580897987 0.422011048 0.325237066
0.099557370 0.261986375 0.114105016
0.103858016 0.259203017 0.114611015
0.111321785 0.261353791 0.118532792
0.113472536 0.263251215 0.119291566
0.122960165 0.263250917 0.122327372
0.125363365 0.260847747 0.117520370
0.130423367 0.260847747 0.120050691
0.139278725 0.264769018 0.123086661
0.147248462 0.265528113 0.124225020
0.156356871 0.268564254 0.126249015
0.168500870 0.274383247 0.126754999
0.179633260 0.275395393 0.130803257
0.191018373 0.276533723 0.133839369
0.204554334 0.276786774 0.138267010
0.214168012 0.280835122 0.138772950
0.228715807 0.285135925 0.146616176
0.244275749 0.289689988 0.152308524
0.261859953 0.295129597 0.159519017
0.276154757 0.298165768 0.160404414
0.291081399 0.298418730 0.166224077
0.305502862 0.303352356 0.179126978
0.325110704 0.312587023 0.191144496
0.348133862 0.323465854 0.199240997
0.370145261 0.332574248 0.211764455
0.395192921 0.343959361 0.222390652
0.422264308 0.354965329 0.237950683
0.448703200 0.369386733 0.253890365
0.476787239 0.381530702 0.272106379
0.501834333 0.401644498 0.287666202
0.534345329 0.418848664 0.307020634
0.566729903 0.436811954 0.330170542
0.597090721 0.456925750 0.353320748
0.130676717 0.297280461 0.138772726
0.126122341 0.298039079 0.142567724
0.129158497 0.295509249 0.142820761
0.137254894 0.296015292 0.139531985
0.146489725 0.298165470 0.140543729
0.148007527 0.299683630 0.143579721
0.153573468 0.299177706 0.139405310
0.161290169 0.300822407 0.144085988
0.170398369 0.301581204 0.146615729
0.179506481 0.301201969 0.146615729
0.189626738 0.307147473 0.150410727
0.201644227 0.311068714 0.154332727
0.210752621 0.311068714 0.157368824
0.224415019 0.311068714 0.162681729
0.236812040 0.312460393 0.165970728
0.248829529 0.317393929 0.169386536
0.267045915 0.320429921 0.178494930
0.285009533 0.324857473 0.186970204
0.300189972 0.326628685 0.189500213
0.311575145 0.330676734 0.195066437
0.326755226 0.336369455 0.201138720
0.341935873 0.340417475 0.213282466
0.365085453 0.348892957 0.221631721
0.384566635 0.358001351 0.233775735
0.406198561 0.369386464 0.247438014
