Assets/Resources/EldamarStudio/100 Horror LUTs Pack/LUTs/cube/Venom LUT.cube
LUT_3D_SIZE 5
DOMAIN_MIN 0.000000 0.000000 0.000000
DOMAIN_MAX 0.903226 0.903226 0.903226
0.000000000 0.000000000 0.000000000
0.001644708 0.000000000 0.000000000
0.058949977 0.000000000 0.000000000
0.193422124 0.014800869 0.018722126
0.420113593 0.098291963 0.098291963
0.000000000 0.003288997 0.001644708
0.003922000 0.007210997 0.000000000
0.076913685 0.023909122 0.012776705
0.210499540 0.073371246 0.042251870
0.427197754 0.159772366 0.122201085
0.029475411 0.109297559 0.036685828
0.064516112 0.114231683 0.037697691
0.129537985 0.134850964 0.049714994
0.265654832 0.194307238 0.097912535
0.457937777 0.284630030 0.194434047
0.161037251 0.332701117 0.161037251
0.185578689 0.337254703 0.165338129
0.260847539 0.344465375 0.196078122
0.361164004 0.373814136 0.239595234
0.526881695 0.446173221 0.331815213
0.405945420 0.601897597 0.421631724
0.429854453 0.601264775 0.429727703
0.475142568 0.613662601 0.447058976
0.552308440 0.628715754 0.479696423
0.651612759 0.656799555 0.519670725
0.002277292 0.000000000 0.000000000
0.001644708 0.000000000 0.000000000
0.055661403 0.000000000 0.013788991
0.184566677 0.028842418 0.059962124
0.411005765 0.106388263 0.139152512
0.001644708 0.003288997 0.006577994
0.017710410 0.011131996 0.012776705
0.073624276 0.031119280 0.030107412
0.202276826 0.076281123 0.071727119
0.421378762 0.164326221 0.161416665
0.039341982 0.116508812 0.064516105
0.067425825 0.121062808 0.076913267
0.136115983 0.141050115 0.089057401
0.266666949 0.194054097 0.133206949
0.459962010 0.291587502 0.237318322
0.164073527 0.331689000 0.198608696
0.194813371 0.332068115 0.204554126
0.263757408 0.347121924 0.226818368
0.361163974 0.372295827 0.257179230
0.524983943 0.454396069 0.347754657
0.413029760 0.598228872 0.437064767
0.417583734 0.596584439 0.434534997
0.471473902 0.607716560 0.455787480
0.552814782 0.624414742 0.483617753
0.644275784 0.654522300 0.532953501
0.000632584 0.000000000 0.074635983
0.014041712 0.000000000 0.071979985
0.071347401 0.000000000 0.075268567
0.191777408 0.029474998 0.130297393
0.413535595 0.119924210 0.227830619
0.000000000 0.020999407 0.069702692
0.020619705 0.022264414 0.072611995
0.087666407 0.038583420 0.088678114
0.214041829 0.082479410 0.148639992
0.418342888 0.182036787 0.243137494
0.047184981 0.124351807 0.127640381
0.081467278 0.143326804 0.140037805
0.181909978 0.188487977 0.185199395
0.286274523 0.223529518 0.222896934
0.459962040 0.305629343 0.305629373
0.189879820 0.338520139 0.275142133
0.214674234 0.345730513 0.278051823
0.281973243 0.357495546 0.296394825
0.368374676 0.383048534 0.320935965
0.528526008 0.459203213 0.394433796
0.400505781 0.596584499 0.480328590
0.411764503 0.596584618 0.463503897
0.468437612 0.606957614 0.480835021
0.553826928 0.629348159 0.515622973
0.644276023 0.656799555 0.551549196
0.001012128 0.000000000 0.245414242
0.042252120 0.000000000 0.243516982
0.143073693 0.003289416 0.243516982
0.246426120 0.042251870 0.252372116
0.421505570 0.133080214 0.330550045
0.000000000 0.049462702 0.232637689
0.046173282 0.056293570 0.236305833
0.148893282 0.069449827 0.244149402
0.255913854 0.104111247 0.272232831
0.431625307 0.193801209 0.342314810
0.050853692 0.178368270 0.269070417
0.108412102 0.188867927 0.278431535
0.197343528 0.207463801 0.291840792
0.305249691 0.242125228 0.315749526
0.467425644 0.309803933 0.391650498
0.202277243 0.355218261 0.349525213
0.233522817 0.356862664 0.361163676
0.297280282 0.380392104 0.378747284
0.418090254 0.431752235 0.427830249
0.549019694 0.475522012 0.473877281
0.404553741 0.598228931 0.525996029
0.425806284 0.605945587 0.529791117
0.473371297 0.616571784 0.544339061
0.553573608 0.632890463 0.563946605
0.651486576 0.662618577 0.603794754
0.002656833 0.005312988 0.534092546
0.078304678 0.012270683 0.524604440
0.233016789 0.051992200 0.526249409
0.387096763 0.129917771 0.526122749
0.526122749 0.213535771 0.527387559
0.000000000 0.113725655 0.522833586
0.089816377 0.124225497 0.521568537
0.241872072 0.149399027 0.521568537
0.392030060 0.195825353 0.522454083
0.523212910 0.259961784 0.536622584
0.098418780 0.274257213 0.520303130
0.160151914 0.280202359 0.528399467
0.278810799 0.294496953 0.526755154
0.405060053 0.321315348 0.536242723
0.539785028 0.361290604 0.549651623
0.260720968 0.453383952 0.562049389
0.281720281 0.455408216 0.563061297
0.346110225 0.457052499 0.562681615
0.447817951 0.461859643 0.569765627
0.576090753 0.496267945 0.590385914
0.430739582 0.622896552 0.622517765
0.443137586 0.627324581 0.626312494
0.493358582 0.630613446 0.636559010
0.569512904 0.649588585 0.648956537
0.682858586 0.694749713 0.699936569
