Assets/Resources/EldamarStudio/100 Horror LUTs Pack/LUTs/cube/Venom LUT.cube
LUT_3D_SIZE 8
DOMAIN_MIN 0.000000 0.000000 0.000000
DOMAIN_MAX 0.903226 0.903226 0.903226
0.000000000 0.000000000 0.000000000
0.000000000 0.000000000 0.000000000
0.003922000 0.000000000 0.000000000
0.022517284 0.000000000 0.000000000
0.092093185 0.000000000 0.003035997
0.170145735 0.009740740 0.011637996
0.283238262 0.042125285 0.038203701
0.420113593 0.098291963 0.098291963
0.003542452 0.003542452 0.003542452
0.003542452 0.003542452 0.000000000
0.004301452 0.003922000 0.003162904
0.034281991 0.004301451 0.003542452
0.100442633 0.006578352 0.009488002
0.174825743 0.030739734 0.019860543
0.283871263 0.067552246 0.048703536
0.420999318 0.120303348 0.101707794
0.000000001 0.011638094 0.006198900
0.001897547 0.010878999 0.003542453
0.009235094 0.014800999 0.001517999
0.054269638 0.031625643 0.012523903
0.107906282 0.046805993 0.021126000
0.185704812 0.074130088 0.031372637
0.302846104 0.118153088 0.072738998
0.431246012 0.173434645 0.128525808
0.016824644 0.064010277 0.020746354
0.024161996 0.067552537 0.017583545
0.048450187 0.076154634 0.017836995
0.084756635 0.085262284 0.029221639
0.141935632 0.111448444 0.039342444
0.222390816 0.142188266 0.066793256
0.328652561 0.187982216 0.110056981
0.446046829 0.247185245 0.168753967
0.056420192 0.164199993 0.067299187
0.069829442 0.166982725 0.060088381
0.094623901 0.170525178 0.069576092
0.138772830 0.179886371 0.080455184
0.187729374 0.197090164 0.092346996
0.268311352 0.226059169 0.118658982
0.358254373 0.274509668 0.164832175
0.474256784 0.331056178 0.232005328
0.130676717 0.297280461 0.138772726
0.146489725 0.298165470 0.140543729
0.170398369 0.301581204 0.146615729
0.210752621 0.311068714 0.157368824
0.267045915 0.320429921 0.178494930
0.326755226 0.336369455 0.201138720
0.406198561 0.369386464 0.247438014
0.517014682 0.422137767 0.310815781
0.250221550 0.435800552 0.262618572
0.263757288 0.437824279 0.271094322
0.282858729 0.442125380 0.269576371
0.318026632 0.448070914 0.283871263
0.362049460 0.457052261 0.302593261
0.417710006 0.471979827 0.323971987
0.474383563 0.482226551 0.332574576
0.555471063 0.519670963 0.380139261
0.405945420 0.601897597 0.421631724
0.410752296 0.602150321 0.423529446
0.434155494 0.599999845 0.434028685
0.456672788 0.612270594 0.440607220
0.498165578 0.617710412 0.455913574
0.540670514 0.625426590 0.473624408
0.590891898 0.639468908 0.495382428
0.651612759 0.656799555 0.519670725
0.000000000 0.000000000 0.000000000
0.000000000 0.000000000 0.000000000
0.001138547 0.000758999 0.000000000
0.028083287 0.000000000 0.000000000
0.089943185 0.005060354 0.008981547
0.164199978 0.016445000 0.025680188
0.277672559 0.046426252 0.066034250
0.413535774 0.099936672 0.114737637
0.003542452 0.003542452 0.000758999
0.000379548 0.003922000 0.000379548
0.008981548 0.000379548 0.004301451
0.032384541 0.005060450 0.003542355
0.096267991 0.013282998 0.015306646
0.170398280 0.036306448 0.030739734
0.288551539 0.071473829 0.069449991
0.415306777 0.126249194 0.122580633
0.003542453 0.013283001 0.008222548
0.001897547 0.017204002 0.010626454
0.018342646 0.015939547 0.005819451
0.050727189 0.028842190 0.011258545
0.105123542 0.049588639 0.025300447
0.188108817 0.077672541 0.047944449
0.299557090 0.120303273 0.083491564
0.431625664 0.178494796 0.147248507
0.015180352 0.066793635 0.024920996
0.032511450 0.067173086 0.030486997
0.048450187 0.075395539 0.033143539
0.083238639 0.085136086 0.036559280
0.138772830 0.110689536 0.056167092
0.221379191 0.142314985 0.082479447
0.323466003 0.186843559 0.120177172
0.437697560 0.240480602 0.180771694
0.065401636 0.163061634 0.071979992
0.072991826 0.166223720 0.080961540
0.097280540 0.170904532 0.077798732
0.139278993 0.181404382 0.091461092
0.193674743 0.194307521 0.104996823
0.264136702 0.225553721 0.135357276
0.361543357 0.273371190 0.178620934
0.476660311 0.327893525 0.245034799
0.128525823 0.293738008 0.147628278
0.144844905 0.295635670 0.154965207
0.171284080 0.298039377 0.160151467
0.209614173 0.309804052 0.171157479
0.264389455 0.320429921 0.183554471
0.327893466 0.332574457 0.208222911
0.406198561 0.369006991 0.248955995
0.509171188 0.425679833 0.319038332
0.249335855 0.433649361 0.268943846
0.258570522 0.433902800 0.272865266
0.277292997 0.430866718 0.269323111
0.310183525 0.437571198 0.284250647
0.354712158 0.449335754 0.295382828
0.406072110 0.461479902 0.313852102
0.459203124 0.474889100 0.333080083
0.543833077 0.505755961 0.376723677
0.406451583 0.597343624 0.431751966
0.411131859 0.599240780 0.424794585
0.425933033 0.592662930 0.429728031
0.451359689 0.600885451 0.436685324
0.487792134 0.611131966 0.448576957
0.538393199 0.623149872 0.475269020
0.589500368 0.638077319 0.497279853
0.638709545 0.653257132 0.521694660
0.000759096 0.000759096 0.002277095
0.000000000 0.000000000 0.007843001
0.004680904 0.000000000 0.002277096
0.029221639 0.000000000 0.011637997
0.086021185 0.006198902 0.025680190
0.160278067 0.018722095 0.054901920
0.275142461 0.053890284 0.095256090
0.410246670 0.108412050 0.153067723
0.000759096 0.000379548 0.002277095
0.004680999 0.000379548 0.001138548
0.006198999 0.000379548 0.009361000
0.037444897 0.008222548 0.019101642
0.096647538 0.019101547 0.037824351
0.172422528 0.040986639 0.066034347
0.284377009 0.073750630 0.101581089
0.416065961 0.133333519 0.155218199
0.003162905 0.010879000 0.015686003
0.001518000 0.015939547 0.019860642
0.034409001 0.021758191 0.024921097
0.061733093 0.037445098 0.037445098
0.114990376 0.057052385 0.057052385
0.188867718 0.080075830 0.083618090
0.298798174 0.123466179 0.124351375
0.425426781 0.182542816 0.180645064
0.017836995 0.077419281 0.048450191
0.032384545 0.078557730 0.053131089
0.056293290 0.087159634 0.058190741
0.095003441 0.092979185 0.069196641
0.146615818 0.115749277 0.084756635
0.223656073 0.144971728 0.113725439
0.327134490 0.192030430 0.157115653
0.445414215 0.250347883 0.215686336
0.073624186 0.167236179 0.111068994
0.080075830 0.171663627 0.106008738
0.105502889 0.176723480 0.110183187
0.143073976 0.188108817 0.121189177
0.194054171 0.200253069 0.131435886
0.264389455 0.229854450 0.159013107
0.363061339 0.276913464 0.206451550
0.468817115 0.334851146 0.267805189
0.141049728 0.300063103 0.186717466
0.151676089 0.299683630 0.184945807
0.177861825 0.301201463 0.186843455
0.216951117 0.314231634 0.198608369
0.267552286 0.321695089 0.214294657
0.330044121 0.335357130 0.240480706
0.403036088 0.373687506 0.269449919
0.511068642 0.429601431 0.330044538
0.254016459 0.428083479 0.285515547
0.264895529 0.433902889 0.293738008
0.289563477 0.442251652 0.300442457
0.318911999 0.446552843 0.307527274
0.360784262 0.457938045 0.323339254
0.411764562 0.467425555 0.334598094
0.466666639 0.479949445 0.355344445
0.556483030 0.516761541 0.401264817
0.406451494 0.598481894 0.436559021
0.414168328 0.594560325 0.441619337
0.429980874 0.601644397 0.440607339
0.461985946 0.608728647 0.456925899
0.494750053 0.614927232 0.469576329
0.539152503 0.625426590 0.480834872
0.593674898 0.638330221 0.509930372
0.646299779 0.653257310 0.536495566
0.001138644 0.000000000 0.038203996
0.002276998 0.000000000 0.038203996
0.014421353 0.000000000 0.040986639
0.038203992 0.000000000 0.047691282
0.093485348 0.006578449 0.066919640
0.169765979 0.023402996 0.101454645
0.273244888 0.053890284 0.136369631
0.405565947 0.120556794 0.196584418
0.000000000 0.001897547 0.032763995
0.004301451 0.001518095 0.040227544
0.014800902 0.001518095 0.041366186
0.039342541 0.006198901 0.043643184
0.094497085 0.020367000 0.069196641
0.173940524 0.041366190 0.102846541
0.284250617 0.079696469 0.148513466
0.412144095 0.137507871 0.202403620
0.007084099 0.023403095 0.050095096
0.008475900 0.027703643 0.054269545
0.031625453 0.031625450 0.063757442
0.066413991 0.041745640 0.061985828
0.114864089 0.059329286 0.087539375
0.193674728 0.090702191 0.118026473
0.298798263 0.132574439 0.163440987
0.424541146 0.193801060 0.226059362
0.021884998 0.081340991 0.084123649
0.038329996 0.083617993 0.085641742
0.066793442 0.102466993 0.099304281
0.121189281 0.121189274 0.121189281
0.162175626 0.137254819 0.129664466
0.233902454 0.158760369 0.156862631
0.327008277 0.198608562 0.196457908
0.436179578 0.251992285 0.254902035
0.071727186 0.177609190 0.142315179
0.090322547 0.181024730 0.147881195
0.121315286 0.193674818 0.159266621
0.159898639 0.207716629 0.167362198
0.213155925 0.217457384 0.184186816
0.282858908 0.248829991 0.209993824
0.363187641 0.288804263 0.248450637
0.472991765 0.343200505 0.304364145
0.155977115 0.303099215 0.224288374
0.168121472 0.305882365 0.225300372
0.194307625 0.311448455 0.229601726
0.229854465 0.319291443 0.240480617
0.277419627 0.330297261 0.257432193
0.332700461 0.345603824 0.273371100
0.407337129 0.377229482 0.305882484
0.515876055 0.435041428 0.363820434
0.264263272 0.433523268 0.330297261
0.268943578 0.437571287 0.322074622
0.281846821 0.437823981 0.320303619
0.320809543 0.441871911 0.331941575
0.360025167 0.453889936 0.344085842
0.414041579 0.466160834 0.358759910
0.465907574 0.478304565 0.379633278
0.544465125 0.515243471 0.416698098
0.406578064 0.597975612 0.465654403
0.415560037 0.599114418 0.454396099
0.424035519 0.600379527 0.461227059
0.454269469 0.603921235 0.467678756
0.494497418 0.612017572 0.481214285
0.537128270 0.627071559 0.494876683
0.590891898 0.639215827 0.524604797
0.643516779 0.655660927 0.550663829
0.000000000 0.001518192 0.111068994
0.009108454 0.000379548 0.113851726
0.024161998 0.000759096 0.108665183
0.066413999 0.000379548 0.106767833
0.112587184 0.010878998 0.114104986
0.171157464 0.024541643 0.135104373
0.287792265 0.060215089 0.192409888
0.417583972 0.124731138 0.254396170
0.002276998 0.001897643 0.106641531
0.007969812 0.004681000 0.097659886
0.029221835 0.006198901 0.108285733
0.071473733 0.016065549 0.117394082
0.116508178 0.024921190 0.120050631
0.181150928 0.044022538 0.143453538
0.290701926 0.084376991 0.198228925
0.413535774 0.142188340 0.254648805
0.006198902 0.035926804 0.110310093
0.011258643 0.040607192 0.109044828
0.041366193 0.047691192 0.107780173
0.083238639 0.053890090 0.120430090
0.131309181 0.068058282 0.133713186
0.198228911 0.094623797 0.162682176
0.306768090 0.133586287 0.214294568
0.425933033 0.200885624 0.278051823
0.028083287 0.098545179 0.139658451
0.045793645 0.103226088 0.141176537
0.074636444 0.110183276 0.148260638
0.124730825 0.125489831 0.161037281
0.169259831 0.139531612 0.175458834
0.241619259 0.168121174 0.205186814
0.338519812 0.208475634 0.251992285
0.441998422 0.262365878 0.298798144
0.079696380 0.182922363 0.185958356
0.090322539 0.192030519 0.189374000
0.125869378 0.198735073 0.201012164
0.183048472 0.226059467 0.224035829
0.256546378 0.261353374 0.258950174
0.308412164 0.271473646 0.269449919
0.379759431 0.300569385 0.302972972
0.476533771 0.343706191 0.345224351
0.163693920 0.309171468 0.271852911
0.179759577 0.311068833 0.270208806
0.206578165 0.321315616 0.277672291
0.249589175 0.334977448 0.293990701
0.294623882 0.346742451 0.306388408
0.350284725 0.357621640 0.320556521
0.422264278 0.392536014 0.351802826
0.518532634 0.439974844 0.400758952
0.266160369 0.439974576 0.352182180
0.273497939 0.440354139 0.364073366
0.291334480 0.445540845 0.363314390
0.321695209 0.450094849 0.370777905
0.370271981 0.463504165 0.383807361
0.419734269 0.472991765 0.395951807
0.476154357 0.487919152 0.411891162
0.559519053 0.524604619 0.456040591
0.402023733 0.601517737 0.477419406
0.410499394 0.599241078 0.483871043
0.425173730 0.605439425 0.484503508
0.455281615 0.608981609 0.494876444
0.495382637 0.614927411 0.503984809
0.541302800 0.628336132 0.522200942
0.591397882 0.640733719 0.543579817
0.649462223 0.657684624 0.563567519
0.000000000 0.000000000 0.211005464
0.005186551 0.000000000 0.212270722
0.048576828 0.000759096 0.211132467
0.105123632 0.000000000 0.209108204
0.154712364 0.011258545 0.216065720
0.211005464 0.031119477 0.220999733
0.296394557 0.064263016 0.247944459
0.420746475 0.131561905 0.317646921
0.000000000 0.005312995 0.195572004
0.007590263 0.010879191 0.198734909
0.049588837 0.015686195 0.203162462
0.104996823 0.020240190 0.210373372
0.159392565 0.035800088 0.215180472
0.220872715 0.058570284 0.225553736
0.298798174 0.085135989 0.258064270
0.414800614 0.146742538 0.316888034
0.000000000 0.061353739 0.209361359
0.010752995 0.067299187 0.207716718
0.056546636 0.066414095 0.205439553
0.114104986 0.072232634 0.216571465
0.172548831 0.088298276 0.225679725
0.226312712 0.111448348 0.237318099
0.311322093 0.140290827 0.271094292
0.436432660 0.205439523 0.330929637
0.021758284 0.135357365 0.228083625
0.043769896 0.131309375 0.229981288
0.087918736 0.135989994 0.231751904
0.143200368 0.148260534 0.242504373
0.195445985 0.160278365 0.253636897
0.257685095 0.179380029 0.262365729
0.339152187 0.207463726 0.292852908
0.444528639 0.266540438 0.352434993
0.080328986 0.216318920 0.262492120
0.107906371 0.220872819 0.274256825
0.138772815 0.229222178 0.283870757
0.191651076 0.240607098 0.289563268
0.252371728 0.262871563 0.307653368
0.310689360 0.280202180 0.318406373
0.383048683 0.308412403 0.350664169
0.485389024 0.348007530 0.389879555
0.173940733 0.320809454 0.315116704
0.184060931 0.321189016 0.320177287
0.216571450 0.328273207 0.326502174
0.257052720 0.341682643 0.344844729
0.310815960 0.367235959 0.368754148
0.383681476 0.393295199 0.395445973
0.446679294 0.413788736 0.410499722
0.536116421 0.448450565 0.444528550
0.262239277 0.444022715 0.394054443
0.274004012 0.440101087 0.401138455
0.294623643 0.448323846 0.402277261
0.329411536 0.459456265 0.414421201
0.375837892 0.474003732 0.431246340
0.435294449 0.488172024 0.447438002
0.489183962 0.497280002 0.457938164
0.568247914 0.536116242 0.493864536
0.408095777 0.598987639 0.515369773
0.414421320 0.603921175 0.517014682
0.426059365 0.603415489 0.519671023
0.457305461 0.613282740 0.527893782
0.495382518 0.619987607 0.544465184
0.541935384 0.629854381 0.551802635
0.594054222 0.645793855 0.575964510
0.648703456 0.661353469 0.591144800
0.003922000 0.000000000 0.353447556
0.001517999 0.001897740 0.350916803
0.076534085 0.000000000 0.350537270
0.144718289 0.002783356 0.355597913
0.218216375 0.016951185 0.353573650
0.281594157 0.048070982 0.356736571
0.352181971 0.092725985 0.362934828
0.429221749 0.144465342 0.380518645
0.001644712 0.019101836 0.348260552
0.005439999 0.019860834 0.353573740
0.074130282 0.024161803 0.353953212
0.149778634 0.033902831 0.349019349
0.215559825 0.052624829 0.350284636
0.282985419 0.080328979 0.354079723
0.354079723 0.112586990 0.362428874
0.421631932 0.157748044 0.373940527
0.000000000 0.087413281 0.345603555
0.003415547 0.092852376 0.346742272
0.078684278 0.092979185 0.348513454
0.153067559 0.103099376 0.353194118
0.226186082 0.119418278 0.356736362
0.290196180 0.140164629 0.361416757
0.359139740 0.172675386 0.373940349
0.437950492 0.211132154 0.396331072
0.017457347 0.164452910 0.352814555
0.048197377 0.172422439 0.360404998
0.108918533 0.177102908 0.357241929
0.173940629 0.184566557 0.356736273
0.240227461 0.197849467 0.367868572
0.303225815 0.215053469 0.370145559
0.372928619 0.238456562 0.381403923
0.454648703 0.272991657 0.412144095
0.111827895 0.263757378 0.377103090
0.134724930 0.264642835 0.374826074
0.171157375 0.269070476 0.380139232
0.217204541 0.277799189 0.384440362
0.268437475 0.284883022 0.389753461
0.334218562 0.300569445 0.397976011
0.401518077 0.318659186 0.409487545
0.485389113 0.350790381 0.446426362
0.204047978 0.361543477 0.422011018
0.216698483 0.364326328 0.417457074
0.232004821 0.367741734 0.418722391
0.273244977 0.373054743 0.425426900
0.324224919 0.386337817 0.434282452
0.382795751 0.401897728 0.449209481
0.451359808 0.418089718 0.467299283
0.540670335 0.450980246 0.499557287
0.274130285 0.450853556 0.458696961
0.284630001 0.453889996 0.450727522
0.300695896 0.457305491 0.457431972
0.330297261 0.465907574 0.466413617
0.377482355 0.474636346 0.475395262
0.444149464 0.499809980 0.501707733
0.523086309 0.531941533 0.534851313
0.590385616 0.553320408 0.547754765
0.405439317 0.600379288 0.547122061
0.419607937 0.599746883 0.554459155
0.423655957 0.605945468 0.557874739
0.455407888 0.614927411 0.569513023
0.495509148 0.625932813 0.579759777
0.545730531 0.642504930 0.591144562
0.597722828 0.649841905 0.609487772
0.661985755 0.668817341 0.634281993
0.002656833 0.005312988 0.534092546
0.001897547 0.005692536 0.520935595
0.108665086 0.016065974 0.529411674
0.192662790 0.036306158 0.526122749
0.280328810 0.070461616 0.523971975
0.367615521 0.114990421 0.525616705
0.445034921 0.162428781 0.525489867
0.526122749 0.213535771 0.527387559
0.001265167 0.051233351 0.519923687
0.010879094 0.056546338 0.524730742
0.104617365 0.064768888 0.524478018
0.194939792 0.081214786 0.516635060
0.279443294 0.106767952 0.519038200
0.359898627 0.135989696 0.521821558
0.436432809 0.176849902 0.520176709
0.512207389 0.225300446 0.526881993
0.001265168 0.136242911 0.526122749
0.016825080 0.138899162 0.525363743
0.121948078 0.147501633 0.517014563
0.207589999 0.159645706 0.521441817
0.286780626 0.181530789 0.521441877
0.372042894 0.208222792 0.524730921
0.446300060 0.235673606 0.528905630
0.522707045 0.270081997 0.535357416
0.035673607 0.229222253 0.517140746
0.083364978 0.232131541 0.518279135
0.151423350 0.239468873 0.517773509
0.224668086 0.243263587 0.520809412
0.301707536 0.259076506 0.519544244
0.376849949 0.274383247 0.522201121
0.448197544 0.293232262 0.525489748
0.523972034 0.319418281 0.537001908
0.148007318 0.325743198 0.529664576
0.168880478 0.326628715 0.533966064
0.200126350 0.328652650 0.528146684
0.251612902 0.330929637 0.529538393
0.327008337 0.339152187 0.533839226
0.389120996 0.350031912 0.534977674
0.469070256 0.364579231 0.539911509
0.540670395 0.388488203 0.552561581
0.238203719 0.431625694 0.558760583
0.251359701 0.428336084 0.556862772
0.268058002 0.427830517 0.555218160
0.308285892 0.431119442 0.555977225
0.357242107 0.427197635 0.554332435
0.423276424 0.438330531 0.563946724
0.496141642 0.454016447 0.570524871
0.571030855 0.473750681 0.586337507
0.312966257 0.521821499 0.575331867
0.334218770 0.524604261 0.578747272
0.348387092 0.522327542 0.585452497
0.378874093 0.527767122 0.587855697
0.418216377 0.525869668 0.584693432
0.467552066 0.531815171 0.589627028
0.530803561 0.542567670 0.602909625
0.605565786 0.560910821 0.617710233
0.430739582 0.622896552 0.622517765
0.436306000 0.628083408 0.642251730
0.445920527 0.628842294 0.631119490
0.478810817 0.630866408 0.633269608
0.511068642 0.636052907 0.642757595
0.556356490 0.646299779 0.647438586
0.612017751 0.665148795 0.665148795
0.682858586 0.694749713 0.699936569
