Assets/Resources/EldamarStudio/100 Horror LUTs Pack/LUTs/cube/Wetfang LUT.cube
LUT_3D_SIZE 5
DOMAIN_MIN 0.000000 0.000000 0.000000
DOMAIN_MAX 0.903226 0.903226 0.903226
0.000000000 0.000000000 0.090195999
0.008855285 0.040860288 0.109170996
0.198861808 0.100695997 0.144465417
0.385579139 0.181530863 0.201138124
0.595192611 0.294370651 0.282479823
0.034155395 0.144212693 0.154332399
0.136748403 0.167741701 0.165717706
0.280581802 0.200126395 0.190258995
0.432637691 0.255407691 0.237697855
0.624288380 0.351928979 0.309044808
0.313346207 0.332194805 0.242504582
0.339405358 0.340417504 0.258317381
0.423150212 0.365591407 0.284503371
0.535230517 0.405819118 0.316129118
0.684756219 0.490575612 0.395699054
0.504238009 0.544465363 0.394307256
0.524857342 0.556230128 0.405819118
0.572549164 0.574573159 0.424541235
0.655155003 0.604301214 0.466034114
0.760404825 0.664769113 0.545224369
0.711448610 0.784819603 0.634534776
0.718279481 0.785452187 0.638456762
0.755976915 0.795192659 0.658064425
0.797469914 0.813788474 0.685515404
0.847311974 0.838329971 0.720682979
0.000000000 0.022896998 0.136621997
0.018089693 0.055281699 0.144844696
0.222770527 0.132447705 0.191903695
0.411005527 0.215812996 0.248450413
0.601391673 0.312966526 0.311321825
0.071726680 0.154332414 0.193168700
0.165212110 0.173307985 0.195192695
0.296647698 0.214168534 0.224288389
0.439468414 0.270714998 0.273624301
0.630107701 0.364326209 0.339784682
0.323086828 0.335483789 0.280581802
0.350917101 0.343959808 0.279190391
0.431625366 0.371790081 0.304364234
0.540543914 0.412017584 0.343959391
0.689942956 0.496774226 0.421252638
0.507020712 0.552941144 0.413030118
0.533333540 0.558507323 0.425806701
0.579000592 0.578114867 0.447438389
0.654522419 0.608475506 0.476786852
0.762808144 0.665781200 0.556609809
0.721315801 0.785072684 0.642251611
0.722327650 0.786717355 0.644275725
0.745730519 0.793169022 0.659582496
0.797722936 0.811511636 0.692220092
0.845793784 0.835040808 0.727008045
0.003922000 0.054269414 0.223023400
0.082859099 0.086654119 0.227830708
0.256419808 0.146489829 0.256293833
0.419228405 0.225679994 0.295003384
0.610878825 0.315876245 0.376091212
0.146868691 0.176596984 0.250727683
0.203795105 0.191271290 0.258570284
0.316887677 0.226565689 0.286021680
0.456799537 0.285768569 0.324351400
0.634408653 0.372169644 0.399620831
0.339405358 0.339405358 0.332827389
0.368500650 0.352814674 0.342314690
0.451866239 0.381277382 0.365591377
0.551929414 0.425806373 0.403541803
0.695129335 0.504237354 0.476787031
0.516634881 0.552561462 0.467046410
0.538772941 0.558886945 0.474130422
0.581910372 0.578114867 0.489183962
0.661732852 0.610499561 0.530423701
0.767235935 0.669955909 0.590891957
0.713472128 0.780139208 0.656546593
0.721947789 0.782416105 0.667425513
0.748640239 0.796457767 0.686021388
0.798735142 0.813155949 0.712586880
0.848703623 0.838329971 0.742188215
0.120809123 0.106008999 0.332574129
0.193042248 0.126881987 0.344718426
0.317267388 0.176597401 0.362682104
0.464010119 0.247185260 0.402277231
0.627577484 0.339531958 0.474256814
0.226818576 0.204680413 0.358759969
0.269449383 0.215812981 0.364579141
0.363946676 0.251486272 0.388235539
0.490828544 0.305756122 0.430613697
0.643896043 0.386211514 0.489943236
0.371790111 0.363566995 0.440860391
0.401897520 0.366603523 0.439848512
0.468184829 0.395952076 0.460088700
0.564705551 0.435926497 0.492852926
0.697406530 0.500948787 0.554965377
0.532574117 0.563061297 0.541682243
0.543074131 0.568247974 0.544465542
0.592409849 0.585958362 0.566350400
0.667932153 0.618975103 0.597470105
0.768247783 0.667299092 0.646299958
0.700695932 0.782795608 0.714357972
0.710689306 0.783427954 0.711195707
0.741176367 0.796458244 0.725237131
0.795192778 0.815812707 0.749525785
0.857811630 0.838329911 0.782163203
0.270840973 0.172675818 0.556103766
0.313725531 0.182163104 0.546995640
0.412776530 0.225680232 0.573813975
0.539911270 0.293105632 0.598608613
0.674889445 0.382036626 0.639721572
0.317267656 0.252118677 0.568247914
0.351169825 0.255407840 0.575458288
0.441492558 0.291081399 0.589120686
0.561163843 0.346995443 0.614547908
0.686021566 0.423529506 0.647944450
0.410120219 0.398987800 0.616192400
0.431499004 0.399873674 0.620746195
0.506767571 0.424415052 0.635167181
0.603921652 0.466666520 0.654396117
0.717394233 0.529158413 0.682858765
0.564073265 0.600632548 0.691207767
0.577482641 0.603035867 0.691714108
0.609108567 0.609487653 0.698418379
0.679064095 0.628463089 0.709550977
0.774319887 0.675268948 0.735104144
0.719417751 0.796584606 0.788741589
0.727134645 0.794307351 0.791018307
0.753320813 0.808348954 0.797849476
0.796458006 0.822390914 0.814168036
0.869702578 0.860720575 0.845034599
