Assets/Resources/EldamarStudio/100 Horror LUTs Pack/LUTs/cube/Wetfang LUT.cube
LUT_3D_SIZE 8
DOMAIN_MIN 0.000000 0.000000 0.000000
DOMAIN_MAX 0.903226 0.903226 0.903226
0.000000000 0.000000000 0.090195999
0.003542452 0.013282998 0.098797999
0.020999096 0.045414094 0.115243189
0.141935632 0.085768647 0.138393357
0.258317381 0.125237182 0.163819999
0.362302750 0.170398742 0.192029998
0.471473843 0.228715986 0.234282285
0.595192611 0.294370651 0.282479823
0.000000000 0.074003547 0.110942543
0.011258545 0.081467092 0.126628548
0.076154537 0.101834089 0.139152542
0.187856078 0.130044192 0.161922559
0.283491403 0.161796540 0.179506794
0.384187013 0.201264992 0.211891443
0.485009581 0.251486301 0.244529009
0.598608494 0.317393780 0.295003146
0.081214190 0.171537101 0.173308089
0.107780181 0.176217183 0.165338099
0.179253191 0.194307193 0.177862093
0.263124377 0.204427287 0.189247459
0.332068264 0.227957100 0.206831083
0.420240730 0.261985838 0.238203987
0.518532455 0.303858191 0.267931819
0.632131577 0.366097212 0.316382080
0.239974633 0.280834645 0.216951281
0.255660832 0.281593740 0.216951281
0.294876754 0.285895109 0.230360180
0.349778622 0.301581264 0.235420644
0.412017375 0.324225247 0.258570373
0.482099831 0.347374916 0.279190540
0.564452648 0.384060919 0.315623283
0.663504422 0.444781452 0.369259626
0.367489189 0.387729377 0.275774986
0.370777816 0.391651005 0.280202627
0.401897401 0.397090167 0.290702105
0.439847827 0.410878927 0.304364622
0.488804370 0.432384580 0.325869352
0.552688122 0.450727433 0.344718158
0.624415100 0.490322381 0.378367990
0.708285928 0.539152205 0.426439017
0.473877460 0.513092995 0.372042984
0.482605994 0.517014444 0.370398492
0.499810070 0.521568537 0.377482474
0.530297399 0.531815350 0.390132993
0.574319959 0.547754884 0.408475727
0.626818478 0.571916521 0.434661478
0.683744550 0.598861694 0.467425525
0.751043677 0.641492665 0.522706807
0.602530003 0.654775560 0.490701973
0.602656543 0.652498305 0.494118035
0.614800870 0.662745118 0.500948727
0.633396626 0.668184817 0.508538902
0.665907741 0.676027834 0.522327363
0.702466726 0.691334724 0.543959498
0.740417540 0.705755532 0.566223800
0.794054091 0.734977901 0.612523675
0.711448610 0.784819603 0.634534776
0.720303476 0.790512562 0.642251611
0.721568525 0.784692764 0.640480697
0.745856941 0.792156637 0.652624965
0.762808144 0.800632417 0.661985755
0.789626598 0.812017798 0.683238328
0.819228351 0.820366919 0.702593446
0.847311974 0.838329971 0.720682979
0.007084001 0.008222548 0.117647000
0.000000000 0.016824547 0.115243092
0.029980741 0.058317546 0.136748642
0.160404995 0.103731640 0.166983008
0.265022010 0.150031656 0.183048636
0.377861708 0.190765351 0.217836797
0.479443282 0.241239995 0.250853807
0.596331179 0.306134969 0.296015263
0.003542452 0.081846550 0.136369094
0.013535640 0.086148091 0.146995544
0.089816280 0.113978542 0.156736091
0.195699185 0.139405191 0.175585091
0.293231755 0.176344186 0.201897562
0.387729287 0.215433285 0.227324292
0.489816546 0.258064538 0.261227012
0.606578052 0.321568519 0.304870069
0.111448638 0.171157554 0.168880552
0.141302645 0.186843634 0.184946105
0.191777289 0.191903993 0.195952103
0.259962171 0.209108204 0.205313101
0.343453646 0.237318292 0.228083074
0.426185995 0.270588517 0.249842182
0.518406332 0.313978374 0.282353044
0.630360305 0.371031255 0.334218442
0.247058734 0.278431624 0.229601189
0.268311650 0.280455261 0.233523101
0.303099275 0.292220086 0.242504746
0.349272281 0.306641638 0.253510654
0.415180176 0.326248914 0.264389724
0.484503627 0.350158274 0.288677841
0.564325988 0.387729138 0.323845536
0.657052696 0.440860182 0.372801989
0.364199996 0.393674821 0.296268195
0.378747761 0.386590749 0.294876516
0.400253296 0.398735106 0.297533184
0.441872269 0.414800823 0.310562819
0.494750023 0.433143377 0.330170840
0.549905360 0.452371746 0.353320390
0.625553608 0.489942819 0.387729377
0.707147300 0.538393021 0.439974844
0.482226521 0.516129315 0.377482474
0.487919182 0.515370190 0.382036686
0.502087355 0.527514219 0.379506648
0.533080220 0.534598231 0.395192802
0.570271969 0.548260450 0.411132365
0.622770488 0.571789980 0.438456476
0.680202484 0.596837461 0.471726924
0.751043677 0.641872227 0.523086369
0.589753270 0.647438109 0.487160087
0.595445991 0.650980532 0.487666100
0.607969522 0.653384149 0.497280270
0.625047505 0.659835517 0.503225803
0.660973787 0.671094060 0.521062553
0.696647584 0.683238268 0.542694271
0.733080149 0.701328099 0.561290145
0.780645013 0.724351704 0.598355591
0.709930360 0.786590636 0.626438916
0.719417751 0.785072327 0.642125249
0.718911767 0.783554554 0.640733361
0.736242592 0.784946144 0.645793855
0.758380592 0.799873292 0.661859512
0.787729323 0.805566013 0.679063916
0.819607913 0.819481611 0.705502868
0.851359725 0.832131386 0.719165266
0.000000000 0.028968997 0.144212201
0.000000000 0.037191551 0.150158450
0.053004283 0.069702998 0.166097090
0.168247998 0.110436283 0.182922438
0.282732189 0.155850902 0.210879192
0.380645066 0.204427376 0.241366088
0.487160265 0.254522264 0.278937280
0.601391554 0.314737558 0.315622985
0.001517999 0.095635898 0.159772187
0.016192187 0.095129542 0.169639647
0.108285740 0.124604993 0.188108996
0.207842827 0.153194457 0.200632289
0.303478867 0.189247444 0.221125990
0.401012093 0.229601368 0.252751529
0.501581013 0.277293116 0.283618003
0.609487653 0.334851235 0.331815243
0.118026182 0.179380089 0.203035995
0.151422739 0.190006554 0.212397203
0.213029996 0.202150196 0.219481081
0.283111751 0.220493540 0.229601189
0.355597466 0.247565091 0.249968097
0.436685860 0.280834764 0.278431624
0.527767122 0.323466182 0.307021111
0.637191832 0.381024808 0.358760178
0.259203255 0.284377098 0.250347644
0.277292997 0.288298160 0.250727177
0.316382080 0.297660112 0.260467738
0.367741734 0.313345999 0.279316723
0.426186085 0.333333522 0.298545301
0.489563495 0.355976939 0.316508204
0.574572921 0.396710932 0.349399179
0.665781140 0.451866060 0.394686908
0.383175194 0.397217095 0.316635072
0.385704935 0.395572186 0.314610839
0.410499454 0.406578273 0.323592275
0.448450625 0.415559828 0.334472001
0.499178082 0.434788167 0.351802379
0.555850923 0.457811743 0.374446273
0.627577364 0.491840541 0.408096284
0.707906365 0.545098066 0.459202856
0.488298625 0.519797623 0.394813448
0.493231922 0.521568596 0.398608267
0.510815978 0.528652489 0.409614086
0.538140416 0.536116123 0.411891162
0.579253852 0.551802874 0.434661388
0.623656094 0.573308408 0.455028355
0.684503615 0.598734736 0.487412840
0.750157773 0.643516719 0.537634254
0.592156827 0.652625144 0.508032620
0.598355532 0.653257549 0.514358222
0.613409340 0.660467982 0.516002536
0.638456762 0.668184459 0.528020203
0.663757205 0.675268710 0.548260391
0.699051082 0.688171744 0.561543405
0.737508297 0.706767917 0.580645323
0.787602663 0.730297208 0.621505380
0.721568584 0.787349641 0.641239583
0.718532503 0.781403899 0.641745865
0.727893472 0.788488269 0.648070872
0.740923762 0.793295443 0.660088599
0.761543334 0.800379813 0.673877239
0.789626658 0.804427564 0.686653793
0.818848908 0.818722606 0.711322069
0.846552849 0.836811960 0.728019834
0.003922000 0.042631354 0.194434002
0.001138547 0.054016288 0.200632289
0.091334283 0.085009649 0.210373446
0.192915633 0.122200996 0.232005000
0.295635641 0.161416799 0.245667636
0.388867825 0.208728626 0.269702882
0.491081297 0.262365282 0.308791995
0.606577814 0.323465973 0.355091810
0.025553282 0.106514901 0.201391190
0.065021925 0.116761088 0.216318995
0.136495739 0.131562188 0.224541634
0.226565719 0.159392536 0.234661639
0.313219368 0.195825383 0.254649103
0.404933482 0.232637465 0.283364743
0.509930372 0.283618093 0.318026483
0.615559697 0.339152366 0.369512647
0.155724198 0.191145003 0.238583431
0.178873822 0.193801552 0.241240069
0.222643808 0.212776646 0.251992464
0.289310634 0.231119365 0.267678648
0.364959180 0.253763378 0.280075639
0.438962609 0.289057463 0.307020873
0.537381589 0.333333433 0.344338834
0.643896341 0.384566635 0.390385717
0.281973273 0.287539274 0.279190630
0.290195823 0.291840553 0.275648147
0.325869262 0.303985089 0.292979181
0.376723289 0.317267269 0.309930652
0.437191457 0.343959183 0.325489819
0.502087235 0.366603374 0.347374737
0.580139220 0.402529985 0.386211276
0.670082211 0.450600892 0.428336471
0.384566367 0.390765369 0.347248375
0.403162539 0.400253206 0.347754359
0.420746386 0.407716721 0.358128101
0.457938015 0.419861197 0.370525062
0.508032799 0.443390191 0.382669002
0.564959049 0.465654939 0.408096373
0.632637620 0.502087474 0.441745549
0.713725626 0.550664186 0.487792432
0.488045484 0.521695256 0.426565647
0.499810249 0.520936191 0.424541265
0.512334049 0.530297399 0.432637721
0.545983315 0.539658368 0.447185487
0.583301723 0.556483090 0.462491900
0.631119728 0.574572861 0.482099771
0.682353020 0.603541791 0.513219476
0.754838645 0.645414472 0.562302530
0.594813168 0.649082899 0.526501954
0.596837461 0.656673074 0.532827318
0.613788664 0.653636873 0.529790938
0.633902550 0.665907502 0.544339001
0.666413844 0.674130082 0.554838777
0.704870403 0.688678265 0.576850116
0.741555989 0.702339888 0.596457899
0.788361669 0.729538083 0.627956927
0.709045172 0.786590815 0.659582615
0.713725328 0.781910181 0.662112772
0.726502061 0.786084712 0.661606610
0.742441773 0.792410016 0.670208752
0.759139836 0.798987806 0.682985425
0.790132880 0.805312932 0.700948536
0.820872784 0.821884632 0.719670951
0.855281770 0.836558759 0.740543962
0.006071994 0.068184800 0.253131002
0.044149369 0.075521737 0.249083176
0.134598196 0.105755903 0.258570373
0.223908991 0.135484084 0.273877621
0.317140996 0.173813999 0.289943188
0.404427707 0.216825172 0.315749407
0.502087176 0.265528202 0.352561474
0.616065800 0.328146458 0.399873346
0.094244540 0.128399894 0.256799191
0.119291723 0.133586347 0.262112528
0.180771381 0.148007378 0.272612393
0.252119094 0.170019090 0.286021173
0.339152157 0.206072196 0.302846313
0.420620173 0.242884085 0.326628387
0.511448324 0.286780477 0.355597466
0.618722379 0.343200445 0.402782798
0.194054186 0.205313087 0.287666112
0.216951087 0.209108189 0.290322632
0.258444071 0.215433195 0.304237872
0.312966526 0.241745651 0.312333763
0.379127264 0.263251096 0.325869352
0.457558453 0.294876635 0.349399120
0.543706536 0.335231006 0.383048445
0.644781590 0.392030239 0.430740178
0.295383006 0.290575385 0.329918087
0.310942143 0.302087516 0.333839267
0.340670258 0.308665246 0.338772625
0.386970282 0.325489819 0.355218023
0.444655418 0.341049820 0.365085185
0.506009042 0.373307824 0.394813180
0.584945917 0.407716841 0.420240432
0.676280916 0.453510463 0.463251084
0.391651005 0.396458000 0.386211157
0.409740388 0.405060083 0.388994545
0.427704304 0.413662374 0.396331280
0.464136809 0.426565558 0.408096164
0.518659174 0.445667386 0.425174356
0.571916282 0.472359180 0.453130722
0.637824178 0.502340198 0.477166474
0.711575150 0.545224428 0.519038498
0.497026920 0.524477959 0.460973918
0.501454949 0.521315575 0.463630527
0.520936072 0.531435847 0.474256814
0.548387170 0.541682601 0.485768259
0.584187150 0.559771955 0.495888472
0.638203859 0.581151247 0.519670904
0.696647227 0.612903237 0.551802933
0.756609797 0.646679223 0.589500070
0.594560266 0.647944510 0.548640072
0.603415608 0.650980473 0.555344641
0.610373139 0.659835339 0.558507323
0.629222274 0.665148437 0.567868531
0.666919231 0.679317296 0.586843550
0.703858078 0.691840351 0.604427755
0.737381518 0.706009030 0.622138023
0.794180989 0.734218717 0.651992202
0.700442433 0.779380083 0.680076003
0.708159447 0.783807755 0.672359169
0.719544530 0.784060478 0.680076003
0.739278853 0.792915702 0.687033415
0.761543334 0.797722995 0.697280169
0.789879620 0.809361100 0.711701572
0.819228351 0.825300455 0.736496031
0.859202743 0.835294008 0.753193974
0.093484983 0.099936739 0.313345999
0.128525823 0.108159184 0.317140967
0.189753339 0.126881987 0.325489819
0.265401453 0.155092001 0.336875468
0.345730454 0.188741192 0.354079276
0.434661478 0.230992988 0.377988726
0.521947861 0.279570013 0.406325161
0.622517645 0.334724814 0.456799716
0.158001080 0.145730287 0.316887736
0.181150824 0.151170090 0.324857742
0.223402917 0.169639438 0.334472090
0.293231934 0.188361645 0.346615821
0.363314182 0.214927331 0.358760178
0.444781661 0.257685184 0.385705233
0.526249290 0.295635521 0.415812582
0.621125817 0.345604092 0.459329516
0.245035097 0.222644091 0.355217844
0.257178813 0.228462651 0.355976820
0.290954828 0.233523175 0.355471194
0.342315197 0.249082893 0.369766206
0.401771277 0.276154429 0.383807391
0.476407379 0.307526827 0.411891401
0.554206014 0.343833268 0.438962817
0.646173418 0.397343695 0.489437163
0.320683032 0.312207639 0.389247388
0.337381542 0.312586993 0.390385926
0.366223633 0.320429981 0.395066559
0.405439496 0.335736632 0.410499454
0.461859614 0.354838461 0.422770590
0.517393768 0.380265623 0.441239744
0.584693074 0.408728659 0.471726745
0.671473801 0.452877998 0.513093174
0.414800733 0.415559918 0.443517178
0.420999616 0.417457283 0.447691739
0.442631304 0.424161851 0.453763604
0.477166355 0.434029281 0.462871432
0.526122630 0.450347990 0.481467605
0.573813915 0.473877370 0.498924434
0.638203740 0.502466738 0.528272986
0.711954713 0.541556001 0.560278475
0.505249977 0.528652489 0.503225744
0.510689318 0.530676723 0.507906735
0.530423462 0.537634075 0.522959709
0.555977166 0.548007607 0.529158771
0.593927979 0.562428653 0.545857191
0.638583422 0.583554447 0.562049270
0.695129573 0.611764491 0.588615000
0.758127809 0.645540655 0.624288499
0.595698714 0.648450315 0.593548477
0.605060220 0.654269099 0.592409849
0.609361351 0.658443928 0.597090125
0.634914875 0.661859572 0.608855128
0.661732972 0.676027536 0.619607508
0.702467024 0.694117248 0.637950718
0.749398768 0.712460518 0.657811761
0.793168962 0.738772929 0.678051531
0.697912693 0.783807695 0.703478634
0.704111218 0.782921970 0.700189829
0.713978589 0.783428133 0.702846169
0.734092355 0.790385783 0.711574852
0.752434790 0.798355520 0.723719239
0.788361609 0.814041555 0.738646448
0.819481313 0.824161947 0.756989360
0.859582484 0.838329971 0.776344001
0.190132990 0.132321283 0.416571856
0.210879117 0.138266549 0.411005557
0.255028367 0.155092001 0.417963356
0.321315616 0.178873926 0.432384610
0.396205187 0.214674085 0.444655269
0.469829261 0.251486480 0.463630259
0.558380842 0.299937010 0.497912556
0.640227795 0.348893106 0.526881516
0.223276541 0.173055276 0.418595999
0.235800087 0.176723734 0.420999765
0.279949546 0.187729448 0.425553739
0.339785069 0.211891547 0.437697470
0.407463819 0.237697631 0.453130901
0.481467724 0.273371279 0.470714748
0.561922848 0.312460572 0.497533023
0.639215350 0.357368767 0.531183064
0.280455112 0.239721894 0.446426272
0.290449262 0.246805802 0.447058648
0.328905553 0.254522264 0.453637302
0.378620893 0.270208985 0.465148449
0.439342350 0.294497192 0.473624468
0.509171367 0.322201133 0.496394455
0.583554327 0.362682015 0.521568418
0.658950090 0.405313015 0.548639774
0.352055639 0.330676973 0.479317278
0.359645903 0.331436098 0.476913273
0.387602627 0.336875260 0.484756380
0.429348588 0.349778622 0.496141642
0.485136002 0.369386524 0.511068821
0.539405346 0.392030448 0.524857461
0.606451571 0.426059246 0.541555941
0.676913142 0.460973918 0.575331926
0.429222256 0.428589493 0.519923985
0.438709766 0.433143675 0.531056166
0.459076256 0.438709378 0.535610378
0.490195900 0.446173549 0.539658427
0.532068253 0.459835380 0.549145997
0.581783772 0.481467634 0.567236185
0.644908428 0.510057092 0.584313631
0.714864075 0.541302979 0.613662183
0.519797742 0.544971406 0.589499950
0.527387261 0.550664246 0.588994503
0.537508070 0.553447068 0.588108778
0.566856444 0.563314378 0.596964061
0.598861575 0.569765747 0.609487593
0.640860140 0.589500189 0.622517705
0.695888579 0.613788784 0.637571454
0.756989002 0.641113043 0.664642751
0.594686985 0.659076273 0.646932542
0.607463300 0.659709275 0.645540535
0.619102001 0.660468161 0.646426439
0.634914577 0.667552292 0.653004646
0.666919470 0.677039981 0.661227047
0.697280288 0.690069735 0.672739029
0.743706524 0.710689247 0.695635259
0.801771224 0.737634063 0.722200811
0.701328218 0.782162786 0.729158640
0.701580882 0.781151235 0.736749053
0.714484453 0.786210954 0.738013744
0.727008164 0.789753437 0.744465470
0.752941012 0.800758958 0.757495284
0.783680916 0.813282609 0.768121302
0.821505070 0.823023140 0.779759526
0.857305586 0.843896329 0.804048002
0.270840973 0.172675818 0.556103766
0.286021799 0.173434824 0.550916553
0.326628566 0.187222987 0.552308798
0.377355963 0.209993809 0.565085351
0.452498376 0.241365999 0.582669139
0.525236785 0.281467706 0.597090364
0.595445931 0.330802828 0.617710233
0.674889445 0.382036626 0.639721572
0.288298517 0.198481828 0.549272478
0.300189525 0.205565840 0.552308798
0.337381184 0.217963219 0.560404897
0.391903907 0.237697631 0.569259703
0.451233208 0.263124347 0.577735603
0.529411852 0.300695896 0.594686985
0.597849190 0.342567801 0.613409340
0.672485709 0.388361335 0.631751776
0.328652829 0.269323081 0.574066818
0.341176271 0.269070536 0.574067235
0.373940110 0.276913375 0.588108718
0.419734448 0.294497162 0.589500308
0.479317069 0.319923818 0.594560266
0.545224488 0.351296723 0.611511528
0.617710114 0.386843741 0.627197623
0.686780810 0.434661627 0.653763533
0.373561174 0.344085634 0.593295574
0.392915815 0.349019438 0.604427576
0.416318715 0.359392732 0.603035986
0.457685083 0.373813927 0.608981609
0.507906497 0.389879435 0.617962956
0.568753958 0.413409382 0.626818419
0.635294259 0.449715078 0.643643439
0.701707602 0.486274451 0.664895415
0.447058827 0.447564811 0.625806451
0.458823562 0.454269171 0.635420978
0.471347451 0.451486439 0.630233824
0.501581192 0.458570540 0.635546982
0.551675975 0.476154149 0.646426260
0.602782786 0.498165846 0.657558739
0.667172849 0.524857581 0.672106445
0.730170667 0.562175810 0.692346632
0.544085681 0.568753898 0.676533520
0.544844925 0.575585067 0.673750520
0.556989372 0.573434472 0.678304672
0.576849878 0.577609181 0.680455506
0.603288889 0.584819615 0.684250653
0.653004587 0.598861694 0.699177802
0.711448610 0.622770250 0.708412051
0.764199674 0.651992261 0.727007985
0.631498814 0.685641766 0.723592341
0.635673404 0.686653972 0.723086536
0.641492844 0.687160015 0.725996137
0.654775441 0.688045681 0.728399634
0.678810894 0.696773767 0.733965814
0.709677517 0.705755651 0.740164518
0.748892784 0.714990795 0.756356776
0.803162336 0.737634122 0.772169530
0.719417751 0.796584606 0.788741589
0.723339736 0.794307351 0.792789221
0.727134585 0.795319438 0.790006399
0.743832707 0.803035975 0.797722936
0.764199734 0.807210565 0.797596455
0.787096798 0.819354713 0.812902868
0.827703774 0.833775759 0.828589618
0.869702578 0.860720575 0.845034599
