Assets/Resources/EldamarStudio/100 Horror LUTs Pack/LUTs/cube/Wetfang LUT.cube
DOMAIN_MIN 0 0 0
DOMAIN_MAX 1 1 1
LUT_3D_SIZE 32
0.000000000 0.000000000 0.090195999
0.000000000 0.000000000 0.090195999
0.000000000 0.002150774 0.092346773
0.001265161 0.006452000 0.095382839
0.003542452 0.013282998 0.098797999
0.000506065 0.025426997 0.104869999
0.002530322 0.035041321 0.105881996
0.008855285 0.040860288 0.109170996
0.020999096 0.045414094 0.115243189
0.042251509 0.054522492 0.121315971
0.083870739 0.063630871 0.124478124
0.114231497 0.074762993 0.131562248
0.141935632 0.085768647 0.138393357
0.174573064 0.094623998 0.141429037
0.198861808 0.100695997 0.144465417
0.227956980 0.111574993 0.154711992
0.258317381 0.125237182 0.163819999
0.288678139 0.139784977 0.171789557
0.319038957 0.151929021 0.186969966
0.341050386 0.161290362 0.188235000
0.362302750 0.170398742 0.192029998
0.385579139 0.181530863 0.201138124
0.413029969 0.196837008 0.216065496
0.443390012 0.215053812 0.225173905
0.471473843 0.228715986 0.234282285
0.500189960 0.240859970 0.244781986
0.531056046 0.254522055 0.257432073
0.564452410 0.275774419 0.272612423
0.595192611 0.294370651 0.282479823
0.625553370 0.314358175 0.298671722
0.655914187 0.336495966 0.317267209
0.686275005 0.360783994 0.329412013
0.000000000 0.003036387 0.084123999
0.000000000 0.003036387 0.099304385
0.000000000 0.011638386 0.097153611
0.001265161 0.019861160 0.098418772
0.003922000 0.027704388 0.101454839
0.003542452 0.034535386 0.104869999
0.000506065 0.044149064 0.116002642
0.012397312 0.049968325 0.116382062
0.033143479 0.054522481 0.117520481
0.063503891 0.063630879 0.121315978
0.090575255 0.075648390 0.133206993
0.120303497 0.082859002 0.138646394
0.148007631 0.091840640 0.144465640
0.181151062 0.101201996 0.148007736
0.211005807 0.112839997 0.156609416
0.232890785 0.118911996 0.154838800
0.259835571 0.128273189 0.162302181
0.288045555 0.140417561 0.171789557
0.316002578 0.154965416 0.186969981
0.346363336 0.167109400 0.193801001
0.368374735 0.176470727 0.198102474
0.391651124 0.188614994 0.205186635
0.418975472 0.205692381 0.216192007
0.446426392 0.218089432 0.228210300
0.476786941 0.234028891 0.239595383
0.504870594 0.248323649 0.249462664
0.533080459 0.263124526 0.260468304
0.561416805 0.281847209 0.275648028
0.589500189 0.297785908 0.282859266
0.630107284 0.317393750 0.293358952
0.663630605 0.340417206 0.313472331
0.683238626 0.366856009 0.338519633
0.002150774 0.018975774 0.093105778
0.002150774 0.023276772 0.095382616
0.000000000 0.029727999 0.101961002
0.001265161 0.036812000 0.103984609
0.003542452 0.043263771 0.107273780
0.001771226 0.051106997 0.103225842
0.001391678 0.051107224 0.118152864
0.018089691 0.058570545 0.118785523
0.042125188 0.064389773 0.118532419
0.071347281 0.074889489 0.125743479
0.103225641 0.084756769 0.131056219
0.130550012 0.092852771 0.139152229
0.157242283 0.100063130 0.145224512
0.189120799 0.109171256 0.149778962
0.217583790 0.119417980 0.158886582
0.242884561 0.128905773 0.160531029
0.265654743 0.138013765 0.165085599
0.292979121 0.147754580 0.173560962
0.321821809 0.159898981 0.182668984
0.345477730 0.172296003 0.191650793
0.372042984 0.184439987 0.201517776
0.395572364 0.194813490 0.209108353
0.422896743 0.210626274 0.218089759
0.450221688 0.224794552 0.226186037
0.475521773 0.239215270 0.238330215
0.507273853 0.253004342 0.251865864
0.535610318 0.268437833 0.263504297
0.561290443 0.288298875 0.278684318
0.590765595 0.306008935 0.288045645
0.630487084 0.322959721 0.301201940
0.671979725 0.342947185 0.318532556
0.690954983 0.366476774 0.347627789
0.002656839 0.044023000 0.104491003
0.002656839 0.048830159 0.102719776
0.001771226 0.054522388 0.106514931
0.002529999 0.059835162 0.109550998
0.004427839 0.060214709 0.117520161
0.000506065 0.067552097 0.111068934
0.011385159 0.070335321 0.117140993
0.025680011 0.072232991 0.128146619
0.058317315 0.078304991 0.122833319
0.083617985 0.089437008 0.133965969
0.112840027 0.096141867 0.134851113
0.143453568 0.105755992 0.143706143
0.170777962 0.112966642 0.147501156
0.200253189 0.121568292 0.153067872
0.225553557 0.128652409 0.160151750
0.250474423 0.139025956 0.165844321
0.274763137 0.147122160 0.168121219
0.299051106 0.159266144 0.179633409
0.328146815 0.169006988 0.183934212
0.352688223 0.179633170 0.192536518
0.375838131 0.191777155 0.203542158
0.399114281 0.203921154 0.214674294
0.426185638 0.216192335 0.223656148
0.455787569 0.231372744 0.229728162
0.478305161 0.244022861 0.237824157
0.505502641 0.260341167 0.252624661
0.537887037 0.272991925 0.267299116
0.562934697 0.292726249 0.281720608
0.593801618 0.312586963 0.291587651
0.629728317 0.332068086 0.303478777
0.674762964 0.350284338 0.323466033
0.700568974 0.368501157 0.350410998
0.000000000 0.074003547 0.110942543
0.000000000 0.076280937 0.111701541
0.000000000 0.079316773 0.118153222
0.002150548 0.081846550 0.123213388
0.011258545 0.081467092 0.126628548
0.005186545 0.084503479 0.126628548
0.026185863 0.090449095 0.127387539
0.051106952 0.095762089 0.131182700
0.076154537 0.101834089 0.139152542
0.106514558 0.107906088 0.145224541
0.131056279 0.111448415 0.144085675
0.159013495 0.119417980 0.152055264
0.187856078 0.130044192 0.161922559
0.214421526 0.139152512 0.162428558
0.235547408 0.142441124 0.165591419
0.259582520 0.151929051 0.171916798
0.283491403 0.161796540 0.179506794
0.307400525 0.168753982 0.182669029
0.331688583 0.180898011 0.191777438
0.358759910 0.190259352 0.201265365
0.384187013 0.201264992 0.211891443
0.408222675 0.213409096 0.222264573
0.429601520 0.225553080 0.231372952
0.462238908 0.240480468 0.237698004
0.485009581 0.251486301 0.244529009
0.509171546 0.264389515 0.255028546
0.538646102 0.282479078 0.272232592
0.565970480 0.297659427 0.284377366
0.598608494 0.317393780 0.295003146
0.633396804 0.338646173 0.305882037
0.669070542 0.359392643 0.321568191
0.705502570 0.377609462 0.345856994
0.000000000 0.101327926 0.120050937
0.000000000 0.098292314 0.126122922
0.000000000 0.100569159 0.133333161
0.001265161 0.104869932 0.134851217
0.008222932 0.108791478 0.129664943
0.038582932 0.105755866 0.135736927
0.055281252 0.113852255 0.140796930
0.075901344 0.117520869 0.142567933
0.096647933 0.120050862 0.144845098
0.121694945 0.126122862 0.148260936
0.146236673 0.132194862 0.157242075
0.172549173 0.135736674 0.162301928
0.199240983 0.141429275 0.168753639
0.223529130 0.148260891 0.171536922
0.241745889 0.157368511 0.177608922
0.267678797 0.163060918 0.175964803
0.291461110 0.173181444 0.184060797
0.313219547 0.183681339 0.194054008
0.334724963 0.193042010 0.194813043
0.361796290 0.202403367 0.206704780
0.387223393 0.213408977 0.216445252
0.412524045 0.225553259 0.224035189
0.438709885 0.237697855 0.228336558
0.462997943 0.249841884 0.237444967
0.488804549 0.262491941 0.248323992
0.516255617 0.275521666 0.258064657
0.547628045 0.291713923 0.269196928
0.572043240 0.309803426 0.281340986
0.604680598 0.324983805 0.298798054
0.638077140 0.344718158 0.311954409
0.671094239 0.365970582 0.327640831
0.702466905 0.386717081 0.351929009
0.005059999 0.121062636 0.134218678
0.012650320 0.125616699 0.137760997
0.021252319 0.122580543 0.141682774
0.030360637 0.123592317 0.146236643
0.041619636 0.127134323 0.142441779
0.063377634 0.130549937 0.146363005
0.088677637 0.137634322 0.152435005
0.109930016 0.143453702 0.158506989
0.128273085 0.145098224 0.160277992
0.147248343 0.149398997 0.161543161
0.171537057 0.150410995 0.157748133
0.191777304 0.156482995 0.164831996
0.217583627 0.162301958 0.172042638
0.242757380 0.170019031 0.178114995
0.260974139 0.179127216 0.184186995
0.283997327 0.183427840 0.187855810
0.306641400 0.189373702 0.192662999
0.327514291 0.200126722 0.204933316
0.350663990 0.213029370 0.208728328
0.372422367 0.219607994 0.219861031
0.397849470 0.228715897 0.224415317
0.422138005 0.240227580 0.231625512
0.447944194 0.252245784 0.237823993
0.474636644 0.261986017 0.244528577
0.501201928 0.276407272 0.255914271
0.527134955 0.290195972 0.268058300
0.557748318 0.305376381 0.278305084
0.586084485 0.321568638 0.288425297
0.615812778 0.339658141 0.303351969
0.643896401 0.356609732 0.319797158
0.675901294 0.377988607 0.337128252
0.709550679 0.400885314 0.363061011
0.034155395 0.144212693 0.154332399
0.043263782 0.145350993 0.147501394
0.052878104 0.151549622 0.153826773
0.059962105 0.148513228 0.154332832
0.077799238 0.148892790 0.155091837
0.102340400 0.154965118 0.160657763
0.115749404 0.160278022 0.161289990
0.136748403 0.167741701 0.165717706
0.158759892 0.170018986 0.169512615
0.176596910 0.172169223 0.168626994
0.198861435 0.177229404 0.169386417
0.219101682 0.176343694 0.171410412
0.237317979 0.182415977 0.176343769
0.262365401 0.191018373 0.184186995
0.280581802 0.200126395 0.190258995
0.298671693 0.204427600 0.193927810
0.321441889 0.210499600 0.201517984
0.341050148 0.217963681 0.213029563
0.365338445 0.232131451 0.220113710
0.386843801 0.237317994 0.226818711
0.408349186 0.245287955 0.234661996
0.432637691 0.255407691 0.237697855
0.457052201 0.267425776 0.246679008
0.484376997 0.276533812 0.252751410
0.510057271 0.288551271 0.261732846
0.538772941 0.302340329 0.273877621
0.566856444 0.318279773 0.286021709
0.597216666 0.335737139 0.296268433
0.624288380 0.351928979 0.309044808
0.651106715 0.373434395 0.325869173
0.678051829 0.392536581 0.342820585
0.713724971 0.416065693 0.368627012
0.081214190 0.171537101 0.173308089
0.091081478 0.170777798 0.163440809
0.097153872 0.172548875 0.158633679
0.106262185 0.178874016 0.167235926
0.107780181 0.176217183 0.165338099
0.138520017 0.181530863 0.174066931
0.150664091 0.184313774 0.173054874
0.162555173 0.188235193 0.173307717
0.179253191 0.194307193 0.177862093
0.203541994 0.194307193 0.174825698
0.225679964 0.202276975 0.178241640
0.242631182 0.204807028 0.184314087
0.263124377 0.204427287 0.189247459
0.280835092 0.210500002 0.192536101
0.298039049 0.219101667 0.198608086
0.315369904 0.224161804 0.202276900
0.332068264 0.227957100 0.206831083
0.354585618 0.237065479 0.219607651
0.379000992 0.249083012 0.228969052
0.399747282 0.255154729 0.233270347
0.420240730 0.261985838 0.238203987
0.443264067 0.270588070 0.245288059
0.467425585 0.282732069 0.254395664
0.493485034 0.292472899 0.261100709
0.518532455 0.303858191 0.267931819
0.544845104 0.316761434 0.279190332
0.574699283 0.329412043 0.291334987
0.604806960 0.350158334 0.303478986
0.632131577 0.366097212 0.316382080
0.655660987 0.385072500 0.330550045
0.683364749 0.409993678 0.351928771
0.716761172 0.431246102 0.373181194
0.123718992 0.198861510 0.176344499
0.135862976 0.204933494 0.182416484
0.137128294 0.202023998 0.170398429
0.142188668 0.201644495 0.167235687
0.156356990 0.206577986 0.180518493
0.168500990 0.206577986 0.186590508
0.181530505 0.206831023 0.185199335
0.195066199 0.208602220 0.185452268
0.209613979 0.212523982 0.190006107
0.221757993 0.218595982 0.199114501
0.246046767 0.224414989 0.196078122
0.260088772 0.228589758 0.199494049
0.276407629 0.231372818 0.204427868
0.302087486 0.234788015 0.207716495
0.314231485 0.240860015 0.213788480
0.333839267 0.247058496 0.217457294
0.351802677 0.249968022 0.218975484
0.369766027 0.252245098 0.222644061
0.397090495 0.261353493 0.237824470
0.415939003 0.273371011 0.244402498
0.434281975 0.283238232 0.250348002
0.455661118 0.291334480 0.257432133
0.482605964 0.297912449 0.266540438
0.503858387 0.310056478 0.275648057
0.527640522 0.322074562 0.280075788
0.553320467 0.335610628 0.288931161
0.580772042 0.350664437 0.303478986
0.608096421 0.365844011 0.315622985
0.640860200 0.381277323 0.330423802
0.666793168 0.398228884 0.343706429
0.692599714 0.419355094 0.361416668
0.728905976 0.446426481 0.391397953
0.169133604 0.223276734 0.188108996
0.166729733 0.223529741 0.191271126
0.176723510 0.225300744 0.188741133
0.179253578 0.224541575 0.182416037
0.188994095 0.228589416 0.190259427
0.211258724 0.231119737 0.198861748
0.215813056 0.228589416 0.199873745
0.226818606 0.233143568 0.203795150
0.240733832 0.238709778 0.208601862
0.255028605 0.242630988 0.211258471
0.270082474 0.245793864 0.211638004
0.290322751 0.249842122 0.214673877
0.304364502 0.252878219 0.218469128
0.323339880 0.255913913 0.219480991
0.335483849 0.259329736 0.220239997
0.352434844 0.270208746 0.226312608
0.371663362 0.274256736 0.231372863
0.389500409 0.276154310 0.235420853
0.412270874 0.285262704 0.243769974
0.434029251 0.294370413 0.253384352
0.452371746 0.304490626 0.259582877
0.470588237 0.311574996 0.264642745
0.491967350 0.315876216 0.269829124
0.513219774 0.325236857 0.276154101
0.536748886 0.337381423 0.287539572
0.561037183 0.353700519 0.298039168
0.588362098 0.370904803 0.312713265
0.622897267 0.381277412 0.324857861
0.647564828 0.401770681 0.339658678
0.676660120 0.420999020 0.356609792
0.701075196 0.440354168 0.373687446
0.729412019 0.461606860 0.397976011
0.206578240 0.251612991 0.200252995
0.203541845 0.249589249 0.199241132
0.207084268 0.247564971 0.199873522
0.216192335 0.250094980 0.197596356
0.221505046 0.253510237 0.201012000
0.237571105 0.254901946 0.208475664
0.248197570 0.256926179 0.214041740
0.256167233 0.255534500 0.214041740
0.268311262 0.263504326 0.220493078
0.282226443 0.269070268 0.221758246
0.297406852 0.272106111 0.221758246
0.312587261 0.273118258 0.221758246
0.330803245 0.277292967 0.228968903
0.346616030 0.281720281 0.231878474
0.358760506 0.288298666 0.233649254
0.373687208 0.290449232 0.238456339
0.391903639 0.299557239 0.244529098
0.408855230 0.301201850 0.249336243
0.425933003 0.307527214 0.252625257
0.447185397 0.316634893 0.259456366
0.466540456 0.323845237 0.268564254
0.485768378 0.332827151 0.274762988
0.505249739 0.338140488 0.279190511
0.528399885 0.347248614 0.289057493
0.547881007 0.360657811 0.301707834
0.573561013 0.374193907 0.311069250
0.598988295 0.393169194 0.324857503
0.630866826 0.405312806 0.340037882
0.654649198 0.420999020 0.352814555
0.680708349 0.438709438 0.367994905
0.707147181 0.458570451 0.386843562
0.731435716 0.476787239 0.408096015
0.239974633 0.280834645 0.216951281
0.238076881 0.276660383 0.211638376
0.240354180 0.275901526 0.211891636
0.246553108 0.276660264 0.214295119
0.255660832 0.281593740 0.216951281
0.264769197 0.280834645 0.221505284
0.275015950 0.282226324 0.224161640
0.283491641 0.283618003 0.228083283
0.294876754 0.285895109 0.230360180
0.306641251 0.295003504 0.234155476
0.320556492 0.299430758 0.234281987
0.333459884 0.300442636 0.233143643
0.349778622 0.301581264 0.235420644
0.367994696 0.307653278 0.244529039
0.381910443 0.315876037 0.249335870
0.397596449 0.320050627 0.253636658
0.412017375 0.324225247 0.258570373
0.429601550 0.329032272 0.263377994
0.442251682 0.331562608 0.263377994
0.460468024 0.337887287 0.268943995
0.482099831 0.347374916 0.279190540
0.499304473 0.353446931 0.287286282
0.520303130 0.362302274 0.293358982
0.543579817 0.370398521 0.303479016
0.564452648 0.384060919 0.315623283
0.585704982 0.399241298 0.328906000
0.612523973 0.414421588 0.337001979
0.639215767 0.429601163 0.355217993
0.663504422 0.444781452 0.369259626
0.688298762 0.463377446 0.384313464
0.713852227 0.479443252 0.398608267
0.737887263 0.497659981 0.419101655
0.273877114 0.307906061 0.239468962
0.272865027 0.302340060 0.231878638
0.275268793 0.302972794 0.231119767
0.280329019 0.306515008 0.234408990
0.285515547 0.311448514 0.240733996
0.294623911 0.308412135 0.240733996
0.305756003 0.308412075 0.238456711
0.315623075 0.308665097 0.238456711
0.321695149 0.310183167 0.241998956
0.330803543 0.319291562 0.251106590
0.343327016 0.325490057 0.252245009
0.353953272 0.327514052 0.250980258
0.365718037 0.328905672 0.250854015
0.383681089 0.332195044 0.257179052
0.401897848 0.338267028 0.266287416
0.419607997 0.344086051 0.270335227
0.435294032 0.351423204 0.273877233
0.448070586 0.359140009 0.276533991
0.463251054 0.359140009 0.276533991
0.478684366 0.361669689 0.281847030
0.498797983 0.370398462 0.292852730
0.520050168 0.380772024 0.304744035
0.535357058 0.386844009 0.311069012
0.556482971 0.392916054 0.317394018
0.577735364 0.405819297 0.325743318
0.600379348 0.420493692 0.336495996
0.624414980 0.435926974 0.349399000
0.648702979 0.451106608 0.367615014
0.675648391 0.466286868 0.382921875
0.703226089 0.486274391 0.399620384
0.728020549 0.508792043 0.417584002
0.749272943 0.527008057 0.429728031
0.313346207 0.332194805 0.242504582
0.301201433 0.332194805 0.251612961
0.304490387 0.335230798 0.250474393
0.313725114 0.336875200 0.248576999
0.324351370 0.335736543 0.247311994
0.318911910 0.332700878 0.258949965
0.325489968 0.337254792 0.258949965
0.339405358 0.340417504 0.258317381
0.350537807 0.342062235 0.258191079
0.352055877 0.343580306 0.257179350
0.369892359 0.349778801 0.266286969
0.384819657 0.351802796 0.271473408
0.396458030 0.354079813 0.273370981
0.407969832 0.359519422 0.275395006
0.423150212 0.365591407 0.284503371
0.436559379 0.369260222 0.286400974
0.453004390 0.374446809 0.291587591
0.469322950 0.381151378 0.298165798
0.484503388 0.386464387 0.300821990
0.502466381 0.386464387 0.303605348
0.518152714 0.394686788 0.309171379
0.535230517 0.405819118 0.316129118
0.550537407 0.414168388 0.320177376
0.568754196 0.420240402 0.332321405
0.589880109 0.433143675 0.340923697
0.612523794 0.445541054 0.352814704
0.636306047 0.457432389 0.367362052
0.657811403 0.475395352 0.382795393
0.684756219 0.490575612 0.395699054
0.713851869 0.507526755 0.410246551
0.738266945 0.527008176 0.430486768
0.752308607 0.545224786 0.457052410
0.343200773 0.358886778 0.257558614
0.333459795 0.356482983 0.259456187
0.334218591 0.358633757 0.268564016
0.337760597 0.363187939 0.268058151
0.346489340 0.362808406 0.263504237
0.350537598 0.361796528 0.265527993
0.354585588 0.366350591 0.272358984
0.363946587 0.367488891 0.274003685
0.378368080 0.369007081 0.275521904
0.383301795 0.370651782 0.275775254
0.393548578 0.378873974 0.279569924
0.405692309 0.380897969 0.284630060
0.415559649 0.382036626 0.289183944
0.422897011 0.386590809 0.291207820
0.440227598 0.390512586 0.300316185
0.455407977 0.398987800 0.304616988
0.467552364 0.402024180 0.306135178
0.485262543 0.406578183 0.312207580
0.505755782 0.410878956 0.315243632
0.518911779 0.416192591 0.323086351
0.539025486 0.421884835 0.328019977
0.554206014 0.432510912 0.333080113
0.568248093 0.441745758 0.336622477
0.588741660 0.452371776 0.351043791
0.604680538 0.458443761 0.358633757
0.627071500 0.474636316 0.369006962
0.651359916 0.486780703 0.383174866
0.674510002 0.499303967 0.398355216
0.693864584 0.514863789 0.408475637
0.721188903 0.533586144 0.431246340
0.745603919 0.552434981 0.446046799
0.757748008 0.570651770 0.462745011
0.367489189 0.387729377 0.275774986
0.365970969 0.386211187 0.277293175
0.363061190 0.385958165 0.282226622
0.370398343 0.388994217 0.282479405
0.370777816 0.391651005 0.280202627
0.375331908 0.391651005 0.281720251
0.384946376 0.392157197 0.284756392
0.391271383 0.399367481 0.287665874
0.401897401 0.397090167 0.290702105
0.410246700 0.399367481 0.293738306
0.416319042 0.405186504 0.296774298
0.428462923 0.409740567 0.301328272
0.439847827 0.410878927 0.304364622
0.444908231 0.413915217 0.307653397
0.459329367 0.416951597 0.315496594
0.473623991 0.421758354 0.321315587
0.488804370 0.432384580 0.325869352
0.500316560 0.435420781 0.328273177
0.520177186 0.438456416 0.330423951
0.534851432 0.442757905 0.337507844
0.552688122 0.450727433 0.344718158
0.571916223 0.459835321 0.352814436
0.584946275 0.468943685 0.357621849
0.606198728 0.479696393 0.370018899
0.624415100 0.490322381 0.378367990
0.640986323 0.496394336 0.387223303
0.664010108 0.514105141 0.400379390
0.686274886 0.526249111 0.416571617
0.708285928 0.539152205 0.426439017
0.725743115 0.554838538 0.443390340
0.754838586 0.575205326 0.473750949
0.771410167 0.593421996 0.482479185
0.390006542 0.417457551 0.293990970
0.396078527 0.418722540 0.298292339
0.395066351 0.419355124 0.302213967
0.396457702 0.419354975 0.302593559
0.405186564 0.422011137 0.292726547
0.402909189 0.422011137 0.301581204
0.410626203 0.420113862 0.304364294
0.420113951 0.421758413 0.306388557
0.426186144 0.429854125 0.306515068
0.432258159 0.429854125 0.309550673
0.436053425 0.432763994 0.312586844
0.445920289 0.435167819 0.317014575
0.460467786 0.439468890 0.321948051
0.475142121 0.442504555 0.325237483
0.484250396 0.445540935 0.331309557
0.496394545 0.449209303 0.338013977
0.510056734 0.454901934 0.342820972
0.523972154 0.465148956 0.348892957
0.533080518 0.468184590 0.348892957
0.548387289 0.471853346 0.355091542
0.565465093 0.478051782 0.361796141
0.585325956 0.486527264 0.369259804
0.600505650 0.495762110 0.381278038
0.620746076 0.505376458 0.390385658
0.639721572 0.514863968 0.397849143
0.658570528 0.526122570 0.404806882
0.676280618 0.533712566 0.418469638
0.694370866 0.551802814 0.436812133
0.716002524 0.564073563 0.447691381
0.736875117 0.578621149 0.463883728
0.752941191 0.593422115 0.485262543
0.786337614 0.611638129 0.515622556
0.417330980 0.444782019 0.312207013
0.423403025 0.450853974 0.321315408
0.420873016 0.454269767 0.323466033
0.420114011 0.454522818 0.322707176
0.426439017 0.452371955 0.320051014
0.432511002 0.452371955 0.326122999
0.435294271 0.452371955 0.324857652
0.442378283 0.452118993 0.325616717
0.450474232 0.454395980 0.327641010
0.456546992 0.460214972 0.327767491
0.462618977 0.463124841 0.330803096
0.470461726 0.464136958 0.333839297
0.481214285 0.467805326 0.337128371
0.493358940 0.475901008 0.340417147
0.502466619 0.478937417 0.346489906
0.516381860 0.484376997 0.354965210
0.531309187 0.488678157 0.359266013
0.545224547 0.492473423 0.361037016
0.554332972 0.495509058 0.367109030
0.571789980 0.501328051 0.375458360
0.585958004 0.507147074 0.384313732
0.600885272 0.513472259 0.393169105
0.618722439 0.520051003 0.402530462
0.633902848 0.532195032 0.411638111
0.651865900 0.537254751 0.420746297
0.671473622 0.546615720 0.426818669
0.691460967 0.561037064 0.433650076
0.706641376 0.576217473 0.454902411
0.722074866 0.586337864 0.467931956
0.743326902 0.601011992 0.485136151
0.763314247 0.617204249 0.505502939
0.777229965 0.629854977 0.524731040
0.444655359 0.480455756 0.344339073
0.445161372 0.480961740 0.339532107
0.453384161 0.484882981 0.344338953
0.453004748 0.486654013 0.344971389
0.455661178 0.485135943 0.343833029
0.459329367 0.482732743 0.345098019
0.462871701 0.485262424 0.348640323
0.467552364 0.485515386 0.349399000
0.476280719 0.486274481 0.353194028
0.486400992 0.490322739 0.357242018
0.489690363 0.493484914 0.365717858
0.495762378 0.496521294 0.364706010
0.506388366 0.498418748 0.365085751
0.519924343 0.503731370 0.366730064
0.529031932 0.506767809 0.372802198
0.540543973 0.509804189 0.378874362
0.553826749 0.517014503 0.384566516
0.567109346 0.522580624 0.386463940
0.578368008 0.525616765 0.390385747
0.593042374 0.537001729 0.402023733
0.605566084 0.541176498 0.409234375
0.617836833 0.546363115 0.417457163
0.634408832 0.552561939 0.426439017
0.654902279 0.562049687 0.432890475
0.670082629 0.574193716 0.444275945
0.686401010 0.581530750 0.458064705
0.704364121 0.592916071 0.469576389
0.721821785 0.603541791 0.483997434
0.739658296 0.616066039 0.499936849
0.758507192 0.628842473 0.510436594
0.780012548 0.645160973 0.528526306
0.795952380 0.659203053 0.550537348
0.473877460 0.513092995 0.372042984
0.470082462 0.520683467 0.373560965
0.476533771 0.517140985 0.362555712
0.481846988 0.517646909 0.369386464
0.482605994 0.517014444 0.370398492
0.487159818 0.515496671 0.364326477
0.492093295 0.519418120 0.376344055
0.493484974 0.520809472 0.374446720
0.499810070 0.521568537 0.377482474
0.510815740 0.524604917 0.383554488
0.516128838 0.525743306 0.388741344
0.523086727 0.528778970 0.389753252
0.530297399 0.531815350 0.390132993
0.543200731 0.535104156 0.392156988
0.550664067 0.539784908 0.398229003
0.562175572 0.544718504 0.402403742
0.574319959 0.547754884 0.408475727
0.586464107 0.554838598 0.412523448
0.598608494 0.557874680 0.416824728
0.609740376 0.563567460 0.424414754
0.626818478 0.571916521 0.434661478
0.635926902 0.574952602 0.438709468
0.649462759 0.580392003 0.445287704
0.668943882 0.591271639 0.454901725
0.683744550 0.598861694 0.467425525
