Assets/Resources/EldamarStudio/100 Horror LUTs Pack/LUTs/cube/Xeisgreim LUT.cube
LUT_3D_SIZE 5
DOMAIN_MIN 0.000000 0.000000 0.000000
DOMAIN_MAX 0.903226 0.903226 0.903226
0.078431003 0.054901998 0.054901998
0.249462694 0.027071297 0.075142004
0.464895397 0.000000000 0.055534583
0.638583124 0.000000000 0.088298991
0.906514764 0.070840962 0.133459821
0.142188698 0.205312982 0.051613003
0.276913702 0.193548411 0.046425998
0.467805088 0.180771276 0.070335284
0.645414293 0.183428109 0.106894128
0.897912741 0.230613515 0.143200576
0.274003386 0.353067815 0.115116984
0.336748809 0.355724394 0.112840116
0.473370969 0.348513395 0.119038828
0.656926155 0.369892538 0.136369273
0.914231598 0.429728210 0.141176164
0.383428127 0.575964332 0.134345129
0.428589284 0.578241229 0.144718453
0.546742380 0.584819496 0.139531866
0.710183263 0.595572352 0.139152005
0.942694426 0.650727272 0.124604866
0.436811805 0.897279739 0.075774848
0.494623691 0.901834309 0.076154128
0.615306556 0.903858423 0.079190403
0.787602901 0.906135321 0.075775094
0.976976633 0.909044743 0.085388936
0.079064004 0.070588000 0.187982693
0.258317381 0.035294000 0.187349692
0.446552813 0.064136826 0.189626992
0.619228303 0.130423695 0.226818562
0.888171554 0.123213284 0.236685827
0.179506704 0.184060693 0.181783393
0.280202687 0.189626977 0.185705394
0.438077360 0.198481694 0.204680398
0.618975103 0.214168265 0.224288568
0.892093599 0.236432686 0.245540857
0.297153711 0.340670377 0.215812817
0.354712069 0.345604092 0.218722269
0.462239385 0.342315137 0.217077985
0.639848113 0.369512796 0.230486691
0.911068976 0.426439226 0.237065107
0.389879704 0.573687255 0.222264573
0.431246132 0.570778012 0.226438701
0.545350969 0.578620970 0.224161997
0.698165715 0.585831404 0.217710406
0.938393474 0.645541072 0.216318995
0.432384878 0.894749761 0.192662686
0.481467545 0.892725825 0.191397518
0.610625982 0.896900475 0.198861390
0.780139029 0.903478801 0.201138258
0.974066675 0.909677565 0.205186665
0.166729569 0.057558831 0.345857412
0.288045704 0.067678705 0.338013560
0.442631394 0.087665990 0.326249391
0.620620012 0.142567843 0.343959808
0.891461015 0.099810451 0.384566784
0.262871802 0.212144285 0.327261090
0.323339701 0.213156402 0.322327852
0.444275677 0.213156402 0.321062416
0.614041865 0.232763991 0.341302842
0.891081452 0.209108159 0.379253805
0.343327224 0.340670377 0.321062386
0.375585109 0.343580067 0.319038421
0.480582237 0.352435410 0.332827389
0.645161152 0.368500978 0.346236706
0.917014599 0.403542250 0.366983056
0.372802287 0.563188255 0.341935545
0.415686548 0.564199984 0.340543985
0.536116362 0.568753958 0.345856965
0.695888698 0.579253376 0.342568129
0.944718301 0.636306107 0.363946676
0.406704843 0.886780620 0.381404191
0.462239236 0.888424873 0.375458807
0.602909625 0.891966939 0.386084586
0.776470482 0.899936557 0.389247209
0.965718031 0.909044623 0.396457791
0.294371009 0.112840123 0.526881397
0.370145559 0.116381839 0.522960126
0.509803712 0.131688714 0.517394245
0.669070244 0.142061874 0.511195362
0.907526910 0.086400896 0.563441098
0.339911401 0.238330111 0.512460351
0.394939959 0.241239831 0.512460530
0.521821797 0.236306116 0.509171307
0.661859274 0.229727700 0.501328111
0.913345873 0.210120291 0.565464854
0.366223723 0.385958374 0.502719700
0.411511868 0.384819508 0.506009102
0.521821797 0.377988398 0.503352106
0.674383223 0.370778233 0.507274151
0.925995946 0.392409801 0.558633685
0.384187013 0.575964391 0.507274151
0.422137558 0.572675467 0.511448383
0.541682541 0.582162857 0.522200942
0.728779137 0.600506186 0.549399257
0.949398935 0.641998768 0.580898046
0.451359808 0.888551414 0.598355770
0.505249500 0.889816284 0.609614253
0.623908818 0.893358350 0.614674091
0.779886067 0.897279739 0.611385047
0.972042739 0.901834309 0.622770250
0.407969832 0.172675818 0.842504561
0.467172533 0.171157673 0.839595139
0.608095944 0.162934542 0.839848459
0.788993955 0.129538149 0.838583291
0.974319756 0.072106130 0.841239452
0.405312985 0.274383515 0.838836312
0.466413885 0.271094531 0.835673690
0.603162706 0.260341376 0.834281921
0.787855983 0.240733787 0.837191582
0.975458443 0.219228372 0.832763851
0.391650558 0.445414364 0.831372142
0.451865822 0.444149375 0.837950885
0.594434083 0.440986603 0.836053252
0.776596904 0.434408635 0.832384288
0.973054588 0.432511210 0.830866575
0.407084078 0.670461774 0.834914327
0.462365657 0.672106385 0.842125297
0.599367499 0.670461774 0.838330269
0.776470602 0.670461774 0.836938620
0.961290598 0.675394893 0.835420549
0.446173608 0.911701560 0.855534434
0.495509028 0.908538580 0.845287561
0.623908818 0.907147169 0.851739526
0.791524291 0.899936616 0.854269564
0.951928794 0.918279409 0.872485638
