Assets/Resources/EldamarStudio/100 Horror LUTs Pack/LUTs/cube/Xeisgreim LUT.cube
LUT_3D_SIZE 8
DOMAIN_MIN 0.000000 0.000000 0.000000
DOMAIN_MAX 0.903226 0.903226 0.903226
0.078431003 0.054901998 0.054901998
0.134345546 0.054901998 0.063883543
0.281341106 0.012650003 0.071347095
0.413029999 0.002783356 0.064390004
0.520430207 0.001518192 0.060341805
0.613282740 0.000000000 0.084250741
0.742694259 0.014674284 0.102592997
0.906514764 0.070840962 0.133459821
0.084250547 0.117899641 0.063124545
0.175964549 0.109677091 0.065528452
0.291081637 0.112460546 0.070714906
0.422896624 0.097533546 0.050221097
0.516128778 0.088931352 0.058696993
0.613662302 0.099430807 0.089184187
0.740670085 0.117773540 0.112839803
0.904490590 0.145983532 0.137001678
0.152814895 0.230360284 0.048576999
0.219860539 0.225680098 0.056799546
0.310310096 0.217078105 0.053257097
0.416951269 0.207210645 0.069323353
0.510183156 0.202909291 0.082985386
0.616571486 0.206704572 0.107400000
0.745730460 0.228589475 0.127007991
0.898418665 0.258444190 0.146489665
0.231498629 0.313851625 0.088045642
0.263251096 0.313092619 0.090069994
0.330044091 0.314610720 0.091208346
0.419228286 0.308791995 0.097533353
0.512966573 0.306767821 0.116002284
0.615433216 0.308159620 0.124225348
0.755091548 0.338140279 0.139025643
0.908159256 0.368374437 0.143453285
0.306514800 0.404300988 0.128525987
0.324730724 0.403921723 0.129917890
0.367362261 0.401138306 0.131561995
0.441239983 0.401897192 0.133586347
0.519544244 0.404300988 0.136368990
0.628336251 0.417836726 0.142314732
0.769133329 0.455028385 0.139531702
0.914737582 0.493358642 0.141302809
0.368247986 0.534471691 0.143453270
0.388488352 0.539911032 0.150031626
0.428083718 0.538266718 0.149778903
0.497659892 0.538266718 0.151170269
0.574193597 0.547628045 0.147248268
0.673750460 0.550031722 0.145224527
0.787729084 0.579127252 0.134851262
0.938393533 0.619101763 0.126375899
0.415306687 0.714231551 0.114104718
0.435041279 0.722074509 0.121568263
0.476533890 0.717899859 0.120303422
0.543706298 0.725490212 0.114105009
0.630866230 0.725110710 0.109550722
0.721948028 0.724731266 0.104996562
0.827324569 0.731562257 0.094497301
0.948133945 0.751296639 0.097786456
0.436811805 0.897279739 0.075774848
0.463251263 0.900316119 0.072865471
0.503984988 0.901834369 0.072105996
0.572928250 0.901201725 0.079696171
0.656420052 0.903858542 0.081214651
0.763567388 0.904364347 0.077292979
0.866413832 0.907779574 0.087159954
0.976976633 0.909044743 0.085388936
0.089437000 0.067046449 0.108918093
0.146109641 0.053763449 0.109297544
0.285262108 0.035294097 0.121062547
0.393422008 0.044275545 0.128905639
0.500063181 0.056293383 0.141808897
0.600758731 0.075648360 0.152941093
0.730929852 0.086907282 0.171663091
0.890701950 0.110309690 0.186970547
0.101075090 0.116761096 0.120683089
0.177482545 0.113219544 0.116381541
0.278178185 0.117899641 0.122201093
0.393422008 0.117899641 0.137128189
0.494496971 0.124225356 0.146109834
0.598355770 0.136748552 0.160404563
0.732827067 0.145224556 0.173814282
0.890448868 0.163567379 0.184313715
0.181784004 0.213535652 0.128146634
0.224541545 0.217078105 0.127387539
0.302087545 0.213156104 0.129664630
0.406324804 0.209614545 0.141809091
0.498418987 0.213535756 0.150031537
0.598987877 0.218975544 0.168121353
0.736242712 0.234788179 0.181277737
0.898544967 0.262365669 0.189626709
0.247944653 0.312713176 0.148007199
0.273498029 0.306008637 0.155218095
0.333080173 0.302846521 0.146868736
0.413409531 0.296521634 0.150790647
0.502340138 0.302467078 0.166982904
0.603541970 0.316128820 0.175585091
0.742567718 0.336369365 0.181530640
0.896015227 0.367236167 0.184313715
0.319671184 0.402024001 0.175205633
0.333459526 0.397090346 0.182669193
0.381277621 0.396078676 0.180265889
0.441113263 0.397217095 0.181024984
0.518405855 0.397976190 0.178621188
0.623149753 0.411891371 0.184946001
0.764958918 0.451865882 0.188235193
0.920809448 0.489563167 0.182416067
0.366730183 0.529791057 0.181909993
0.391018271 0.529285491 0.187096551
0.431246102 0.530803263 0.185831815
0.491713822 0.538266718 0.181657359
0.573054969 0.540669978 0.181530535
0.659962237 0.547628045 0.179633185
0.786464393 0.573434472 0.172675714
0.932827353 0.615180254 0.167741910
0.406831294 0.712713242 0.155977294
0.430739850 0.704617560 0.161416546
0.467425644 0.706261754 0.153573558
0.536622286 0.710183322 0.152561754
0.623908877 0.712207198 0.148639917
0.720050335 0.720556378 0.142315015
0.823529601 0.722580552 0.144086272
0.944971323 0.740923345 0.135989815
0.431752443 0.892473042 0.132068411
0.464263022 0.895003021 0.127894014
0.493105680 0.893611491 0.123086616
0.568247855 0.891713798 0.124478377
0.655534625 0.896394491 0.126375526
0.759392738 0.901454806 0.130803004
0.864389300 0.905123413 0.135989964
0.974699378 0.910056889 0.127893627
0.079063997 0.070588000 0.211511999
0.170019090 0.052625000 0.209994093
0.294749975 0.037571095 0.213915199
0.398102283 0.052498195 0.208476007
0.491461009 0.090069897 0.216319010
0.585325480 0.132447898 0.236179724
0.711195350 0.140417099 0.242884383
0.886400640 0.125237167 0.253890097
0.159140006 0.124984451 0.199873090
0.205313087 0.131309435 0.197470009
0.282859087 0.125743538 0.202529743
0.398229063 0.133586437 0.211638197
0.488677740 0.155091912 0.218216464
0.582289279 0.173560724 0.230739832
0.716381967 0.176850259 0.249715358
0.879949152 0.176470906 0.257431835
0.203036010 0.207590193 0.204554006
0.244528994 0.213156208 0.204933554
0.315875977 0.214674100 0.208475992
0.402024150 0.218216449 0.217837006
0.482732385 0.226438895 0.223276183
0.593674719 0.235420719 0.240227744
0.726755261 0.246805802 0.250727177
0.894876778 0.260974199 0.262492061
0.284123629 0.298165649 0.213915184
0.302846521 0.297786117 0.218595996
0.348766267 0.298924744 0.222896621
0.414168626 0.298545182 0.225680098
0.501328468 0.303225994 0.233523086
0.594180822 0.314484566 0.241872445
0.741682410 0.339152277 0.249968186
0.901960552 0.362934619 0.257178783
0.338646263 0.392536372 0.240480989
0.352688074 0.390133113 0.238203898
0.388614982 0.394181103 0.237444982
0.442378521 0.389753550 0.238203883
0.516508222 0.391777277 0.237444982
0.617330551 0.409993738 0.244528890
0.762175739 0.448703378 0.246299893
0.919417799 0.482353091 0.249335900
0.383301884 0.525110722 0.247059092
0.401011914 0.524984121 0.245034844
0.430233985 0.528526485 0.245667338
0.492599517 0.530044317 0.241239637
0.577482462 0.536369264 0.242757544
0.661986470 0.536748707 0.240734085
0.782163143 0.574320138 0.236938715
0.934851289 0.615180254 0.233523190
0.406198710 0.703225672 0.224415004
0.428842306 0.710309744 0.224667847
0.471853375 0.711068809 0.221884906
0.537634254 0.711827517 0.220746368
0.621378899 0.717394114 0.217331082
0.716761351 0.721695244 0.215939462
0.820366800 0.724478364 0.209487721
0.944212317 0.745477736 0.219101831
0.427577823 0.895761728 0.218722239
0.456420094 0.894244015 0.217963532
0.494623989 0.896520853 0.215180174
0.568627596 0.899683714 0.222390994
0.657052457 0.900316179 0.225300267
0.757368624 0.903478801 0.226944983
0.863883495 0.901960731 0.230866462
0.972801745 0.910942554 0.231751889
0.137381643 0.050980002 0.307147264
0.202909291 0.046932187 0.306388259
0.303731650 0.052751638 0.295383006
0.400126636 0.063377991 0.290322632
0.490195811 0.097027183 0.283997446
0.589753747 0.129664734 0.296141893
0.715875983 0.141682357 0.323466271
0.888551474 0.097659834 0.335863441
0.189500287 0.139405191 0.290322542
0.227957085 0.139025643 0.289184064
0.307147175 0.139025643 0.289563626
0.396078557 0.139405191 0.281593740
0.488677740 0.157874644 0.287918806
0.579379916 0.177482545 0.295762330
0.713978589 0.178494543 0.315243542
0.880581737 0.149272531 0.326755106
0.248829648 0.219481096 0.290449440
0.272991627 0.224921003 0.286527574
0.334977627 0.225300550 0.291587919
0.401138276 0.222896740 0.282479644
0.486274540 0.237065434 0.295888633
0.583681285 0.246552631 0.305629194
0.722074509 0.245793760 0.318026274
0.886147797 0.239595264 0.332574338
0.294244349 0.300948977 0.286906987
0.314610660 0.299304277 0.291208446
0.363187760 0.301328540 0.288045645
0.425932646 0.309930623 0.293105990
0.497660011 0.307147264 0.297026992
0.597343624 0.319670886 0.306767732
0.734977901 0.331309289 0.317267269
0.893611610 0.348892927 0.324478000
0.350410968 0.388994545 0.300189793
0.372042775 0.388994634 0.299810320
0.402909398 0.389374197 0.300189883
0.449335605 0.390891999 0.301328421
0.515623212 0.392789632 0.303984970
0.619228065 0.409614176 0.311195195
0.758380473 0.440860450 0.313345939
0.916381836 0.472106159 0.328020483
0.374573261 0.520683467 0.301454753
0.394433886 0.520303905 0.312333733
0.431498826 0.521442294 0.306008846
0.494876742 0.525743127 0.306894541
0.565338433 0.530803502 0.309297830
0.654142976 0.535483599 0.308918297
0.786337674 0.569259524 0.310183138
0.933206856 0.608096123 0.317140907
0.390512019 0.700316131 0.296521634
0.405819356 0.703099251 0.300948888
0.451486081 0.703478813 0.300190061
0.525110304 0.705882192 0.302087665
0.611005604 0.709803939 0.301581293
0.713599086 0.710942268 0.300569445
0.817330897 0.719291866 0.299937010
0.940037608 0.734977663 0.306135446
0.417077631 0.897153556 0.321062475
0.438962698 0.889689624 0.319924176
0.484629899 0.892346382 0.320430011
0.561922789 0.892978966 0.324478120
0.648450553 0.895888388 0.327767462
0.753194213 0.901075184 0.330550194
0.861100256 0.901075184 0.335104078
0.973054588 0.909297824 0.339658231
0.206071988 0.076027803 0.385578990
0.247185543 0.079443641 0.381656975
0.319671273 0.090069897 0.376091093
0.415812641 0.102213636 0.372675627
0.496015191 0.118279181 0.368374199
0.593169153 0.137127995 0.372169167
0.722833633 0.138140008 0.399367452
0.897279739 0.095382839 0.432005018
0.247185543 0.154712543 0.370271832
0.282858998 0.157495201 0.381404459
0.344591647 0.162934989 0.375078857
0.416445524 0.164579198 0.368753821
0.494117528 0.166856185 0.360784531
0.591271520 0.180645347 0.377229542
0.723845482 0.177356005 0.397216916
0.888551116 0.148007363 0.428463012
0.301707983 0.242884189 0.362682194
0.325237095 0.241745725 0.364452958
0.364326268 0.243769988 0.362935007
0.424794197 0.240986630 0.357748449
0.496900767 0.239721879 0.357368916
0.593042254 0.246806085 0.373687357
0.733080447 0.243896082 0.397090375
0.895382464 0.232131720 0.419481426
0.329538435 0.316255420 0.359012991
0.351549506 0.313472271 0.358887106
0.390638709 0.311827987 0.357621700
0.446173429 0.315369844 0.361923218
0.506514788 0.314990282 0.358760178
0.611005664 0.320176840 0.377609074
0.744844675 0.325616628 0.396710813
0.903731763 0.326122433 0.419101894
0.361416817 0.393422008 0.360531181
0.383048624 0.388235539 0.362934887
0.413915187 0.394054174 0.366730064
0.469070435 0.399114549 0.372548819
0.538267255 0.408855170 0.378368199
0.634408653 0.415180385 0.383681238
0.769259810 0.430107296 0.397216916
0.921948135 0.455155194 0.413662195
0.381530732 0.521442413 0.378494471
0.397596180 0.520683467 0.384693384
0.434788376 0.526881576 0.384313643
0.488804728 0.531688571 0.382795662
0.566856623 0.534092247 0.385831624
0.663883746 0.538772702 0.381783903
0.794686973 0.567235827 0.399999917
0.937634289 0.600252867 0.418216467
0.379759818 0.704743862 0.404301167
0.394560099 0.705123186 0.402656287
0.437444806 0.705629230 0.398102283
0.511827886 0.705249965 0.394813269
0.603415191 0.711195588 0.397976190
0.705629528 0.709930301 0.396458000
0.817077518 0.717394233 0.401011974
0.947628081 0.742821097 0.419228286
0.415433198 0.893105388 0.444149196
0.431751788 0.892472744 0.437824279
0.479443341 0.892852366 0.440100998
0.557368577 0.896521032 0.441872001
0.647185326 0.894370556 0.442251831
0.752182305 0.897279739 0.449968427
0.862618327 0.899051070 0.456293643
0.976090610 0.903225362 0.463631004
0.272106737 0.103731737 0.493484974
0.312460274 0.107779734 0.491587728
0.373687565 0.116381831 0.486274362
0.452625364 0.123845994 0.477925211
0.539785206 0.134851187 0.478937715
0.626565456 0.143073738 0.473750472
0.738646269 0.138519734 0.489057750
0.906514764 0.089183941 0.538899601
0.301075339 0.173181280 0.485009521
0.331056535 0.178874001 0.485009462
0.383048356 0.178621083 0.479696721
0.457432270 0.179127544 0.476154357
0.538140357 0.179127455 0.475395292
0.618848443 0.187349811 0.467931718
0.739785016 0.175711706 0.489816397
0.893611431 0.143327177 0.527893722
0.339405268 0.254522175 0.484376848
0.359140009 0.256167084 0.471347451
0.402024180 0.257685006 0.472991586
0.465022057 0.252751350 0.468311459
0.542441547 0.252751350 0.468437463
0.617583811 0.245667458 0.463124782
0.740923285 0.244275838 0.492979020
0.914357722 0.230107263 0.527261138
0.358127892 0.334092528 0.470335126
0.381151080 0.333333611 0.471094131
0.410626203 0.329411656 0.465781271
0.473244995 0.331435889 0.463124812
0.547248662 0.328779548 0.464389622
0.620240510 0.321694642 0.465022355
0.754459143 0.319544286 0.490449041
0.913346052 0.332574278 0.525743186
0.378621191 0.426312834 0.464769214
0.392409623 0.420999497 0.463504255
0.425932944 0.420999616 0.469070375
0.480075747 0.417836726 0.469449908
0.562175751 0.421379179 0.475522161
0.652371883 0.417584181 0.479190290
0.784566760 0.431499392 0.501834452
0.926375568 0.461859643 0.533712864
0.388235003 0.528399467 0.467805207
0.395698756 0.524984002 0.471726716
0.431752354 0.528399467 0.477798998
0.496141881 0.535610318 0.480708361
0.578874230 0.549272716 0.488930941
0.687286735 0.553953230 0.506894171
0.805313289 0.574699759 0.517140985
0.947880626 0.604048193 0.543706357
0.381657273 0.704237819 0.503225744
0.402529746 0.703099430 0.511195302
0.445161372 0.703858435 0.511701465
0.516634941 0.707653344 0.514737546
0.608096123 0.712207258 0.519165337
0.705502987 0.715622842 0.519038737
0.817457318 0.720050752 0.525616944
0.947880685 0.742947400 0.545983553
0.450347871 0.892599702 0.574573159
0.474509656 0.888298333 0.577103138
0.516381860 0.887286484 0.577735364
0.581657171 0.890828431 0.579000473
0.654395938 0.891207874 0.573181272
0.756356597 0.896014929 0.580518663
0.857811451 0.898798048 0.583428323
0.970271826 0.905882359 0.589120805
0.352561265 0.134597987 0.655407548
0.379253596 0.137507543 0.657431841
0.437065095 0.134724900 0.654522359
0.524098575 0.135610282 0.648197532
0.607843459 0.130170897 0.644402444
0.703352451 0.119417809 0.642378271
0.800505519 0.110183723 0.634155810
0.917014599 0.076281197 0.652245522
0.364073247 0.191524550 0.648070991
0.384566814 0.188867792 0.644655287
0.442757875 0.189373747 0.644908249
0.520556808 0.184187189 0.643643558
0.606578171 0.180771649 0.638583302
0.699177980 0.171537176 0.635421038
0.794560254 0.151929259 0.629854262
0.914610863 0.131688848 0.641239643
0.367615283 0.270335376 0.648450375
0.395699173 0.271980107 0.642884552
0.448956370 0.269576281 0.642884493
0.520177245 0.264010280 0.642251909
0.611005545 0.256293267 0.639721513
0.701328099 0.246932387 0.638962746
0.801012039 0.234408796 0.637191832
0.922074556 0.226185933 0.647058904
0.369260013 0.356483281 0.636938930
0.387729526 0.356483251 0.631246269
0.436938703 0.353320450 0.634408534
0.511701345 0.347501636 0.635800242
0.599241138 0.344338715 0.634788096
0.695509434 0.335357279 0.629474699
0.798861563 0.326248914 0.628083527
0.926628649 0.333586276 0.645540953
0.367109209 0.463757396 0.629348636
0.391777337 0.464010030 0.634788036
0.435041189 0.460468173 0.638709843
0.504743934 0.451612920 0.635420859
0.596204996 0.445540667 0.634155869
0.700822234 0.443516940 0.634155691
0.810120404 0.441619277 0.629474759
0.928020239 0.463124812 0.649462283
0.370651275 0.583681285 0.634282231
0.392915994 0.584566951 0.644402266
0.438330382 0.581657469 0.639974833
0.513345957 0.583807766 0.641239703
0.604807258 0.583681047 0.646300077
0.711701751 0.584439993 0.651359558
0.823023140 0.586843669 0.649462342
0.947880924 0.619987249 0.677292764
0.371916443 0.710309505 0.637444854
0.390638709 0.712586761 0.639974952
0.440733790 0.711827755 0.637444854
0.517773628 0.715876043 0.636306167
0.614294708 0.714358032 0.647564590
0.720303476 0.724730968 0.658317447
0.835167587 0.734851301 0.671094596
0.951170206 0.754838586 0.695003152
0.454522491 0.887286305 0.699683607
0.480582088 0.890828431 0.695635796
0.520556748 0.887412786 0.698798358
0.586464465 0.891714036 0.706514895
0.678304553 0.894370317 0.707653284
0.769639432 0.898924410 0.722960234
0.860215008 0.895003021 0.718785584
0.960278213 0.900189340 0.723971903
0.407969832 0.172675818 0.842504561
0.432637364 0.170777991 0.840607464
0.483618081 0.169386715 0.839089394
0.563440979 0.163566977 0.843896210
0.660594344 0.156862617 0.842504561
0.764199793 0.133839160 0.838583291
0.861100256 0.115496531 0.832004726
0.974319756 0.072106130 0.841239452
0.409867167 0.221378952 0.835041165
0.435040802 0.211637899 0.836558938
0.488551497 0.210246831 0.840859950
0.561416805 0.207463562 0.838835955
0.653889716 0.198228896 0.836685538
0.756103694 0.180771440 0.829095364
0.861479819 0.160278544 0.827577412
0.973560750 0.135357365 0.837065160
0.400505871 0.295129627 0.834029317
0.428969026 0.293358624 0.837065041
0.481087953 0.287792742 0.837191582
0.562428832 0.286527544 0.837950706
0.653004527 0.278051972 0.834155560
0.758001149 0.266287178 0.829854429
0.863377512 0.257179022 0.831498682
0.975964606 0.247564897 0.833269596
0.393801332 0.386970282 0.828462958
0.420999169 0.387602568 0.833902478
0.466540098 0.389120758 0.830486894
0.554332793 0.381530821 0.833649695
0.646173120 0.374572814 0.832764149
0.748893201 0.370145351 0.828083336
0.856925905 0.364326268 0.828968763
0.969006777 0.358634084 0.831372559
0.390638828 0.506388485 0.838077188
0.413029671 0.502719522 0.834661543
0.464136899 0.503731906 0.833016872
0.544844806 0.502593338 0.832257807
0.640101314 0.497786343 0.829474688
0.746109962 0.498038977 0.831246078
0.858317494 0.496647984 0.831625342
0.972928345 0.495256335 0.824541569
0.405312806 0.640101254 0.836685538
0.418848842 0.641239464 0.838077307
0.474762887 0.639721453 0.839595258
0.553447306 0.635420680 0.838836193
0.647817850 0.635167420 0.840859950
0.747374952 0.638583243 0.835926473
0.859076500 0.637697875 0.839215636
0.963820636 0.639468491 0.835926533
0.415054083 0.771663129 0.838709414
0.434535027 0.769386411 0.833775997
0.485262513 0.768880367 0.834661603
0.561543286 0.767362237 0.840101004
0.650853515 0.768121421 0.836685419
0.746615946 0.768121481 0.834914505
0.852371693 0.767994761 0.836306036
0.957368612 0.775205553 0.838583231
0.446173608 0.911701560 0.855534434
0.468184322 0.906135321 0.845287740
0.507906318 0.910309732 0.843769550
0.580771565 0.904111207 0.844781578
0.668817103 0.902340412 0.847691417
0.766223550 0.902466595 0.850980461
0.861859262 0.905755818 0.860215127
0.951928794 0.918279409 0.872485638
