Assets/Resources/EldamarStudio/100 Horror LUTs Pack/LUTs/cube/Xeisgreim LUT.cube
DOMAIN_MIN 0 0 0
DOMAIN_MAX 1 1 1
LUT_3D_SIZE 32
0.078431003 0.054901998 0.054901998
0.078431003 0.054901998 0.054901998
0.087033547 0.054901998 0.052751224
0.105503157 0.054901998 0.054775160
0.134345546 0.054901998 0.063883543
0.173813924 0.054901998 0.072991937
0.213282958 0.042251680 0.077039681
0.249462694 0.027071297 0.075142004
0.281341106 0.012650003 0.071347095
0.308665514 0.000506000 0.074383482
0.350537747 0.000000000 0.071600132
0.384946495 0.002024256 0.068564259
0.413029999 0.002783356 0.064390004
0.437571019 0.000000000 0.058570966
0.464895397 0.000000000 0.055534583
0.494623601 0.000000000 0.057305802
0.520430207 0.001518192 0.060341805
0.541682541 0.003289424 0.064009994
0.562935054 0.000253032 0.070082016
0.589753389 0.000000000 0.078937367
0.613282740 0.000000000 0.084250741
0.638583124 0.000000000 0.088298991
0.672106028 0.000252992 0.094244480
0.708538830 0.006325001 0.097280100
0.742694259 0.014674284 0.102592997
0.780265272 0.025173981 0.110056661
0.822264194 0.037824061 0.118658997
0.861733258 0.053004432 0.124730989
0.906514764 0.070840962 0.133459821
0.946742356 0.087286182 0.142568201
0.976976573 0.102466591 0.151676372
0.992156982 0.117647000 0.160784006
0.087539390 0.057938386 0.057938386
0.081467390 0.048829999 0.057938386
0.094370387 0.055281773 0.062239386
0.113345928 0.055408064 0.061859611
0.140797094 0.052245162 0.064262994
0.182922319 0.054901998 0.076027550
0.214801028 0.049842000 0.072485611
0.252751708 0.041113392 0.077292711
0.288931102 0.030107681 0.077419288
0.320809513 0.015686383 0.071347095
0.353952855 0.009361388 0.071473613
0.383934110 0.007084130 0.064516261
0.413409233 0.005819259 0.061733350
0.443643004 0.002783355 0.061606646
0.470967382 0.000000000 0.058570970
0.493484795 0.000000000 0.055534583
0.520429790 0.000000000 0.058823608
0.544085801 0.000885614 0.063377574
0.562935054 0.000253038 0.067046404
0.586970031 0.005566002 0.078684397
0.617836773 0.011764737 0.084250741
0.646679342 0.016192257 0.088298991
0.677924991 0.018722016 0.094750464
0.708538830 0.030613776 0.109424099
0.747248292 0.041239768 0.110183001
0.784945905 0.051107049 0.116128653
0.824288428 0.061606772 0.124730989
0.858696878 0.074256822 0.130802989
0.898165345 0.084124207 0.134218827
0.941175938 0.099430501 0.142568201
0.973940194 0.115496196 0.149020001
0.989120603 0.132827386 0.151676387
0.090195999 0.067425996 0.065275222
0.090575770 0.064769387 0.060974225
0.097406775 0.066413775 0.058823999
0.119417928 0.069196999 0.064896002
0.146869093 0.064642549 0.065654770
0.189373866 0.069449708 0.074256770
0.221758634 0.067046002 0.069069996
0.253763705 0.060974002 0.069575995
0.289943188 0.056419998 0.075142324
0.321948290 0.048197281 0.068817288
0.357494891 0.041745774 0.066286996
0.386843771 0.033649519 0.064263254
0.412397414 0.028083421 0.057685357
0.443263799 0.023023739 0.058697026
0.470588177 0.019987356 0.059456423
0.495255798 0.017204547 0.058570970
0.514990389 0.017204547 0.057052772
0.540417314 0.019101953 0.065022320
0.563188016 0.023655778 0.077166736
0.589120805 0.027071552 0.077799007
0.613409221 0.033143543 0.084250741
0.645034969 0.040986769 0.088298991
0.675774515 0.045414049 0.094623983
0.712207615 0.055534583 0.107779868
0.747248292 0.063377768 0.115875773
0.786716938 0.074130431 0.115875773
0.825174034 0.083744764 0.122707054
0.858570397 0.095888764 0.130423769
0.895129502 0.107526816 0.131688833
0.943453074 0.118405961 0.145351171
0.978620768 0.133206367 0.150664404
0.992536008 0.150158003 0.146869227
0.087665997 0.087159999 0.068057999
0.097027220 0.089690320 0.065781161
0.106515162 0.088931002 0.061859608
0.130044311 0.089942999 0.061353996
0.156230167 0.085009545 0.065908000
0.191650704 0.090196155 0.068437994
0.227830634 0.091207840 0.069449678
0.257305712 0.087792322 0.067299157
0.291461200 0.083238319 0.069576062
0.322834015 0.083238311 0.065528318
0.356483012 0.077419318 0.059961971
0.390638620 0.070588231 0.058190938
0.415686458 0.064895481 0.055155322
0.442504883 0.056673288 0.052878000
0.468817413 0.053636901 0.056926254
0.493737996 0.050601128 0.057558838
0.516255260 0.047818162 0.060088836
0.536369383 0.047818162 0.061986405
0.563693881 0.055028360 0.080708809
0.589753389 0.061100677 0.083491646
0.613915324 0.064769149 0.086780742
0.641239941 0.068817154 0.090828992
0.671979487 0.074509658 0.096900992
0.709171414 0.083618060 0.106767997
0.746362984 0.090449154 0.113092832
0.784186959 0.097912818 0.120177001
0.823656023 0.106515154 0.120683067
0.858570397 0.117141142 0.128273442
0.899683595 0.126755133 0.133206829
0.937887132 0.140164286 0.140543997
0.983681023 0.151422918 0.156483442
0.997343183 0.165844321 0.148893163
0.084250547 0.117899641 0.063124545
0.102846086 0.122454323 0.064642839
0.116381995 0.120683096 0.063757226
0.138014153 0.115369640 0.063630611
0.175964549 0.109677091 0.065528452
0.194180548 0.112713479 0.059456453
0.229348406 0.115749322 0.065275230
0.262239248 0.115496255 0.069955617
0.291081637 0.112460546 0.070714906
0.327514440 0.112460539 0.061606511
0.358886540 0.107400544 0.053257130
0.392536074 0.102087550 0.050600551
0.422896624 0.097533546 0.050221097
0.444402039 0.097280517 0.047438450
0.468690813 0.094244130 0.053257443
0.493358552 0.091587804 0.055660997
0.516128778 0.088931352 0.058696993
0.537887096 0.086907096 0.065022014
0.565211594 0.086907111 0.074130423
0.590132773 0.094117910 0.080835007
0.613662302 0.099430807 0.089184187
0.638203681 0.101454549 0.096141994
0.671726525 0.101707540 0.102340475
0.705375910 0.110562906 0.108665451
0.740670085 0.117773540 0.112839803
0.778873980 0.124857657 0.118279204
0.817963600 0.133459985 0.126755059
0.857431948 0.139531985 0.129791453
0.904490590 0.145983532 0.137001678
0.944971144 0.156609729 0.146868750
0.975331604 0.170019150 0.154585615
0.999620438 0.179127544 0.157622010
0.099430934 0.151296809 0.066160932
0.120683312 0.145224810 0.057052545
0.132827088 0.145477936 0.056420065
0.148766384 0.144465804 0.058444001
0.175964534 0.143074259 0.062492065
0.203288928 0.140037864 0.056420065
0.234155238 0.143074259 0.057938386
0.265275180 0.142821103 0.057052519
0.293358922 0.139025941 0.053257234
0.324478060 0.133712932 0.049462516
0.360910803 0.133712932 0.046173129
0.392283440 0.132700935 0.046173256
0.419101924 0.129411936 0.048703291
0.438330054 0.124604896 0.050474066
0.462618798 0.121568508 0.050474066
0.489310771 0.120935924 0.058696866
0.513093114 0.120429993 0.064769000
0.534345448 0.120556504 0.070840999
0.556104004 0.123339862 0.077166043
0.583428323 0.123339862 0.086274423
0.612144470 0.126755193 0.096773989
0.639975071 0.128778934 0.103352189
0.668690860 0.129031926 0.102340475
0.705122888 0.135103941 0.111448102
0.738772810 0.143959284 0.117773637
0.776850224 0.151169926 0.123339854
0.817837119 0.157747999 0.129917935
0.854396343 0.163819984 0.135863453
0.899177670 0.172548816 0.136243001
0.941682100 0.181151137 0.146616116
0.974825561 0.191271529 0.158127934
0.996584058 0.200379938 0.163694009
0.124731317 0.179633319 0.059076678
0.133333385 0.178621322 0.055028290
0.152434990 0.176850319 0.052371677
0.167741477 0.174320325 0.051106837
0.190385550 0.171790317 0.052625000
0.213408932 0.170904696 0.050854001
0.240733951 0.167868316 0.047311679
0.275774628 0.167615712 0.050348066
0.307273954 0.166097537 0.051486321
0.339405656 0.165338323 0.057305474
0.362935066 0.162555635 0.051739447
0.393295586 0.160531372 0.052751575
0.420872986 0.160025313 0.054649319
0.442125022 0.156989276 0.056546643
0.464136481 0.153952897 0.061100643
0.490828484 0.150917128 0.061100643
0.516635060 0.150790647 0.069829121
0.539531946 0.151423067 0.077545568
0.562681735 0.154458955 0.085515328
0.586970389 0.152182326 0.086780362
0.614294767 0.154079571 0.097785987
0.643010795 0.157115445 0.107905999
0.670714676 0.158886626 0.109677188
0.707147300 0.164958641 0.113978423
0.743579865 0.171030641 0.118532605
0.781404257 0.178494304 0.125743300
0.822897077 0.185072392 0.132447734
0.859329820 0.193168640 0.136495993
0.898671746 0.201897457 0.139784679
0.938899338 0.209234610 0.143327117
0.974066854 0.216698304 0.156230360
0.998608351 0.224161997 0.167235672
0.142188698 0.205312982 0.051613003
0.148260698 0.205312982 0.050221324
0.166223690 0.203668699 0.057558414
0.185704857 0.203668699 0.053763252
0.205818802 0.198355705 0.049588997
0.223276347 0.195825696 0.047059000
0.249588951 0.194940090 0.051107090
0.276913702 0.193548411 0.046425998
0.311827719 0.192030594 0.050980385
0.344339043 0.195066214 0.062238999
0.369386882 0.192283571 0.063503988
0.393042564 0.185958430 0.060215250
0.419228584 0.185199335 0.063251354
0.443769753 0.185199350 0.064263284
0.467805088 0.180771276 0.070335284
0.488930792 0.179379791 0.071600288
0.516255200 0.179380178 0.074636668
0.541302800 0.179506704 0.083617829
0.566603065 0.181530446 0.092725962
0.589247048 0.179000333 0.096773989
0.617077768 0.181404367 0.097785987
0.645414293 0.183428109 0.106894128
0.673624218 0.186084881 0.112586692
0.708538830 0.193674698 0.120176896
0.744971573 0.201391399 0.121568568
0.782795608 0.208855063 0.127387941
0.824035347 0.215180114 0.135483652
0.860468090 0.223149851 0.138519734
0.897912741 0.230613515 0.143200576
0.942188323 0.236306369 0.139784738
0.974193573 0.242378384 0.149399281
1.000000000 0.248450413 0.165338010
0.152814895 0.230360284 0.048576999
0.161164001 0.230360284 0.050094999
0.178621203 0.226691872 0.058570672
0.198608160 0.226439089 0.064389832
0.219860539 0.225680098 0.056799546
0.233143762 0.219608098 0.051866092
0.255661309 0.218596101 0.056167319
0.282985687 0.217078105 0.057052776
0.310310096 0.217078105 0.053257097
0.340670139 0.220113710 0.062365487
0.367362618 0.218848869 0.067805097
0.391904086 0.214041844 0.069323160
0.416951269 0.207210645 0.069323353
0.440987021 0.209994003 0.072612070
0.467299402 0.204933360 0.078684188
0.488931000 0.202909291 0.079949193
0.510183156 0.202909291 0.082985386
0.538772523 0.205945671 0.089057989
0.566349983 0.206072196 0.098039135
0.589626551 0.204047933 0.103605002
0.616571486 0.206704572 0.107400000
0.646173179 0.211511999 0.109930128
0.676660419 0.211764991 0.112839997
0.710056961 0.220240191 0.122453995
0.745730460 0.228589475 0.127007991
0.783554673 0.237697661 0.128905565
0.823023140 0.246806070 0.138013974
0.859708846 0.253131092 0.141555637
0.898418665 0.258444190 0.146489665
0.937381208 0.264263213 0.145983890
0.978747606 0.268184990 0.143327072
1.000000000 0.274257004 0.161543101
0.167994529 0.257685453 0.054649007
0.183174923 0.257685453 0.060721006
0.200126559 0.251233697 0.066540003
0.214800805 0.248703495 0.067931518
0.225932553 0.253004491 0.062871553
0.247184917 0.246932507 0.065907933
0.265528142 0.245920509 0.066034481
0.289057702 0.242631495 0.063125007
0.316382110 0.238330498 0.059329875
0.343706518 0.238330498 0.062365487
0.368248224 0.241366103 0.065654874
0.390639246 0.242125019 0.068817228
0.414295107 0.239468500 0.072738528
0.440987021 0.234282017 0.078684077
0.462239385 0.234282017 0.084756836
0.486147970 0.231625780 0.086021975
0.508665204 0.228716269 0.089057975
0.532700539 0.227198064 0.095129997
0.566097021 0.230234459 0.101202019
0.593675077 0.230360985 0.104617134
0.622643948 0.234029457 0.109677002
0.651992083 0.239089370 0.116508134
0.679696023 0.242125005 0.124983996
0.713093221 0.248197019 0.124983996
0.748766422 0.254396081 0.130043998
0.786590457 0.261986315 0.133079991
0.826059520 0.271094114 0.134977579
0.865527868 0.280202478 0.144085959
0.910183430 0.283871353 0.147628322
0.946489394 0.290575743 0.149020001
0.975837708 0.298545033 0.152182460
1.000000000 0.304617047 0.164579496
0.186084747 0.276280999 0.066539995
0.198355258 0.270461977 0.066793002
0.209234640 0.276913762 0.070714772
0.223909155 0.273624420 0.073497869
0.236685738 0.272738546 0.071094319
0.250347793 0.274256885 0.069070064
0.279190481 0.265654564 0.067046449
0.300569564 0.267804980 0.068311289
0.324604839 0.267552078 0.068311229
0.349778503 0.265401870 0.071347393
0.371283829 0.262492001 0.077292867
0.395572633 0.263503879 0.078304999
0.417710632 0.262365520 0.081593871
0.440733999 0.258317709 0.087412901
0.459329516 0.255660862 0.090828829
0.482985705 0.255660862 0.094497189
0.510309875 0.254648983 0.099557318
0.537001550 0.253636867 0.106388420
0.565843999 0.254395962 0.110183135
0.590891778 0.257432371 0.113472484
0.619987607 0.259456128 0.116508603
0.650347829 0.264515996 0.121568739
0.679948986 0.269575894 0.128399864
0.716128826 0.275648624 0.128399864
0.751802683 0.283997297 0.128399864
0.786843479 0.290701985 0.131815195
0.823276341 0.298291951 0.134344995
0.862745285 0.307400316 0.141049579
0.907526672 0.311195701 0.142188132
0.953067720 0.317773610 0.144971475
0.982922137 0.326881468 0.148766726
0.997090161 0.334977746 0.158886999
0.208348989 0.294497013 0.076660253
0.214421242 0.294497252 0.078684509
0.224415034 0.293105781 0.076786771
0.234788254 0.297153831 0.079823159
0.249209538 0.292599261 0.080202706
0.262998253 0.293990910 0.077166319
0.284250647 0.292978942 0.076154314
0.308032990 0.288804263 0.076407701
0.328146905 0.291081250 0.079443410
0.349905282 0.286780477 0.082479477
0.373307854 0.285768360 0.084376991
0.394560248 0.286780506 0.088425256
0.418849021 0.285641849 0.088425256
0.440733999 0.282606006 0.092473224
0.458949983 0.279570073 0.095509157
0.486021578 0.280961245 0.104617178
0.510309994 0.279443443 0.106134996
0.537760556 0.278937489 0.112460315
0.562302053 0.278937489 0.115496293
0.588867486 0.279696584 0.118532613
0.615053952 0.284630239 0.123466246
0.647311985 0.288804501 0.125616997
0.679948986 0.294876486 0.129538476
0.716381788 0.300948799 0.131435737
0.752814531 0.311321944 0.137507990
0.790638566 0.319038242 0.136116311
0.825806081 0.325110376 0.137380987
0.863757014 0.332700938 0.140416995
0.902466774 0.340543807 0.141176000
0.948007584 0.347122163 0.141176000
0.984693408 0.355344504 0.144844949
0.996078014 0.363314241 0.152815014
0.231498629 0.313851625 0.088045642
0.233396381 0.315749377 0.089943379
0.239595398 0.317773640 0.088678218
0.251107007 0.316508442 0.088172160
0.263251096 0.313092619 0.090069994
0.277672559 0.311574638 0.086274713
0.295635670 0.312713295 0.086906999
0.314104974 0.313851625 0.087413065
0.330044091 0.314610720 0.091208346
0.347122341 0.309677273 0.094623514
0.374572992 0.307147264 0.092473000
0.396837264 0.308032900 0.093358606
0.419228286 0.308791995 0.097533353
0.443011016 0.306008637 0.097786382
0.461226970 0.303858429 0.100822225
0.486780584 0.303352475 0.108791634
0.512966573 0.306767821 0.116002284
0.537887156 0.304364622 0.116634697
0.560151637 0.304364622 0.119670972
0.585831344 0.305502981 0.122707352
0.615433216 0.308159620 0.124225348
0.644782126 0.315243781 0.130297348
0.681214094 0.321568757 0.130803347
0.718658805 0.328652620 0.134851098
0.755091548 0.338140279 0.139025643
0.792915821 0.346362919 0.142567962
0.831878245 0.352940857 0.140037641
0.868310869 0.359645903 0.140037641
0.908159256 0.368374437 0.143453285
0.946489573 0.378620833 0.146868646
0.980518997 0.386843622 0.150410846
0.994939625 0.392915636 0.156989634
0.252751023 0.334851056 0.102972999
0.253004044 0.335104018 0.102719970
0.256546497 0.337001771 0.100316226
0.266413838 0.337760866 0.100316159
0.281214058 0.334850997 0.102720000
0.293358833 0.328779012 0.096647993
0.307779729 0.330297351 0.097406708
0.323212713 0.332574368 0.099557064
0.337381124 0.335357100 0.099810027
0.346489549 0.338393509 0.105882019
0.377608836 0.333207041 0.100822024
0.403162301 0.330930024 0.099304035
0.425047249 0.330297410 0.101328060
0.449083030 0.327261031 0.106894061
0.467298985 0.327261031 0.109930448
0.490069538 0.325110793 0.115370020
0.512840152 0.326376021 0.119924158
0.535104513 0.331436008 0.122960448
0.562429070 0.331436008 0.125996068
0.587476075 0.333965659 0.128779352
0.617457211 0.337507755 0.128273293
0.650854111 0.342568159 0.128019989
0.684250474 0.351803005 0.134092018
0.723465919 0.361037165 0.140164062
0.761163533 0.369892299 0.141176000
0.798734903 0.376470685 0.140037641
0.837951005 0.380772024 0.137760997
0.874383032 0.389879644 0.137760997
0.917773485 0.398734897 0.144718766
0.958760321 0.409360975 0.153826758
0.985831976 0.419734091 0.163820148
0.991903961 0.425806105 0.175964937
0.274003386 0.353067815 0.115116984
0.277039796 0.356103420 0.112080604
0.275142044 0.356356382 0.107526571
0.281593710 0.356988966 0.108412154
0.296394408 0.356356382 0.115116984
0.308538437 0.356103390 0.114863977
0.320683211 0.357621729 0.108791977
0.336748809 0.355724394 0.112840116
0.353573501 0.353067815 0.115496725
0.367741883 0.353573889 0.108918414
0.385578364 0.353700399 0.109171413
0.411005497 0.350411117 0.111954406
0.432384402 0.350284606 0.115623042
0.452118605 0.351549774 0.119038828
0.473370969 0.348513395 0.119038828
0.493990779 0.348513395 0.124478407
0.515875816 0.349399179 0.129032210
0.537760735 0.353067786 0.132068142
0.562429070 0.355723977 0.135104448
0.592536747 0.355723977 0.135357410
0.623529553 0.362049133 0.135989994
0.656926155 0.369892538 0.136369273
0.690322459 0.379127383 0.140164018
0.723718882 0.391271412 0.146236807
0.765211582 0.398228794 0.143200263
0.803668320 0.404933393 0.141176000
0.841239810 0.411385089 0.141049638
0.880455792 0.423276782 0.143832996
0.914231598 0.429728210 0.141176164
0.957242072 0.438203573 0.147754371
0.987602592 0.447058618 0.157747984
0.988867581 0.453131229 0.169892162
0.292852610 0.378494769 0.122453995
0.295888394 0.376723379 0.121821411
0.296774000 0.377608776 0.120935798
0.297785789 0.378873944 0.116634950
0.309171081 0.379633039 0.120430253
0.321315616 0.377608776 0.122453995
0.335863441 0.380139112 0.122200988
0.343074083 0.379886091 0.119417988
0.359013200 0.376090974 0.123972185
0.379127264 0.376090974 0.119797505
0.397216767 0.376090974 0.121821791
0.415433288 0.376090974 0.121821791
0.437824458 0.374572784 0.124857798
0.457305640 0.376090974 0.126881987
0.476407200 0.375205368 0.131182984
0.495255798 0.376976579 0.128779188
0.516508222 0.373940587 0.133333385
0.539025545 0.374952763 0.135736808
0.565085232 0.379759610 0.137001961
0.594939947 0.384819597 0.139658198
0.625300705 0.390512347 0.137760937
0.658191144 0.399620473 0.137254998
0.691713989 0.408728480 0.138772801
0.727387726 0.418595791 0.140291005
0.763061345 0.426185787 0.144085899
0.803921402 0.433649421 0.139784679
0.841872215 0.441745579 0.139784798
0.881341279 0.453889877 0.144718453
0.910689771 0.465528578 0.140037969
0.952941358 0.469829351 0.147627980
0.989373744 0.475901186 0.157115802
0.995445788 0.480455786 0.166223809
0.306514800 0.404300988 0.128525987
0.312586784 0.404300988 0.131561995
0.311954379 0.404933572 0.128525987
0.318279207 0.401138425 0.131055981
0.324730724 0.403921723 0.129917890
0.333459854 0.405439645 0.134092450
0.346616119 0.402909309 0.130044192
0.361290455 0.402656674 0.131561995
0.367362261 0.401138306 0.131561995
0.389373958 0.401897192 0.131561995
0.404806972 0.401897192 0.131435856
0.423023492 0.401897192 0.132447988
0.441239983 0.401897192 0.133586347
0.462112844 0.401644230 0.133712843
0.481593966 0.400379390 0.135989994
0.501328170 0.402782798 0.137887180
0.519544244 0.404300988 0.136368990
0.542061746 0.400126576 0.140037954
0.569386423 0.405313164 0.141809180
0.597975910 0.409867376 0.138519838
0.628336251 0.417836726 0.142314732
0.660721064 0.427957237 0.140290990
0.694750011 0.437571049 0.140037999
0.731182814 0.446679085 0.137254998
0.769133329 0.455028385 0.139531702
0.805566072 0.461100370 0.142567679
0.843896210 0.471094251 0.139784932
0.881341279 0.484250367 0.142820805
0.914737582 0.493358642 0.141302809
0.946869314 0.500190139 0.140037790
0.986590981 0.505882323 0.151676223
1.000000000 0.510816157 0.157115817
0.317520142 0.429221720 0.136495560
0.327260941 0.432890534 0.141302571
0.328399718 0.434029341 0.139405146
0.330423981 0.434535384 0.137760565
0.344844609 0.426945060 0.142694116
0.348386884 0.435547471 0.148007870
0.359013140 0.432005078 0.143327251
0.370904267 0.428209841 0.139531851
0.386084646 0.426692039 0.142441154
0.401265055 0.429727644 0.142441154
0.414168179 0.429221720 0.139531866
0.430993080 0.429854125 0.139152572
0.449842125 0.430486709 0.139658511
0.468311131 0.430233687 0.142694116
0.489563346 0.427197963 0.140417397
0.510183394 0.428336322 0.141555771
0.530550182 0.430486709 0.143073559
0.549398720 0.429854125 0.143073574
0.576723933 0.432890534 0.149146348
0.603415787 0.437191904 0.142568216
0.632637560 0.443390369 0.141682565
0.663124263 0.453510195 0.144465432
0.699557006 0.465528458 0.144212440
0.735989809 0.474636227 0.138140425
0.773434281 0.483744413 0.139531702
0.812776327 0.492093503 0.141302690
0.849209130 0.498165518 0.144338951
0.882732749 0.512966394 0.141555548
0.918785512 0.522074521 0.140543580
0.954079568 0.527008176 0.140543580
0.981151402 0.531436086 0.140796617
0.999367416 0.543580115 0.143833011
0.335736960 0.456546962 0.151675969
0.347880930 0.462618947 0.151675969
0.351170003 0.459836006 0.150031745
0.352182209 0.458317876 0.149272785
0.356989413 0.460341573 0.151802510
0.366097033 0.463377923 0.148766905
0.377229661 0.459330022 0.149020001
0.386084944 0.456546962 0.146616250
0.395193070 0.457052916 0.145604059
0.410373479 0.460088521 0.148513943
0.425553858 0.457305878 0.145604089
0.444529235 0.458570689 0.146616280
0.465528607 0.461353630 0.148260981
0.486527920 0.463630944 0.148766920
0.507779479 0.460594565 0.151802525
0.526628554 0.459962040 0.151929006
0.546616137 0.461733192 0.152181968
0.567615509 0.463251382 0.152181953
0.588867962 0.460215002 0.152181983
0.613408983 0.468817383 0.149905398
0.641745508 0.475522041 0.148260966
0.671094120 0.483870983 0.146742716
0.699557006 0.495888531 0.141176060
0.735989809 0.504996955 0.135104045
0.770145297 0.514105320 0.138140038
0.808222294 0.523213267 0.139784679
0.849209130 0.531562030 0.138266936
0.885641873 0.537634015 0.141302526
0.921821654 0.552434862 0.138519838
0.958254337 0.561542988 0.137507960
0.986464441 0.567362249 0.137507960
0.996331036 0.573940992 0.137761012
0.351170361 0.495003402 0.152941003
0.354965001 0.498292029 0.155724362
0.364958793 0.497912824 0.151423365
0.370651513 0.496268243 0.151549995
0.376344383 0.497785926 0.154965356
0.378241777 0.491208285 0.149525940
0.389879733 0.499304026 0.151549682
0.400379717 0.496141732 0.150158361
0.411385477 0.495762289 0.148640260
0.430613846 0.498797894 0.151676133
0.443010867 0.498797894 0.154459491
0.464263499 0.495762289 0.153447360
0.482859373 0.497280121 0.154586017
0.499178052 0.500316024 0.154332966
0.520430267 0.502340376 0.152308583
0.539278746 0.501707792 0.152941003
0.559013188 0.501707792 0.149905011
0.581530571 0.503479004 0.147374988
0.607084036 0.504744112 0.147375003
0.633902371 0.504491091 0.150158361
0.652498126 0.511701703 0.150917262
0.678431273 0.517773688 0.150790781
0.708032846 0.526375711 0.146616206
0.747121811 0.538140357 0.143200353
0.781277835 0.549525440 0.137128353
0.817457318 0.559139669 0.138393357
0.857558489 0.568247795 0.136243001
0.893991232 0.576597095 0.132447883
0.933080137 0.585325897 0.135483503
0.964326143 0.594940126 0.134471640
0.989753246 0.601897538 0.137128234
0.998861372 0.609867036 0.142821014
0.368247986 0.534471691 0.143453270
0.367489070 0.535610080 0.146489665
0.378620774 0.538140237 0.148766533
0.381403983 0.537634313 0.145224527
0.388488352 0.539911032 0.150031626
0.397596747 0.533839405 0.150031999
0.402024001 0.532321155 0.147754684
0.417457402 0.539784431 0.150790721
0.428083718 0.538266718 0.149778903
0.445920467 0.540163994 0.152814522
0.462238997 0.540290475 0.153953135
0.476786762 0.540163994 0.151170269
0.497659892 0.538266718 0.151170269
0.511322021 0.540290475 0.150664270
0.532574356 0.541682124 0.145983592
0.551423013 0.546110213 0.147248268
0.574193597 0.547628045 0.147248268
0.596205056 0.548007488 0.143200263
0.620999515 0.549778700 0.143200263
0.646426082 0.548134446 0.147881359
0.673750460 0.550031722 0.145224527
0.690954864 0.554079711 0.145224273
0.718532503 0.558633685 0.141429529
0.750916898 0.570777714 0.140164360
0.787729084 0.579127252 0.134851262
