Assets/Resources/EldamarStudio/100 Horror LUTs Pack/LUTs/cube/Yogarin LUT.cube
LUT_3D_SIZE 8
DOMAIN_MIN 0.000000 0.000000 0.000000
DOMAIN_MAX 0.903226 0.903226 0.903226
0.066666998 0.039216001 0.015686000
0.085768551 0.047438450 0.019987451
0.201391101 0.033776000 0.026691902
0.314484626 0.002783356 0.016824644
0.442631394 0.001518192 0.008729003
0.587476492 0.000000000 0.001897740
0.739405274 0.028715990 0.000000000
0.903858542 0.087792806 0.000000000
0.085009545 0.077166550 0.025933001
0.117140643 0.068943992 0.012144451
0.207590103 0.076027997 0.025553452
0.320809633 0.069323547 0.011891100
0.444528759 0.068437546 0.000000000
0.593421698 0.081720546 0.004427552
0.745983124 0.115369834 0.002024260
0.902972877 0.144844994 0.000000000
0.188741088 0.166856200 0.002277094
0.207210645 0.160910636 0.000000000
0.232637182 0.151170194 0.007084097
0.329791188 0.154712558 0.000759096
0.453637093 0.168374196 0.000759096
0.586211085 0.185452089 0.006325001
0.744718313 0.216824889 0.003036190
0.907147467 0.244275987 0.000000001
0.291967362 0.259582639 0.011132004
0.309424281 0.265148640 0.004301354
0.338013738 0.264389724 0.002783357
0.360404998 0.248323992 0.000000000
0.465654731 0.256799489 0.006325195
0.599873483 0.286527395 0.002276998
0.753447294 0.322454274 0.000000000
0.914357722 0.352814615 0.001518189
0.402530372 0.392283171 0.000000000
0.420999616 0.395951807 0.008349454
0.440227568 0.392283171 0.002403808
0.473370999 0.391144812 0.001518192
0.507526994 0.368121386 0.003035997
0.617963493 0.395698905 0.000000000
0.770777822 0.430613577 0.003162710
0.922327518 0.462492019 0.000000000
0.538646758 0.559772432 0.000000000
0.549905121 0.559772432 0.002403808
0.576597095 0.562049508 0.003162904
0.611258686 0.567615449 0.000000000
0.645034909 0.560657501 0.005819256
0.681467414 0.534471691 0.000000000
0.792156994 0.553700447 0.000000000
0.934471905 0.579886258 0.003794996
0.678937554 0.737760544 0.006831284
0.685009718 0.743326843 0.002024260
0.714611053 0.742441416 0.000000000
0.752814531 0.749525547 0.003289004
0.795698762 0.747880816 0.003035997
0.831625760 0.731688797 0.000000000
0.863883615 0.690701962 0.003922000
0.957495272 0.695635259 0.004553996
0.803162396 0.897279739 0.002530012
0.824920893 0.891966760 0.004807297
0.839342058 0.897786021 0.001897737
0.879443467 0.897153616 0.001138644
0.923466146 0.897153616 0.003035997
0.972675443 0.892599583 0.007084101
0.988614798 0.870082200 0.011385280
0.989500165 0.840986788 0.092978969
0.079190098 0.047817998 0.036432546
0.093232095 0.047438450 0.033270452
0.199747100 0.035294000 0.039089095
0.299683630 0.050980002 0.045413997
0.415180385 0.052877549 0.044655193
0.562049210 0.060214993 0.047438353
0.730676770 0.078557834 0.041113257
0.895255923 0.113345973 0.036053389
0.083491549 0.073244542 0.036053002
0.113599084 0.080328546 0.037950546
0.194307193 0.085389093 0.047817998
0.294117719 0.095635898 0.046299905
0.423402727 0.098798096 0.046300001
0.563567042 0.112713084 0.037824541
0.729411960 0.129917994 0.032131806
0.890701950 0.163567379 0.026692105
0.176344097 0.150411099 0.034914553
0.198608547 0.150790647 0.042377997
0.215053648 0.146489099 0.027703643
0.312587082 0.152308747 0.044655096
0.432004958 0.175837830 0.038836453
0.571030974 0.193801552 0.028842380
0.728652835 0.224288344 0.016318802
0.897533238 0.254142642 0.014800996
0.269829631 0.252119184 0.013662450
0.292599648 0.256166995 0.020493099
0.318405807 0.254522294 0.012903452
0.343833178 0.237318173 0.027830547
0.443263561 0.258064628 0.026944641
0.586590588 0.287413180 0.010120191
0.738899171 0.319418073 0.002276998
0.900316119 0.348766714 0.004174831
0.395319641 0.380645394 0.007084001
0.399493992 0.382163376 0.002276998
0.434788197 0.385705054 0.000379548
0.470082283 0.384060740 0.000000000
0.495888352 0.362555355 0.005439902
0.608096004 0.387096941 0.002403808
0.765211821 0.430993021 0.000000000
0.919038415 0.467046171 0.006072464
0.521568656 0.553826749 0.005060257
0.535989940 0.550411284 0.000000000
0.563187540 0.555471003 0.006578255
0.600759208 0.562049329 0.002024260
0.634028971 0.552688420 0.000379548
0.667552233 0.526502192 0.000000000
0.786337852 0.551676154 0.002024260
0.932321429 0.582669377 0.003035997
0.664389372 0.725616813 0.000758999
0.667679012 0.731435537 0.000000000
0.691334724 0.725616813 0.001644712
0.729158580 0.731941938 0.000000000
0.776849926 0.736622274 0.000000000
0.808095992 0.717393875 0.005060257
0.845793843 0.680835307 0.000000000
0.935357511 0.681594193 0.000000000
0.801518261 0.891081512 0.000000000
0.805439353 0.890449107 0.001265167
0.831752181 0.887412786 0.003794989
0.868817389 0.888551414 0.000000000
0.913978517 0.892346323 0.004933633
0.965085626 0.894496977 0.007590090
0.985451937 0.871726751 0.068817124
0.989879727 0.832890391 0.129790977
0.090955094 0.061986096 0.100189999
0.121821545 0.053763453 0.102972642
0.203795105 0.041492902 0.100189991
0.303225994 0.043136999 0.097280003
0.415180206 0.061100900 0.099431090
0.541303098 0.090449154 0.114357993
0.696141779 0.129285276 0.127514094
0.876913369 0.152940914 0.136748835
0.124604903 0.086148001 0.092346996
0.141809091 0.096774444 0.090069897
0.195066199 0.090069994 0.086907096
0.298545182 0.105755992 0.091208346
0.404554009 0.119797289 0.113345645
0.534598112 0.148007467 0.122960187
0.704111457 0.163187832 0.130423829
0.879190385 0.194307372 0.135610193
0.137887180 0.155977011 0.070462093
0.174446538 0.155471548 0.087413445
0.225679979 0.160531193 0.089184090
0.298924744 0.174699187 0.101454645
0.410499454 0.189500198 0.109550990
0.544339001 0.209867194 0.119417831
0.713472426 0.233396471 0.125237003
0.892978907 0.268564075 0.140796989
0.256166995 0.248703539 0.093611643
0.267552555 0.250727206 0.099557094
0.305123627 0.249841988 0.098672003
0.329791188 0.238077179 0.098671898
0.432004929 0.263883471 0.106135450
0.565464556 0.294370502 0.118279189
0.726755202 0.330043912 0.112713188
0.895002842 0.361416817 0.130297542
0.369766086 0.373687267 0.094117805
0.384186924 0.369133741 0.092220262
0.416065991 0.371916473 0.083744101
0.446932554 0.374699712 0.090955101
0.474763095 0.351549357 0.099431098
0.589373708 0.389499903 0.101834096
0.750284493 0.435294300 0.104111195
0.908918440 0.473371118 0.125996292
0.500948668 0.542947233 0.029601561
0.516888201 0.541682601 0.025553459
0.543200672 0.547248602 0.023023454
0.585831523 0.549146116 0.019481292
0.622517586 0.543326735 0.027324390
0.656293392 0.523719370 0.068690553
0.776090860 0.552435040 0.085009471
0.934092343 0.588994443 0.129158899
0.644528508 0.731688559 0.000000010
0.654143214 0.732321143 0.001518008
0.683744550 0.736369252 0.000000011
0.722580612 0.737507761 0.001518203
0.776217461 0.737128377 0.003289016
0.806451857 0.721062541 0.003036009
0.840860188 0.692599177 0.056799188
0.942947388 0.694117606 0.134977549
0.795445681 0.891966760 0.109171256
0.795446038 0.894623280 0.106514424
0.815939248 0.893611670 0.116002433
0.867172539 0.895635605 0.124477804
0.904111147 0.893864512 0.141808704
0.956103683 0.893737853 0.161037356
0.984819591 0.874004066 0.216065571
0.993042231 0.841492474 0.262618572
0.132827342 0.044782002 0.193421990
0.160151750 0.035294000 0.192662999
0.216192096 0.048576999 0.177229643
0.304364622 0.050474640 0.168753639
0.423023373 0.059076637 0.168627441
0.550158203 0.071347095 0.180645257
0.703605175 0.080708288 0.187855989
0.873624265 0.147501513 0.229348466
0.163061202 0.100569539 0.167868644
0.182542995 0.100569539 0.166856304
0.216192096 0.109677084 0.165211990
0.292852283 0.109677084 0.164453089
0.411511838 0.119417742 0.162049279
0.541935444 0.131941542 0.174573094
0.701201797 0.150790647 0.197722927
0.865274906 0.213535443 0.227450818
0.179506898 0.167235643 0.157748640
0.194560647 0.167235658 0.165717751
0.240860522 0.180139095 0.160910636
0.307021081 0.184440553 0.154585734
0.419481516 0.200506091 0.169512734
0.536369324 0.219987288 0.190006644
0.698925018 0.260847449 0.213662192
0.871347070 0.300062895 0.242504641
0.208475992 0.250600994 0.134598270
0.228336647 0.257305652 0.134977639
0.285262287 0.265907735 0.159772083
0.345856905 0.267425627 0.169386640
0.433902472 0.283870637 0.178873837
0.546489477 0.308538884 0.198861271
0.707526922 0.343706250 0.212523922
0.871220529 0.377862275 0.239342079
0.333839089 0.375584841 0.152055815
0.353067636 0.375964373 0.170651183
0.387349755 0.374699831 0.176976189
0.433649838 0.376597166 0.176091179
0.458191365 0.362934798 0.183175281
0.580518484 0.400885552 0.198861182
0.734598517 0.445540667 0.216065899
0.895382345 0.486654103 0.243517071
0.466666549 0.537381113 0.175964370
0.485641986 0.532700896 0.182922348
0.512713611 0.538646400 0.181783810
0.562302470 0.540164471 0.177609190
0.602656782 0.543326735 0.179632813
0.640860081 0.525237381 0.202150375
0.767109156 0.559392691 0.220873013
0.919038475 0.603795171 0.265148640
0.611638308 0.722074568 0.191271633
0.621125579 0.723466337 0.182668924
0.644275963 0.718785584 0.178620920
0.692346513 0.721568644 0.177988559
0.742062151 0.727893710 0.182036668
0.783807874 0.720556498 0.193421811
0.821252167 0.692346513 0.220999628
0.926755428 0.696268022 0.259202808
0.768627107 0.891966760 0.293105751
0.771157444 0.889943182 0.286527634
0.794307530 0.890701950 0.285515696
0.833270073 0.891587615 0.295129687
0.885894775 0.892093599 0.302719593
0.944338799 0.896268010 0.319164962
0.977103233 0.879822612 0.346869111
0.992409945 0.850853801 0.371789694
0.185578987 0.038329996 0.298418999
0.211132541 0.047691189 0.292472750
0.260088354 0.065781184 0.285642087
0.320050538 0.082605734 0.272865623
0.429348201 0.075142190 0.269450188
0.563567042 0.079443641 0.274509937
0.715749383 0.086906999 0.282606095
0.881593764 0.131182447 0.311448157
0.217077896 0.121442184 0.273624539
0.225680083 0.126628742 0.266919374
0.267552435 0.128905639 0.272865534
0.323466271 0.133965999 0.260215014
0.415812552 0.130423531 0.254016519
0.556230307 0.137507737 0.264263034
0.711827636 0.151549548 0.277925372
0.871473849 0.182289526 0.312587202
0.234155387 0.191777274 0.253763378
0.254648983 0.203668296 0.249715269
0.290702105 0.202909291 0.255281389
0.329411626 0.206831187 0.250980526
0.422897071 0.203668386 0.249715284
0.552435100 0.220366642 0.256166905
0.711068630 0.245920375 0.285642087
0.877292693 0.293864787 0.330676913
0.230234176 0.281973273 0.245793983
0.256546557 0.278811097 0.254522383
0.310183167 0.281973302 0.250600994
0.366603166 0.295635641 0.256419748
0.446805835 0.301455081 0.253257632
0.562302470 0.328146368 0.273497730
0.716255605 0.359771997 0.307020962
0.858317554 0.417583734 0.353953093
0.276027799 0.379000366 0.219987392
0.287539184 0.382922381 0.223276377
0.336116165 0.390006274 0.234155178
0.416445404 0.408728361 0.266160458
0.481594175 0.414294332 0.284882993
0.587855756 0.433776379 0.298671633
0.727640808 0.467552483 0.319291353
0.879569948 0.519164979 0.364326179
0.389120638 0.542820930 0.236811727
0.408222467 0.545224190 0.252119064
0.463504106 0.545603931 0.275522083
0.523086548 0.551170468 0.288424730
0.588235259 0.555091500 0.292472750
0.633902907 0.537381172 0.307527184
0.764452577 0.583681047 0.343074143
0.909044743 0.628462791 0.388235271
0.562681794 0.719924152 0.333586276
0.573434472 0.721442342 0.332953811
0.598608375 0.723845541 0.330423564
0.652118862 0.725743055 0.328273118
0.715496242 0.730929613 0.332827181
0.769639075 0.727008104 0.335483938
0.804680347 0.698798180 0.352308452
0.921568632 0.721568406 0.400632352
0.733333230 0.887665927 0.433396131
0.735989749 0.890322804 0.438076943
0.754332602 0.892093658 0.428715914
0.798608065 0.890069366 0.434661508
0.858190954 0.891966760 0.442251742
0.912207425 0.898165464 0.453004420
0.957368374 0.885262311 0.470967323
0.987349629 0.859961987 0.487792224
0.254648983 0.058696993 0.440354198
0.276913732 0.064895801 0.437950939
0.323466092 0.080328740 0.430360466
0.376217633 0.093232088 0.422517449
0.453889698 0.111321799 0.415686458
0.579253435 0.090195999 0.406831473
0.729791582 0.093990996 0.415179998
0.892093599 0.140796885 0.414421201
0.273877352 0.133965805 0.416318566
0.285009265 0.137887284 0.423529267
0.325869471 0.143326998 0.419860721
0.381277382 0.149904922 0.409993559
0.445414245 0.160657898 0.403036356
0.571157396 0.149399266 0.395192474
0.723212957 0.151929095 0.404554158
0.884376705 0.185958058 0.414420903
0.292852461 0.226059452 0.401771128
0.311321825 0.227577627 0.393548369
0.337507993 0.228716090 0.396205097
0.389753461 0.232131824 0.390132844
0.451866060 0.241239995 0.387729168
0.570398152 0.233396471 0.383681178
0.725869656 0.251739532 0.402529985
0.888171554 0.301580995 0.423276514
0.299304098 0.293611377 0.392283112
0.313346088 0.297153711 0.387349546
0.362302333 0.317900181 0.384187371
0.412396997 0.325743377 0.385325730
0.461100459 0.331562012 0.379253656
0.573940396 0.329538375 0.382795811
0.721062660 0.358380646 0.390259385
0.869196534 0.412523985 0.432890356
0.284630209 0.436559141 0.386970013
0.304870278 0.431751907 0.383554459
0.354965270 0.430613458 0.387855917
0.430487037 0.430234104 0.389247000
0.503605187 0.451360106 0.405945897
0.610879183 0.459203094 0.410499722
0.739785075 0.498291999 0.428336263
0.873877168 0.550664186 0.479190379
0.317520499 0.553953230 0.342441738
0.335104555 0.556989193 0.338519931
0.386338115 0.560657561 0.355597705
0.450853616 0.572675288 0.365085095
0.556230366 0.594307482 0.428083450
0.646173477 0.595066488 0.444022715
0.758507311 0.623782039 0.469070196
0.896647632 0.664136529 0.521568716
0.427956820 0.732827485 0.362554997
0.455407917 0.732827425 0.371536642
0.507779658 0.732448041 0.397216767
0.586717188 0.730929673 0.447944373
0.667046249 0.738013804 0.472738922
0.742694438 0.740037560 0.469829023
0.778874338 0.716888011 0.479569525
0.905249953 0.751423299 0.526502132
0.669829130 0.894876480 0.530044496
0.680708408 0.892979026 0.537760913
0.710309684 0.889057636 0.559519410
0.756609619 0.891840577 0.576976418
0.802403271 0.899810016 0.579127133
0.880075753 0.898291826 0.579253316
0.931182742 0.898671389 0.595193088
0.968753874 0.871600330 0.606704295
0.307146996 0.093738280 0.626312256
0.334977537 0.098292448 0.631245971
0.378368169 0.102466702 0.625300527
0.439468563 0.114990279 0.620240211
0.513092875 0.131562188 0.614421546
0.606831193 0.143706739 0.608095825
0.755724311 0.113346279 0.596204817
0.906641066 0.157874778 0.591524124
0.328399688 0.158507258 0.617710233
0.339405090 0.160151541 0.625426829
0.386337906 0.167868540 0.617330790
0.442251652 0.172296092 0.608349323
0.511574984 0.181277633 0.601897538
0.602023840 0.190259099 0.598987579
0.753953278 0.166603282 0.585072994
0.884630024 0.197975874 0.569006503
0.339152575 0.262365460 0.609740794
0.363314539 0.260341853 0.604933560
0.398102105 0.259835571 0.595572591
0.453257442 0.269323111 0.601644397
0.520809531 0.276407182 0.592409730
0.603415787 0.279822737 0.589247465
0.755091846 0.268311381 0.583680928
0.895003021 0.311068714 0.578114986
0.361543655 0.355471253 0.591777205
0.377861798 0.364832342 0.584819376
0.419861108 0.370651633 0.583934367
0.462491900 0.376217633 0.582163155
0.527893484 0.378494620 0.577608824
0.606704712 0.383934110 0.570398688
0.746742487 0.374067247 0.567615151
0.881846607 0.422137886 0.566856384
0.335483789 0.459582567 0.584819734
0.360531151 0.457431912 0.587476194
0.416065991 0.459456265 0.583048761
0.488551646 0.487413019 0.579633176
0.552435219 0.496394545 0.577609122
0.622138262 0.499557436 0.570777655
0.749778390 0.504364252 0.570777655
0.880581856 0.557115912 0.577862203
0.286907285 0.635800481 0.577735543
0.318026543 0.639721513 0.585072994
0.381024629 0.632384837 0.581151187
0.468943924 0.626818359 0.582795918
0.572043121 0.624035478 0.588994086
0.655408025 0.645540714 0.598102331
0.771030962 0.652371585 0.602909565
0.885389090 0.695509315 0.632257938
0.368248284 0.743326843 0.508665264
0.377482295 0.741049469 0.509044766
0.425553113 0.742821157 0.517647088
0.498798639 0.742694557 0.526502192
0.586084485 0.748260558 0.545730293
0.693485200 0.762555480 0.602909684
0.779000521 0.765591264 0.628336251
0.893864870 0.786970317 0.664516091
0.535989761 0.902087033 0.550031304
0.548893034 0.901834011 0.563567221
0.595066428 0.899809778 0.577103138
0.662618637 0.902466595 0.616445005
0.746236682 0.903225839 0.667679012
0.826565385 0.900063097 0.709297538
0.902593195 0.901454508 0.712080657
0.937128663 0.883491755 0.724478364
0.351802647 0.165085450 0.825553417
0.365338385 0.166730076 0.826818585
0.412270993 0.171031043 0.826818585
0.469323277 0.187096596 0.821758211
0.550790370 0.208728433 0.816192210
0.633016884 0.229601517 0.816951334
0.746995270 0.245920300 0.807463288
0.923339784 0.234534755 0.800632417
0.362935007 0.212903157 0.820619881
0.375458658 0.222644001 0.818089843
0.416951090 0.223402902 0.819987118
0.482352614 0.234408423 0.813662350
0.552055538 0.245034784 0.811764836
0.635420501 0.259961993 0.802023768
0.741935253 0.276027918 0.789753199
0.919291794 0.263630480 0.793042302
0.388109088 0.317900002 0.807463288
0.400632709 0.323213369 0.815180182
0.439974815 0.328272998 0.813156307
0.497533351 0.335104287 0.808349192
0.565211833 0.345350981 0.804047704
0.643896580 0.358633697 0.804174423
0.750157773 0.370651692 0.803668201
0.919544816 0.372422427 0.795319557
0.427324414 0.443010837 0.809993684
0.444402188 0.446426481 0.802403331
0.473244786 0.448829800 0.799114227
0.518658876 0.455787420 0.801138401
0.578621209 0.461733043 0.792156875
0.656799614 0.464136541 0.792536378
0.744591951 0.475142300 0.783427954
0.906388164 0.465274870 0.780898213
0.423149765 0.524351776 0.797469914
0.446805775 0.538519621 0.803542018
0.497785896 0.562428951 0.795572400
0.556483090 0.583428144 0.796584249
0.609740853 0.585704982 0.785578430
0.676027656 0.590385735 0.788108826
0.754838586 0.596837163 0.782542527
0.903352201 0.591903925 0.780139148
0.416318595 0.674636364 0.808728397
0.440860331 0.676027894 0.800632536
0.489437044 0.671726584 0.803288758
0.558380544 0.674130380 0.801517725
0.637444556 0.698165655 0.795698702
0.712333739 0.710689306 0.796204507
0.775205731 0.716128767 0.793548346
0.900568843 0.713472426 0.787349582
0.366477132 0.833649635 0.788994074
0.402909279 0.829095066 0.795572102
0.453510433 0.825426757 0.790259421
0.530676365 0.818342805 0.785325587
0.618342698 0.811385512 0.789752960
0.711954236 0.798102498 0.789879858
0.797469616 0.807336807 0.788235426
0.896520793 0.816066027 0.790638864
0.507526994 0.923465908 0.730044365
0.535104454 0.918785572 0.738393605
0.564958870 0.916255653 0.737887442
0.620746613 0.919797599 0.748513401
0.682605803 0.912839949 0.753573358
0.761796415 0.914737701 0.779380202
0.844149292 0.913725317 0.817457497
0.918026805 0.919417799 0.854395688
