Assets/Resources/EldamarStudio/100 Horror LUTs Pack/LUTs/cube/Yogarin LUT.cube
LUT_3D_SIZE 5
DOMAIN_MIN 0.000000 0.000000 0.000000
DOMAIN_MAX 0.903226 0.903226 0.903226
0.066666998 0.039216001 0.015686000
0.171030700 0.039848004 0.027450999
0.377988815 0.000000000 0.016318584
0.623909295 0.001012128 0.002909872
0.903858542 0.087792806 0.000000000
0.164452702 0.144844696 0.009108006
0.198481694 0.131435990 0.007843000
0.386463970 0.138646409 0.002909714
0.627197862 0.171031117 0.001264999
0.906388581 0.216192365 0.000000000
0.348640203 0.326375365 0.000000000
0.377988368 0.325363696 0.003288997
0.427703798 0.300189406 0.003289416
0.644149363 0.350284547 0.001265006
0.922833323 0.406830937 0.003289417
0.569007277 0.608349264 0.000000000
0.604933619 0.609613836 0.000632580
0.668437839 0.616192281 0.004553996
0.723972261 0.574952245 0.000000000
0.939784765 0.612776816 0.003288990
0.803162396 0.897279739 0.002530012
0.830233872 0.896267891 0.001644708
0.902466595 0.897153616 0.000000000
0.981530607 0.886021793 0.004554157
0.989500165 0.840986788 0.092978969
0.092473291 0.060468286 0.080455408
0.177229419 0.041492712 0.082732700
0.348893106 0.045793574 0.078811117
0.582036853 0.105629280 0.109550707
0.882985592 0.142061800 0.111954547
0.121947698 0.137001708 0.062112994
0.194560677 0.139278993 0.073244996
0.351170391 0.157621831 0.092220411
0.586084604 0.192915842 0.101707697
0.889183879 0.239468634 0.114737704
0.314610809 0.303478807 0.068943709
0.352814674 0.308032781 0.068943709
0.404806793 0.291714370 0.086021699
0.621378839 0.344718367 0.089563578
0.902846277 0.418595821 0.097912513
0.544212282 0.594307423 0.009108006
0.573308170 0.596584260 0.001264999
0.649841964 0.605059862 0.001012128
0.707653642 0.572043121 0.017331116
0.938393474 0.617077708 0.081593767
0.798734903 0.895508885 0.060594607
0.814168394 0.891587496 0.065401658
0.887033463 0.891587496 0.069702782
0.967488945 0.890954912 0.117520273
0.993295252 0.836938858 0.227703959
0.167488813 0.039216001 0.241998821
0.225300685 0.049715411 0.232511103
0.359013408 0.065401994 0.211258397
0.588615000 0.079190254 0.214294523
0.879063606 0.123845376 0.260341823
0.204680413 0.162175581 0.200758994
0.242631406 0.172675416 0.201138690
0.358380407 0.175585121 0.204427689
0.579506457 0.202403262 0.221125662
0.871220648 0.269829094 0.276407510
0.245919973 0.311321795 0.173308402
0.297912687 0.319164962 0.187096387
0.412650377 0.330929816 0.219733983
0.602403700 0.374826223 0.251233399
0.886148036 0.451359808 0.301707506
0.474004000 0.584187269 0.240986675
0.512713313 0.584819674 0.230992958
0.609108508 0.589753389 0.235800266
0.683112085 0.573055267 0.260088682
0.911195457 0.642251670 0.325489908
0.741555810 0.885388911 0.362808406
0.763820171 0.886653900 0.353067487
0.843516707 0.886653781 0.367236018
0.938646495 0.895256162 0.399493545
0.988614798 0.849336267 0.430107147
0.269829124 0.065781124 0.485895127
0.320683122 0.079822995 0.472612530
0.430360407 0.105629124 0.466540277
0.628842354 0.091208123 0.452372104
0.896647573 0.144844949 0.454649091
0.296141595 0.205059960 0.448829830
0.335483968 0.213535696 0.450853825
0.436938673 0.219101831 0.442631096
0.612903237 0.219734401 0.426944971
0.890448928 0.277798921 0.455660969
0.307906419 0.361416519 0.428209960
0.354965448 0.363693804 0.428968936
0.471600235 0.393801212 0.434155524
0.630866528 0.403921485 0.434155405
0.881214321 0.491966933 0.490069777
0.325616986 0.600506246 0.378874242
0.379506290 0.606704533 0.391271681
0.507779956 0.627577364 0.424035251
0.683618128 0.643643200 0.494623244
0.899177611 0.697786272 0.558253944
0.640733242 0.896141469 0.528779566
0.675901294 0.894623280 0.561037481
0.768374264 0.894876599 0.612017930
0.886401057 0.898544908 0.612397075
0.955597460 0.878178656 0.638077080
0.351802647 0.165085450 0.825553417
0.397849679 0.171284065 0.827830434
0.506767392 0.195825204 0.823655963
0.656799316 0.236432612 0.818216443
0.923339784 0.234534755 0.800632417
0.376976669 0.289563656 0.817077577
0.421758533 0.295888782 0.814421356
0.525743365 0.313851893 0.812144160
0.664642990 0.340670347 0.807969332
0.918785632 0.349652171 0.799114287
0.436938792 0.497279763 0.805945575
0.484756589 0.518911779 0.795192838
0.572928607 0.527387559 0.798734963
0.686400890 0.538140357 0.793548405
0.916255295 0.539785206 0.785072625
0.410499632 0.714611113 0.799114227
0.469702750 0.717520416 0.800758839
0.591903746 0.710309803 0.798734546
0.733080089 0.736748755 0.795192719
0.900821924 0.740037918 0.791903734
0.507526994 0.923465908 0.730044365
0.550790548 0.915496767 0.732827425
0.648829758 0.916129172 0.754965246
0.785831869 0.915749490 0.788488269
0.918026805 0.919417799 0.854395688
