Assets/Resources/EldamarStudio/100 Horror LUTs Pack/LUTs/cube/Yogarin LUT.cube
DOMAIN_MIN 0 0 0
DOMAIN_MAX 1 1 1
LUT_3D_SIZE 32
0.066666998 0.039216001 0.015686000
0.060594998 0.039216001 0.015686000
0.060974225 0.041366227 0.017836774
0.069070160 0.044402160 0.019608000
0.085768551 0.047438450 0.019987451
0.113092929 0.050474066 0.023023065
0.140417323 0.045919999 0.026059322
0.171030700 0.039848004 0.027450999
0.201391101 0.033776000 0.026691902
0.222643495 0.027703993 0.023655515
0.249715596 0.018722130 0.020619871
0.281088233 0.009614265 0.017583745
0.314484626 0.002783356 0.016824644
0.347628057 0.000000000 0.019354967
0.377988815 0.000000000 0.016318584
0.410752803 0.000000000 0.013282809
0.442631394 0.001518192 0.008729003
0.473624527 0.003289424 0.003289424
0.507021010 0.000253032 0.000253032
0.548766792 0.000000000 0.000000000
0.587476492 0.000000000 0.001897740
0.623909295 0.001012128 0.002909872
0.660468519 0.004427984 0.000000000
0.699936926 0.016572002 0.000000000
0.739405274 0.028715990 0.000000000
0.780265272 0.040859982 0.001391672
0.822264194 0.054016128 0.003415936
0.861733258 0.072232887 0.000379552
0.903858542 0.087792806 0.000000000
0.946363330 0.097659983 0.000000000
0.981783986 0.107273974 0.000000000
1.000000000 0.125489995 0.000000000
0.069702610 0.042251613 0.012650387
0.063630611 0.042251613 0.024794385
0.064010382 0.044402387 0.022643613
0.072106548 0.048703384 0.020113613
0.089184381 0.051992454 0.017330613
0.119164929 0.044402063 0.023023065
0.138899639 0.049968001 0.028589645
0.171284080 0.044275716 0.027197972
0.205186591 0.036812387 0.023655711
0.228716269 0.030740384 0.020619903
0.255787641 0.027577516 0.020493386
0.281087965 0.020746391 0.019608000
0.311448246 0.013789002 0.016445389
0.345097661 0.008349355 0.013536001
0.381024420 0.000000000 0.013282971
0.413789004 0.000000000 0.012650387
0.445667386 0.000000000 0.008729003
0.476660132 0.001518191 0.003922000
0.510056615 0.003289425 0.003289416
0.554585695 0.008602390 0.000253031
0.587855756 0.012903383 0.000000000
0.619860709 0.018216513 0.000885613
0.654775202 0.025806852 0.000000000
0.702972531 0.040860005 0.000000000
0.746995449 0.050727285 0.002277288
0.786590636 0.059329376 0.001644715
0.825806499 0.068690449 0.000885613
0.867805243 0.084376886 0.000379552
0.899303913 0.094623819 0.000000000
0.943832994 0.107273959 0.000000000
0.981783986 0.118532591 0.000885608
1.000000000 0.134598389 0.003036387
0.066286996 0.043136999 0.016066000
0.075268775 0.045287773 0.019608000
0.067046002 0.053889770 0.020999225
0.077672385 0.050600998 0.021757999
0.095762320 0.051739544 0.019607548
0.122580767 0.053257614 0.020366773
0.144971639 0.048197001 0.024288097
0.168121696 0.054269418 0.027071454
0.202530101 0.048450578 0.023529001
0.228210211 0.042378224 0.021884710
0.255408108 0.039215904 0.023908999
0.286780477 0.036179516 0.019861003
0.314863920 0.029095646 0.018469356
0.348260581 0.022264743 0.012903227
0.382795572 0.016951364 0.005313226
0.414674401 0.015053772 0.005313226
0.448071182 0.016571965 0.008349223
0.479696304 0.017204549 0.004807235
0.513092756 0.018722750 0.001771227
0.549019277 0.026692003 0.003289417
0.588867664 0.028968997 0.000253034
0.620999396 0.036559254 0.000000000
0.657052517 0.046806246 0.000000000
0.701580763 0.057937872 0.000000000
0.743579865 0.070714831 0.000126514
0.786337614 0.079822853 0.001771226
0.824035406 0.087159835 0.000506064
0.864895821 0.099051207 0.002150774
0.907526731 0.111068815 0.000000000
0.941429138 0.123719178 0.003541982
0.978747785 0.135357380 0.002530009
0.995698988 0.148007780 0.001771226
0.069070160 0.053257320 0.022138000
0.077925391 0.052498545 0.019608000
0.088551544 0.058190998 0.023782387
0.084503151 0.064010158 0.014421161
0.104237542 0.053763609 0.021252161
0.124098696 0.061100770 0.022643935
0.150917158 0.062618516 0.020872839
0.174193695 0.059329417 0.024794161
0.201518089 0.063124903 0.024035065
0.228842482 0.057558190 0.023529001
0.253636867 0.055660870 0.022643710
0.286274403 0.052625064 0.022137843
0.317393810 0.050727319 0.014927488
0.350537866 0.042505126 0.011638130
0.383934200 0.039468743 0.002530012
0.414927423 0.038836159 0.000000000
0.446806014 0.041619189 0.000505998
0.482099950 0.044655576 0.005945577
0.517394006 0.045288168 0.001771164
0.552055538 0.049841974 0.004048196
0.586084425 0.055787321 0.002024260
0.622517228 0.057811316 0.000000000
0.661733329 0.069449984 0.000126512
0.703099012 0.079696253 0.001265161
0.744591653 0.089816563 0.000000000
0.782795608 0.099304460 0.001265161
0.821758091 0.108412221 0.000759097
0.860468090 0.117520593 0.002277287
0.905249894 0.126755133 0.001265167
0.944212377 0.140670329 0.001011982
0.977988601 0.154079750 0.005313001
0.994686961 0.163188159 0.000000000
0.085009545 0.077166550 0.025933001
0.086148098 0.071853548 0.020999452
0.098924771 0.071473777 0.026692001
0.113725387 0.072359160 0.028463000
0.117140643 0.068943992 0.012144451
0.126249030 0.071979605 0.024288449
0.154079407 0.077166095 0.022391001
0.182162955 0.078684255 0.021379000
0.207590103 0.076027997 0.025553452
0.234914511 0.072991610 0.022517063
0.257178873 0.073244549 0.016951000
0.287412941 0.071220808 0.014547549
0.320809633 0.069323547 0.011891100
0.348387063 0.069323547 0.003795484
0.381656915 0.066413678 0.001012132
0.413029611 0.066540092 0.000000000
0.444528759 0.068437546 0.000000000
0.479063660 0.074636124 0.000632577
0.521568537 0.077672519 0.003668971
0.558127701 0.078304999 0.006325196
0.593421698 0.081720546 0.004427552
0.627450824 0.087792546 0.000000000
0.664263010 0.093991049 0.000000000
0.704237461 0.105882093 0.002783356
0.745983124 0.115369834 0.002024260
0.785325289 0.123845533 0.001391672
0.822137654 0.129664615 0.003795484
0.858570397 0.138772994 0.000759100
0.902972877 0.144844994 0.000000000
0.941429555 0.156230181 0.000000000
0.972296000 0.169639602 0.000379548
0.999620438 0.178747997 0.000379548
0.106261931 0.098418936 0.013789003
0.115370318 0.098418936 0.016824614
0.118659094 0.095256157 0.018342840
0.128526002 0.094496936 0.021632001
0.138393030 0.093231998 0.018216452
0.144465804 0.087159991 0.015180063
0.163694188 0.090196252 0.019734390
0.186970562 0.092093870 0.016319003
0.211005941 0.091587931 0.013789003
0.240986511 0.091208383 0.013409452
0.268310845 0.093990996 0.010373066
0.294623256 0.092473194 0.006831261
0.324604362 0.090575933 0.004301293
0.354459077 0.090575933 0.000759097
0.384819806 0.090575933 0.003795481
0.418089718 0.094876863 0.001012131
0.449462384 0.095382676 0.000000000
0.481594056 0.096394502 0.000632576
0.518532932 0.104996905 0.003668968
0.552688360 0.108032577 0.003922001
0.590385675 0.110562727 0.004427936
0.626818359 0.115116924 0.002403807
0.661227405 0.121315427 0.000000000
0.706767857 0.130423844 0.000000000
0.749019504 0.137760863 0.002783353
0.787349582 0.147121906 0.003415935
0.822264194 0.156735986 0.003922000
0.861606777 0.160025388 0.003795487
0.906008720 0.163820088 0.000759102
0.944465220 0.174446166 0.000000000
0.974319637 0.187855586 0.000885608
0.996584058 0.196963996 0.003415935
0.137634322 0.122200996 0.014294676
0.139152378 0.117140993 0.012270937
0.148260772 0.119291767 0.011005549
0.153320640 0.118279636 0.013282839
0.161796182 0.117520638 0.014927452
0.165718183 0.111448638 0.016192066
0.169259995 0.110436641 0.010626001
0.192157090 0.110183612 0.012017678
0.215054005 0.110815994 0.010752675
0.241872028 0.114357993 0.014294673
0.276913196 0.112207770 0.006325453
0.302213818 0.113219641 0.007337063
0.329032272 0.112966672 0.006451677
0.357495308 0.114611022 0.004807031
0.383301497 0.116888314 0.003289416
0.420873076 0.116888314 0.001518196
0.453004301 0.121189117 0.000000000
0.483997375 0.121441893 0.000000001
0.518532991 0.126755297 0.001138651
0.557242393 0.135357618 0.006451677
0.590638697 0.140290961 0.002656681
0.628842354 0.143959507 0.002403806
0.665401936 0.148639828 0.002403810
0.703731596 0.157748222 0.000000000
0.744718552 0.164579317 0.000000000
0.788361609 0.170651302 0.002783350
0.827324212 0.179506317 0.003415936
0.866793275 0.184566453 0.001391678
0.903985083 0.190133125 0.001265167
0.944212198 0.194939941 0.001771217
0.975711167 0.208728611 0.005186696
0.998608351 0.222770318 0.011511676
0.164452702 0.144844696 0.009108006
0.167741701 0.137128413 0.011005679
0.170904472 0.142441466 0.006325230
0.178747699 0.140417531 0.004554003
0.185578689 0.139658540 0.006831295
0.192409918 0.137381703 0.008602071
0.202024072 0.133080706 0.008981712
0.198481694 0.131435990 0.007843000
0.222011387 0.129917800 0.008602096
0.245414019 0.135104403 0.013788708
0.274762750 0.134092569 0.006957873
0.304743797 0.133080706 0.002656743
0.331309557 0.134219050 0.004554003
0.359393001 0.137001693 0.004554003
0.386463970 0.138646409 0.002909714
0.419481397 0.142567992 0.001518196
0.454395980 0.145603985 0.000000000
0.485388696 0.149398848 0.000000001
0.518785954 0.153447375 0.000000007
0.552814662 0.155471340 0.005566004
0.591777444 0.165970981 0.007337001
0.627197862 0.171031117 0.001264999
0.666540265 0.174319908 0.002277292
0.702972710 0.183428317 0.000759096
0.744971097 0.191903695 0.001644708
0.784440219 0.197975680 0.000253036
0.828968823 0.204047829 0.002277292
0.869576275 0.210120112 0.000379552
0.906388581 0.216192365 0.000000000
0.944465578 0.225553676 0.000126509
0.976470292 0.230740309 0.002277292
1.000000000 0.245161399 0.009108006
0.188741088 0.166856200 0.002277094
0.192536190 0.159266382 0.005313097
0.197216868 0.162176013 0.003542000
0.202277184 0.169259936 0.000000000
0.207210645 0.160910636 0.000000000
0.217457101 0.163188040 0.000000000
0.232131407 0.157875001 0.004048320
0.236432493 0.154965475 0.004807386
0.232637182 0.151170194 0.007084097
0.253889591 0.154206589 0.010120483
0.276533812 0.153574005 0.005186905
0.301328361 0.154333100 0.002656840
0.329791188 0.154712558 0.000759096
0.359645963 0.157748163 0.000506064
0.388994038 0.158254102 0.000000000
0.421758294 0.162302196 0.000000001
0.453637093 0.168374196 0.000759096
0.485894620 0.175711170 0.000126520
0.519544840 0.182036936 0.000000006
0.550917029 0.181277826 0.004807102
0.586211085 0.185452089 0.006325001
0.624921143 0.195319131 0.005819002
0.664642513 0.198608503 0.000126512
0.702972889 0.207716912 0.000759096
0.744718313 0.216824889 0.003036190
0.788234949 0.225300267 0.003289423
0.827704072 0.231372297 0.000759096
0.869955719 0.237444982 0.000759096
0.907147467 0.244275987 0.000000001
0.943832994 0.253131062 0.000000000
0.978747606 0.261859626 0.000000000
1.000000000 0.264896005 0.000000000
0.222137496 0.191144988 0.011385479
0.219101876 0.188108593 0.005313484
0.222896978 0.186970010 0.001897711
0.230107665 0.190006003 0.000000000
0.237571433 0.194307044 0.000000000
0.234535038 0.191271439 0.000000000
0.247311801 0.183428168 0.007590318
0.254269511 0.181024730 0.008223000
0.256926000 0.181530982 0.004048482
0.269069970 0.175458983 0.004048482
0.287413210 0.172675624 0.001265129
0.307906747 0.173814267 0.002150771
0.332827479 0.175585493 0.003795482
0.362681568 0.175964937 0.003542450
0.386970311 0.179000556 0.000506067
0.418722272 0.181910306 0.000000002
0.450600892 0.186590970 0.001518194
0.482859015 0.193927959 0.003162907
0.522327483 0.206071988 0.000126518
0.555976927 0.209614381 0.002783356
0.591144443 0.212397233 0.002150743
0.627703786 0.216824487 0.000253000
0.664642513 0.222896516 0.000126512
0.710183740 0.232004926 0.003162903
0.750790775 0.241113305 0.006072189
0.791903734 0.250221640 0.006325196
0.833776057 0.258697450 0.003795482
0.873244405 0.264769495 0.003795484
0.910183132 0.273497671 0.001138655
0.944844663 0.282479227 0.000000004
0.975837708 0.289057493 0.000000001
1.000000000 0.289184034 0.000000000
0.240986735 0.215433002 0.003036130
0.243769377 0.215306476 0.008602127
0.238582999 0.212270647 0.002530129
0.249209315 0.210246563 0.000000000
0.265401870 0.211764425 0.000000000
0.264895797 0.218848810 0.000000000
0.269449741 0.210752547 0.000000000
0.281846851 0.206577867 0.003036130
0.286906868 0.206072003 0.001012129
0.290448844 0.200000003 0.001012129
0.296773881 0.199746996 0.001012129
0.314990640 0.194686875 0.000000000
0.337634653 0.195066646 0.001012129
0.366223931 0.197090834 0.001012129
0.395825654 0.200126454 0.000632583
0.427324653 0.203162685 0.004806995
0.457685053 0.212271065 0.002783002
0.486654133 0.221252739 0.001012129
0.519291878 0.224288762 0.000253032
0.558760226 0.233649403 0.000000000
0.594307303 0.240733743 0.001012129
0.630740106 0.246805727 0.000000000
0.667299330 0.252877712 0.000000000
0.707273901 0.259202778 0.000253034
0.750537694 0.268311173 0.001012129
0.792030275 0.274636537 0.002024001
0.833523095 0.281720787 0.001518193
0.870588303 0.295002997 0.003922000
0.912713468 0.301074982 0.009234988
0.953194201 0.304616868 0.005186888
0.983807683 0.311195195 0.002024262
1.000000000 0.319291741 0.000000000
0.267299503 0.235673502 0.008095992
0.264262855 0.239721507 0.008096256
0.268943757 0.237570763 0.003542000
0.269196600 0.237065136 0.001265161
0.287792504 0.235926494 0.002403707
0.292726249 0.240101174 0.004047996
0.295762002 0.244149163 0.002024256
0.303478718 0.236685500 0.002024256
0.312966347 0.234408498 0.001265160
0.314231515 0.228336498 0.000000000
0.320050508 0.222011253 0.000000000
0.328146756 0.224035516 0.000000000
0.346363246 0.220240504 0.000000000
0.370019019 0.222391203 0.000000000
0.391524553 0.225426823 0.000000000
0.430360794 0.226438791 0.004806995
0.462239385 0.232511193 0.006325195
0.491967231 0.244781986 0.001391680
0.525110781 0.247564986 0.000000000
0.557748377 0.253889918 0.000000000
0.595319450 0.262997985 0.000000000
0.631752253 0.271094263 0.000000000
0.668437958 0.277292758 0.000000000
0.709804177 0.285262495 0.000000000
0.749525547 0.297659785 0.000000000
0.792030275 0.305376500 0.000000000
0.833523095 0.309551239 0.000000000
0.869955838 0.320177019 0.001518192
0.913725257 0.327387482 0.005186992
0.950917304 0.333459467 0.005945788
0.984693408 0.335736483 0.002783352
0.997975767 0.345604002 0.002024256
0.291967362 0.259582639 0.011132004
0.290448844 0.263377637 0.009234745
0.294117540 0.262998164 0.007590224
0.301455140 0.262491792 0.002403515
0.309424281 0.265148640 0.004301354
0.316255569 0.265148640 0.005060066
0.321441948 0.269070268 0.004174679
0.328905344 0.269702643 0.002783356
0.338013738 0.264389724 0.002783357
0.341809124 0.258697301 0.000126518
0.346616298 0.253131032 0.003415642
0.353573889 0.248703256 0.000000000
0.360404998 0.248323992 0.000000000
0.378621072 0.248071030 0.000000000
0.394687057 0.249335870 0.000000000
0.429222226 0.252245277 0.002529998
0.465654731 0.256799489 0.006325195
0.496015459 0.265275270 0.003289424
0.531435668 0.271347255 0.000253032
0.560025096 0.278557628 0.000000000
0.599873483 0.286527395 0.002276998
0.634282291 0.295635790 0.002276998
0.670588493 0.302087277 0.002150518
0.712081134 0.312207520 0.001138644
0.753447294 0.322454274 0.000000000
0.794307292 0.333459973 0.001138644
0.835800111 0.340038061 0.001138644
0.872232854 0.346742630 0.001138644
0.914357722 0.352814615 0.001518189
0.953952909 0.360025227 0.005566426
0.982036948 0.364326268 0.000759043
0.997216642 0.369892269 0.002783356
0.309171110 0.292979032 0.000000000
0.314231098 0.292726070 0.000000000
0.322706848 0.290322781 0.004300999
0.331815213 0.290069908 0.007337000
0.339785069 0.292726070 0.007590001
0.339785069 0.292726070 0.001518000
0.344086021 0.295003355 0.000505999
0.353953004 0.295256317 0.000000000
0.364579111 0.291967094 0.000000001
0.373687506 0.288931489 0.000000005
0.377735883 0.288805008 0.007969839
0.383049011 0.285262525 0.005945780
0.387729377 0.279190063 0.000505999
0.391271085 0.272865057 0.000253032
0.409487844 0.269829452 0.000253032
0.440354586 0.273245037 0.000000000
0.474004000 0.281088173 0.001265160
0.504617095 0.289817035 0.003289424
0.534977973 0.295889050 0.000253032
0.560278058 0.304743677 0.000000000
0.600632250 0.313851774 0.003288997
0.645667255 0.322960168 0.007337000
0.676533937 0.332195014 0.007337000
0.716128886 0.344339013 0.004427871
0.758127570 0.352182060 0.001644712
0.800126314 0.358507067 0.001138640
0.841619134 0.364326119 0.003668968
0.878051877 0.373434484 0.003668968
0.917393744 0.380139023 0.001518199
0.954838336 0.387476206 0.004554167
0.984819591 0.395193040 0.009108401
1.000000000 0.395193040 0.000000000
0.348640203 0.326375365 0.000000000
0.342568219 0.323339760 0.000000000
0.351929218 0.318785816 0.004300999
0.362175971 0.318406403 0.005313001
0.370145828 0.323086828 0.002024005
0.370145828 0.323086828 0.007589994
0.367615491 0.323086828 0.006577994
0.377988368 0.325363696 0.003288997
0.390385389 0.324857354 0.000000000
0.391903460 0.319291443 0.000000001
0.403921723 0.319164962 0.000000001
0.412144125 0.319164962 0.003921847
0.417203963 0.315622807 0.004427770
0.418595433 0.309297770 0.006325026
0.427703798 0.300189406 0.003289416
0.443516761 0.297153771 0.000885612
0.472232759 0.303605378 0.000000000
0.504996538 0.314484566 0.000632584
0.538013637 0.323213428 0.000253032
0.568374336 0.332068056 0.000000000
0.603162646 0.341176152 0.000000000
0.644149363 0.350284547 0.001265006
0.679569542 0.359519392 0.001265006
0.722074389 0.371663392 0.001265006
0.766223848 0.381530672 0.000632584
0.806957722 0.390006453 0.000000000
0.844655514 0.396964222 0.000632584
0.881088257 0.397723228 0.000632584
0.922833323 0.406830937 0.003289417
0.959392607 0.411764622 0.001518200
0.987223387 0.419607967 0.001897590
1.000000000 0.431625783 0.000000000
0.373687774 0.357368588 0.000000000
0.374825984 0.354332358 0.004806995
0.375205755 0.357748538 0.000505996
0.385325938 0.356483430 0.006831165
0.393675238 0.359898776 0.007590251
0.395698994 0.355850786 0.011637995
0.400379479 0.358254611 0.003036004
0.402276784 0.356609911 0.004680713
0.415938973 0.358127683 0.002403804
0.422517389 0.356989384 0.002403804
0.431751728 0.356736392 0.002403804
0.435799986 0.354712129 0.000379548
0.442631066 0.353193969 0.001518196
0.445667416 0.348639816 0.003036004
0.452624977 0.343832999 0.002150618
0.466540366 0.334724575 0.001518196
0.480202556 0.330170780 0.000000000
0.508665323 0.337001771 0.000000000
0.545603812 0.347880960 0.000000000
0.576217532 0.356989235 0.000000000
0.610373259 0.369892299 0.000000000
0.649336100 0.380012721 0.000000000
0.687286258 0.388868064 0.000126512
0.727513790 0.394180775 0.002403804
0.767741799 0.406324774 0.004680512
0.810246587 0.416951299 0.003415678
0.847185373 0.426059693 0.001897740
0.881720841 0.427956969 0.000000000
0.921062708 0.431119740 0.000253028
0.960025132 0.443769753 0.003289413
0.986970425 0.448450595 0.002403804
0.997596204 0.456040770 0.002403804
0.402530372 0.392283171 0.000000000
0.404048175 0.387728989 0.003036003
0.407083958 0.389626741 0.014168183
0.412650317 0.393169194 0.003036185
0.420999616 0.395951807 0.008349454
0.424035251 0.393295169 0.009108070
0.428083390 0.393295318 0.005566002
0.435673565 0.394560486 0.000126516
0.440227568 0.392283171 0.002403808
0.449336141 0.394560486 0.002403808
0.457052529 0.396205187 0.002403808
0.472232372 0.394180924 0.003415936
0.473370999 0.391144812 0.001518192
0.478305161 0.387602538 0.001518192
0.480581999 0.382036626 0.001518192
0.489310563 0.378747582 0.001518192
0.507526994 0.368121386 0.003035997
0.520303547 0.362681806 0.001771006
0.552688003 0.370398194 0.000000000
0.582289517 0.381277740 0.000000000
0.617963493 0.395698905 0.000000000
0.654396296 0.407843173 0.000000000
0.693485141 0.416698486 0.000000000
0.734345317 0.425300449 0.001644712
0.770777822 0.430613577 0.003162710
0.811638296 0.442757547 0.011764655
0.851233244 0.454396248 0.007463932
0.886654139 0.459456116 0.000379552
0.922327518 0.462492019 0.000000000
0.958507359 0.466540366 0.000253025
0.987856030 0.479949564 0.002403808
0.997596204 0.481846988 0.002403808
0.435800552 0.431751698 0.000000000
0.436432987 0.427577108 0.000000000
0.439848363 0.426691890 0.011258798
0.446046680 0.427830517 0.019228425
0.454016536 0.427830517 0.003289424
0.456799209 0.430613190 0.000506066
0.459835440 0.431119114 0.000000001
0.465528250 0.432384104 0.000000001
0.474889547 0.432384104 0.000632576
0.474889547 0.432384104 0.000632576
0.480708539 0.434661388 0.000000000
0.497659713 0.433649451 0.002024255
0.513978183 0.431245744 0.003289424
0.517773509 0.428463101 0.003289424
0.516634703 0.420493275 0.003289424
0.519544125 0.416698098 0.003922000
0.530676305 0.412523687 0.004807389
0.548133731 0.401012123 0.006578009
0.563314140 0.397975743 0.000506000
0.587728918 0.406325251 0.000000000
0.621378601 0.420367122 0.000632576
0.660468280 0.435167551 0.001264990
0.697153986 0.441366047 0.001138510
0.739658773 0.455534458 0.000632576
0.775964856 0.462239236 0.001264990
0.811638296 0.468817532 0.005060083
0.853131115 0.480455488 0.017204497
0.892472982 0.489563823 0.002530142
0.927260756 0.493358701 0.000000000
0.960025012 0.497659743 0.000000001
0.986591041 0.500569522 0.000000000
0.998735011 0.509677172 0.000000000
0.457053035 0.471220970 0.000000000
0.460088640 0.474256575 0.000000000
0.467172861 0.472232759 0.002150772
0.477039993 0.469702840 0.004174836
0.487412989 0.467299014 0.000253035
0.487413019 0.467299014 0.000253035
0.490196288 0.467552006 0.000000003
0.494876981 0.470840991 0.000000003
0.502719998 0.474888980 0.000759098
0.514358044 0.474888980 0.003668966
0.520177007 0.474888980 0.000759098
0.534345508 0.473118275 0.002024254
0.547375321 0.471220970 0.002783354
0.551169991 0.470968008 0.000253032
0.563313961 0.470968008 0.000253035
0.564579010 0.462998182 0.002656837
0.569639206 0.457685202 0.003921999
0.578494608 0.452625394 0.003542388
0.581530929 0.443516999 0.000506000
0.599493980 0.443263978 0.000000000
0.627956748 0.449968755 0.001897738
0.663883388 0.459835857 0.004680834
0.703225970 0.468690515 0.007210514
0.745730817 0.477798939 0.004174899
0.783681571 0.485136002 0.005945670
0.818469644 0.492346704 0.007336993
0.853131115 0.501707911 0.008096091
0.889563859 0.510815561 0.005060482
0.926248908 0.514610946 0.001012135
0.958886325 0.521189213 0.000000002
0.983301580 0.527135015 0.000000003
0.992662966 0.527893960 0.000000000
0.503352761 0.513472736 0.000000000
0.503605723 0.513725698 0.000000000
0.504491091 0.514611065 0.000000000
0.510436714 0.513472736 0.002403804
0.518785715 0.512334108 0.002783357
0.523592710 0.512334108 0.002783357
0.523592710 0.512334108 0.002783357
0.532954097 0.512334108 0.002783357
0.542441785 0.515370011 0.002783357
0.550537765 0.517393768 0.003795482
0.556862712 0.520177066 0.001012129
0.564958990 0.520177066 0.000000000
0.576344371 0.520177126 0.001138643
0.581530750 0.521821380 0.000253032
0.591145039 0.521821380 0.002783356
0.603289068 0.517014384 0.002783357
0.607843101 0.508285940 0.002403808
0.614421308 0.502087593 0.001138643
0.617457688 0.495129406 0.000253032
0.634408712 0.491587758 0.000000000
0.648829699 0.487792760 0.000000000
0.675015628 0.492473245 0.001138643
0.709044993 0.501707375 0.002276996
0.746236801 0.513472617 0.001897545
0.786464274 0.524857700 0.001138643
0.827577591 0.530550420 0.002276996
0.866540432 0.535863638 0.002276996
0.900695860 0.540417314 0.001518098
0.931815684 0.549525559 0.001138643
0.966223836 0.556356907 0.001771217
0.989626706 0.563694060 0.001897749
0.994939625 0.565591395 0.000000000
0.538646758 0.559772432 0.000000000
0.538646758 0.559772432 0.000000000
0.538646758 0.559772432 0.000000000
0.543706775 0.559772432 0.000000000
0.549905121 0.559772432 0.002403808
0.551422954 0.559772432 0.003922000
0.563820481 0.561669707 0.002024260
0.565464735 0.560025454 0.003668968
0.576597095 0.562049508 0.003162904
0.581530750 0.567362487 0.002024259
0.591397703 0.564705551 0.001012129
0.603289008 0.567615449 0.000000000
0.611258686 0.567615449 0.000000000
0.617836773 0.569639206 0.000505999
0.628589928 0.569639206 0.005186672
0.634408712 0.566729486 0.005819256
0.645034909 0.560657501 0.005819256
0.652119040 0.551929355 0.003162581
0.657685459 0.544591963 0.001897738
0.667046487 0.543200493 0.000000000
0.681467414 0.534471691 0.000000000
0.695635438 0.529411852 0.001012128
0.722453952 0.534851193 0.002024220
0.755344808 0.543453515 0.003794996
0.792156994 0.553700447 0.000000000
