Assets/Resources/EldamarStudio/100 Horror LUTs Pack/LUTs/cube/Zachamec LUT.cube
LUT_3D_SIZE 5
DOMAIN_MIN 0.000000 0.000000 0.000000
DOMAIN_MAX 0.903226 0.903226 0.903226
0.019608000 0.011765000 0.015686000
0.106641397 0.029728293 0.021252289
0.315243810 0.053636990 0.018975416
0.536622107 0.135483995 0.013788998
0.837318420 0.260467947 0.039342143
0.134345278 0.138266698 0.016698286
0.168374702 0.127513990 0.016698286
0.327640802 0.161543399 0.017330708
0.547122121 0.227956682 0.018595872
0.833902597 0.339531630 0.049841974
0.292346388 0.311321825 0.000000000
0.337507814 0.323466092 0.005566289
0.380644798 0.315243810 0.015053578
0.581783354 0.392789096 0.021379121
0.856040359 0.493864357 0.120050192
0.546616077 0.600506246 0.000000000
0.586084664 0.610626340 0.000632580
0.643010676 0.628589690 0.012144246
0.710183263 0.618090272 0.128020242
0.895509064 0.696268082 0.288931042
0.855281770 0.899809778 0.457305193
0.876913607 0.904364049 0.477292627
0.915496767 0.907653451 0.500316203
0.955850780 0.906261802 0.554585516
0.979379773 0.901074946 0.620746315
0.046425998 0.033649713 0.045793995
0.113219395 0.032384705 0.042884700
0.276027799 0.084756687 0.055281699
0.486274123 0.184187531 0.077546127
0.798102379 0.295129627 0.124351807
0.087033398 0.116128698 0.041871995
0.164199397 0.142947674 0.052371986
0.290069669 0.179886401 0.063757285
0.503099263 0.244022831 0.083491273
0.812397182 0.357242227 0.132574514
0.282859087 0.309045106 0.048703708
0.315243363 0.313978404 0.057558410
0.367868483 0.317267358 0.075648516
0.558633685 0.390891522 0.104111403
0.844022870 0.507653296 0.186717033
0.533839285 0.593421817 0.081087947
0.555091500 0.596963763 0.089057937
0.622138083 0.614927232 0.114231631
0.688045263 0.609993517 0.186084643
0.888298452 0.703858197 0.336369336
0.849335730 0.892852664 0.478557885
0.859962046 0.891966939 0.479442924
0.898798347 0.895508945 0.512207210
0.942314744 0.901454508 0.558886766
0.975837886 0.898165464 0.631119192
0.122959986 0.024161585 0.158886582
0.175205410 0.048070703 0.145477697
0.288425356 0.096773997 0.132067993
0.499431103 0.180898279 0.150158286
0.797343194 0.302339792 0.223150060
0.178115278 0.160783991 0.127134711
0.205312982 0.170651406 0.127513990
0.298797995 0.190638691 0.132447690
0.502719700 0.262871832 0.155344695
0.800885260 0.386337638 0.247058660
0.251106977 0.319797397 0.128146991
0.294244379 0.339405417 0.140290707
0.408728391 0.380644798 0.179886401
0.563187659 0.430360794 0.208475679
0.829854369 0.547501147 0.313599199
0.499304146 0.595825255 0.229601249
0.529664874 0.602024019 0.239341989
0.603921533 0.619355261 0.259456098
0.678810835 0.630486846 0.301075399
0.879190326 0.727514088 0.436432630
0.816698372 0.889943242 0.534598172
0.832764089 0.887286365 0.551296711
0.876154661 0.896394372 0.571283996
0.931435525 0.905249715 0.616824687
0.966350675 0.902972400 0.681973398
0.254016131 0.089310862 0.356230110
0.300822258 0.118026286 0.350917131
0.385578543 0.162555128 0.330550075
0.546489418 0.209993988 0.326881379
0.823276281 0.329538047 0.383554637
0.282732695 0.224288568 0.320303380
0.322707117 0.237697542 0.322959930
0.391777396 0.259708822 0.319670945
0.545224547 0.285515279 0.322580636
0.829727769 0.407969713 0.385452211
0.333839566 0.376723379 0.323213249
0.382289946 0.394686967 0.332068086
0.471220911 0.430360377 0.341555834
0.603668213 0.462492079 0.359645516
0.838709593 0.582795143 0.452118784
0.438457102 0.625933290 0.367995113
0.481973261 0.639594853 0.382036865
0.581657112 0.669956148 0.423656106
0.713219404 0.714105189 0.498671502
0.873624086 0.770398378 0.586590886
0.765591264 0.897785962 0.621505439
0.795445621 0.897406459 0.649209380
0.844149232 0.906894386 0.687286317
0.910183787 0.913472712 0.707020760
0.947754622 0.919291615 0.756735861
0.350410998 0.209487617 0.728905380
0.394307405 0.230486944 0.724604487
0.503604949 0.276913166 0.719038129
0.639341891 0.361416578 0.715496421
0.869829416 0.443896234 0.710562587
0.392030686 0.336748481 0.716128707
0.425047398 0.347501338 0.719797552
0.523466051 0.382542729 0.713851988
0.656925917 0.440480441 0.709930539
0.868817329 0.511574864 0.711701214
0.486780584 0.542441130 0.703478813
0.517267406 0.554585695 0.698671579
0.588614821 0.575837553 0.704743803
0.696900785 0.611385167 0.717140734
0.869702637 0.653636813 0.728272974
0.576344252 0.750790238 0.733333588
0.611385047 0.750664115 0.739405096
0.677925348 0.755091548 0.738140106
0.767109394 0.782163084 0.742947459
0.889436901 0.807337105 0.768880367
0.737887383 0.916761637 0.766856253
0.751296461 0.919670999 0.776976407
0.795951962 0.918026805 0.794939995
0.864136755 0.929411650 0.822896719
0.946868718 0.944085836 0.883111537
