Assets/Resources/EldamarStudio/100 Horror LUTs Pack/LUTs/cube/Zachamec LUT.cube
LUT_3D_SIZE 8
DOMAIN_MIN 0.000000 0.000000 0.000000
DOMAIN_MAX 0.903226 0.903226 0.903226
0.019608000 0.011765000 0.015686000
0.030487094 0.023908548 0.015686000
0.136243090 0.028210096 0.023529001
0.254522294 0.038709641 0.015686000
0.368121386 0.070335187 0.021125805
0.499177724 0.123339735 0.013788744
0.654775560 0.183301702 0.015686000
0.837318420 0.260467947 0.039342143
0.031246092 0.049715545 0.019608000
0.055913642 0.053636547 0.012144452
0.151549652 0.076027997 0.025933001
0.251360089 0.090449445 0.019987354
0.364959002 0.119797185 0.016951453
0.498671740 0.162049085 0.012523999
0.646299958 0.216824800 0.015433456
0.819734156 0.286653757 0.038709641
0.151043281 0.153447092 0.022011001
0.175458193 0.167235643 0.007463548
0.192663088 0.147248179 0.022770096
0.276154637 0.164073452 0.012903354
0.377482563 0.197343200 0.012523903
0.512713730 0.233270183 0.018090002
0.664136589 0.286527276 0.018721998
0.835673690 0.355723858 0.054901913
0.246046990 0.253383636 0.005566002
0.266287267 0.262871653 0.003922000
0.287413180 0.264769197 0.001138644
0.313345999 0.254522264 0.017331002
0.406830817 0.285136074 0.019608000
0.524098754 0.322200924 0.013788744
0.678557873 0.367362201 0.028209923
0.836053073 0.438962430 0.086527780
0.357874572 0.383807391 0.000000000
0.381404191 0.395572364 0.004553996
0.393928111 0.394686997 0.000759097
0.424541384 0.392283171 0.000000000
0.455028564 0.386843383 0.018721998
0.572422683 0.427451372 0.027957186
0.717394292 0.479190171 0.066034466
0.866666734 0.544338942 0.154332817
0.509171426 0.555977464 0.000000000
0.526628733 0.561796188 0.000000000
0.550411344 0.567615449 0.001138645
0.583554447 0.579000831 0.002024260
0.616951466 0.577862263 0.018216176
0.661606431 0.571536958 0.091587722
0.775838017 0.612777054 0.154839009
0.890196025 0.668437660 0.260088414
0.680581808 0.739405274 0.127513811
0.691081524 0.745351017 0.139026269
0.720430255 0.745603561 0.148766533
0.742820859 0.754585862 0.170525178
0.786337733 0.759013295 0.199114531
0.811638236 0.751043856 0.244275555
0.836812317 0.741049528 0.294876814
0.917014480 0.772295952 0.381656885
0.855281770 0.899809778 0.457305193
0.874004066 0.901960373 0.475521564
0.884503663 0.901074946 0.479063570
0.902087033 0.905123174 0.493864775
0.932067931 0.906261802 0.512966216
0.953826547 0.908286035 0.548513532
0.968754053 0.904617071 0.578241467
0.979379773 0.901074946 0.620746315
0.024667548 0.024667548 0.024667548
0.030866545 0.020746548 0.023529001
0.125996187 0.035294000 0.031752355
0.221252546 0.062998444 0.034029450
0.324477911 0.103352085 0.042757645
0.463504255 0.146868929 0.049335804
0.622011304 0.200758830 0.055028737
0.813029408 0.272991627 0.079696365
0.029727997 0.043390542 0.013662547
0.066540092 0.048070639 0.021125998
0.129538536 0.071600541 0.032511454
0.219228283 0.099810548 0.031372905
0.323845536 0.131435886 0.037571095
0.466413915 0.170651481 0.045793738
0.610246837 0.226185992 0.052245282
0.798355281 0.288804650 0.071979508
0.132321090 0.127893746 0.028968997
0.151549652 0.144465640 0.037318356
0.169133201 0.140164196 0.032890998
0.244655624 0.159646109 0.030486995
0.351928890 0.194940001 0.039974805
0.480076015 0.233649820 0.045287900
0.638203859 0.286021620 0.057178903
0.816698253 0.359139711 0.093105502
0.226945281 0.236306280 0.026312549
0.251360059 0.241492733 0.020746451
0.261732906 0.246932626 0.017583549
0.288804263 0.239088818 0.036812000
0.382795393 0.278684169 0.038330097
0.501834214 0.314357907 0.051359743
0.652751446 0.366982549 0.058823537
0.825047433 0.433143616 0.111827798
0.355218023 0.377609074 0.010247001
0.361416817 0.382163197 0.009487810
0.382163286 0.380138904 0.003795094
0.410752714 0.383681387 0.017077899
0.443263590 0.376976728 0.048829734
0.550031781 0.419987023 0.067678630
0.699684024 0.478810728 0.092093468
0.856925786 0.543832839 0.168247804
0.492726207 0.540417373 0.002656546
0.509677470 0.543200612 0.003415545
0.529917657 0.551170468 0.008475995
0.562555015 0.566476882 0.010626087
0.600253046 0.559772313 0.055281278
0.633269787 0.559013307 0.103985019
0.755344868 0.605945468 0.167235792
0.887792230 0.667172670 0.271979958
0.664010525 0.727514565 0.128399625
0.669955552 0.726375759 0.135104373
0.690448642 0.726375818 0.138140172
0.722327709 0.732953787 0.164579108
0.761290252 0.742061973 0.194939882
0.790385723 0.736748815 0.235041067
0.825806320 0.730423987 0.287413090
0.902466655 0.765591383 0.378621161
0.843010664 0.889184237 0.439974487
0.855660796 0.890069664 0.452118963
0.865022361 0.886021316 0.451106936
0.884756386 0.889436960 0.466286957
0.911321938 0.893232107 0.489942968
0.943832994 0.901834011 0.520935833
0.958254397 0.898292005 0.572295964
0.974193633 0.895382583 0.610879362
0.050221100 0.033649903 0.058697093
0.075648546 0.035294000 0.067425907
0.146616012 0.040734001 0.061859999
0.235041186 0.066540092 0.065528356
0.333713174 0.116002284 0.062618896
0.451107085 0.170018896 0.085642010
0.605186641 0.233396471 0.107147187
0.796837568 0.303225905 0.138013825
0.070082545 0.068184994 0.059582904
0.096015446 0.083112001 0.056040548
0.144971102 0.091334544 0.057178997
0.233523086 0.113978542 0.063883640
0.334218621 0.154332906 0.075268999
0.447691441 0.204933554 0.090449445
0.602277160 0.255660802 0.102087542
0.790259540 0.319165230 0.135989979
0.113599092 0.144971102 0.053257097
0.145350635 0.177230015 0.063124545
0.201391101 0.177102998 0.072865099
0.258570254 0.190386102 0.067805350
0.354079276 0.220113903 0.079823099
0.477040112 0.258190840 0.091587998
0.630487263 0.306008786 0.117393799
0.810626090 0.382036746 0.154332906
0.237444997 0.264010191 0.074130453
0.250347733 0.265655011 0.066160545
0.278937191 0.265528172 0.071600445
0.308665186 0.266287267 0.080708295
0.391650975 0.288931161 0.085768551
0.505755663 0.331941456 0.103226088
0.658191204 0.382415920 0.121694930
0.820493519 0.454269290 0.175585046
0.340670377 0.381530464 0.068058088
0.357494801 0.390512645 0.073118545
0.386211187 0.390132993 0.082985193
0.414421201 0.393928081 0.084882647
0.447438389 0.385325581 0.100189805
0.548007667 0.430360734 0.120430082
0.701707840 0.490196258 0.153194278
0.853004336 0.563820124 0.227324620
0.500948727 0.556230426 0.101328351
0.512460768 0.558759928 0.101328544
0.532574415 0.563061416 0.101960734
0.572549164 0.567741632 0.117267378
0.605313182 0.572802067 0.136622369
0.640986800 0.569259882 0.173940733
0.761669934 0.619354546 0.232764453
0.885009587 0.682099640 0.325996161
0.663251340 0.741176486 0.221758455
0.670841336 0.742947221 0.219860539
0.701834381 0.745857179 0.236305848
0.732574463 0.748893321 0.246426105
0.766982496 0.752814531 0.265528262
0.791650891 0.748513579 0.299051523
0.824920535 0.742567718 0.332827240
0.908286035 0.780391932 0.430487067
0.852371573 0.895635605 0.500569284
0.860088706 0.899557233 0.509424031
0.866793215 0.900062919 0.513092518
0.893991113 0.898545146 0.523592651
0.914863884 0.905123353 0.541049838
0.943073869 0.906008959 0.567235947
0.956862330 0.905755699 0.600379467
0.976090848 0.898924589 0.640733480
0.081973277 0.035800360 0.112839922
0.117267177 0.030613905 0.122327633
0.167109534 0.050853997 0.109930634
0.228209913 0.076280639 0.108791992
0.341049731 0.113851830 0.112840094
0.455914199 0.165212095 0.117267370
0.614547849 0.221505284 0.148639992
0.793421745 0.306641340 0.193801433
0.112966634 0.085641839 0.096521534
0.132574528 0.097027086 0.093738280
0.168248087 0.102466889 0.104111187
0.231625274 0.115749173 0.098545186
0.333459556 0.149904847 0.104870282
0.447438002 0.197217181 0.119291633
0.598482132 0.247817725 0.146995470
0.782036364 0.330170512 0.195446059
0.151802376 0.158380836 0.098924637
0.175205275 0.166603372 0.102846541
0.209360719 0.180391833 0.100822277
0.262239188 0.196837723 0.105123632
0.354965001 0.224668190 0.115243636
0.461733252 0.266919464 0.132954091
0.619987369 0.330043882 0.173687577
0.792663038 0.410752624 0.223529249
0.203542292 0.251233280 0.090954922
0.221505180 0.258191288 0.096521631
0.269323289 0.279443383 0.117773630
0.325236917 0.296647280 0.126248926
0.394054085 0.314231604 0.138393179
0.489057481 0.351423264 0.148260534
0.637697816 0.399367183 0.182542548
0.807337224 0.478431284 0.243264079
0.327893555 0.384440392 0.127640799
0.342567712 0.394560367 0.128146380
0.375079185 0.398102820 0.138013840
0.417330652 0.403162450 0.148513466
0.448197007 0.404174805 0.157115459
0.552308857 0.447817743 0.181783631
0.691207886 0.506514668 0.222517535
0.838077247 0.579253793 0.295888603
0.470461458 0.544212222 0.179253623
0.482099682 0.549778283 0.179633260
0.513599217 0.555344999 0.182163373
0.552308619 0.568753958 0.194433644
0.595066369 0.578494489 0.208602160
0.630992949 0.573308051 0.236053258
0.748639822 0.631751776 0.292979151
0.878557980 0.696141601 0.391904056
0.641366601 0.727767169 0.279064208
0.649715483 0.737001777 0.288045347
0.669702768 0.726502359 0.289816469
0.705882192 0.738393486 0.304364562
0.743832827 0.748007655 0.317773432
0.783934236 0.745983362 0.349019736
0.808349252 0.744465172 0.386717141
0.896900713 0.786464334 0.469955742
0.827071548 0.895761967 0.516634822
0.833017290 0.893738031 0.523592710
0.848577082 0.890702248 0.527514100
0.872738421 0.895129740 0.543959677
0.903099120 0.897912443 0.564958692
0.929158628 0.906135261 0.588361919
0.948640049 0.904617071 0.623655856
0.967615843 0.902213573 0.657432199
0.167741999 0.028969193 0.202150390
0.184186995 0.048956353 0.197090447
0.216192275 0.075142190 0.192030087
0.265528262 0.109297641 0.182036534
0.358760178 0.133080184 0.177735373
0.469829470 0.173814178 0.187602729
0.627197623 0.229348570 0.208096281
0.813788414 0.310436428 0.259582549
0.182289541 0.112839893 0.172675550
0.183301896 0.131056204 0.173814192
0.226944640 0.135230735 0.176723644
0.269955635 0.152814999 0.170019090
0.341429174 0.166476741 0.168880641
0.465654820 0.203668281 0.175964385
0.617457211 0.253257543 0.198734969
0.792536438 0.330929637 0.254522324
0.210752904 0.198228985 0.169259995
0.236685887 0.208096460 0.171157658
0.251612991 0.214674294 0.166856185
0.291967452 0.223276079 0.172042832
0.368121207 0.231878281 0.169007182
0.480455637 0.274003893 0.189374089
0.634282410 0.328146666 0.224541366
0.807463467 0.411258787 0.281087995
0.242125198 0.287539184 0.170271829
0.266034335 0.292220205 0.184566543
0.301201642 0.297660083 0.180771381
0.349651814 0.322707266 0.187856093
0.416192114 0.333586276 0.188488275
0.516002536 0.372295946 0.214294553
0.653383911 0.424161643 0.248071000
0.804806828 0.506641328 0.320809603
0.299303979 0.400379390 0.179886386
0.322453707 0.407463372 0.185578987
0.357368886 0.414421290 0.192536175
0.429475009 0.454396188 0.223909184
0.495129585 0.471600175 0.244149178
0.573687911 0.487919182 0.260974109
0.693991184 0.537254632 0.305123150
0.836938560 0.609740794 0.376597196
0.437444538 0.564832449 0.228083730
0.451612830 0.570145369 0.237318009
0.497153610 0.579253793 0.266034275
0.546742320 0.591397464 0.282099813
0.602909505 0.604174733 0.303984702
0.642757893 0.609993458 0.324731201
0.758760035 0.658949971 0.383554727
0.872106135 0.719417691 0.459456027
0.615812540 0.737128556 0.369386345
0.637191713 0.742314994 0.375458658
0.657432199 0.745856941 0.383428454
0.689057529 0.748260319 0.390385568
0.739531696 0.756103516 0.400379658
0.773308039 0.760657549 0.422643960
0.804554105 0.759898841 0.454648644
0.899177670 0.801644206 0.537887335
0.806831121 0.894117653 0.571410418
0.815053761 0.896521151 0.581783533
0.828210115 0.897659779 0.587223411
0.859076679 0.901580811 0.602403343
0.886780620 0.904490948 0.613535762
0.922706783 0.909930408 0.638962269
0.942694306 0.912207425 0.662365735
0.960784256 0.911574781 0.693485200
0.232763723 0.074130468 0.310689181
0.249589175 0.085136183 0.309170991
0.287160009 0.109424472 0.304870456
0.335736454 0.138519898 0.295635581
0.392156661 0.169512734 0.289942920
0.496900469 0.193801731 0.285388976
0.643769979 0.240986571 0.311827689
0.820240438 0.327767044 0.347881019
0.241745651 0.141556278 0.279190272
0.256546259 0.149399281 0.288045883
0.287919104 0.162302524 0.285768628
0.336622268 0.178494468 0.280455619
0.385451913 0.202276826 0.270208806
0.488677979 0.220746472 0.278304636
0.628209949 0.260214925 0.295888990
0.810246766 0.337760627 0.336369455
0.274130106 0.238709465 0.276027560
0.290322483 0.241619274 0.281846911
0.320177168 0.246046826 0.276407123
0.349778354 0.255914271 0.273624450
0.403162628 0.274003983 0.274509549
0.503731787 0.291334569 0.279822439
0.653383911 0.337381274 0.314990431
0.819101751 0.425932974 0.360151708
0.303731978 0.309424609 0.279696465
0.322580487 0.322327435 0.280202091
0.356482983 0.335990012 0.277419358
0.384946376 0.348639995 0.274256468
0.441113114 0.362175643 0.283617646
0.529791415 0.378747374 0.292852610
0.662997842 0.427830517 0.320176840
0.819860816 0.513851941 0.391397715
0.331182659 0.437950909 0.285768539
0.354205906 0.441366374 0.298545450
0.391144842 0.444528759 0.309677392
0.446679085 0.464642912 0.317647159
0.507020712 0.490069568 0.329917431
0.592662811 0.512460828 0.348893166
0.713092744 0.561416566 0.386843711
0.835800111 0.634534955 0.455660760
0.407084465 0.573308229 0.314358205
0.423149914 0.582669020 0.319164991
0.461227149 0.597596288 0.331435651
0.516382039 0.614042103 0.357622087
0.600379944 0.652751446 0.409613997
0.677798986 0.665528417 0.446046442
0.768500686 0.696647644 0.476407140
0.867045820 0.744085550 0.548387110
0.550664127 0.743200302 0.388488531
0.567235589 0.744212508 0.394307196
0.601138592 0.749019563 0.421126038
0.655407965 0.755977094 0.458823740
0.719165087 0.770651460 0.501454711
0.772801816 0.779000998 0.519924223
0.803921521 0.781277716 0.539658487
0.899304211 0.822390914 0.609487355
0.777735472 0.893737853 0.618722260
0.785452425 0.900316060 0.626691937
0.805818796 0.898671567 0.643896341
0.830233574 0.901454687 0.658696830
0.857938051 0.907653093 0.667804837
0.903352439 0.908159554 0.686527431
0.934092343 0.915623128 0.712460339
0.954838753 0.915243626 0.739531636
0.303225994 0.129032284 0.505123556
0.321694821 0.134597987 0.502087116
0.360405117 0.149525285 0.494370729
0.413788915 0.178368285 0.493611544
0.480961382 0.208222568 0.477925271
0.552941322 0.252372026 0.475015819
0.690701962 0.273118556 0.472359538
0.832510591 0.340923607 0.489816248
0.305123538 0.184566826 0.479949296
0.331435978 0.191145003 0.481720120
0.361923099 0.197849348 0.473244548
0.411132276 0.217710182 0.463756800
0.470967740 0.246299922 0.466666818
0.548513770 0.272486001 0.462745070
0.682353020 0.300062805 0.462492257
0.820999146 0.359645903 0.479190558
0.343959361 0.280328780 0.473371267
0.354206294 0.288931102 0.475268811
0.392536193 0.291208208 0.473244548
0.433017373 0.306894094 0.466034025
0.491714239 0.325616360 0.462998152
0.563693643 0.349146277 0.466919541
0.693738341 0.371031076 0.471726716
0.830233872 0.438836008 0.491461277
0.382795632 0.385199279 0.457811475
0.396457970 0.390259236 0.461986005
0.418342918 0.398861527 0.453004390
0.456419975 0.404300928 0.456672847
0.514864087 0.422138005 0.460088462
0.579000711 0.444149226 0.464010179
0.704237878 0.459329545 0.469702810
0.828968942 0.525869727 0.504996896
0.408855200 0.482226163 0.479063839
0.431372732 0.487792462 0.480075985
0.458317548 0.498671472 0.477166355
0.513472557 0.524731159 0.482732475
0.559139729 0.535483479 0.474762559
0.616065979 0.555471003 0.490196019
0.726881742 0.577862382 0.504617333
0.846932590 0.641618967 0.547627807
0.450348169 0.652498245 0.510183513
0.469955742 0.653510332 0.516002357
0.503731966 0.654016376 0.515622735
0.559772193 0.659203112 0.523339808
0.629348874 0.671979725 0.540037572
0.690322459 0.697912455 0.558380723
0.776849806 0.716508687 0.577608824
0.869323075 0.763693571 0.622390926
0.545983255 0.760657489 0.505376220
0.554964840 0.759013295 0.522201002
0.582795620 0.761416614 0.521948278
0.627830625 0.769639194 0.542314827
0.683997333 0.783554554 0.566729546
0.759013355 0.807337284 0.621505320
0.821125805 0.822770596 0.663883507
0.898924649 0.846047103 0.698545039
0.732827604 0.900189340 0.642504573
0.740923285 0.900822103 0.643263578
0.753067374 0.905755699 0.653004110
0.786084890 0.908539057 0.683617771
0.835167527 0.912840247 0.722074628
0.883491516 0.917267799 0.759772301
0.913725317 0.918026805 0.774699926
0.945098162 0.926755071 0.793675065
0.350410998 0.209487617 0.728905380
0.368500710 0.216824785 0.725616574
0.405692816 0.232764035 0.724351466
0.464516282 0.258823633 0.726375759
0.543200314 0.299304307 0.718279362
0.621378660 0.346489459 0.714737356
0.716635227 0.402403593 0.716508567
0.869829416 0.443896234 0.710562587
0.359012991 0.255154848 0.709550619
0.378241658 0.264642298 0.711954534
0.415053755 0.273118168 0.715749502
0.473877162 0.299809992 0.711448312
0.543453336 0.329032391 0.711321771
0.622264087 0.371663421 0.708159268
0.720430255 0.416951329 0.706387937
0.860974193 0.461226940 0.708918273
0.399114817 0.360783964 0.710815728
0.416824996 0.363314241 0.718532562
0.439721912 0.379885882 0.718279541
0.497786194 0.391018510 0.710056722
0.561669767 0.417583793 0.707273662
0.641239643 0.451612949 0.710436523
0.726122499 0.493611425 0.708412349
0.869323432 0.526754975 0.712207377
0.451233089 0.480961382 0.700695515
0.464010417 0.485894948 0.702972531
0.492725968 0.490322411 0.705755353
0.538519859 0.505629063 0.698924720
0.589879930 0.522707045 0.701201379
0.657178998 0.544592083 0.699936688
0.736495912 0.572928309 0.703225791
0.861733019 0.599620223 0.708285630
0.500442624 0.586084604 0.708285570
0.521821797 0.594560146 0.714990258
0.551170051 0.608475506 0.708791673
0.590638697 0.618975103 0.704869986
0.637824178 0.635040939 0.702846408
0.694117665 0.652751625 0.711954534
0.762049198 0.671979845 0.716002464
0.871220767 0.694623411 0.723592699
0.564958811 0.713345647 0.728526115
0.581150949 0.716002226 0.731056154
0.602023661 0.715243161 0.731309414
0.641872168 0.722454011 0.732447565
0.695129991 0.743959248 0.735610247
0.740290523 0.755344748 0.734598100
0.796710670 0.771030724 0.744971454
0.880834818 0.786084712 0.752688050
0.617457449 0.841619074 0.755470932
0.633649409 0.842504799 0.755471110
0.653510511 0.836432815 0.752308428
0.691207886 0.833776116 0.759266078
0.735104501 0.834282041 0.762049139
0.788741469 0.842125237 0.769386292
0.838583410 0.854016244 0.779633164
0.909297824 0.864262938 0.795445561
0.737887383 0.916761637 0.766856253
0.748260498 0.923339784 0.768500865
0.753067672 0.918152928 0.777229369
0.780771375 0.919544578 0.786084354
0.811764717 0.920682907 0.796963811
0.849968553 0.927134693 0.811764657
0.900316000 0.931055963 0.853257298
0.946868718 0.944085836 0.883111537
