Assets/Resources/EldamarStudio/100 Horror LUTs Pack/LUTs/cube/Zachamec LUT.cube
DOMAIN_MIN 0 0 0
DOMAIN_MAX 1 1 1
LUT_3D_SIZE 32
0.019608000 0.011765000 0.015686000
0.016571613 0.014800613 0.015686000
0.015686000 0.015686000 0.015686000
0.019481160 0.018215999 0.015686000
0.030487094 0.023908548 0.015686000
0.054775868 0.026944935 0.015686000
0.079063997 0.029981323 0.018216323
0.106641397 0.029728293 0.021252289
0.136243090 0.028210096 0.023529001
0.163567513 0.031246485 0.023528999
0.196710870 0.031373002 0.020619871
0.226059243 0.033396740 0.017583745
0.254522294 0.038709641 0.015686000
0.284883082 0.047564998 0.015939033
0.315243810 0.053636990 0.018975416
0.340796977 0.059708994 0.019608000
0.368121386 0.070335187 0.021125805
0.399114519 0.085515566 0.022896584
0.432511002 0.100695983 0.019860964
0.463124752 0.113093011 0.016824642
0.499177724 0.123339735 0.013788744
0.536622107 0.135483995 0.013788998
0.570524514 0.153700009 0.019481488
0.616065741 0.171916813 0.016445097
0.654775560 0.183301702 0.015686000
0.693991303 0.196584329 0.018468991
0.737508118 0.215307072 0.024541128
0.786084831 0.236559421 0.030613897
0.837318420 0.260467947 0.039342143
0.887160301 0.288298368 0.059076145
0.933966160 0.321315557 0.088171788
0.976471007 0.360783994 0.121569000
0.013536001 0.014800613 0.021758001
0.019608000 0.014800613 0.009614000
0.014421388 0.013535774 0.016065774
0.017710386 0.017710386 0.023782386
0.030487094 0.026944933 0.028209841
0.054775868 0.029981324 0.009614000
0.079063997 0.030487388 0.012144323
0.106641397 0.034661997 0.015180290
0.137001991 0.036559388 0.018216096
0.166603118 0.037318487 0.020493386
0.199747235 0.040354129 0.020493386
0.227071390 0.044528611 0.021631740
0.253383636 0.048576646 0.020619646
0.281593621 0.053636998 0.018975355
0.309171021 0.059708990 0.022011029
0.334724784 0.068184800 0.017836617
0.365085363 0.080961376 0.016571613
0.398482114 0.096394576 0.018721990
0.429475397 0.106767982 0.022896577
0.465654373 0.121948361 0.019860964
0.496521115 0.132447630 0.016824648
0.532574117 0.143579736 0.014800613
0.570397973 0.159645498 0.016571613
0.613029361 0.174952433 0.016445097
0.654016435 0.190891892 0.020239996
0.693991303 0.205692366 0.023149673
0.737002075 0.223908737 0.026059322
0.783048451 0.242631420 0.024541123
0.834282041 0.266539961 0.035926878
0.875268757 0.287286401 0.054269314
0.918405950 0.315243572 0.083870783
0.967362642 0.354712009 0.121569000
0.013915226 0.019987000 0.021378774
0.019987226 0.019987000 0.015685998
0.023908999 0.019987000 0.012143999
0.022896998 0.020746548 0.019987226
0.035167545 0.029981226 0.027324226
0.061227094 0.033017162 0.011385066
0.083365001 0.035674002 0.010373322
0.112586692 0.038962997 0.013409289
0.141935423 0.045035001 0.015686000
0.169512779 0.047818001 0.017330712
0.198481828 0.052877899 0.021758227
0.221758738 0.055914026 0.019734487
0.249209389 0.060720902 0.021378774
0.278557777 0.064009994 0.019354967
0.305882156 0.070081994 0.018595578
0.337254584 0.078557797 0.018722005
0.363061190 0.089183994 0.017204192
0.396331340 0.105502561 0.015939208
0.426692218 0.117646977 0.014421004
0.462618798 0.128020361 0.018595580
0.499051243 0.141302988 0.017457226
0.531941772 0.151675761 0.016698128
0.570018530 0.165717497 0.017710261
0.606451571 0.180897906 0.015686000
0.650980055 0.196078271 0.018089769
0.693232179 0.214041635 0.019987103
0.737002075 0.232510835 0.023529287
0.782542408 0.249082878 0.030360326
0.826944649 0.274762750 0.036305878
0.878557742 0.300821930 0.055534605
0.920429885 0.323719203 0.086021319
0.973307967 0.359392792 0.128020227
0.019481160 0.031119321 0.019608000
0.025553161 0.028589323 0.016571613
0.035800096 0.031119321 0.016951161
0.035040997 0.032384161 0.014421161
0.043390092 0.038077388 0.020872613
0.069829091 0.041113224 0.014927001
0.094623476 0.045414317 0.015433321
0.117393851 0.051360156 0.017204449
0.148513362 0.055914160 0.017963162
0.172802150 0.060974162 0.016951164
0.198734865 0.065780997 0.020240162
0.222517505 0.071094409 0.021505261
0.245287985 0.075269163 0.020746354
0.278304905 0.078684323 0.020619871
0.306641400 0.084756322 0.017583745
0.334977955 0.093231797 0.016951161
0.366603196 0.102593154 0.014674192
0.395192713 0.114104733 0.017710416
0.426186174 0.128020138 0.011132034
0.463377774 0.138899356 0.012144165
0.496015310 0.149904996 0.014421161
0.532448113 0.162049264 0.016445160
0.568880200 0.174319804 0.019608000
0.603415728 0.189500213 0.017710257
0.647185445 0.204680279 0.015433289
0.688930988 0.220113635 0.019481488
0.735484123 0.240354061 0.017457096
0.782542408 0.255534440 0.029601274
0.822896600 0.281340808 0.041872147
0.870714545 0.306135148 0.057305377
0.922327518 0.334345192 0.085136175
0.976596832 0.364706010 0.129538164
0.031246092 0.049715545 0.019608000
0.037697546 0.045161545 0.016951161
0.050854091 0.045793999 0.018216224
0.060088769 0.051359933 0.018216452
0.055913642 0.053636547 0.012144452
0.080202416 0.056672931 0.021252064
0.105502866 0.062239092 0.025300322
0.129538253 0.068817250 0.026691999
0.151549652 0.076027997 0.025933001
0.175838441 0.076027997 0.019861000
0.200126544 0.079696223 0.019228453
0.224794507 0.084376961 0.018849000
0.251360089 0.090449445 0.019987354
0.280708104 0.096521512 0.023782065
0.310562819 0.102593541 0.021378970
0.336875588 0.111068733 0.018849000
0.364959002 0.119797185 0.016951453
0.395192713 0.129285112 0.012397415
0.428589970 0.138393521 0.015433028
0.466034383 0.150284559 0.012903353
0.498671740 0.162049085 0.012523999
0.528652728 0.174193248 0.013029999
0.565085471 0.186464489 0.018849000
0.601518273 0.201644912 0.018849000
0.646299958 0.216824800 0.015433456
0.690828741 0.231625199 0.013788992
0.728273511 0.247185066 0.020493483
0.779885828 0.262365431 0.023529094
0.819734156 0.286653757 0.038709641
0.864262998 0.310815722 0.058317613
0.913599014 0.333965629 0.082859084
0.965211451 0.364326447 0.119291909
0.061606862 0.070967935 0.019608000
0.070714481 0.077039935 0.019608000
0.077166483 0.070335165 0.021252161
0.083997771 0.071347162 0.023023065
0.086274415 0.077925324 0.021252066
0.095382802 0.074888930 0.015180064
0.112081252 0.080455638 0.019228322
0.132574648 0.083238862 0.020620001
0.154585943 0.085515834 0.020620001
0.178874046 0.088172004 0.019860998
0.203162804 0.096900873 0.016698129
0.229475185 0.100948602 0.014168325
0.257432282 0.105629057 0.013915354
0.286780894 0.111701131 0.017710065
0.304996848 0.117773890 0.029854828
0.334851593 0.126249120 0.017837139
0.367235988 0.133838937 0.014294805
0.400758713 0.141682148 0.015180063
0.428589940 0.153573915 0.015433028
0.456420362 0.165464938 0.012903353
0.489563733 0.175711662 0.015559996
0.521948159 0.186337858 0.016572002
0.555977106 0.198608488 0.012777001
0.592409909 0.213788897 0.012777001
0.633396626 0.228969276 0.015053708
0.679696381 0.242757857 0.013788747
0.724731088 0.256419927 0.014800997
0.764705479 0.274509430 0.026565481
0.813662350 0.289689809 0.034914754
0.858444035 0.312207371 0.050853945
0.901454628 0.335989892 0.072232634
0.937887073 0.361290067 0.101075135
0.107147634 0.112460315 0.014548002
0.108665571 0.113472313 0.014548002
0.115622967 0.115243316 0.016698226
0.121695310 0.109803796 0.018469002
0.125616640 0.112334087 0.018089551
0.128273249 0.109297700 0.014168324
0.137381643 0.103731647 0.013156325
0.155851007 0.108159706 0.017836999
0.175585419 0.109804220 0.019608000
0.194560662 0.112839833 0.019607998
0.216319054 0.119164869 0.016698129
0.242631570 0.124225251 0.015686000
0.268817306 0.128399640 0.014294676
0.295888722 0.134724677 0.015939033
0.318659306 0.143074155 0.021252505
0.346489310 0.149146318 0.023782680
0.375332236 0.159645632 0.016825000
0.407463580 0.168374211 0.016951330
0.436685592 0.178621262 0.013156319
0.469070673 0.188235655 0.010373031
0.503985047 0.198481888 0.014927414
0.537634611 0.209614113 0.020619871
0.569766104 0.223276302 0.019101685
0.608602166 0.236052901 0.014294676
0.651866198 0.246679276 0.012017969
0.694623590 0.264136642 0.018722301
0.740417182 0.280708313 0.023403060
0.783934057 0.298924297 0.033523306
0.826312304 0.317014456 0.045540817
0.871347308 0.337507576 0.063504376
0.917900085 0.364452809 0.089437194
0.961163938 0.393674970 0.123339638
0.134345278 0.138266698 0.016698286
0.137634695 0.139911413 0.006831295
0.150158390 0.144844696 0.013915226
0.151170075 0.144844696 0.013156001
0.155724078 0.142188534 0.012397002
0.158254400 0.139152467 0.010626229
0.164200023 0.135230690 0.011765000
0.168374702 0.127513990 0.016698286
0.188868001 0.132068381 0.019734289
0.204933792 0.136875212 0.017963290
0.225933149 0.141176417 0.015053841
0.249589249 0.143579960 0.014041712
0.274636626 0.148893043 0.015180065
0.299177736 0.155218020 0.015686000
0.327640802 0.161543399 0.017330708
0.350157976 0.171536982 0.016319003
0.382036567 0.179127187 0.014800811
0.410879523 0.190512270 0.015939286
0.442251742 0.199620679 0.013915288
0.477040082 0.207084343 0.013915349
0.507653713 0.217836946 0.013535736
0.547122121 0.227956682 0.018595872
0.579886258 0.242504478 0.020240003
0.620872915 0.256166697 0.017203998
0.659962118 0.269322991 0.018342577
0.705502868 0.281214356 0.019481631
0.748766184 0.301454693 0.030613642
0.794307292 0.319670677 0.039721731
0.833902597 0.339531630 0.049841974
0.878051579 0.359645635 0.072359376
0.919671059 0.383048296 0.097533569
0.968248308 0.413409293 0.133965999
0.151043281 0.153447092 0.022011001
0.156356767 0.157242388 0.005313003
0.168627769 0.161543429 0.005566002
0.180012867 0.167615101 0.013156000
0.175458193 0.167235643 0.007463548
0.181530863 0.164200038 0.007084097
0.186085001 0.159645781 0.009614225
0.188868001 0.154838592 0.016698284
0.192663088 0.147248179 0.022770096
0.210879102 0.156356573 0.016698092
0.230486959 0.160404876 0.012776872
0.251486510 0.162176102 0.012523903
0.276154637 0.164073452 0.012903354
0.297659993 0.173181131 0.015433033
0.329538286 0.177229509 0.014927098
0.353953093 0.187476084 0.014041713
0.377482563 0.197343200 0.012523903
0.411511958 0.206451580 0.010752508
0.445034921 0.215559989 0.016698001
0.479696661 0.222644106 0.019228259
0.512713730 0.233270183 0.018090002
0.543327153 0.245414183 0.018595872
0.582795560 0.257431686 0.015686000
0.624667823 0.271347106 0.015686000
0.664136589 0.286527276 0.018721998
0.704743803 0.302466750 0.025553249
0.750284255 0.317647159 0.032131970
0.795825303 0.335610151 0.041239634
0.835673690 0.355723858 0.054901913
0.874383152 0.380012244 0.077166356
0.919670701 0.402023762 0.105882667
0.959139884 0.423276186 0.133207083
0.190512449 0.186843500 0.015938995
0.193548068 0.192915499 0.003795002
0.196710780 0.192409799 0.000000002
0.199240997 0.192409828 0.003035999
0.199746996 0.194560051 0.007463545
0.205818996 0.191524446 0.004427934
0.206831023 0.183428168 0.006578159
0.207084015 0.177862212 0.014547506
0.210879102 0.174573362 0.022770090
0.226059496 0.171536982 0.019734478
0.241366357 0.177735507 0.013662484
0.256799757 0.181657270 0.013788739
0.276913643 0.184566855 0.015559515
0.303732008 0.188361526 0.015433031
0.328019977 0.197469920 0.012397424
0.357495099 0.208728492 0.014294678
0.384313881 0.217836484 0.017077710
0.411511958 0.224667579 0.019860897
0.447944045 0.233775988 0.022896513
0.478684247 0.242884368 0.023275997
0.513092935 0.255661249 0.017710263
0.549146235 0.269702971 0.013029870
0.585831940 0.281720489 0.015686000
0.625300407 0.290828884 0.015686002
0.667172551 0.304743648 0.015686002
0.710815907 0.321315318 0.020113662
0.756357014 0.338899553 0.029095579
0.801897407 0.354079902 0.038203962
0.847438395 0.372042924 0.063251272
0.885515571 0.399240583 0.093358614
0.922959983 0.429474682 0.123972192
0.968247473 0.453636974 0.148387492
0.200885877 0.199873745 0.009867001
0.206831351 0.205945745 0.009360997
0.205565974 0.214167967 0.001517999
0.212144166 0.212902993 0.000000000
0.220746413 0.211384878 0.002024001
0.224288747 0.215938926 0.001518065
0.230360746 0.212903321 0.003542451
0.232764021 0.207843021 0.004933871
0.234787971 0.204047993 0.011258773
0.241366357 0.198861375 0.016824609
0.244907990 0.195825726 0.010879131
0.260088384 0.199873477 0.012903126
0.278684407 0.205186650 0.014547646
0.304744035 0.212017730 0.013029840
0.337001830 0.218469277 0.015306551
0.361290455 0.227577671 0.019481124
0.393674850 0.237697542 0.018469002
0.424161851 0.245793432 0.016698129
0.453763783 0.254901856 0.017457033
0.487413108 0.266792864 0.017710000
0.517899871 0.276027739 0.015812743
0.552308381 0.288171977 0.012776870
0.588614643 0.300316006 0.015812512
0.622517824 0.312207788 0.018595871
0.664263427 0.325869560 0.018595871
0.706767797 0.342441201 0.021378860
0.751296520 0.360151947 0.029981062
0.799241304 0.375332296 0.043896437
0.844781637 0.393168837 0.068943784
0.885009468 0.413156033 0.096268147
0.923972130 0.440227419 0.123845577
0.971536875 0.466539979 0.146110132
0.222138241 0.224161983 0.007843000
0.232258245 0.230233967 0.003795004
0.231878459 0.234408736 0.003542000
0.231372401 0.239721507 0.001265161
0.242757797 0.235546947 0.002024256
0.249083191 0.236685246 0.002024256
0.252624989 0.239215568 0.000506066
0.257052690 0.237824246 0.001897744
0.260088414 0.234408498 0.002656841
0.263124466 0.228336498 0.009234780
0.266160637 0.225173861 0.011891258
0.277292758 0.224161983 0.013915253
0.294750154 0.228336230 0.016571611
0.317141265 0.236559004 0.013788740
0.338140368 0.244402230 0.015053578
0.370398313 0.252878040 0.018469255
0.393168926 0.258950055 0.021505261
0.426438719 0.267045826 0.017710255
0.456546932 0.276154250 0.017710254
0.485389382 0.288045287 0.015686000
0.518785715 0.296394259 0.013788744
0.549272537 0.307400107 0.012776870
0.584060729 0.320303231 0.015686000
0.625047445 0.328652531 0.016824648
0.667299509 0.343073934 0.027703993
0.707020938 0.359645575 0.027703993
0.747248113 0.377862245 0.034535121
0.789753258 0.394560397 0.051233687
0.835673749 0.414421231 0.072992042
0.875901341 0.432637662 0.098545186
0.912333965 0.453637093 0.127387568
0.956356525 0.478684515 0.153193995
0.246046990 0.253383636 0.005566002
0.254775643 0.257178634 0.001771000
0.260720879 0.259961754 0.001138644
0.263630420 0.262871653 0.001265161
0.266287267 0.262871653 0.003922000
0.273118556 0.260594338 0.003922000
0.277166307 0.261479974 0.002530322
0.283617705 0.264010280 0.001138644
0.287413180 0.264769197 0.001138644
0.290828437 0.259835631 0.003795487
0.291587502 0.257811397 0.008602356
0.302719891 0.255660921 0.013535999
0.313345999 0.254522264 0.017331002
0.334345430 0.260341287 0.014800614
0.348260641 0.267678678 0.015686000
0.377229422 0.276786774 0.018089805
0.406830817 0.285136074 0.019608000
0.429348171 0.290069252 0.018975426
0.461733282 0.299683630 0.018469358
0.490702361 0.311574638 0.021378929
0.524098754 0.322200924 0.013788744
0.558507264 0.331309050 0.013788998
0.589626968 0.346362889 0.017204149
0.634155571 0.354458898 0.020240286
0.678557873 0.367362201 0.028209923
0.721062899 0.381656975 0.042125285
0.756989002 0.399873644 0.044655219
0.792789102 0.418089628 0.062239233
0.836053073 0.438962430 0.086527780
0.877419353 0.461859375 0.114105202
0.914737821 0.481847167 0.140164465
0.951422930 0.503352642 0.173307925
0.265022010 0.280961066 0.000000000
0.268564433 0.281467050 0.000000000
0.275395244 0.281720102 0.001897742
0.285768360 0.282479197 0.003668968
0.296647996 0.285389066 0.004174968
0.296647996 0.285389066 0.004174968
0.299177736 0.285642028 0.004428000
0.307147056 0.286780745 0.003668968
0.316761196 0.290069968 0.004428000
0.322833985 0.293105572 0.004428001
0.321695179 0.292979032 0.006831129
0.329285264 0.290955305 0.009108225
0.340670466 0.288172424 0.011511968
0.344212085 0.284883052 0.012017968
0.362428844 0.287919432 0.015053578
0.391650796 0.295256227 0.018089805
0.422011197 0.304870188 0.020113999
0.449082553 0.314358026 0.019481422
0.476406991 0.326502085 0.016445043
0.507020772 0.338899106 0.025047688
0.542314708 0.351296484 0.022391267
0.581024289 0.363947123 0.014548030
0.617836475 0.379127502 0.020873016
0.660467803 0.391398042 0.030107906
0.702466547 0.405566275 0.037192028
0.743832946 0.419355035 0.046932619
0.782796085 0.432764113 0.063124962
0.816192389 0.450980097 0.078304566
0.856546581 0.471346825 0.106008612
0.897280157 0.495382190 0.138646305
0.937254786 0.522580206 0.174826145
0.976723969 0.546869040 0.205186963
0.292346388 0.311321825 0.000000000
0.301454782 0.317393810 0.000000000
0.304996610 0.320050567 0.000000000
0.313092709 0.319924057 0.000632584
0.324098855 0.318911940 0.001391583
0.327007949 0.321821809 0.007210577
0.329538286 0.324351460 0.009740900
0.337507814 0.323466092 0.005566289
0.345097810 0.323972374 0.002909678
0.341049939 0.329538316 0.010499993
0.355850846 0.326754928 0.007590124
0.355091542 0.324351639 0.003795004
0.361543268 0.322454393 0.004174588
0.371537209 0.321315795 0.008981584
0.380644798 0.315243810 0.015053578
0.401264757 0.318279594 0.018089805
0.428083181 0.328652561 0.022643996
0.454775125 0.341302961 0.025553415
0.479443431 0.350790828 0.022517012
0.515117109 0.365718186 0.008349344
0.546489418 0.380265474 0.015939595
0.581783354 0.392789096 0.021379121
0.620872855 0.403415471 0.029981395
0.666413307 0.418595910 0.042125411
0.704490542 0.430866390 0.051360272
0.744971275 0.443643302 0.059835710
0.786337793 0.457305878 0.073244631
0.825300813 0.478305191 0.099556923
0.856040359 0.493864357 0.120050192
0.894244134 0.512080789 0.143200144
0.935483932 0.536622405 0.175584733
0.979759574 0.568121374 0.220366567
0.324477792 0.348892778 0.000000000
0.333586186 0.354965389 0.000000000
0.340543777 0.356736392 0.000000000
0.343832761 0.359519452 0.000000000
0.351423234 0.358760118 0.000000000
0.354458869 0.357748538 0.002024004
0.364705920 0.355977267 0.007969517
0.362808615 0.359013289 0.006072199
0.370398611 0.358254611 0.000000000
0.374193579 0.361037612 0.004174684
0.381277651 0.360784531 0.004048134
0.390385777 0.357748121 0.003036004
0.389626592 0.354712158 0.000000000
0.396458030 0.353446990 0.003036004
0.405566156 0.351675987 0.004807003
0.417077571 0.350410998 0.015686000
0.435293972 0.353446990 0.020240193
0.461606354 0.365717739 0.023782205
0.494749993 0.380138934 0.018975032
0.525363684 0.387603164 0.019228335
0.561796427 0.404680789 0.017330986
0.594180703 0.419354588 0.027451122
0.630866468 0.429854274 0.036432989
0.671853542 0.440480709 0.044023003
0.708285928 0.457937777 0.058444276
0.747375071 0.471726418 0.073371634
0.788867891 0.485895127 0.089057595
0.826439261 0.505250216 0.114484213
0.860341728 0.518785715 0.138899386
0.896014929 0.541049719 0.163693741
0.933712721 0.564705908 0.196837351
0.973181188 0.596584618 0.249968395
0.357874572 0.383807391 0.000000000
0.365464777 0.389879793 0.000000000
0.372422367 0.391651005 0.000000000
0.378494382 0.392916173 0.005059999
0.381404191 0.395572364 0.004553996
0.383301467 0.393675119 0.000000000
0.387855619 0.393674850 0.002024002
0.396205008 0.392409682 0.006072195
0.393928111 0.394686997 0.000759097
0.405313164 0.394686997 0.000000001
0.410120398 0.393169194 0.003035997
0.416192383 0.394180924 0.000000000
0.424541384 0.392283171 0.000000000
0.426818401 0.389626414 0.000000000
0.435926765 0.388361573 0.000000000
0.444402367 0.388361573 0.005060189
0.455028564 0.386843383 0.018721998
0.472106367 0.391144753 0.023529002
0.507147253 0.406704366 0.019228002
0.538266957 0.416824698 0.024541352
0.572422683 0.427451372 0.027957186
0.607843339 0.443643391 0.034029186
0.641492724 0.455913872 0.042757981
0.680961549 0.467805266 0.051612992
0.717394292 0.479190171 0.066034466
0.750790656 0.496014833 0.083997473
0.792915940 0.512207270 0.105249859
0.831372619 0.531435847 0.128525972
0.866666734 0.544338942 0.154332817
0.899051309 0.560784280 0.180392340
0.934977770 0.588994324 0.213915333
0.967109203 0.619355202 0.269703001
0.389373988 0.416065693 0.000000000
0.397343516 0.422770113 0.000632577
0.402783126 0.424541116 0.000000001
0.408855140 0.423908710 0.002530016
0.414927125 0.427324533 0.013156017
0.415433109 0.427830517 0.002024001
0.416698098 0.429095387 0.000000000
0.419354707 0.431751698 0.001012132
0.425553232 0.431751698 0.003795480
0.434661627 0.431751698 0.000759095
0.437950850 0.430107385 0.005818998
0.444276094 0.429854423 0.004427580
0.453257501 0.433016688 0.000000001
0.464642525 0.432763666 0.000000001
0.472991943 0.429727942 0.000000000
0.479064107 0.428463101 0.003668794
0.486654162 0.426312506 0.010879383
0.495762527 0.423908710 0.024161585
0.520050645 0.433017135 0.024161594
0.548007727 0.443010569 0.032510940
0.579633474 0.455155015 0.038456738
0.616951704 0.467299551 0.043137576
0.650095105 0.479696542 0.049715552
0.687539518 0.495382875 0.062871568
0.724730968 0.506008863 0.078304984
0.762302220 0.517899811 0.098545432
0.795698643 0.533586144 0.120303147
0.837823868 0.554711998 0.141681999
0.873750627 0.569259703 0.168247864
0.907273769 0.586210907 0.198102698
0.936116576 0.605439723 0.227198154
0.963441014 0.635800540 0.275775015
0.413662076 0.455534965 0.000000000
0.428842455 0.464642555 0.003036390
0.434661806 0.467045993 0.001518198
0.439215988 0.464515984 0.000000002
0.445288002 0.460721046 0.001011999
0.451359987 0.466793031 0.001011999
0.456925988 0.464769334 0.000000000
0.460847706 0.467172980 0.000000000
0.464895964 0.471220970 0.001012127
0.471094489 0.471220970 0.003795481
0.474383116 0.474130064 0.006578090
0.483491570 0.472612292 0.005819257
0.496268332 0.473497957 0.002530326
0.510183036 0.478304952 0.000000007
0.513219476 0.475268543 0.000000001
0.516761839 0.472232848 0.007210793
0.523086786 0.467932016 0.014294991
0.532194614 0.463377982 0.021125963
0.541303039 0.463377953 0.027198009
0.562808394 0.466919631 0.035547361
0.586717486 0.476407498 0.042758003
0.618090332 0.488552004 0.049589168
0.659203529 0.500949025 0.058823992
0.686527967 0.519165039 0.077040024
0.721695006 0.530297279 0.090196013
0.762302041 0.542188644 0.108412407
0.804807067 0.557875037 0.132447988
0.838203430 0.576090991 0.156735972
0.869702637 0.594560683 0.183427811
0.902340114 0.615812898 0.217836648
0.932827234 0.637824237 0.252751589
0.957368970 0.657053053 0.281847090
0.468564093 0.508918703 0.000000000
0.469829112 0.509677708 0.005819033
0.476407498 0.514484286 0.004554422
0.480708748 0.515116751 0.001518196
0.486021727 0.512839735 0.000000000
0.487286747 0.514104724 0.000000000
0.493358761 0.517647028 0.000000000
0.501075447 0.516761720 0.000000000
0.507147729 0.519797683 0.000000000
0.513219714 0.521821380 0.001012127
0.521947861 0.524731219 0.001265125
0.533079982 0.527767360 0.004301252
0.542568028 0.528526485 0.005060354
0.550411105 0.532447755 0.005060005
0.555977166 0.531941712 0.000000001
0.563820541 0.528905928 0.000000000
0.572169721 0.525869906 0.009487634
0.582542717 0.521695197 0.021884773
0.591651142 0.519544423 0.040860388
0.603542149 0.519544423 0.060847737
0.626692235 0.526375532 0.073751107
0.653004766 0.538646519 0.085515603
0.688172042 0.552435219 0.098292045
0.723466277 0.562682092 0.111195736
0.755344689 0.578621387 0.131689012
0.788488030 0.591524422 0.149525732
0.824541509 0.606198549 0.172422737
0.855661094 0.619861066 0.196710721
0.889057457 0.638077021 0.228969187
0.921315491 0.656293750 0.261859357
0.952055573 0.679443657 0.302087158
0.976344347 0.703352749 0.340797126
0.509171426 0.555977464 0.000000000
0.514863729 0.559772432 0.004174744
0.517014503 0.561922669 0.003795034
0.521315753 0.562428653 0.002024260
0.526628733 0.561796188 0.000000000
0.526628733 0.561796188 0.000000000
0.535483718 0.562428832 0.000000000
0.541556120 0.567109466 0.001644708
0.550411344 0.567615449 0.001138645
0.557621717 0.569512725 0.000000001
0.566603303 0.572549045 0.001897740
0.574066699 0.573687732 0.000126516
0.583554447 0.579000831 0.002024260
0.587349772 0.583048522 0.004048004
0.601644456 0.581404209 0.001265006
0.606325269 0.580898285 0.007589993
0.616951466 0.577862263 0.018216176
0.629095435 0.575458467 0.033396281
0.639468729 0.573687196 0.056419946
0.647564709 0.571536958 0.076028101
0.661606431 0.571536958 0.091587722
0.682859123 0.577609241 0.107779980
0.708791733 0.588235438 0.123971745
0.741682529 0.599114656 0.139658540
0.775838017 0.612777054 0.154839009
