Assets/Resources/EldamarStudio/100 Horror LUTs Pack/LUTs/cube/Zeir LUT.cube
LUT_3D_SIZE 5
DOMAIN_MIN 0.000000 0.000000 0.000000
DOMAIN_MAX 0.903226 0.903226 0.903226
0.003922000 0.000000000 0.062744997
0.070335694 0.014041712 0.081720419
0.249841809 0.045161411 0.124857575
0.436559141 0.129538000 0.191271126
0.671094596 0.236811802 0.283870816
0.008222702 0.125236705 0.110815704
0.111195408 0.130803406 0.131056279
0.264895797 0.166097403 0.160531282
0.442504674 0.220113695 0.222390994
0.690069556 0.306767970 0.312713385
0.143959820 0.311321825 0.234155819
0.193927690 0.315875977 0.227577403
0.315243810 0.334218383 0.251106977
0.476786822 0.370145380 0.300063401
0.713599205 0.453257382 0.379379958
0.286527246 0.538646340 0.354079872
0.323466122 0.550031304 0.361037254
0.421884805 0.558886945 0.376976550
0.566097379 0.574952245 0.411006123
0.754459083 0.645540774 0.477925092
0.535483539 0.817457438 0.595445573
0.559898496 0.816571712 0.588361442
0.622770429 0.820746183 0.609740555
0.721441746 0.830486953 0.633016884
0.835799873 0.839721620 0.677798569
0.002277292 0.021252289 0.143200412
0.069702692 0.022896998 0.154332414
0.236432701 0.083744824 0.195192695
0.419228435 0.167742133 0.256673127
0.663630486 0.251486689 0.340796977
0.018342994 0.118405983 0.177861989
0.117773406 0.141302973 0.192915976
0.255408108 0.178241268 0.228209972
0.428715974 0.233143687 0.279569685
0.676407456 0.313345820 0.356103688
0.148513824 0.312966526 0.275648087
0.206704408 0.317520708 0.281846941
0.313599110 0.333206654 0.298165411
0.471853286 0.373434812 0.338393271
0.704491019 0.456546217 0.410752773
0.288424969 0.537001848 0.391397715
0.325869828 0.545477629 0.393801689
0.426818103 0.554965019 0.411005706
0.561796308 0.573940575 0.436558962
0.754459083 0.639974892 0.513598859
0.541682601 0.814800799 0.599746764
0.558759987 0.808222592 0.603668571
0.623403013 0.816192150 0.619734347
0.720683217 0.827830613 0.647564828
0.833522856 0.840607524 0.683617592
0.000632584 0.020240422 0.302086979
0.090954989 0.036306284 0.307906389
0.245287389 0.095508985 0.315243810
0.420240551 0.171030700 0.358127534
0.664642572 0.264895409 0.432258219
0.035040699 0.157621816 0.316508383
0.130803421 0.163820282 0.313219368
0.258317828 0.190638691 0.328526109
0.428083390 0.244276121 0.369766116
0.670462012 0.319164991 0.456166923
0.164199397 0.313219398 0.356356412
0.216824681 0.324351400 0.367488801
0.338772774 0.366223812 0.404174805
0.480708420 0.392409652 0.433523387
0.702466786 0.461732954 0.495761931
0.304743826 0.539911330 0.469576389
0.335230947 0.547374845 0.478304714
0.429981142 0.561163962 0.488804668
0.568374693 0.578494549 0.514611006
0.753952920 0.644528925 0.567615211
0.538520038 0.810246348 0.640986621
0.547122061 0.804300904 0.642251670
0.621378660 0.812143922 0.657937944
0.724351525 0.825553536 0.684882760
0.835799694 0.835673809 0.716129243
0.000000000 0.063883863 0.499431103
0.125363693 0.088678122 0.498039126
0.290828526 0.137381405 0.497407109
0.453384250 0.198102266 0.502340257
0.668184757 0.271094233 0.567741990
0.065401569 0.200126410 0.487918824
0.165464982 0.209360823 0.495762408
0.308412105 0.230613530 0.500063121
0.462112397 0.267172694 0.518026650
0.681593776 0.329285532 0.575205684
0.196837410 0.361037403 0.523592353
0.244528979 0.367868543 0.524477839
0.358760267 0.383933961 0.534977794
0.501328528 0.408728808 0.553573966
0.711321890 0.459708959 0.610499978
0.297280133 0.556230128 0.580771267
0.347880989 0.553573549 0.581656992
0.436559111 0.574573159 0.599367559
0.604301274 0.618090272 0.642505169
0.764832497 0.654649258 0.673244953
0.530929625 0.806957603 0.718026400
0.556483030 0.811511517 0.723719060
0.622390866 0.815812886 0.738013864
0.721062720 0.833143771 0.746615946
0.837824225 0.844528437 0.778621078
0.064515769 0.155850798 0.792789459
0.204933360 0.169512808 0.779886067
0.383301795 0.202909634 0.782922149
0.580898225 0.254522800 0.782289624
0.749525607 0.321947783 0.776976585
0.123972192 0.261353701 0.781404316
0.228716090 0.266287208 0.777102768
0.398482054 0.292726099 0.779000640
0.576850057 0.323213071 0.779379725
0.753826439 0.375584751 0.784187019
0.202150553 0.431751788 0.769639373
0.271853268 0.434661329 0.784566760
0.421885043 0.446046799 0.778241754
0.593042374 0.467045933 0.790385902
0.762681723 0.500442326 0.789500117
0.367615253 0.636685908 0.797975779
0.402023941 0.634535193 0.793927908
0.495509088 0.634408653 0.799873471
0.630233943 0.642251670 0.801517725
0.788361728 0.665527940 0.809234679
0.550916553 0.818848729 0.827830791
0.570018709 0.823655725 0.830613434
0.628589332 0.824668050 0.831752002
0.724983931 0.836052954 0.844149292
0.855407596 0.859329581 0.869702637
