Assets/Resources/EldamarStudio/100 Horror LUTs Pack/LUTs/cube/Zeir LUT.cube
LUT_3D_SIZE 8
DOMAIN_MIN 0.000000 0.000000 0.000000
DOMAIN_MAX 0.903226 0.903226 0.903226
0.003922000 0.000000000 0.062744997
0.012903451 0.004301451 0.059582997
0.091587901 0.012523903 0.087033898
0.198481634 0.026944643 0.113219641
0.302340388 0.064895995 0.133965805
0.409234732 0.117393985 0.176090986
0.527008295 0.176091284 0.230360284
0.671094596 0.236811802 0.283870816
0.003542452 0.038709544 0.075648546
0.026944641 0.042251997 0.083112001
0.108792000 0.066540092 0.107020542
0.209487736 0.087666094 0.122707449
0.306261986 0.117773533 0.148386732
0.407336980 0.158254102 0.191144809
0.529917717 0.202530026 0.237065449
0.677419126 0.261859834 0.293105781
0.024921093 0.147248194 0.124478094
0.077546000 0.146742642 0.135610089
0.137001991 0.156609997 0.138646096
0.220872998 0.175078735 0.157874733
0.314864099 0.194180906 0.186337888
0.418469191 0.229475185 0.220366731
0.542694271 0.270967811 0.267931998
0.691334546 0.322454154 0.320556819
0.109297641 0.250600994 0.191144988
0.116508275 0.260088265 0.191904098
0.183175072 0.261985838 0.207337350
0.257305652 0.272991627 0.214674279
0.339531839 0.290195823 0.239342451
0.433017284 0.316002637 0.264642388
0.550031602 0.351549536 0.294370264
0.695509255 0.406704813 0.351169825
0.184060797 0.369006991 0.262492180
0.199367553 0.373181611 0.270335197
0.238836274 0.376723468 0.267046392
0.303099275 0.383807391 0.281973392
0.374446183 0.390765369 0.297786176
0.462871641 0.415053457 0.318911970
0.580265760 0.456546396 0.354838371
0.714610755 0.506514609 0.396078557
0.260214716 0.503225744 0.334851742
0.281087965 0.505123436 0.340038180
0.313598841 0.509804070 0.344338715
0.372043073 0.514863729 0.354965001
0.441619188 0.524225056 0.367741913
0.524604499 0.536495447 0.385705203
0.622264087 0.566982746 0.408602029
0.749904871 0.613915443 0.461986065
0.361037254 0.663251519 0.433902562
0.380771518 0.664895833 0.430992991
0.412397265 0.666540384 0.437824368
0.464895546 0.672738850 0.450853556
0.528273225 0.674383581 0.463251531
0.602782726 0.683871269 0.479317278
0.682226539 0.690069556 0.498924255
0.770145476 0.716381788 0.539531946
0.535483539 0.817457438 0.595445573
0.551928818 0.817330599 0.591271400
0.566982687 0.818848729 0.592156887
0.606704593 0.820113599 0.603035986
0.649335802 0.824161828 0.613788784
0.708032668 0.829728067 0.628715813
0.767995059 0.836685359 0.656166732
0.835799873 0.839721620 0.677798569
0.000000000 0.007843000 0.095256448
0.005819450 0.008601999 0.088551998
0.096268095 0.020746451 0.110436089
0.188741282 0.052751638 0.143832639
0.289436728 0.091587797 0.173181370
0.397469729 0.135736734 0.212650537
0.516887963 0.186717540 0.253763586
0.669829428 0.245919973 0.312080830
0.007843000 0.042631544 0.088425100
0.027324092 0.050854091 0.112839989
0.104490638 0.068058096 0.133206993
0.190638736 0.099051543 0.156356648
0.287792534 0.130803078 0.184440553
0.399873525 0.169133291 0.227198184
0.517520547 0.215180084 0.262365550
0.665275156 0.268311232 0.313725531
0.039848093 0.141682193 0.155092001
0.079443544 0.151170105 0.164958641
0.130297527 0.159772098 0.166476637
0.213789091 0.170271754 0.183302000
0.307400525 0.201644644 0.212271079
0.411638021 0.229854643 0.241998985
0.527261078 0.274509847 0.282732487
0.680328608 0.324098468 0.336242616
0.101707987 0.248956278 0.206324831
0.128779545 0.256546557 0.213030085
0.178494290 0.259203285 0.220114097
0.249715373 0.267046183 0.235800177
0.328905463 0.292979211 0.252624631
0.430360615 0.317267269 0.286021382
0.545730591 0.352688193 0.315243661
0.684882998 0.398734987 0.362555146
0.172928289 0.369007200 0.266413867
0.202023998 0.372042984 0.285641819
0.239595190 0.372802079 0.285136074
0.305123627 0.383427918 0.300948977
0.373561174 0.394307554 0.307526797
0.458950162 0.414674014 0.327514201
0.579127133 0.451486617 0.363441110
0.718532801 0.504364431 0.412776560
0.267805189 0.499936730 0.350917190
0.275521994 0.501960456 0.359013230
0.315875918 0.501075268 0.359139740
0.368374646 0.510563076 0.365085363
0.438077122 0.522833765 0.377482295
0.513219535 0.534977674 0.395951897
0.619354665 0.563061297 0.424035430
0.746742368 0.614674568 0.469829470
0.360531092 0.652119100 0.438203841
0.383048803 0.654016376 0.434914827
0.404680371 0.653130651 0.442504466
0.448956102 0.658570349 0.448703378
0.511322021 0.668943763 0.463124633
0.593042433 0.672485769 0.481847048
0.670967996 0.680455744 0.492346823
0.756483197 0.703858197 0.527260840
0.540290833 0.805059791 0.588235259
0.540923297 0.813029587 0.583807766
0.557115793 0.808096170 0.580012560
0.592156947 0.812776566 0.594813406
0.641113341 0.818216443 0.607842922
0.704364061 0.825427055 0.630107403
0.762555361 0.831625521 0.653636575
0.825426757 0.843264043 0.670967937
0.000000000 0.024288097 0.163694099
0.006198901 0.019608000 0.167362556
0.097786188 0.028210098 0.177102998
0.197849646 0.062618896 0.198229089
0.289057195 0.100948893 0.224161997
0.395192742 0.153826639 0.263251185
0.508159518 0.202024087 0.300063074
0.664389729 0.254016817 0.352940917
0.003162904 0.069323450 0.171157658
0.031625543 0.069323540 0.170019105
0.104490638 0.085389093 0.185705200
0.193801537 0.113219447 0.201770738
0.292979002 0.141302839 0.237065345
0.395192921 0.182922438 0.270335197
0.510942400 0.226312473 0.307906270
0.664769351 0.278431535 0.354079634
0.031246094 0.148766190 0.201391086
0.079822995 0.155471548 0.210752994
0.151929095 0.175458282 0.224035263
0.220873088 0.187982097 0.238583535
0.306262195 0.209108204 0.261606395
0.403668731 0.246299833 0.295003235
0.524478316 0.278810799 0.326628655
0.673371494 0.334092319 0.372802079
0.118153088 0.259329170 0.252245188
0.140923187 0.267173082 0.256926179
0.196584180 0.268691093 0.266793519
0.258444279 0.281593740 0.278557748
0.335610539 0.294876844 0.295762450
0.427577257 0.320303470 0.322707176
0.547375321 0.359392583 0.354079366
0.687412560 0.407084167 0.402150720
0.190133184 0.374446183 0.308665186
0.211005643 0.374446273 0.317267418
0.248197272 0.377482563 0.316382080
0.302593529 0.380645275 0.327893734
0.377609283 0.392410100 0.343959361
0.459962010 0.415432930 0.361543328
0.584313631 0.455028385 0.398861378
0.715117037 0.506261945 0.447691441
0.274256706 0.504870713 0.381530493
0.286274552 0.509044945 0.387097001
0.319291621 0.509297729 0.389753342
0.375838369 0.514863729 0.397216976
0.444401920 0.524351835 0.403035939
0.520809472 0.538013577 0.421125710
0.626059115 0.567362309 0.448703259
0.749652028 0.615180373 0.501707911
0.367995083 0.657811522 0.466287106
0.384060711 0.658950210 0.465654522
0.415686250 0.663504362 0.477925360
0.460847497 0.666540325 0.480961561
0.526122510 0.674509645 0.493485272
0.596584678 0.677039921 0.505123258
0.673245072 0.689437151 0.526502132
0.767109275 0.711448371 0.562555254
0.536116421 0.817836523 0.605565846
0.543832898 0.811258733 0.600759029
0.568374276 0.814041495 0.611511469
0.607336879 0.817963541 0.621125937
0.652118802 0.821884751 0.633522928
0.711068630 0.822517455 0.649335921
0.765970886 0.834408641 0.673118591
0.834028661 0.841872275 0.690701962
0.001138644 0.023529001 0.260088265
0.008981644 0.017962998 0.259582639
0.111448549 0.037191547 0.259582639
0.198987991 0.071220994 0.268437654
0.283870757 0.108032994 0.286780179
0.386084467 0.156609997 0.307020873
0.507906616 0.208601922 0.355976909
0.660341442 0.260341823 0.405819178
0.000759096 0.079823002 0.248071164
0.035041183 0.090829000 0.251360089
0.119291730 0.095888637 0.261226833
0.199999824 0.117773645 0.267046273
0.290575266 0.146363094 0.289816171
0.392030537 0.186717451 0.321694821
0.511322260 0.235673457 0.363187760
0.655660689 0.280834913 0.402783066
0.046806093 0.167615101 0.278937191
0.085641734 0.168627650 0.274130195
0.154965192 0.181277633 0.291081637
0.223529726 0.199747100 0.295762450
0.307780057 0.217710286 0.309424281
0.401264906 0.251865745 0.343453765
0.522580624 0.291713923 0.377103090
0.673877478 0.337128431 0.425300151
0.118911989 0.262365282 0.308285624
0.143579841 0.262744814 0.309803724
0.203542084 0.274509639 0.316761643
0.275268614 0.299937010 0.342441291
0.341303170 0.310942173 0.352055818
0.429348737 0.334471971 0.372802198
0.539405286 0.363314271 0.402529985
0.678684413 0.404680252 0.442378461
0.199620366 0.377988636 0.365085185
0.221505389 0.372422516 0.369765967
0.264389634 0.386590838 0.373814076
0.317520827 0.393548548 0.383427858
0.381404161 0.404554009 0.392536163
0.469196558 0.425933272 0.415307045
0.578241944 0.461227179 0.444908351
0.714610934 0.509297788 0.485895097
0.281467646 0.502719581 0.428589374
0.293231815 0.506388605 0.427450925
0.330044121 0.512586713 0.429601640
0.382163376 0.519165218 0.442251742
0.447311968 0.527893603 0.448829859
0.524351656 0.540796757 0.468817115
0.621252179 0.566856325 0.490575790
0.747121692 0.622517288 0.538393438
0.370145530 0.657052577 0.500569284
0.390132815 0.657431841 0.513219178
0.408096105 0.653889954 0.504617214
0.458191186 0.658191204 0.512966275
0.521062791 0.664389610 0.521948218
0.592536151 0.678810894 0.535736561
0.669323206 0.685009658 0.553320646
0.764452636 0.710056901 0.585705221
0.539025784 0.812397122 0.634155571
0.547754407 0.808095992 0.630992651
0.561669707 0.808728814 0.632510841
0.601138592 0.811638415 0.638203621
0.647058725 0.817457199 0.654395998
0.707020640 0.822896898 0.666287184
0.766729712 0.833523154 0.685389042
0.837444603 0.841998637 0.706767619
0.001518192 0.016318802 0.363567173
0.005313092 0.027324386 0.361669838
0.123719007 0.053890090 0.354965091
0.214548081 0.087665997 0.358760178
0.300822198 0.125237182 0.364199996
0.391271532 0.164326474 0.380012274
0.509550631 0.212270886 0.416698188
0.666033924 0.264262825 0.469576001
0.002276998 0.101075098 0.344212741
0.035041284 0.109677181 0.355597377
0.134598076 0.115496539 0.353320390
0.218469188 0.138266638 0.361290187
0.301454991 0.159013182 0.365085393
0.391271532 0.194181189 0.385072857
0.514611006 0.239342257 0.419987381
0.658317566 0.281973362 0.471979797
0.070461899 0.191018194 0.359012991
0.112460449 0.192662999 0.360405207
0.165970996 0.194940001 0.360405087
0.241619617 0.213409439 0.373814166
0.316382110 0.231119379 0.380012482
0.405692279 0.254901916 0.399493992
0.524604619 0.296900988 0.437065274
0.671853483 0.340290815 0.485136002
0.140543833 0.276913643 0.383175254
0.165591642 0.284377068 0.383048385
0.210626185 0.290195823 0.388994455
0.279570103 0.303478628 0.399494201
0.349651814 0.316382289 0.410373271
0.438962817 0.338393271 0.429601640
0.550031900 0.371663451 0.457305372
0.687286556 0.409993619 0.497027099
0.205186367 0.380518556 0.419987381
0.227071196 0.383934200 0.422770619
0.265655071 0.390892118 0.434155196
0.329032183 0.404174477 0.439215839
0.416698158 0.432384580 0.467678577
0.491460919 0.444022655 0.480202198
0.590512574 0.466034263 0.494370282
0.718279421 0.509550810 0.539532006
0.281720757 0.503858030 0.477925211
0.292220175 0.510183632 0.481847048
0.332954079 0.514104784 0.483617902
0.385705143 0.526755095 0.496647567
0.455407888 0.539658487 0.506894350
0.535610497 0.552561879 0.523213387
0.635041296 0.578368247 0.547754884
0.746868730 0.623908699 0.591018319
0.371284276 0.654143155 0.550664008
0.384187102 0.657684922 0.553573728
0.419101983 0.659709096 0.559392571
0.466034293 0.664768994 0.566729844
0.524731159 0.672991812 0.569639564
0.597596705 0.678937495 0.586970150
0.676913261 0.687919199 0.603289247
0.767741859 0.716129303 0.629095316
0.540290952 0.805186331 0.662112653
0.545983195 0.809867144 0.666540265
0.559392750 0.811638176 0.674130380
0.603668392 0.813156188 0.678304851
0.649588823 0.819860935 0.682985425
0.708285809 0.826438665 0.697406828
0.768753946 0.836179614 0.710689306
0.832384765 0.844908416 0.727387607
0.000000000 0.052751735 0.466034472
0.016192088 0.063250989 0.467172921
0.135230988 0.085641742 0.461606711
0.241239890 0.111068897 0.468817115
0.332068205 0.145097733 0.466413915
0.420999706 0.181909725 0.469955444
0.510942698 0.219228283 0.489057750
0.666666806 0.271347225 0.544212580
0.005312995 0.120177031 0.459835261
0.059709024 0.129032269 0.448576659
0.153699830 0.142567903 0.462492019
0.243643016 0.160151631 0.463630676
0.331941634 0.185199529 0.465907574
0.418975472 0.213029981 0.477419525
0.513219535 0.243516788 0.488298714
0.661479771 0.287286639 0.542188287
0.090702087 0.217330739 0.459329724
0.124730922 0.219607741 0.466666639
0.188235447 0.221252441 0.458823562
0.264136732 0.235041291 0.467552483
0.347248644 0.249841899 0.477799058
0.428715736 0.268943727 0.481340736
0.529664934 0.300822377 0.506008983
0.679569662 0.344971538 0.560025334
0.156356364 0.307400644 0.477292806
0.177735373 0.308918536 0.471726924
0.227450728 0.314105093 0.480961382
0.293232024 0.321948171 0.485135823
0.366603106 0.333965838 0.491714358
0.451739371 0.348007709 0.504743814
0.544718444 0.367109269 0.520556450
0.689057350 0.410499692 0.569006920
0.217457369 0.403035730 0.500822008
0.234408721 0.411638021 0.506768167
0.279696167 0.413156033 0.513093054
0.336495727 0.421379179 0.518152773
0.413535655 0.432637632 0.530676961
0.496900707 0.448323727 0.544339180
0.594813108 0.471853018 0.567868471
0.725110471 0.505629420 0.603668451
0.278052002 0.514737725 0.550410748
0.297532976 0.516002417 0.546995878
0.339531839 0.523213089 0.554079711
0.388488293 0.529791117 0.560151517
0.466793388 0.547880948 0.575331926
0.563820481 0.579633415 0.605060220
0.656799495 0.595698953 0.619355023
0.757748365 0.623782337 0.649715364
0.371663243 0.648829818 0.607337296
0.390132904 0.652751267 0.610247016
0.411638349 0.656166732 0.615686297
0.461733282 0.663251340 0.622264326
0.527767479 0.677039981 0.635167480
0.604554415 0.688931048 0.642631292
0.685262561 0.694750249 0.650474250
0.772801757 0.720682979 0.680075765
0.530676663 0.806198537 0.701834142
0.544971228 0.806577802 0.708032727
0.560025275 0.807969570 0.708285749
0.600379527 0.813156188 0.714358032
0.646299660 0.817457080 0.725743175
0.706641376 0.829095483 0.732700706
0.769133329 0.833649576 0.747754693
0.836558998 0.844781756 0.763946712
0.000000000 0.097027287 0.619481564
0.059329573 0.101707697 0.612017989
0.176850185 0.119671084 0.610879302
0.284882993 0.145224646 0.616698205
0.379633188 0.173814192 0.610879242
0.475648016 0.202783287 0.611638546
0.576976597 0.238836288 0.621125817
0.677292883 0.274762958 0.628842533
0.011005538 0.155851007 0.606072247
0.090828992 0.158127800 0.611385405
0.187856004 0.172296092 0.607210875
0.290575355 0.187602639 0.606957555
0.378368109 0.208222479 0.604807079
0.476786762 0.235420540 0.617330551
0.572675109 0.263124287 0.615306973
0.665654719 0.288551807 0.623402834
0.093105897 0.242631182 0.607463717
0.141935527 0.247817829 0.603036284
0.219354808 0.252245396 0.605060101
0.301328361 0.264642566 0.611638546
0.394560307 0.278810978 0.607590258
0.485768527 0.297280461 0.616698265
0.583934546 0.319544375 0.622517586
0.684756279 0.346236557 0.639215887
0.158633932 0.337507993 0.615559876
0.188741282 0.335863292 0.607716382
0.243516982 0.344212651 0.610373139
0.320682943 0.350916982 0.616698205
0.410373271 0.361037254 0.621505082
0.496394664 0.374067008 0.624288261
0.587602854 0.387982190 0.626818478
0.692093670 0.411511809 0.642884254
0.220240191 0.441619277 0.632764161
0.248323992 0.443137378 0.634155631
0.289816290 0.446299762 0.631878495
0.353320360 0.449209630 0.632384598
0.430107296 0.452624977 0.639215648
0.517773509 0.464136899 0.642758071
0.612523735 0.477799118 0.651739359
0.719291687 0.504491150 0.670841098
0.298545033 0.551802695 0.661480010
0.311701477 0.556862473 0.657684982
0.348133981 0.559645832 0.659456134
0.403668731 0.563187599 0.664263308
0.475268751 0.570145249 0.671473801
0.563061297 0.582416236 0.680708528
0.657558501 0.596584439 0.698039293
0.758507252 0.623529255 0.713851929
0.380645275 0.664895833 0.684503317
0.383428097 0.662365496 0.686780691
0.416824877 0.663630247 0.681720436
0.460215181 0.670335174 0.689942956
0.525743306 0.675395250 0.698924303
0.609993756 0.690069735 0.711574972
0.702846289 0.714611292 0.734218836
0.787222803 0.733333528 0.746995807
0.527514040 0.802529693 0.758380651
0.545477450 0.800632596 0.761922956
0.560277939 0.808222473 0.762049198
0.594939828 0.811511457 0.764705777
0.644402325 0.820619881 0.777102947
0.706641257 0.826565623 0.779633284
0.768500924 0.840227842 0.792030275
0.840607226 0.846932590 0.809487820
0.064515769 0.155850798 0.792789459
0.128399506 0.158760250 0.782162786
0.233017057 0.176091075 0.780391812
0.335989982 0.189247444 0.780897915
0.444276005 0.216571838 0.783554733
0.549778283 0.246426538 0.783554733
0.651106834 0.282859087 0.775078714
0.749525607 0.321947783 0.776976585
0.080076054 0.197596520 0.781277597
0.147501335 0.205060065 0.776343942
0.230993196 0.212396905 0.775711417
0.336875290 0.228083715 0.775331855
0.443769634 0.245034888 0.774572849
0.545477450 0.268058002 0.769513011
0.644655347 0.300189704 0.770651460
0.742947578 0.337634474 0.768500626
0.138393357 0.285136104 0.780139327
0.173814088 0.287160069 0.778621078
0.261100829 0.290069818 0.775331795
0.351296723 0.304617286 0.778367639
0.453636885 0.315496266 0.779000640
0.553320706 0.337887317 0.780391812
0.650600672 0.360404730 0.778114915
0.754585683 0.390258998 0.782162786
0.173181608 0.376850277 0.778747797
0.209108084 0.380139112 0.773687303
0.274762899 0.384693086 0.773434579
0.363567084 0.392030269 0.776976228
0.461353809 0.399873257 0.774193585
0.551423192 0.414168447 0.771916509
0.654142857 0.429222077 0.777229488
0.748892963 0.449462265 0.775205374
0.238077179 0.485389173 0.776976585
0.268944025 0.489816517 0.784566939
0.308538884 0.486274272 0.785452485
0.381277651 0.487792373 0.782163024
0.474256635 0.496015191 0.783680975
0.569259524 0.508538902 0.784440041
0.666792989 0.519797504 0.784440041
0.761543214 0.539278567 0.789373815
0.344085544 0.605566144 0.793421686
0.360278100 0.607969880 0.793801248
0.389626622 0.606198609 0.795951784
0.446046621 0.602909565 0.792030513
0.513345957 0.605313361 0.796331465
0.601391554 0.616698265 0.801011860
0.695382535 0.629348397 0.801770747
0.782542527 0.642251551 0.805439591
0.433396727 0.714231193 0.807590306
0.453510076 0.712713540 0.805439115
0.470335364 0.713472307 0.800126195
0.517520368 0.716508508 0.808728516
0.564705968 0.715496480 0.806831121
0.632764220 0.714231312 0.809108198
0.706262052 0.725489974 0.814421058
0.797849417 0.736369252 0.819481194
0.550916553 0.818848729 0.827830791
0.562808394 0.822390854 0.835673630
0.579885781 0.822137833 0.831878603
0.613409221 0.825174034 0.833016932
0.654901743 0.826438844 0.833270013
0.707779467 0.834281921 0.842125416
0.769259870 0.840986788 0.849209368
0.855407596 0.859329581 0.869702637
