Assets/Resources/EldamarStudio/100 Horror LUTs Pack/LUTs/cube/Zeir LUT.cube
DOMAIN_MIN 0 0 0
DOMAIN_MAX 1 1 1
LUT_3D_SIZE 32
0.003922000 0.000000000 0.062744997
0.003922000 0.000000000 0.062744997
0.001771226 0.000000000 0.060594771
0.003795161 0.001265161 0.058823999
0.012903451 0.004301451 0.059582997
0.022011064 0.007337064 0.065655001
0.046299964 0.012902999 0.074256673
0.070335694 0.014041712 0.081720419
0.091587901 0.012523903 0.087033898
0.112839535 0.015559516 0.090069525
0.142820746 0.015686000 0.098924875
0.171157241 0.019733995 0.106008992
0.198481634 0.026944643 0.113219641
0.225553066 0.036053032 0.121821970
0.249841809 0.045161411 0.124857575
0.276533782 0.054269798 0.127893806
0.302340388 0.064895995 0.133965805
0.327261537 0.078304976 0.143073574
0.354586005 0.096521020 0.152181983
0.381910354 0.106388360 0.161290362
0.409234732 0.117393985 0.176090986
0.436559141 0.129538000 0.191271126
0.464010000 0.141935006 0.200758979
0.494370818 0.160151809 0.218975008
0.527008295 0.176091284 0.230360284
0.563187599 0.191271648 0.242251649
0.601644158 0.206451938 0.256926000
0.635041296 0.221631527 0.269069999
0.671094596 0.236811802 0.283870816
0.712840080 0.253763407 0.302593172
0.758380771 0.272865593 0.322959989
0.803921998 0.294117987 0.341176003
0.000885613 0.003036387 0.056672998
0.003922000 0.000000000 0.068816997
0.003922000 0.000000000 0.064516000
0.003036387 0.003795161 0.064389609
0.008349546 0.010373452 0.068311162
0.028083839 0.013409063 0.071727000
0.049841769 0.011385323 0.075268678
0.073371314 0.017583672 0.085009411
0.096141703 0.020113712 0.092346996
0.121947914 0.018595908 0.093105912
0.146110132 0.027451256 0.107779510
0.174193636 0.031878769 0.111068614
0.200379387 0.039089128 0.113978252
0.225553066 0.048450068 0.119291641
0.249841809 0.060341798 0.127893969
0.274130583 0.067046382 0.128526390
0.302340388 0.075522184 0.135483995
0.330297142 0.086148366 0.146109968
0.357621610 0.099557415 0.155218378
0.379379988 0.114990756 0.167109400
0.406198323 0.124604635 0.176470727
0.435546994 0.136622116 0.190259501
0.466793358 0.150916889 0.203542382
0.491334438 0.166223794 0.215939388
0.528526425 0.179885983 0.231878653
0.563441038 0.195698947 0.242504701
0.599620402 0.212017998 0.254901737
0.638076901 0.224667922 0.272106379
0.674130201 0.239848197 0.286907196
0.715876162 0.258570552 0.300316334
0.762302518 0.277166575 0.320430189
0.809993982 0.294117987 0.347248793
0.000000000 0.006072226 0.054901998
0.000885613 0.007337387 0.067046002
0.001771226 0.004300999 0.068437770
0.006831225 0.005566161 0.067425773
0.011891320 0.012903451 0.072738774
0.027830934 0.019481065 0.074003935
0.058064770 0.021758322 0.079190455
0.079063766 0.023655996 0.082226485
0.099810094 0.031498775 0.092852995
0.124351494 0.032637484 0.098419011
0.150916964 0.039089099 0.106514893
0.175205722 0.046173736 0.113598511
0.202403635 0.052245770 0.116002284
0.227956802 0.060594544 0.120050743
0.254142791 0.072738826 0.125363633
0.278431565 0.080075994 0.133712992
0.304238170 0.087666191 0.138267189
0.332700729 0.097406983 0.149146184
0.358506978 0.109551013 0.158254206
0.384566367 0.122327596 0.167995006
0.407716453 0.135610700 0.180138990
0.435800016 0.145983532 0.190512478
0.467805475 0.159772277 0.204301476
0.494117796 0.170904681 0.214421228
0.527640820 0.185957983 0.228842497
0.564326644 0.198102325 0.242631197
0.599241138 0.214295074 0.254522055
0.640354156 0.228083760 0.274383128
0.677166343 0.247185573 0.287792802
0.720683038 0.267678678 0.306515157
0.764832556 0.286653966 0.324225336
0.809614241 0.300569236 0.353320986
0.001265161 0.016698159 0.061227158
0.001265161 0.018469386 0.072106324
0.000000000 0.019734547 0.072232611
0.007589999 0.017963320 0.071727000
0.019734094 0.021379158 0.078178547
0.031878870 0.029601384 0.080835164
0.060468160 0.034914482 0.085895166
0.085642152 0.039595157 0.090322547
0.105376162 0.045667157 0.094117828
0.127134487 0.051739164 0.105249844
0.152941033 0.056546319 0.109044835
0.179506496 0.062618509 0.114358060
0.203795269 0.069829643 0.116255321
0.230993196 0.075775124 0.122327968
0.258317560 0.084882982 0.127387568
0.281973571 0.093485162 0.133965641
0.306515008 0.102340184 0.145604029
0.333839387 0.111448571 0.154712409
0.358760029 0.122960180 0.163820222
0.384566516 0.135104164 0.172928527
0.409993291 0.144718304 0.182668984
0.436306089 0.156863093 0.194813251
0.466919810 0.169133633 0.207084492
0.497659922 0.180518746 0.218469411
0.528020382 0.190386012 0.228336439
0.563061476 0.205439165 0.243390292
0.596963942 0.218595967 0.255534321
0.637950718 0.234535441 0.274509579
0.680202425 0.252498776 0.291587651
0.719924331 0.272991925 0.306515157
0.765844584 0.298165560 0.330423951
0.805313051 0.312207162 0.358127832
0.003542452 0.038709544 0.075648546
0.003922000 0.039468545 0.085136384
0.002530225 0.041239772 0.083491541
0.008728546 0.043010999 0.081593707
0.026944641 0.042251997 0.083112001
0.039089415 0.048323996 0.092220388
0.065275088 0.054775544 0.099178001
0.089436859 0.060847539 0.103605285
0.108792000 0.066540092 0.107020542
0.133080021 0.072612099 0.113092549
0.156989187 0.076533869 0.114104547
0.182922244 0.081593998 0.118152961
0.209487736 0.087666094 0.122707449
0.233523488 0.096774474 0.123213448
0.260594845 0.100063123 0.132194579
0.283871233 0.108285800 0.139278546
0.306261986 0.117773533 0.148386732
0.331182539 0.129285112 0.163061127
0.358506978 0.138393521 0.172169521
0.383048713 0.150284559 0.181657359
0.407336980 0.158254102 0.191144809
0.434028774 0.166729718 0.201264709
0.464263022 0.178747952 0.213282958
0.499936819 0.193421647 0.227957368
0.529917717 0.202530026 0.237065449
0.561543226 0.212776840 0.246553108
0.595066130 0.228083119 0.262365997
0.631498873 0.246299878 0.274509996
0.677419126 0.261859834 0.293105781
0.720682979 0.278810948 0.311575174
0.760531545 0.298165560 0.329664946
0.800000012 0.325489998 0.360024989
0.000506065 0.066033930 0.084756933
0.003542452 0.072105937 0.096900940
0.006072226 0.072864935 0.095635995
0.015686158 0.073370993 0.094623871
0.036053028 0.072612002 0.098292388
0.054269798 0.066539995 0.089184001
0.074004248 0.075142324 0.098292388
0.096774146 0.082099929 0.103605285
0.117520161 0.087413028 0.106641091
0.139152020 0.090828873 0.110056937
0.160530865 0.099809989 0.116128929
0.184313565 0.105881989 0.121188931
0.210246637 0.109676994 0.127261057
0.236559093 0.111954093 0.132321060
0.257811457 0.121062472 0.138393044
0.284882843 0.131561920 0.147374809
0.308159262 0.138646185 0.152941123
0.331182539 0.144465506 0.160531506
0.358506978 0.153573915 0.175205916
0.383048713 0.165464938 0.187096953
0.407336980 0.171916664 0.198734999
0.434661388 0.179506734 0.210372925
0.467299402 0.193927571 0.222390562
0.494623840 0.203035980 0.231498972
0.525743008 0.215432927 0.243896052
0.562555015 0.227956712 0.253636718
0.604048014 0.243137002 0.265781134
0.637570858 0.258443862 0.286653996
0.676660478 0.274003804 0.296141833
0.717647016 0.290954947 0.314358175
0.758001208 0.308285594 0.333712995
0.800000012 0.325489998 0.353953004
0.000000000 0.098418318 0.098924674
0.008096387 0.099430315 0.103478998
0.019734774 0.101201318 0.111322001
0.030613640 0.102466479 0.109297998
0.049841866 0.103352092 0.112080999
0.065907866 0.099430323 0.109424382
0.084123991 0.100948639 0.115496635
0.107021078 0.106768027 0.121315606
0.128399640 0.111954637 0.124351412
0.147880822 0.116761796 0.127387807
0.166603506 0.120556444 0.120682992
0.191903889 0.127640307 0.130803004
0.214421317 0.134850964 0.137887284
0.237318069 0.139278665 0.143706605
0.260847718 0.143833056 0.147501320
0.286907107 0.148133844 0.158380315
0.312713295 0.159898698 0.167615190
0.335610121 0.166603625 0.173940569
0.361037314 0.173814297 0.185325980
0.388108730 0.183175012 0.200253338
0.410499752 0.193421736 0.204807326
0.437191457 0.199747130 0.213409185
0.470461667 0.211764619 0.224035010
0.500189900 0.223276228 0.235547230
0.529791534 0.234661311 0.249209598
0.564326227 0.245413974 0.261606604
0.607084155 0.258823454 0.272359312
0.646552682 0.276028067 0.287539423
0.682732403 0.288678139 0.305755496
0.723972321 0.305629253 0.320177078
0.766856432 0.324730903 0.343327194
0.812650323 0.343200326 0.368121654
0.008222702 0.125236705 0.110815704
0.020620085 0.123592407 0.110562675
0.030740056 0.128526121 0.120682992
0.047185604 0.124730952 0.124224991
0.064642698 0.127008244 0.123845540
0.078557923 0.129032180 0.122580700
0.097912699 0.131056011 0.130170599
0.111195408 0.130803406 0.131056279
0.135483995 0.134598702 0.134092093
0.155471012 0.140670687 0.137128487
0.173687741 0.145477533 0.135104120
0.194687247 0.148892686 0.138519689
0.220872998 0.153826341 0.147248343
0.240607068 0.161669701 0.153320998
0.264895797 0.166097403 0.160531282
0.288298786 0.169133604 0.165844411
0.315623194 0.175205216 0.179506212
0.339405239 0.186590850 0.188867569
0.362681985 0.193675011 0.197975963
0.388108671 0.202530056 0.204427660
0.418216437 0.209993437 0.218342990
0.442504674 0.220113695 0.222390994
0.475141972 0.229981005 0.232257709
0.505502820 0.242125407 0.244402513
0.537507832 0.252624691 0.257179260
0.569260299 0.264769018 0.268184990
0.608222783 0.274636388 0.280329078
0.649588823 0.290575892 0.293611705
0.690069556 0.306767970 0.312713385
0.726755321 0.320809633 0.325995684
0.768374562 0.339911282 0.344212472
0.814674318 0.361163706 0.371537298
0.024921093 0.147248194 0.124478094
0.038583480 0.146489471 0.121441893
0.047944322 0.149778768 0.125995770
0.060088322 0.154333025 0.134850994
0.077546000 0.146742642 0.135610089
0.089690000 0.155091926 0.133713037
0.107906319 0.157621875 0.139278769
0.125616699 0.158127815 0.141682103
0.137001991 0.156609997 0.138646096
0.161290020 0.162681997 0.141682491
0.180518642 0.167995095 0.146236315
0.200759143 0.172042832 0.151043341
0.220872998 0.175078735 0.157874733
0.244908035 0.178621128 0.161164090
0.268690705 0.185199186 0.172296077
0.291334778 0.190385804 0.178747714
0.314864099 0.194180906 0.186337888
0.342821032 0.203288674 0.200252667
0.364453018 0.212397084 0.209361061
0.391524196 0.221505463 0.213156089
0.418469191 0.229475185 0.220366731
0.449335992 0.236812085 0.233016983
0.479695976 0.248703092 0.245161012
0.510056853 0.259582698 0.257305801
0.542694271 0.270967811 0.267931998
0.576849878 0.281467229 0.279570073
0.611259103 0.294117957 0.287666082
0.650727510 0.306514978 0.303099424
0.691334546 0.322454154 0.320556819
0.731815219 0.338140249 0.336242944
0.769133627 0.357368767 0.347248107
0.808602095 0.378621191 0.365464926
0.046173494 0.171536982 0.151802510
0.055281878 0.177608982 0.148766875
0.060341723 0.179000497 0.143579915
0.068690658 0.180645183 0.140923008
0.083618008 0.183175445 0.141682103
0.095762014 0.186211050 0.147754878
0.110436335 0.184440330 0.150917172
0.129158705 0.183301985 0.152561501
0.149146006 0.183934391 0.153826505
0.167362005 0.186970010 0.159898490
0.188740879 0.190132886 0.168753862
0.209866762 0.193295240 0.171536982
0.228842154 0.196331143 0.173055142
0.244908035 0.199873537 0.176344499
0.266160399 0.208981916 0.182416499
0.289943099 0.217963174 0.191144690
0.314104974 0.222264007 0.199999720
0.339784622 0.224541068 0.209361061
0.370145500 0.233649477 0.218469456
0.405692756 0.242757857 0.230360493
0.432131708 0.251866221 0.238203481
0.454901993 0.260847837 0.244654998
0.479695976 0.269955486 0.251233011
0.510056853 0.276027501 0.263377815
0.542694271 0.289183766 0.270967990
0.577482283 0.302719444 0.281467646
0.614294708 0.315369576 0.296774477
0.653763831 0.330549926 0.314990491
0.690575421 0.342947662 0.325110823
0.730802834 0.355344921 0.338267177
0.772169292 0.372928649 0.353194356
0.811638474 0.402909964 0.368500531
0.064515993 0.201644734 0.167488873
0.064895518 0.204806864 0.149905398
0.078304902 0.208728641 0.164073765
0.086907029 0.205692574 0.166097432
0.099557415 0.202530012 0.164073184
0.119291738 0.208095923 0.162554994
0.131435737 0.208601862 0.163567126
0.142947584 0.209234715 0.164579004
0.159139976 0.211258769 0.166856080
0.179506749 0.214294389 0.175078869
0.191903740 0.214420855 0.172422737
0.213156119 0.217457265 0.181530595
0.233269855 0.221631736 0.185325637
0.250727028 0.226438910 0.188868031
0.271979392 0.230234280 0.197596863
0.293231785 0.239342049 0.206072047
0.321568698 0.248450056 0.212144062
0.350031704 0.253257304 0.219101846
0.375837952 0.257811725 0.230486959
0.397849381 0.264136732 0.234029353
0.427956849 0.273118615 0.243896112
0.454269379 0.280202746 0.251992106
0.482479334 0.285641849 0.259835362
0.510056853 0.297279865 0.263630807
0.540417552 0.307906449 0.275775015
0.575964451 0.321062714 0.290069640
0.615433156 0.334218740 0.307274044
0.659709275 0.351802289 0.318279862
0.693864763 0.359012872 0.333839029
0.731814921 0.372422308 0.348766536
0.771410167 0.388361573 0.365085602
0.808855176 0.412650138 0.380265743
0.088804238 0.225933254 0.178621247
0.086780503 0.230993122 0.170524985
0.089436769 0.234028757 0.168121755
0.098291993 0.235799968 0.180518985
0.107020833 0.229727790 0.179380253
0.129917920 0.230866507 0.181277558
0.145604253 0.233902231 0.184819505
0.157748237 0.233902231 0.186464220
0.170272082 0.236559063 0.186843753
0.191524491 0.239595026 0.192156985
0.204047978 0.241745755 0.191651121
0.224288508 0.243769497 0.192662984
0.244402245 0.245667234 0.199493900
0.262871295 0.250221282 0.202783257
0.284123629 0.256799668 0.210120410
0.305376023 0.260594428 0.219228700
0.326628447 0.266666442 0.228336319
0.355471283 0.274762839 0.231751993
0.378368020 0.280582219 0.238330007
0.401897639 0.286401272 0.244149089
0.428842247 0.292473257 0.250980467
0.456293374 0.301455140 0.260088384
0.485515743 0.306767970 0.268943727
0.512840152 0.317014247 0.271979630
0.546489298 0.329158843 0.283870995
0.578241765 0.342694551 0.297406644
0.615433335 0.355471104 0.315876007
0.654901981 0.370651484 0.326502144
0.695888758 0.384313762 0.340923399
0.732827067 0.393927723 0.350790232
0.771410167 0.408855081 0.369765937
0.807843029 0.427830517 0.388361990
0.109297641 0.250600994 0.191144988
0.107400380 0.255534649 0.188108891
0.110942505 0.258317500 0.189373761
0.114990279 0.260088265 0.192283630
0.116508275 0.260088265 0.191904098
0.137760863 0.257811576 0.195699006
0.154459313 0.259835601 0.199494004
0.170271978 0.261226922 0.205060065
0.183175072 0.261985838 0.207337350
0.203668490 0.265022129 0.207337350
0.215053648 0.268058509 0.209614351
0.234155506 0.271094352 0.212777033
0.257305652 0.272991627 0.214674279
0.275015652 0.273244649 0.217963636
0.293611377 0.280582041 0.224035636
0.318279415 0.286021471 0.231372803
0.339531839 0.290195823 0.239342451
0.360784203 0.293864638 0.247185230
0.382036626 0.302466959 0.247691303
0.406072080 0.308791965 0.255534291
0.433017284 0.316002637 0.264642388
0.463377267 0.323086768 0.273750782
0.490955323 0.332195103 0.282606125
0.519291878 0.341302723 0.285641730
0.550031602 0.351549536 0.294370264
0.587349355 0.365085572 0.309550643
0.621758580 0.380265355 0.324225128
0.656420052 0.393042535 0.336369276
0.695509255 0.406704813 0.351169825
0.737381339 0.422391236 0.365591258
0.777735412 0.433649659 0.374319851
0.814674318 0.448323995 0.397849619
0.119671062 0.280961066 0.209867075
0.119164996 0.283744425 0.206325382
0.125363797 0.284883082 0.207590282
0.133207023 0.284883082 0.210626170
0.140291050 0.285136044 0.213156492
0.152435049 0.285136044 0.210120097
0.166097313 0.286907315 0.208855003
0.183681026 0.288805008 0.212650061
0.201138124 0.289310932 0.217710063
0.216318518 0.292346537 0.217710063
0.226185903 0.295382917 0.223276019
0.242631242 0.298165768 0.228589505
0.263883650 0.300316006 0.232637957
0.284883082 0.300822020 0.232890993
0.297027051 0.303858429 0.238962993
0.322580576 0.308791995 0.244528994
0.348640233 0.315117002 0.250854045
0.369639575 0.320936054 0.256799549
0.390891999 0.327008069 0.259835958
0.414927095 0.333080053 0.270715028
0.441366196 0.340796769 0.282859027
0.469197035 0.349652141 0.293232143
0.499683499 0.359013498 0.302719980
0.530170798 0.368374169 0.306388110
0.559013307 0.377735317 0.312207043
0.591650724 0.389626652 0.321947664
0.630866230 0.404301107 0.336875141
0.670335293 0.419481456 0.349019915
0.706894577 0.432005018 0.363567144
0.746616304 0.447691441 0.380012423
0.788109183 0.464263409 0.397596568
0.830613971 0.473371029 0.412777007
0.143959820 0.311321825 0.234155819
0.137887046 0.311321825 0.225047424
0.141682535 0.314105183 0.225806758
0.148387402 0.315243810 0.228842661
0.155597955 0.315623254 0.231498986
0.170651808 0.318532377 0.231372461
0.175205499 0.313472390 0.223276079
0.193927690 0.315875977 0.227577403
0.216318503 0.319164962 0.236938819
0.231498897 0.319670916 0.241998821
0.246679276 0.322707266 0.244907945
0.258570403 0.323719412 0.244528666
0.276027620 0.325490177 0.245667338
0.297027051 0.328146398 0.248070598
0.315243810 0.334218383 0.251106977
0.332194805 0.334850967 0.252371997
0.355977356 0.340670168 0.258191198
0.378368378 0.347880989 0.266666800
0.396963984 0.351296812 0.275015533
0.420999706 0.357368797 0.280835271
0.449082822 0.363440812 0.291967392
0.476786822 0.370145380 0.300063401
0.502719879 0.377229452 0.302719980
0.536116302 0.392409891 0.320935994
0.571157575 0.404047817 0.331435412
0.605692685 0.416951060 0.340923041
0.642757952 0.431119472 0.352308482
0.679443717 0.440733820 0.367235869
0.713599205 0.453257382 0.379379958
0.751170099 0.468943775 0.392156810
0.788614750 0.488045722 0.407337368
0.821505547 0.506767392 0.424921006
0.165844783 0.341682583 0.248829991
0.166982815 0.339278787 0.246932402
0.165211588 0.343579769 0.242125005
0.172043145 0.344339132 0.247185335
0.179253787 0.343200773 0.251359791
0.188361913 0.344212651 0.247311801
0.198229283 0.346868783 0.251739264
0.206198573 0.344085783 0.244275585
0.226691902 0.347880870 0.250348002
0.241872296 0.349525601 0.256419986
0.259455860 0.350031644 0.261985928
0.274636239 0.353067517 0.262997806
0.288298428 0.353446990 0.263756990
0.306767792 0.355217814 0.267804772
0.324984014 0.359139562 0.268690407
0.345603973 0.360404581 0.276533782
0.363820374 0.363440573 0.278051972
0.385705560 0.371030778 0.284756780
0.405692816 0.375837952 0.292093635
0.429474920 0.381656975 0.298418701
0.453763664 0.387729466 0.300695986
0.481087834 0.395825565 0.310815990
0.505882204 0.404933572 0.316887975
0.541555882 0.417836696 0.330549985
0.572675526 0.430739790 0.344212562
0.608855307 0.442884117 0.354964912
0.644782066 0.456040502 0.364579111
0.679317057 0.465148419 0.377862215
0.713092923 0.481720567 0.383174986
0.753573716 0.495635778 0.400632173
0.792536378 0.513219774 0.419101745
0.824414968 0.532953620 0.441872001
0.184060797 0.369006991 0.262492180
0.185578614 0.369006991 0.264009982
0.186463997 0.370904177 0.258823633
0.190259159 0.375711352 0.262112379
0.199367553 0.373181611 0.270335197
0.206578195 0.372042984 0.266540200
0.213662311 0.373054862 0.266033977
0.225933179 0.375964373 0.271600395
0.238836274 0.376723468 0.267046392
0.254016668 0.379759878 0.271600395
0.269070178 0.378368199 0.276154190
0.286780238 0.381910115 0.279696375
0.303099275 0.383807391 0.281973392
0.318912208 0.383807391 0.287539393
0.337128162 0.385578603 0.287539393
0.354711950 0.387729377 0.293231964
0.374446183 0.390765369 0.297786176
0.393927932 0.395572364 0.302087545
0.416065991 0.399873376 0.309045166
0.437065005 0.407463580 0.310562998
0.462871641 0.415053457 0.318911970
0.490196317 0.421125978 0.321948111
0.516255379 0.432384491 0.333333164
0.549904823 0.445920199 0.342694193
0.580265760 0.456546396 0.354838371
0.612017870 0.467299044 0.365591466
0.647818089 0.479823112 0.374699265
0.681214392 0.490954727 0.385831892
0.714610755 0.506514609 0.396078557
0.752055526 0.522960126 0.409740537
0.794940174 0.537254930 0.430992961
0.828969181 0.554206014 0.457052380
0.199873134 0.396457702 0.278937548
0.201138139 0.396963924 0.280708164
0.201770708 0.399999946 0.278937310
0.204933301 0.402403295 0.275521964
0.213662148 0.406198591 0.286147982
0.222517475 0.404174179 0.286147982
0.230360538 0.403035700 0.284882814
0.240101248 0.403415233 0.284250408
0.254016668 0.407084048 0.290069968
0.269197047 0.410120428 0.290069968
0.281467557 0.407337248 0.291714102
0.297659576 0.410373122 0.295382679
0.315875858 0.414800525 0.298292398
0.334092587 0.415053546 0.304617465
0.352308542 0.415433109 0.305755973
0.368753761 0.417836934 0.308032990
0.385452121 0.421126127 0.312333971
0.403668106 0.427198112 0.313598990
0.427956969 0.427198112 0.322707355
0.447311580 0.434282303 0.321948200
0.469955623 0.442125380 0.327767134
0.498672098 0.450853705 0.338899106
0.531815469 0.457052201 0.348007470
0.561669588 0.471220464 0.354585558
0.590385854 0.481846839 0.365211576
0.621126235 0.492220193 0.374699235
0.654522657 0.501834571 0.385325551
0.687918961 0.516887665 0.394813389
0.720682740 0.531435370 0.407969803
0.756988943 0.546615720 0.426692128
0.794307590 0.560910583 0.447311997
0.830740392 0.573054552 0.468564391
0.218089953 0.435926914 0.300190002
0.224161953 0.426818579 0.297153592
0.227577731 0.427324802 0.303225785
0.231625929 0.429095954 0.305755824
0.237950966 0.430487454 0.304364026
0.244022965 0.439595044 0.304364026
0.255407989 0.437571317 0.306894332
0.265401691 0.434788257 0.304490983
0.275016069 0.434534997 0.302467018
0.284377486 0.440480500 0.308286011
0.296647996 0.437697917 0.305376142
0.312840015 0.440733969 0.308918029
0.331056297 0.445667326 0.312460065
0.349273026 0.448450029 0.313725084
0.367488980 0.451486409 0.322833449
0.385704994 0.454269797 0.319165021
0.403668404 0.455787987 0.320177019
0.421884924 0.457558990 0.325743020
0.440100998 0.463630974 0.331815004
0.461606413 0.466413617 0.335357398
0.482605755 0.469955772 0.341682762
0.507400334 0.475522131 0.351043850
0.537887514 0.484377414 0.360151529
0.565211892 0.493485034 0.369259924
0.595066547 0.503099322 0.380392015
0.627957344 0.514990687 0.388361692
0.663631082 0.529159009 0.394433975
0.697027385 0.541302979 0.412649989
0.727766931 0.553699970 0.422137856
0.761922359 0.567868173 0.438836187
0.796837211 0.582163036 0.459203005
0.827704012 0.594307005 0.477672040
0.236306012 0.469829381 0.315876365
0.245161369 0.469070345 0.318405986
0.249083132 0.464262962 0.317520380
0.253384382 0.466034174 0.322201192
0.259456396 0.467172831 0.322580725
0.265528381 0.466666430 0.322580725
0.271600366 0.473244995 0.322580725
0.283238351 0.472612739 0.325363666
0.294243991 0.471474081 0.325743020
0.305376142 0.473498076 0.331815034
0.320176989 0.476407260 0.334724844
0.336369514 0.475395381 0.333712727
0.353447348 0.478811026 0.335989714
0.369513392 0.481594086 0.335736692
0.382669330 0.482100159 0.334724426
0.403289139 0.485135943 0.343832791
0.421884686 0.489690006 0.345730364
0.440733552 0.492852628 0.351169944
0.461100399 0.496774405 0.355091751
0.482099771 0.500063002 0.358380377
0.505249798 0.504996896 0.361416757
0.529411852 0.510942638 0.369765997
0.557748318 0.519924045 0.380518377
0.582415879 0.526375473 0.386969894
0.609740853 0.535483658 0.396078289
0.642378330 0.545983374 0.407716334
0.677798748 0.559266150 0.416445136
0.708918393 0.571410716 0.430107713
0.739658594 0.583554745 0.445667565
0.775331855 0.597469926 0.458570451
0.810119927 0.614421308 0.478684187
0.838582993 0.632258117 0.500695705
0.260214716 0.503225744 0.334851742
0.259835392 0.507020712 0.339785069
0.268437773 0.504870415 0.338772744
0.275268972 0.503099203 0.337507904
0.281087965 0.505123436 0.340038180
0.281087995 0.503605247 0.344591975
0.292852730 0.510056615 0.340797007
0.302213728 0.509550989 0.340797007
0.313598841 0.509804070 0.344338715
0.324604452 0.510942698 0.350410730
0.337760597 0.511954546 0.349778622
0.354965240 0.514863729 0.352687985
0.372043073 0.514863729 0.354965001
0.387476325 0.517394066 0.356736004
0.402909726 0.520683467 0.356989056
0.420366764 0.521189392 0.361669511
0.441619188 0.524225056 0.367741913
0.460847288 0.529285073 0.372801870
0.482099742 0.532321453 0.375837982
0.499557137 0.535357118 0.378874123
0.524604499 0.536495447 0.385705203
0.546869218 0.543580115 0.386717349
0.571410716 0.552561462 0.394180745
0.595698714 0.558633447 0.400252730
0.622264087 0.566982746 0.408602029
