Assets/Resources/EldamarStudio/100 Horror LUTs Pack/LUTs/cube/Zyphon LUT.cube
LUT_3D_SIZE 8
DOMAIN_MIN 0.000000 0.000000 0.000000
DOMAIN_MAX 0.903226 0.903226 0.903226
0.066666998 0.043136999 0.043136999
0.082353003 0.050980002 0.050980002
0.108159095 0.058823999 0.067425899
0.148513645 0.072865002 0.079569645
0.184060797 0.094750188 0.099557191
0.233016729 0.119417734 0.113598995
0.306135297 0.159772292 0.149652004
0.399114609 0.212017640 0.197596803
0.083491549 0.063883543 0.052118547
0.094497450 0.064642541 0.063503996
0.119164996 0.079569645 0.074889451
0.149272650 0.092473090 0.088551998
0.189247355 0.109677091 0.103478998
0.239215523 0.135483801 0.121694922
0.309298187 0.168753833 0.157874554
0.398608327 0.222897246 0.197596803
0.107399993 0.106514998 0.088551901
0.112460546 0.110815637 0.090449445
0.130044177 0.116761185 0.097912900
0.164579183 0.128526002 0.109297737
0.202909291 0.143326998 0.127008185
0.254142731 0.170271844 0.148007467
0.318785250 0.208349094 0.176344275
0.409107894 0.262871742 0.218722314
0.136748642 0.162555635 0.122200996
0.140670642 0.166476637 0.126122996
0.162175998 0.172296092 0.128779545
0.182163358 0.184440643 0.140670642
0.228716195 0.204427183 0.155471340
0.275268734 0.226691723 0.176596642
0.331941575 0.262491912 0.201897278
0.420999587 0.327008247 0.257052809
0.164706007 0.240480989 0.171663374
0.176850349 0.245414540 0.177103192
0.192789197 0.250601083 0.176217377
0.212270990 0.261606187 0.182795629
0.252245396 0.276407152 0.196457982
0.296774000 0.306514949 0.219228193
0.357748479 0.351423472 0.255155087
0.445161164 0.413535982 0.307906508
0.194054261 0.352308452 0.233016729
0.203922004 0.358127713 0.240860239
0.218975440 0.363567173 0.240354165
0.245667547 0.376850098 0.256799459
0.276533991 0.394053996 0.269323379
0.319291741 0.418722451 0.287665755
0.384313732 0.459835887 0.324731261
0.479443371 0.522454262 0.388741523
0.200000003 0.515876234 0.333586276
0.213282719 0.520176828 0.341935277
0.228842273 0.525110722 0.345856994
0.261226922 0.537760556 0.357242197
0.306135446 0.554206252 0.377103269
0.360151738 0.571916103 0.398735017
0.430233836 0.595572293 0.431878567
0.538266599 0.638709486 0.489437103
0.297533393 0.707779586 0.520935595
0.327008367 0.717267334 0.528652787
0.348513395 0.720935583 0.529917598
0.388108760 0.723465919 0.540164471
0.442251772 0.737001717 0.555091619
0.505249321 0.746868610 0.578115106
0.578114986 0.764579415 0.608728886
0.653130531 0.777102709 0.625553429
0.074130453 0.050600551 0.059203450
0.082732551 0.047438450 0.059203453
0.104617454 0.063883543 0.069323547
0.140670642 0.083491646 0.085388996
0.182163447 0.101454541 0.106894352
0.234534919 0.126881793 0.132700533
0.297659695 0.161669552 0.156230256
0.396457791 0.213282809 0.204933643
0.085895449 0.063883543 0.064262994
0.091713995 0.068943992 0.068564542
0.116381638 0.084250547 0.083112001
0.145730183 0.096394897 0.096394897
0.188108996 0.115243092 0.116381735
0.240733728 0.139784738 0.137887090
0.304490983 0.174193546 0.166730002
0.389879644 0.222264349 0.211384982
0.105756000 0.110056639 0.091208540
0.111701548 0.115243100 0.096395001
0.132827535 0.121062547 0.101454541
0.161417007 0.130044177 0.116381742
0.203668192 0.146109745 0.132447988
0.247944549 0.170398533 0.154712364
0.319164813 0.208602116 0.186843649
0.409108073 0.262492180 0.230360687
0.133965999 0.164832637 0.130803093
0.143453196 0.167615294 0.136748552
0.155092001 0.170271739 0.132321090
0.183681533 0.183681533 0.150031552
0.222896740 0.198481739 0.162935093
0.270968080 0.220366836 0.177862182
0.334345281 0.264895916 0.212144285
0.420620054 0.326628715 0.261733115
0.168501005 0.243516982 0.175837830
0.175585181 0.247565195 0.180265993
0.190891549 0.251739532 0.182416081
0.211891443 0.259582549 0.190638736
0.245920181 0.275268793 0.200885639
0.293990821 0.304111630 0.218342990
0.354712069 0.349905282 0.260594487
0.444149286 0.414674342 0.314990491
0.200506181 0.349019468 0.241872281
0.206072181 0.353447020 0.245920286
0.219860539 0.356862634 0.245414540
0.244908452 0.374573022 0.256040275
0.278557718 0.389879674 0.268943727
0.320809543 0.411258906 0.290322483
0.380138814 0.454775244 0.327388018
0.477419615 0.527008176 0.393168807
0.200379550 0.513345838 0.341302991
0.212270990 0.518785536 0.349019557
0.228968993 0.525363803 0.351423293
0.262112647 0.535610199 0.365338266
0.303478628 0.551296473 0.379000813
0.363946736 0.568500996 0.406704545
0.433776259 0.596837163 0.439975023
0.538520038 0.643010974 0.494117767
0.294876277 0.712460399 0.522707105
0.316002548 0.709803760 0.523339272
0.338772953 0.715116799 0.526375592
0.380897939 0.720050275 0.542694509
0.433902413 0.728652596 0.557621837
0.497786045 0.743959129 0.578494310
0.572675467 0.756609678 0.603668153
0.656799495 0.782036841 0.638329983
0.085515901 0.048576999 0.079949193
0.090575546 0.051359549 0.083112098
0.111321993 0.061859999 0.090069897
0.147375003 0.081087746 0.103478998
0.187349990 0.105755903 0.123086996
0.235040992 0.134345353 0.149652094
0.299051195 0.171537280 0.179380089
0.387476146 0.219228074 0.224668071
0.094497450 0.078051552 0.083112098
0.094117999 0.076786995 0.097280003
0.119544543 0.084630094 0.097153991
0.148513541 0.105882093 0.112080991
0.189626902 0.123466350 0.128526077
0.237318173 0.147248283 0.155091807
0.305376291 0.180139288 0.187223092
0.398355514 0.229348540 0.230107650
0.105756097 0.113599092 0.103352092
0.119544551 0.119924098 0.121442094
0.142694190 0.129285097 0.124605000
0.168121651 0.138266742 0.136369094
0.200506091 0.151929095 0.151169986
0.255408078 0.177355722 0.176723629
0.314737350 0.210499480 0.201265186
0.405692637 0.270967960 0.248703331
0.136748642 0.174319640 0.152814999
0.150158361 0.175078735 0.150031552
0.170904085 0.182922438 0.161417097
0.190006644 0.188361645 0.166856274
0.229221836 0.205565825 0.179759637
0.272106528 0.231372729 0.197976083
0.336748868 0.271600217 0.230487004
0.417963445 0.323845744 0.278178394
0.176344082 0.253004283 0.194307193
0.178241551 0.248576745 0.197090656
0.197470099 0.256926060 0.203668386
0.216698453 0.267805308 0.208728626
0.249968275 0.279570073 0.220873177
0.294876516 0.310436428 0.241113186
0.354079455 0.355471373 0.277293146
0.445667386 0.417963356 0.332827091
0.200252742 0.362175703 0.265148640
0.206198812 0.360531032 0.264769167
0.220999181 0.369133651 0.268184751
0.250853986 0.379253805 0.278431535
0.279443622 0.398102611 0.292093456
0.317267478 0.419101685 0.311954618
0.382162988 0.461480200 0.352687925
0.482605934 0.525996327 0.414421260
0.200000003 0.517267346 0.360784441
0.208602101 0.524351776 0.365085095
0.234408796 0.529032350 0.376470447
0.260974288 0.539278567 0.385451913
0.307021081 0.551929355 0.398355365
0.359898627 0.571030915 0.419734180
0.435041279 0.596457839 0.451486379
0.538646162 0.640860021 0.512333810
0.305376410 0.710562766 0.534724832
0.324731141 0.711701512 0.534345269
0.344718426 0.720176697 0.541302681
0.385452390 0.726122737 0.556609631
0.439215541 0.733586490 0.572295725
0.497659326 0.744212210 0.586211443
0.576597095 0.759013295 0.614674091
0.657052577 0.780518651 0.645920277
0.101961002 0.053763356 0.113219641
0.101454645 0.056799639 0.114737540
0.116761185 0.075268902 0.121821545
0.141809002 0.087413348 0.124984346
0.186084554 0.104996994 0.143706635
0.236558974 0.131561995 0.168374375
0.304996639 0.169892579 0.200758919
0.393801630 0.219734147 0.256419808
0.109297544 0.079949193 0.114737540
0.108918093 0.080328643 0.115116991
0.125869542 0.089690343 0.122201093
0.146109745 0.102213636 0.135104626
0.184060901 0.122201182 0.150411010
0.238835976 0.144845083 0.175458476
0.304617077 0.184061006 0.207843021
0.391903609 0.235926598 0.259329617
0.126628637 0.108159095 0.138266638
0.125996083 0.115496546 0.137381539
0.144591734 0.127261549 0.150031537
0.166476637 0.142568007 0.158633739
0.204047844 0.159013182 0.173560739
0.255281359 0.179253474 0.193801537
0.320050657 0.224035084 0.234155282
0.404300958 0.272359163 0.279696614
0.147375003 0.175458282 0.171030641
0.148893103 0.176976174 0.172548845
0.168501005 0.189500183 0.186717629
0.200126648 0.202403635 0.201264992
0.229980737 0.212523833 0.209108278
0.274889261 0.237191364 0.230233982
0.335863262 0.274762988 0.264136642
0.423402816 0.334977448 0.315369755
0.178368449 0.255281389 0.220493555
0.179253280 0.259582520 0.222770542
0.197849631 0.267046183 0.227071270
0.223276272 0.274004191 0.239215627
0.255787551 0.285262644 0.250600994
0.298039347 0.313978374 0.272612184
0.358380646 0.357748479 0.305376261
0.444655329 0.424288154 0.361922801
0.200632378 0.363187581 0.283997446
0.204807013 0.368121207 0.290069640
0.218342736 0.375331938 0.291587800
0.243263736 0.384187460 0.302972972
0.277798831 0.401897639 0.319038689
0.323592484 0.421884537 0.340164632
0.385578901 0.466413587 0.375205815
0.479316890 0.528273344 0.437824190
0.196458012 0.517140806 0.380771637
0.207843199 0.523845911 0.388867855
0.222264335 0.530676663 0.392789483
0.258443981 0.541682601 0.408854902
0.300948739 0.556103826 0.420240253
0.360025465 0.574067116 0.442757636
0.431878537 0.600632489 0.475142181
0.541935205 0.650980294 0.528020561
0.300189555 0.708032966 0.545224369
0.306262016 0.715369821 0.545983613
0.336369455 0.716128767 0.550916970
0.376597017 0.720935583 0.565085411
0.430234015 0.730676949 0.581150949
0.498165399 0.741555929 0.596837461
0.576850057 0.761796415 0.622264206
0.661859393 0.780898213 0.658570766
0.123972192 0.056420192 0.153573811
0.123466350 0.064642638 0.150031656
0.129285082 0.075268902 0.150411099
0.148893192 0.092473000 0.162175983
0.187982187 0.112839997 0.177103177
0.238835976 0.138646185 0.198102385
0.304617107 0.174573094 0.235673562
0.392663002 0.223909169 0.287033617
0.126881793 0.080708191 0.151929006
0.131435558 0.090575546 0.159519434
0.143832743 0.093611635 0.161037445
0.159140006 0.111321904 0.169639543
0.186843544 0.127387643 0.182922453
0.241239786 0.151929185 0.202024192
0.310942471 0.189120635 0.241492733
0.395192802 0.237444595 0.299304008
0.140290990 0.124604993 0.179506987
0.142947644 0.130550355 0.177102983
0.159139901 0.130044177 0.184060991
0.177482530 0.145350754 0.191524535
0.206072196 0.160531178 0.200506091
0.258190811 0.183934271 0.224794269
0.324351341 0.223909006 0.264769077
0.411005646 0.273624301 0.317899972
0.152435347 0.164958835 0.204806730
0.164199546 0.167994753 0.209487736
0.180645436 0.184819892 0.217330724
0.204047635 0.207590088 0.228336632
0.237444803 0.221252441 0.243643180
0.282732487 0.245920286 0.261480361
0.341429561 0.284503698 0.297026902
0.425426990 0.338013738 0.347880989
0.176217183 0.256166995 0.255281389
0.181783810 0.263251185 0.255408168
0.202277094 0.274130285 0.263124377
0.228842378 0.296394855 0.282732397
0.260973990 0.311701149 0.297533393
0.301201522 0.330803126 0.311701179
0.361796200 0.365717977 0.344465256
0.450600982 0.424668014 0.399620533
0.190259263 0.373687714 0.321062475
0.199999899 0.377735704 0.328905553
0.217204094 0.386337817 0.330803037
0.241745532 0.398102552 0.345351160
0.278178185 0.416192204 0.360278159
0.320050746 0.436812282 0.379000455
0.391018301 0.478304565 0.415306687
0.484756172 0.534977674 0.466793299
0.186843902 0.531435549 0.422643483
0.194939658 0.532701015 0.427703917
0.215686187 0.538519681 0.431372643
0.247944534 0.546362817 0.440227807
0.296774268 0.562681615 0.454016268
0.361290455 0.579127073 0.473750800
0.436432719 0.602656782 0.506261826
0.551296711 0.656040549 0.564199626
0.285262406 0.708285570 0.561037123
0.293864220 0.713472128 0.569639564
0.322960019 0.718911827 0.574699223
0.365085214 0.724604547 0.584566593
0.428842753 0.732827425 0.605313182
0.497153759 0.748513341 0.620240331
0.577861905 0.764199793 0.645667434
0.670714498 0.784060419 0.674383223
0.138899729 0.066539995 0.203415468
0.151170194 0.074003547 0.210878924
0.160910830 0.078431003 0.212017566
0.176596731 0.098292254 0.217330739
0.202023983 0.119038284 0.230233982
0.246552989 0.142947733 0.244655728
0.311322004 0.180897996 0.280708700
0.399620712 0.228083715 0.329411626
0.148134187 0.089310803 0.210626289
0.156103805 0.095256448 0.213788792
0.162935093 0.102719806 0.212903067
0.176596820 0.117899828 0.223150104
0.206324920 0.133080080 0.228463188
0.250980526 0.157874554 0.247438475
0.309297979 0.192536280 0.281467617
0.402024060 0.239088997 0.338519722
0.166730076 0.130423740 0.235673368
0.169639334 0.132321194 0.230993181
0.174699366 0.139025837 0.230107456
0.197090447 0.150790542 0.239088818
0.219987184 0.171916544 0.249968722
0.261985749 0.193042442 0.266666859
0.323086709 0.225806743 0.303352356
0.411384881 0.278937578 0.356862634
0.183175087 0.171789825 0.252371728
0.186463997 0.180012375 0.253130734
0.196584374 0.194180995 0.262998283
0.212270990 0.209740371 0.268817037
0.239595264 0.226186097 0.286021709
0.280328989 0.248956367 0.303352624
0.339784980 0.286401004 0.337001830
0.430613548 0.343579859 0.394433647
0.185325727 0.247438371 0.298165649
0.192663088 0.253257543 0.307400167
0.203288734 0.263503909 0.308285981
0.239215806 0.285388827 0.326502383
0.263377786 0.311195612 0.339785188
0.302719712 0.337128431 0.355724126
0.363693714 0.372169644 0.389753252
0.455534548 0.426312596 0.447311997
0.188362002 0.375837982 0.370018721
0.190259263 0.378494740 0.370272160
0.206198901 0.393295228 0.376470566
0.232890904 0.409361452 0.393801451
0.274003774 0.436812341 0.417330474
0.322959721 0.456040740 0.438330472
0.394181043 0.488804728 0.468817174
0.487918794 0.538140297 0.514484286
0.173434705 0.536495805 0.460594714
0.186843723 0.534092069 0.467046291
0.204301357 0.542820930 0.475142539
0.245540932 0.556104004 0.487539232
0.291587710 0.576090932 0.501834273
0.363820255 0.594180822 0.523719430
0.445793837 0.616824508 0.549019575
0.565591514 0.663504303 0.600505650
0.283364564 0.708412468 0.597722769
0.291967124 0.713472188 0.607210696
0.317520589 0.717014372 0.609993517
0.353194207 0.728526235 0.617836773
0.409360945 0.734977663 0.630486906
0.487792611 0.746868610 0.640986621
0.575205207 0.764579415 0.667552054
0.670967638 0.788361669 0.696394563
0.189499989 0.068943709 0.301201552
0.189627007 0.076913290 0.304490983
0.202024087 0.088678189 0.301960647
0.220366925 0.108158998 0.311827898
0.244402200 0.128399894 0.319165081
0.273497730 0.158633739 0.330929846
0.331309021 0.187855706 0.350537270
0.398102492 0.232890800 0.391650796
0.186717242 0.096267991 0.296141535
0.191271290 0.099430993 0.300568998
0.205566034 0.107779637 0.306768179
0.221125931 0.121821634 0.307020932
0.246679202 0.144844905 0.319165170
0.278304756 0.177356020 0.335989803
0.332574576 0.204301283 0.361416548
0.400885314 0.251612991 0.403289080
0.199873477 0.136242896 0.317141175
0.203668386 0.140670538 0.316255271
0.216192275 0.149652004 0.319291353
0.233902544 0.162555441 0.330043793
0.255914181 0.183302075 0.340417355
0.285136104 0.209487736 0.352814645
0.342188388 0.236306176 0.380898386
0.414294809 0.285136074 0.415053993
0.209108293 0.196204931 0.338266909
0.213915095 0.195445731 0.340290636
0.224794179 0.205945373 0.343959749
0.240481004 0.215306982 0.350537568
0.267805278 0.242378324 0.367362201
0.298039317 0.266160548 0.386084735
0.355470985 0.295003295 0.408349276
0.435673773 0.346742451 0.453889728
0.207716897 0.262239188 0.386464447
0.222390652 0.261606455 0.389626652
0.230993077 0.277292997 0.390385628
0.251106828 0.297280341 0.397216707
0.277419478 0.316888362 0.412270755
0.310689569 0.348766834 0.432890654
0.367868364 0.377862185 0.456040531
0.457558692 0.434661806 0.496648014
0.182416260 0.373054713 0.445794016
0.187602714 0.380139232 0.451739252
0.202403709 0.385199457 0.455281615
0.234408706 0.396205008 0.463883877
0.282100081 0.430993110 0.481087804
0.323971808 0.465148449 0.502340019
0.396205276 0.496647716 0.521315694
0.503099203 0.546995461 0.562681735
0.149398729 0.539025545 0.523972094
0.164706007 0.538393557 0.522960126
0.184946194 0.547880828 0.529032409
0.229348570 0.563061118 0.549652219
0.287919194 0.584693432 0.563693583
0.375964731 0.617963254 0.590259254
0.462238818 0.638709843 0.615812838
0.580645323 0.672865093 0.650727034
0.276407093 0.713092566 0.642884314
0.288171709 0.718026340 0.648576736
0.314990133 0.715369642 0.648829579
0.356736034 0.729664564 0.659582496
0.417077750 0.744591653 0.677292705
0.488551497 0.758254051 0.690322280
0.581151009 0.776596904 0.710562885
0.685008943 0.798734725 0.740669966
0.251233637 0.066666998 0.468817234
0.254143119 0.069576465 0.471726686
0.272359163 0.081847124 0.475268573
0.287412971 0.105502836 0.477925390
0.309171349 0.140796989 0.487286210
0.341302961 0.177608982 0.496900529
0.385199368 0.227198094 0.515369892
0.458064437 0.267045766 0.534092546
0.247185349 0.092346981 0.472612411
0.258823335 0.094623558 0.460594267
0.262871355 0.107779637 0.468564093
0.286906898 0.129664823 0.481973231
0.312460482 0.155091912 0.492473066
0.350157887 0.195193008 0.505629063
0.382669061 0.242884204 0.516887903
0.462365329 0.290955245 0.542315006
0.254648894 0.144212201 0.482858717
0.258949816 0.150917172 0.481846601
0.272738695 0.158254102 0.480708569
0.285262614 0.174952537 0.489436775
0.313345969 0.198734984 0.497153670
0.348387063 0.233143643 0.516381860
0.389879942 0.278178453 0.530297399
0.466287136 0.320429891 0.553320527
0.250094980 0.208222657 0.492472857
0.256799340 0.213788912 0.496267945
0.267046005 0.224035278 0.501201570
0.287286460 0.240733624 0.510183394
0.314358085 0.262492299 0.521568537
0.350284636 0.295888662 0.535736680
0.391018093 0.339531720 0.554711819
0.480328619 0.378621399 0.578241348
0.235040978 0.285515368 0.536875427
0.248703003 0.289563179 0.530676901
0.260974079 0.303732187 0.530803025
0.278937489 0.316128969 0.537254751
0.311828166 0.342315018 0.552561402
0.351549655 0.376723588 0.564579189
0.403668523 0.417077661 0.582795739
0.495382637 0.455787361 0.607716680
0.187096626 0.387729287 0.585199177
0.205313161 0.389247388 0.584693313
0.235041171 0.397596359 0.593801320
0.269449890 0.416065812 0.587855518
0.310562819 0.444528639 0.595952034
0.362555563 0.475774556 0.604174614
0.422390908 0.516128957 0.623908997
0.527387440 0.556483388 0.646679342
0.135356992 0.563314557 0.645287871
0.162049085 0.563820243 0.654016495
0.184186906 0.562681615 0.645161331
0.235800192 0.574320138 0.652245164
0.302719533 0.581151128 0.669576347
0.399873555 0.609614253 0.675648272
0.486780405 0.641998827 0.686780214
0.601391733 0.683364928 0.718912005
0.285768420 0.718405604 0.711701632
0.287412643 0.724857569 0.710183144
0.313725382 0.729538441 0.713219643
0.359898567 0.735357404 0.722074211
0.415939391 0.745983362 0.728905737
0.493232191 0.769133449 0.744971275
0.603162467 0.790386021 0.777355850
0.716129184 0.815053642 0.803415358
