Assets/Resources/EldamarStudio/100 Horror LUTs Pack/LUTs/cube/Zyphon LUT.cube
LUT_3D_SIZE 5
DOMAIN_MIN 0.000000 0.000000 0.000000
DOMAIN_MAX 0.903226 0.903226 0.903226
0.066666998 0.043136999 0.043136999
0.099051282 0.056546707 0.062112994
0.163441002 0.085009828 0.088930994
0.248197123 0.129538000 0.121694997
0.399114609 0.212017640 0.197596803
0.101327993 0.097406998 0.081720419
0.120935991 0.109170996 0.089563996
0.180771708 0.124225408 0.112460412
0.265528411 0.168753833 0.150790706
0.406578094 0.252498388 0.212649807
0.151675999 0.202782974 0.146489829
0.176597401 0.207969412 0.150411412
0.219101399 0.226945400 0.172043398
0.303099126 0.271473676 0.201391414
0.431751788 0.369006783 0.275395393
0.197090134 0.385705113 0.254269391
0.219987124 0.401770830 0.261100233
0.264136553 0.420366943 0.280328721
0.338520139 0.460215122 0.318026245
0.489057511 0.551802933 0.410246640
0.297533393 0.707779586 0.520935595
0.340417266 0.721188903 0.529158831
0.416571379 0.726755142 0.546362996
0.523465693 0.754206061 0.585705280
0.653130531 0.777102709 0.625553429
0.081720419 0.051613003 0.073876999
0.100695990 0.058823999 0.081720412
0.165464565 0.092852995 0.107906409
0.245920405 0.140923545 0.153700411
0.390258908 0.216192260 0.219101816
0.099683709 0.098418698 0.095762290
0.127513990 0.111827984 0.107906409
0.177229822 0.136369288 0.130170405
0.265528411 0.173307985 0.166097566
0.399367690 0.258064657 0.238076806
0.152309000 0.201391414 0.160151571
0.177229404 0.209614113 0.176597401
0.218089685 0.226944983 0.182416409
0.302846432 0.271473825 0.223023400
0.428462923 0.372928619 0.299683809
0.208855137 0.394813567 0.279316843
0.218974993 0.392915934 0.281340986
0.262492120 0.418722510 0.299683809
0.336242825 0.457305640 0.332447678
0.488678068 0.549272895 0.422770619
0.305629432 0.706261694 0.529411733
0.333839118 0.716634870 0.536242902
0.411005676 0.723212898 0.556609571
0.515369833 0.746742308 0.586970210
0.654522181 0.779759586 0.639342248
0.108538993 0.057558831 0.134724990
0.120935991 0.070588417 0.135356992
0.166096985 0.096773997 0.149778411
0.252498418 0.146489412 0.190638706
0.396457791 0.222390816 0.264895558
0.127767280 0.104616992 0.144465417
0.141556114 0.114104696 0.153067812
0.180771694 0.137634277 0.169007123
0.265528411 0.184440404 0.211258993
0.408222795 0.263630807 0.290449232
0.162808418 0.205312997 0.212523401
0.181151405 0.220366567 0.224288404
0.229475409 0.250474393 0.243263826
0.305756122 0.286527812 0.273750961
0.434408605 0.376849800 0.350031197
0.193801299 0.399367392 0.321188807
0.214421421 0.409866929 0.327387691
0.262492120 0.428462803 0.341429234
0.337761164 0.467425525 0.380392134
0.495003343 0.561290205 0.470081925
0.285641581 0.710436642 0.550916791
0.322580725 0.712080717 0.561669707
0.401391149 0.726755142 0.578367770
0.517899871 0.752308428 0.617963314
0.670335352 0.783681214 0.667425394
0.154079869 0.069576129 0.225679994
0.166730002 0.079443134 0.232511118
0.198861256 0.112459995 0.242125243
0.267805129 0.154079854 0.267932117
0.399114609 0.232637495 0.341555953
0.170019001 0.119291276 0.241998985
0.180518985 0.130423695 0.244022846
0.211258575 0.152055696 0.257052392
0.277672142 0.193295538 0.279064119
0.408855200 0.270841241 0.365717798
0.189247295 0.209993824 0.293105394
0.213915408 0.224667698 0.301581234
0.240354270 0.258317381 0.318912119
0.304111242 0.297280103 0.350664228
0.440606922 0.379126906 0.426818520
0.182289988 0.409234375 0.400379270
0.203162581 0.426186115 0.415433407
0.249082565 0.459202826 0.439595371
0.351296276 0.499557376 0.480835229
0.504110932 0.569512963 0.547628224
0.276533723 0.712460458 0.607843041
0.314737290 0.719291329 0.619607866
0.385325700 0.734598160 0.633270025
0.507779837 0.753952742 0.654902041
0.673497379 0.788614750 0.704996705
0.251233637 0.066666998 0.468817234
0.265275091 0.075774848 0.474256694
0.297659397 0.122327566 0.484503388
0.346868932 0.188488394 0.498165429
0.458064437 0.267045766 0.534092546
0.257431924 0.129791290 0.478557587
0.269196540 0.139278993 0.481467277
0.299936652 0.173055097 0.490322590
0.350664228 0.233649641 0.515116990
0.465021878 0.307273507 0.550790668
0.254396230 0.249968618 0.517140567
0.260214835 0.258444220 0.511448264
0.298166007 0.285895199 0.528146803
0.357874632 0.343580037 0.554965019
0.484250426 0.412903219 0.587602496
0.156988859 0.423403233 0.595572591
0.196078554 0.428210109 0.603921413
0.280581981 0.458317399 0.606577992
0.379253954 0.516508341 0.621632040
0.539278626 0.585831702 0.664389729
0.285768420 0.718405604 0.711701632
0.305882096 0.725490153 0.706641614
0.387096822 0.740543544 0.726122558
0.517267525 0.776470602 0.751549602
0.716129184 0.815053642 0.803415358
