Assets/Resources/EldamarStudio/100 Horror LUTs Pack/LUTs/cube/Zyphon LUT.cube
DOMAIN_MIN 0 0 0
DOMAIN_MAX 1 1 1
LUT_3D_SIZE 32
0.066666998 0.043136999 0.043136999
0.066666998 0.043136999 0.043136999
0.066666998 0.043136999 0.043136999
0.071727000 0.045667000 0.045667000
0.082353003 0.050980002 0.050980002
0.082353003 0.050980002 0.050980002
0.089943320 0.053510323 0.056040645
0.099051282 0.056546707 0.062112994
0.108159095 0.058823999 0.067425899
0.117267489 0.058824003 0.070461519
0.126375869 0.064642996 0.070588000
0.137507990 0.068690740 0.074635997
0.148513645 0.072865002 0.079569645
0.157369003 0.078937069 0.082859002
0.163441002 0.085009828 0.088930994
0.171916798 0.088678189 0.095002994
0.184060797 0.094750188 0.099557191
0.197975576 0.102593414 0.103225991
0.207083985 0.105629034 0.109297998
0.218975008 0.111448005 0.109803997
0.233016729 0.119417734 0.113598995
0.248197123 0.129538000 0.121694997
0.263630480 0.141555503 0.133712500
0.284882903 0.150663912 0.142820910
0.306135297 0.159772292 0.149652004
0.324604660 0.168880671 0.158506975
0.341809064 0.179000929 0.170651123
0.369133413 0.194180533 0.182795882
0.399114609 0.212017640 0.197596803
0.425932914 0.230233938 0.212776735
0.455534160 0.250221193 0.228842199
0.498039007 0.274509996 0.247059003
0.066666998 0.043136999 0.043136999
0.069702610 0.037064999 0.046173386
0.074003614 0.043516774 0.046173386
0.077039778 0.047438227 0.047438227
0.083112001 0.050980002 0.051359549
0.088424996 0.050980002 0.054016385
0.090955317 0.053510323 0.056546707
0.100695990 0.058190994 0.060468286
0.108918384 0.061859611 0.063630611
0.111195490 0.061859619 0.064389527
0.126122862 0.070588477 0.073244870
0.135483727 0.074762739 0.075648129
0.146615893 0.078937285 0.080708288
0.157621965 0.084756739 0.085895382
0.166476607 0.088045441 0.091967382
0.172549218 0.091714412 0.090828583
0.184060797 0.096268386 0.096521191
0.198608145 0.103225991 0.102593422
0.210120380 0.108665429 0.106261626
0.224794760 0.117267750 0.115116976
0.237191767 0.123592764 0.117773734
0.252245396 0.130550385 0.123719253
0.269576013 0.138772875 0.133839011
0.287919283 0.153700307 0.145857304
0.306894392 0.160531402 0.150411099
0.325995982 0.170271978 0.159898654
0.344338745 0.181530610 0.173181459
0.369133413 0.194180533 0.182795882
0.396457791 0.212017640 0.197596803
0.422896981 0.232005164 0.212776735
0.452498555 0.251486361 0.229727581
0.495003402 0.271473616 0.250094593
0.068817228 0.049588773 0.047437999
0.076154388 0.045667000 0.044022612
0.077039778 0.050347771 0.049209226
0.078051776 0.051865838 0.049209226
0.079569995 0.051739097 0.050980002
0.089184001 0.055281550 0.052245159
0.094876550 0.055661097 0.055281546
0.099557221 0.060341768 0.059962220
0.109930322 0.065654673 0.064262994
0.114105009 0.067046009 0.067046002
0.126502097 0.073624097 0.071473867
0.135610208 0.076660231 0.076533742
0.145730287 0.080708288 0.080708288
0.157621965 0.086527966 0.086274996
0.166729569 0.089563578 0.088551991
0.177735597 0.096900806 0.096015200
0.186843991 0.099936806 0.094497003
0.200126350 0.104743801 0.101075217
0.210752964 0.109298013 0.105629042
0.225680366 0.118153363 0.114231363
0.240860239 0.125363991 0.119544737
0.254269332 0.131435990 0.124604866
0.271220505 0.137760982 0.133712500
0.287413031 0.150917143 0.143833041
0.309930772 0.165718004 0.155597702
0.328146756 0.173181668 0.162808329
0.346868843 0.184566766 0.176217705
0.369512886 0.196710765 0.185325667
0.396457791 0.214167863 0.193295255
0.425553352 0.234155372 0.212017611
0.453257561 0.256293416 0.231498793
0.491967231 0.277039796 0.255281538
0.074383162 0.057431996 0.050980002
0.078431226 0.055660773 0.049968321
0.082353003 0.058696933 0.051233158
0.086148158 0.062744997 0.054775160
0.080455616 0.055534158 0.054395709
0.088171996 0.061606709 0.053510323
0.097786002 0.063883997 0.057305485
0.105123155 0.065907836 0.061986156
0.111195154 0.071220934 0.066540159
0.119797483 0.074256688 0.071600161
0.128020152 0.078937322 0.074762709
0.138646156 0.082226165 0.079064064
0.145856813 0.083364807 0.083238326
0.157875001 0.089310996 0.088804998
0.167994738 0.093358740 0.088804998
0.178241596 0.098671637 0.094750345
0.189120829 0.106008805 0.099304162
0.201897398 0.109677151 0.101201572
0.212270826 0.113346137 0.107906006
0.224415198 0.120683365 0.112966202
0.240860239 0.129158825 0.122074738
0.256040126 0.135231093 0.126122996
0.271347016 0.141429633 0.135104150
0.287666082 0.152435005 0.145350903
0.308412552 0.164326280 0.154205993
0.328652799 0.177988499 0.166350335
0.348892957 0.187602967 0.177482992
0.372422427 0.199747160 0.185831696
0.396457791 0.218469277 0.196078315
0.424288183 0.238456473 0.209740326
0.454649031 0.261479884 0.229221761
0.487665981 0.286148161 0.255028844
0.083491549 0.063883543 0.052118547
0.081214160 0.064262994 0.057432223
0.081340775 0.065654770 0.060974225
0.086527616 0.067299381 0.063503996
0.094497450 0.064642541 0.063503996
0.091461062 0.070714541 0.060468383
0.100695543 0.074636318 0.064642996
0.110815704 0.076913387 0.069955997
0.119164996 0.079569645 0.074889451
0.125236988 0.082606032 0.074889451
0.129158869 0.086021863 0.078178227
0.138266996 0.089057736 0.083238512
0.149272650 0.092473090 0.088551998
0.158381045 0.095256448 0.094370969
0.170398533 0.101075448 0.094497450
0.180139259 0.105502732 0.099683993
0.189247355 0.109677091 0.103478998
0.199620113 0.115369603 0.104237959
0.214800522 0.121442392 0.113345578
0.225173905 0.127894014 0.115622543
0.239215523 0.135483801 0.121694922
0.256040126 0.143579721 0.132194996
0.271220505 0.149905443 0.138393506
0.289184272 0.159266114 0.150284559
0.309298187 0.168753833 0.157874554
0.329285383 0.178873986 0.166350335
0.345477134 0.191397578 0.177862450
0.375837862 0.203542337 0.183934450
0.398608327 0.222897246 0.197596803
0.423782140 0.243770152 0.214547947
0.451612622 0.266414016 0.232258037
0.481973439 0.293738455 0.247438446
0.092599936 0.072991937 0.061226934
0.095635548 0.076027550 0.061226934
0.091207929 0.074256778 0.062239062
0.091714002 0.076028004 0.065274999
0.097533062 0.079822935 0.069575995
0.097533062 0.079822935 0.069575995
0.104617313 0.085894935 0.071600385
0.112586930 0.086527705 0.073497996
0.119164996 0.085262865 0.075268902
0.125236988 0.085642420 0.077925071
0.134218872 0.091587931 0.083744802
0.144338995 0.095129743 0.089310862
0.155344650 0.099303991 0.093106002
0.164453045 0.104364060 0.094370969
0.173561409 0.104364060 0.097406581
0.183175132 0.112586863 0.104743861
0.192283258 0.117647126 0.111827999
0.202656507 0.121189289 0.115622997
0.217836916 0.124478005 0.116381980
0.233017311 0.133333415 0.128272936
0.245287925 0.140037999 0.130802929
0.258443922 0.146615937 0.135863185
0.271220505 0.152941048 0.144465506
0.286400914 0.165085062 0.153573915
0.304364055 0.176723570 0.160910949
0.327261090 0.186970234 0.168374613
0.351043880 0.197596073 0.177988932
0.369765878 0.212649941 0.186970055
0.394813627 0.227450863 0.198355719
0.422137827 0.245414451 0.214547947
0.451106548 0.265907943 0.232763961
0.478937060 0.290702075 0.250474066
0.096647680 0.087160319 0.072865002
0.097153611 0.087666251 0.070335321
0.100189775 0.090701871 0.072485551
0.097786322 0.089690000 0.072865002
0.101328321 0.092473000 0.075648002
0.105629317 0.092473000 0.075648002
0.110689320 0.097532995 0.080708638
0.118152991 0.100315996 0.083744608
0.124984093 0.098924674 0.085389093
0.132827312 0.098924674 0.088425167
0.139278874 0.099683672 0.091840416
0.146363005 0.103731930 0.091840930
0.158633634 0.107906319 0.097533353
0.170271993 0.113725349 0.101960704
0.177103087 0.116002642 0.104996897
0.188614666 0.118405826 0.105629317
0.197849199 0.125743002 0.112839997
0.207589984 0.130423665 0.118279576
0.220872656 0.135357052 0.120177329
0.233523369 0.141429678 0.126249328
0.248703733 0.150537580 0.138393313
0.263504326 0.157242000 0.142947316
0.278810829 0.163440496 0.150663987
0.293991238 0.173181325 0.162175581
0.313725621 0.187602594 0.171283960
0.330803305 0.198608667 0.177608982
0.353574067 0.209234640 0.185072675
0.377862304 0.226438761 0.192156538
0.403921634 0.239088789 0.206451327
0.428209931 0.257811159 0.220366850
0.459708780 0.279443234 0.239595190
0.493611634 0.305375993 0.261100650
0.101327993 0.097406998 0.081720419
0.099683709 0.100695990 0.081973381
0.103478767 0.102846220 0.081593931
0.105249994 0.102086991 0.082099862
0.106008992 0.102086991 0.082479417
0.112080999 0.104616992 0.085009411
0.116508707 0.108032703 0.088424936
0.120935991 0.109170996 0.089563996
0.127767086 0.109930091 0.093358710
0.136875480 0.110815704 0.097280480
0.146363005 0.112460412 0.101960830
0.152434990 0.114484243 0.100948542
0.158507004 0.116381988 0.100189924
0.171916336 0.121189021 0.108032703
0.180771708 0.124225408 0.112460412
0.190005988 0.128905892 0.116381988
0.203668192 0.133459687 0.117900178
0.213029563 0.139531687 0.123845689
0.224161729 0.145603716 0.127893969
0.236305997 0.151675999 0.132068291
0.250348032 0.159645960 0.138646707
0.265528411 0.168753833 0.150790706
0.283111989 0.175711393 0.158127695
0.299810201 0.186337605 0.167235717
0.316255599 0.195066273 0.173813999
0.338899612 0.210246652 0.184313700
0.356356978 0.220366985 0.191397786
0.382542700 0.236305982 0.198608413
0.406578094 0.252498388 0.212649807
0.433775932 0.266666591 0.222896889
0.460720807 0.291460991 0.243390277
0.498672009 0.320303410 0.269955993
0.107399993 0.106514998 0.088551901
0.105123289 0.112586997 0.092346609
0.107020900 0.113472424 0.092473097
0.113599092 0.116508089 0.094244055
0.112460546 0.110815637 0.090449445
0.116634995 0.115749188 0.094624005
0.121695317 0.119291320 0.097406775
0.127008379 0.118279390 0.099430710
0.130044177 0.116761185 0.097912900
0.139152586 0.119797572 0.103984907
0.151928991 0.124351770 0.109297998
0.158507004 0.126628742 0.110056840
0.164579183 0.128526002 0.109297737
0.170904145 0.128779039 0.112081096
0.182542726 0.131815419 0.117141090
0.193042383 0.137254998 0.123213090
0.202909291 0.143326998 0.127008185
0.218089655 0.150031582 0.131941974
0.227451071 0.156230107 0.138266996
0.240101010 0.163061216 0.142314732
0.254142731 0.170271844 0.148007467
0.269323111 0.178621128 0.153826907
0.284376979 0.187729508 0.165591419
0.301328003 0.199241102 0.171030998
0.318785250 0.208349094 0.176344275
0.336622298 0.217077747 0.182036981
0.360910982 0.232764080 0.194687068
0.385198981 0.245414078 0.204301447
0.409107894 0.262871742 0.218722314
0.434661359 0.282353252 0.232384518
0.461479723 0.299051553 0.241872460
0.494876921 0.332448006 0.275268912
0.113472000 0.124731012 0.097659521
0.113472007 0.130803004 0.103731520
0.113345526 0.126122773 0.103225775
0.118658841 0.125110805 0.105376318
0.127640933 0.132068038 0.111701056
0.118532553 0.129032433 0.102593467
0.125237316 0.131435648 0.101708010
0.135736987 0.129538000 0.105123483
0.145224586 0.125869587 0.110056907
0.148260981 0.128905967 0.113092527
0.163187608 0.137760609 0.116255395
0.168120995 0.140543520 0.117394000
0.170651287 0.140670016 0.118406132
0.176976919 0.140923053 0.121189490
0.186084539 0.143959433 0.121189490
0.197723120 0.149399012 0.126249477
0.206704974 0.155471012 0.129285485
0.215054065 0.162175596 0.131941989
0.230234459 0.171283990 0.144086018
0.245161131 0.180265859 0.150410995
0.260214746 0.187349975 0.158254221
0.275395155 0.193548501 0.165211871
0.290448993 0.199873522 0.168627024
0.302593023 0.208981931 0.171663418
0.321821272 0.220493495 0.179380283
0.341429323 0.230993167 0.186843976
0.360910982 0.241872489 0.194687068
0.385198981 0.260088474 0.209867448
0.414800614 0.278052121 0.224794805
0.444781870 0.301581621 0.243517116
0.473244905 0.325743467 0.262365848
0.497912526 0.344591975 0.278304517
0.116634868 0.137127995 0.100948870
0.119544744 0.137380987 0.109929994
0.123845741 0.139151990 0.107399993
0.122833736 0.137381285 0.104870126
0.124731451 0.143200427 0.109044544
0.130803064 0.150284812 0.115116939
0.134344995 0.142188549 0.111068681
0.141429543 0.143706590 0.112333834
0.150284767 0.142947733 0.116382092
0.157621622 0.143833354 0.119418263
0.160658002 0.146869004 0.122453868
0.169765860 0.151929140 0.121442258
0.173813865 0.155091748 0.122833863
0.180139154 0.158633739 0.127640963
0.189247444 0.159013286 0.130297124
0.198355675 0.164452851 0.130297124
0.214548185 0.170524865 0.138393506
0.227577865 0.176596865 0.145224854
0.235926986 0.183427975 0.152814895
0.248324007 0.192536354 0.159392878
0.263377577 0.199746996 0.163567126
0.277545869 0.206831127 0.168627262
0.290954977 0.214800864 0.171663374
0.308665007 0.221125901 0.174699768
0.325363576 0.234788269 0.182289571
0.344591826 0.246173531 0.192789450
0.363314182 0.257305920 0.204427943
0.385198981 0.277925730 0.224415302
0.406830788 0.290828735 0.231625870
0.438203722 0.310310185 0.247817934
0.468817562 0.335357577 0.269702673
0.495129883 0.359645873 0.292978853
0.125742987 0.149272516 0.110056996
0.124731377 0.155344248 0.121188864
0.129918009 0.153320506 0.123592243
0.133459985 0.152055338 0.116255410
0.130803540 0.153193995 0.114357956
0.139911577 0.157368675 0.120176926
0.144465253 0.159392938 0.123213187
0.148892969 0.155218259 0.118532516
0.154585987 0.158633992 0.121189252
0.162428781 0.161163986 0.125490472
0.167741865 0.162049368 0.128526121
0.170778260 0.165085509 0.131562248
0.179127261 0.169260249 0.129664987
0.186970249 0.174826249 0.133712947
0.194307417 0.174826249 0.136748582
0.207463801 0.181656986 0.141429514
0.216572195 0.186211184 0.144465506
0.233270407 0.191144839 0.153068006
0.240733758 0.195825532 0.156357020
0.254395992 0.204680353 0.164452732
0.264642745 0.209993720 0.166729733
0.279570132 0.216951385 0.171663120
0.292852730 0.226059720 0.176849991
0.309170991 0.234028995 0.181783631
0.327387571 0.246932268 0.189373955
0.346995652 0.262112647 0.199873224
0.366350323 0.273498058 0.213029861
0.387602687 0.291714430 0.232764423
0.414927304 0.309044957 0.246806234
0.437950462 0.326502144 0.254649013
0.470588297 0.348640203 0.274762571
0.500189781 0.374826252 0.302087009
0.136748642 0.162555635 0.122200996
0.135990024 0.169386253 0.130929634
0.137128636 0.171030760 0.134471640
0.140670642 0.169133469 0.134092152
0.140670642 0.166476637 0.126122996
0.147501931 0.166476637 0.128399700
0.152688324 0.170145318 0.130297318
0.156862721 0.171536997 0.131815344
0.162175998 0.172296092 0.128779545
0.169006988 0.177988634 0.134851635
0.172802001 0.179379985 0.134598121
0.176850259 0.181404248 0.137634262
0.182163358 0.184440643 0.140670642
0.194054395 0.190512642 0.141176641
0.201012000 0.192283630 0.145097867
0.214294791 0.198355481 0.151675954
0.228716195 0.204427183 0.155471340
0.237824574 0.207463577 0.161543503
0.246932343 0.210499972 0.162555650
0.260468006 0.219101936 0.168627292
0.275268734 0.226691723 0.176596642
0.284377128 0.230740249 0.176596642
0.299430966 0.239722103 0.185199022
0.315622717 0.248829752 0.191271290
0.331941575 0.262491912 0.201897278
0.350411296 0.277672261 0.212397262
0.371157646 0.293358624 0.224541277
0.391777426 0.309171408 0.241492882
0.420999587 0.327008247 0.257052809
0.448956579 0.348133802 0.272106349
0.476786822 0.369386226 0.286527187
0.510436296 0.393422008 0.313851625
0.145603999 0.178494990 0.134345055
0.148893356 0.181530684 0.136875391
0.149526000 0.182163030 0.137507960
0.149526000 0.181910068 0.138014033
0.150031999 0.182163030 0.137760997
0.150031999 0.182163030 0.137760997
0.155345038 0.186717033 0.138014033
0.161417037 0.190006033 0.139911339
0.167489037 0.190765128 0.143200189
0.179633036 0.193801522 0.149272963
0.180897996 0.196837157 0.144212320
0.183175221 0.199620262 0.144212261
0.188741401 0.202656642 0.147501603
0.197849035 0.205693036 0.150791034
0.206957415 0.211765036 0.156863034
0.220366791 0.217837021 0.164579242
0.235800222 0.222643867 0.169892028
0.249968573 0.225679576 0.170651108
0.259076983 0.228715971 0.176723897
0.270462006 0.237065390 0.180265635
0.285894990 0.246173277 0.188235030
0.301581144 0.254775286 0.196837038
0.311068982 0.260974497 0.197343022
0.329284996 0.270082146 0.203668773
0.344971299 0.283491284 0.216065735
0.361796319 0.298924685 0.229854286
0.380519003 0.314358056 0.241999030
0.398734987 0.332574040 0.254143029
0.426818579 0.350790650 0.268690825
0.454902112 0.372295946 0.285894960
0.485389143 0.395951658 0.306767583
0.521821976 0.417204082 0.334092021
0.151675999 0.202782974 0.146489829
0.157747999 0.205819368 0.143453434
0.156736359 0.204554051 0.141682222
0.155598000 0.202150553 0.143073902
0.156357005 0.200506285 0.146742865
0.162175998 0.203415394 0.143832996
0.169766307 0.203415394 0.146363318
0.176597401 0.207969412 0.150411412
0.179633409 0.212017491 0.154332832
0.176597416 0.215053886 0.155344963
0.185831547 0.218089521 0.155598000
0.191017985 0.219101399 0.156356573
0.198734865 0.220872626 0.160530984
0.209993795 0.223909020 0.165970623
0.219101399 0.226945400 0.172043398
0.228209794 0.233017400 0.173308402
0.243137375 0.239089400 0.179759637
0.259456396 0.243896246 0.185072407
0.271220952 0.246931940 0.185831517
0.277545989 0.252751678 0.191903591
0.288677961 0.261353642 0.195445731
0.303099126 0.271473676 0.201391414
0.317140967 0.282226861 0.206451401
0.335356981 0.291334480 0.218595415
0.349019557 0.302719384 0.227197856
0.365971059 0.318279296 0.238962382
0.387097001 0.335357457 0.251106679
0.410878986 0.350790799 0.263251394
0.431751788 0.369006783 0.275395393
0.454901725 0.388994128 0.293485135
0.483617753 0.411764592 0.315875947
0.524857581 0.435420811 0.343200386
0.160151809 0.222264603 0.161037177
0.166223794 0.220493391 0.155597597
0.159392804 0.227830768 0.161163762
0.163188159 0.224541605 0.160404593
0.169260249 0.221126243 0.163061440
0.173308000 0.224161848 0.160025045
0.179506510 0.222264603 0.159645498
0.183681190 0.225553602 0.161037177
0.187476292 0.230866492 0.164832279
0.186337993 0.233902469 0.166476995
0.194813728 0.236938715 0.171283990
0.197849602 0.239974320 0.167236000
0.205439597 0.241492420 0.170271799
0.217078000 0.244275793 0.176090837
0.224035382 0.245161399 0.180012822
0.235546798 0.250600964 0.181277990
0.244655192 0.255155176 0.184313983
0.258317769 0.260974199 0.192536384
0.268691033 0.267551810 0.197849616
0.280075997 0.275774688 0.201011822
0.293738008 0.283744723 0.207083806
0.306894243 0.292852461 0.212650120
0.320556790 0.303605199 0.220240295
0.334218800 0.314990699 0.230107605
0.354712069 0.328652859 0.239974290
0.371410608 0.340923369 0.249082655
0.393168986 0.356609851 0.261226922
0.417456985 0.371790200 0.277166694
0.439088792 0.392030567 0.296520978
0.462112367 0.413788497 0.312207401
0.492852539 0.435673356 0.335483968
0.539911568 0.458443969 0.364326596
0.164706007 0.240480989 0.171663374
0.175332189 0.240480974 0.171663389
0.171537191 0.243010759 0.170271769
0.163188025 0.250853986 0.176850155
0.176850349 0.245414540 0.177103192
0.184440255 0.243896440 0.175205439
0.186970189 0.246426508 0.176217183
0.192789197 0.245288178 0.177735373
0.192789197 0.250601083 0.176217377
0.195066482 0.253636718 0.176976681
0.203921869 0.255154878 0.181403995
0.209993988 0.259708911 0.185451999
0.212270990 0.261606187 0.182795629
0.223149985 0.264263004 0.187729150
0.229221985 0.265528202 0.188235223
0.240100980 0.268817395 0.191904187
0.252245396 0.276407152 0.196457982
0.261353582 0.280708551 0.201897576
0.270461798 0.289816409 0.209234968
0.282353193 0.295888335 0.214294836
0.296774000 0.306514949 0.219228193
0.312966257 0.316635191 0.226312310
0.325237483 0.326375365 0.235294178
0.338773191 0.338519782 0.243010908
0.357748479 0.351423472 0.255155087
0.376217484 0.365212172 0.262871385
0.396710932 0.378368169 0.272359192
0.418975174 0.394560426 0.288551688
0.445161164 0.413535982 0.307906508
0.472738564 0.435041308 0.327387393
0.500569344 0.458443969 0.350031555
0.549019992 0.479696393 0.381024808
0.167868569 0.261227131 0.179633394
0.179886386 0.263630927 0.185705557
0.183175400 0.266034365 0.186590776
0.179000810 0.269702554 0.184187159
0.176343977 0.275015563 0.186843991
0.190259352 0.266666889 0.186843991
0.193421990 0.269576550 0.189373821
0.196078584 0.271726966 0.191777289
0.201897576 0.273118466 0.195066556
0.201897576 0.276154071 0.188994557
0.209361300 0.276913136 0.191650674
0.216445416 0.279696137 0.196078137
0.223782569 0.284756124 0.200379208
0.230107531 0.285009146 0.203668565
0.236558974 0.288045555 0.201770708
0.247438133 0.291714340 0.204680592
0.257684797 0.296521336 0.211005941
0.269196987 0.304364115 0.219481140
0.278304636 0.313472509 0.222517535
0.290196121 0.318279356 0.227704003
0.303605229 0.327008009 0.235041127
0.318405658 0.337887555 0.241492689
0.330550432 0.349905044 0.250601053
0.345224917 0.361543149 0.257178962
0.365591705 0.374320120 0.269449830
0.384693474 0.388362110 0.281720549
0.400885224 0.401012063 0.288804561
0.419228464 0.419101536 0.300948530
0.448071003 0.437318176 0.319038600
0.481467694 0.458570689 0.339152455
0.513852179 0.479190558 0.358001113
0.550284982 0.500442982 0.391397566
0.183048978 0.291587949 0.194813058
0.183048978 0.291587949 0.200885832
0.190765232 0.291840971 0.204807222
0.194813043 0.293358803 0.203541994
0.194560021 0.296267986 0.198988035
0.194560021 0.296267986 0.198988035
0.198355377 0.298039347 0.201518357
0.201138735 0.298039317 0.202909961
0.205186978 0.297533035 0.204680994
0.211005986 0.303478539 0.210247010
0.213915110 0.306514859 0.212903127
0.219481051 0.307273954 0.215939254
0.227830335 0.310056984 0.218089953
0.239215940 0.315369993 0.218848988
0.248323530 0.318406373 0.224920973
0.259582609 0.323845953 0.225426957
0.267172754 0.328146815 0.227451220
0.272232622 0.331688583 0.231625944
0.281341046 0.334724963 0.237697959
0.293231994 0.343833357 0.240733638
0.305376023 0.354332924 0.249715507
0.318785131 0.364453018 0.259329975
0.333586037 0.371157527 0.265781462
0.345730871 0.380265921 0.274889082
0.367236018 0.394181252 0.286021590
0.388488382 0.411891639 0.298418969
0.406958014 0.431372911 0.310056984
0.428210378 0.446552485 0.322200984
0.457178921 0.464642644 0.342314780
0.492852598 0.488172144 0.366856188
0.528273523 0.512333989 0.389879584
0.556357026 0.530803084 0.406578004
0.189880013 0.321947992 0.215559363
0.192662656 0.324731380 0.218848795
0.194813430 0.322580606 0.220620006
0.200126529 0.323213160 0.223023534
0.201644719 0.325869739 0.222264722
0.201644719 0.325869739 0.222264722
0.204174399 0.330929726 0.219734401
0.207210720 0.330929667 0.220620006
0.212523997 0.329411477 0.222138017
0.222644001 0.333459735 0.228210002
0.228589505 0.339405268 0.234155506
0.231625631 0.340417385 0.235167369
0.236938715 0.342694372 0.236306012
0.245541036 0.348260373 0.236559048
0.254649282 0.348766416 0.240101367
0.261353701 0.354205996 0.246173367
0.272738993 0.361796200 0.248450562
0.280834943 0.367362320 0.252119362
0.289943337 0.370398700 0.258191377
0.301834375 0.376217723 0.261480033
0.315876096 0.389121115 0.268311113
0.328905731 0.401138633 0.276534140
0.342567831 0.408981413 0.281088352
0.362681806 0.415433645 0.292852819
0.379379988 0.429095447 0.306514978
0.401264668 0.442884356 0.317773670
0.421378732 0.459456354 0.329538137
0.442631096 0.476913244 0.346236706
0.471853286 0.492093563 0.366350502
0.500442505 0.513725340 0.387602895
0.536748827 0.538266659 0.411132306
0.573561013 0.558380365 0.430107713
0.194054261 0.352308452 0.233016729
0.197090358 0.359139860 0.234155387
0.202023774 0.359772444 0.240733728
0.202530161 0.356736034 0.239468560
0.203922004 0.358127713 0.240860239
0.203922004 0.358127713 0.240860239
0.210246682 0.363187730 0.240227655
0.214926988 0.364326447 0.238835976
0.218975440 0.363567173 0.240354165
0.228842735 0.367741942 0.246426463
0.233269989 0.371789724 0.250600725
0.239215523 0.375711471 0.254522473
0.245667547 0.376850098 0.256799459
0.253004700 0.381910145 0.258064419
0.258823663 0.383554459 0.257811397
0.267425984 0.386464179 0.263251007
0.276533991 0.394053996 0.269323379
0.287413001 0.402529866 0.273371726
0.295256227 0.406831443 0.279443711
0.307147235 0.412650466 0.280835122
0.319291741 0.418722451 0.287665755
0.333460003 0.429854602 0.295762002
0.345856965 0.437444240 0.299936742
0.365338176 0.448829800 0.310310006
0.384313732 0.459835887 0.324731261
